takenoko1/special-research/HandMotion_SimilarSearch_自分用/NewProject/handData/test_key/d4_feature_d3/16.csv
frame,vel_0x_L,vel_0y_L,vel_0x_R,vel_0y_R,posFromWrist_0x_L,posFromWrist_1x_L,posFromWrist_2x_L,posFromWrist_3x_L,posFromWrist_4x_L,posFromWrist_5x_L,posFromWrist_6x_L,posFromWrist_7x_L,posFromWrist_8x_L,posFromWrist_9x_L,posFromWrist_0y_L,posFromWrist_1y_L,posFromWrist_2y_L,posFromWrist_3y_L,posFromWrist_4y_L,posFromWrist_5y_L,posFromWrist_6y_L,posFromWrist_7y_L,posFromWrist_8y_L,posFromWrist_9y_L,posFromWrist_0x_R,posFromWrist_1x_R,posFromWrist_2x_R,posFromWrist_3x_R,posFromWrist_4x_R,posFromWrist_5x_R,posFromWrist_6x_R,posFromWrist_7x_R,posFromWrist_8x_R,posFromWrist_9x_R,posFromWrist_0y_R,posFromWrist_1y_R,posFromWrist_2y_R,posFromWrist_3y_R,posFromWrist_4y_R,posFromWrist_5y_R,posFromWrist_6y_R,posFromWrist_7y_R,posFromWrist_8y_R,posFromWrist_9y_R,posFromBody_0x_L,posFromBody_0y_L,posFromBody_0x_R,posFromBody_0y_R
6,-0.660954,-10.053041,-2.330853,-1.220274,0.0,-15.233711,-23.235694,21.59895,-31.343891,23.863392,-35.445945,14.741604,-37.140918,-12.318443,0.0,-1.048584,11.743323,34.589518,27.535731,46.631243,39.857557,51.912312,49.14619,57.025641,0.0,68.331906,24.37389,90.157986,15.36541,89.022229,7.528691,75.829251,1.585042,56.816266,0.0,5.986714,31.609134,55.144859,49.814563,67.840175,61.846557,75.900296,68.264981,78.394346,1.379505,292.406362,-55.498707,275.84815
7,9.718884,-6.56791,-0.470386,-0.314347,0.0,-21.596294,-29.57856,13.231819,-39.274429,14.683823,-44.723328,3.974327,-47.79768,-27.813492,0.0,-0.019797,14.538888,39.820865,31.691361,52.780819,44.556294,58.710946,54.12068,64.263679,0.0,68.721313,24.411793,90.719765,15.276936,89.68174,7.431061,76.293594,1.492928,57.11491,0.0,6.284722,31.55451,55.144217,49.888392,67.917771,62.025028,75.984252,68.475192,78.525479,11.817473,285.142636,-55.250009,274.837987
8,-3.811867,1.271651,-0.242031,-0.229218,0.0,-17.414017,-28.023193,17.61985,-37.709129,19.832245,-42.697471,8.771942,-45.22879,-21.071113,0.0,-0.322349,14.729511,38.806145,31.922246,52.035022,44.699765,57.514532,54.156334,61.944617,0.0,69.09692,24.393265,90.889469,15.256828,89.943111,7.488876,76.455814,1.598831,57.13266,0.0,6.336519,31.836339,55.476953,50.196033,68.163724,62.312637,76.186683,68.751835,78.707483,8.412197,286.000534,-55.085449,274.195016
9,7.065514,-0.700212,-0.122452,-0.260611,0.0,-25.508572,-33.416336,10.541496,-42.951611,12.399513,-47.691307,1.250244,-49.932072,-32.833237,0.0,0.33439,15.067952,39.693078,32.046364,52.449342,44.594109,58.091218,54.10534,63.622993,0.0,69.262974,24.609123,91.13094,15.369026,90.03812,7.548191,76.379093,1.606167,56.889256,0.0,6.495279,32.08502,55.879146,50.423843,68.583441,62.509201,76.494113,68.943001,78.95851,15.762657,285.054037,-54.922955,273.68812
10,-4.731274,1.265241,0.003754,-0.202381,0.0,-20.420883,-30.594978,15.469288,-39.4762,18.598515,-43.55191,7.480236,-45.202469,-24.233608,0.0,-0.332872,15.374531,38.727783,32.233653,51.571622,44.674373,56.825014,54.012665,62.03823,0.0,69.488147,24.850433,91.208439,15.530124,89.97163,7.593601,76.173534,1.515918,56.461601,0.0,6.677813,32.26296,56.094,50.576885,68.955043,62.616857,76.761036,69.050694,79.247181,11.293711,286.195055,-54.656873,273.361516
11,4.911324,-1.948584,-0.055012,-0.262353,0.0,-27.110722,-34.771832,10.960064,-43.627259,13.453731,-47.825123,3.132831,-49.345608,-31.365853,0.0,0.950141,16.445901,39.267631,33.605142,52.533669,46.127805,58.260057,55.61846,64.710924,0.0,69.717133,24.990063,91.204651,15.540115,89.844635,7.453217,75.786118,1.243984,55.83617,0.0,7.046229,32.204211,56.272113,50.548233,69.322137,62.605717,77.055017,69.098897,79.571902,16.444897,284.173055,-54.472023,273.025747
12,-7.802101,2.24937,0.102345,-0.029097,0.0,-18.527207,-29.050278,18.963352,-37.437676,22.948551,-41.256066,12.924762,-42.419449,-19.268292,0.0,-1.063638,15.770586,37.09514,32.786332,50.982276,45.274414,56.446546,54.628737,61.906431,0.0,69.952411,24.94297,90.912242,15.482288,89.662021,7.342964,75.507511,1.054584,55.374984,0.0,7.156564,32.094234,56.300185,50.418298,69.466287,62.474053,77.161982,69.033133,79.652462,8.89313,286.347587,-54.119344,272.921812
13,1.371208,-1.341132,-0.09129,-0.226846,0.0,-20.323563,-30.245041,17.486423,-38.800736,21.231868,-43.029373,12.352237,-44.512345,-21.700173,0.0,-0.964085,15.616716,38.221961,32.734757,51.858527,45.321924,57.520508,54.953914,64.269742,0.0,70.159538,24.800114,90.80761,15.363934,89.50724,7.262123,75.38205,1.008362,55.149113,0.0,7.429439,31.962791,56.595204,50.324561,69.975604,62.397939,77.510599,68.993686,79.898611,10.456393,284.892976,-54.018579,272.581487
14,-8.206089,2.351764,-0.143589,-0.202875,0.0,-8.367028,-24.811535,26.26696,-33.328881,31.258255,-37.381279,22.504371,-38.549824,-9.194104,0.0,-3.556861,13.714939,35.080705,31.306298,49.729052,44.415552,55.332593,54.3692,60.977272,0.0,70.395481,24.576027,90.660633,15.193726,89.537579,7.169495,75.5285,0.9902,55.244202,0.0,7.667796,31.811763,56.716828,50.270035,70.048223,62.413649,77.674263,69.040592,80.088346,2.383547,287.096487,-54.028925,272.230359
15,-2.612,3.811853,-0.306908,-0.149559,0.0,-4.649826,-22.115524,30.078736,-30.39846,34.405358,-34.689228,25.822243,-35.832996,-13.629398,0.0,-9.947226,10.279221,31.804871,27.788377,46.767897,41.022244,52.315727,51.157808,57.473393,0.0,70.711567,24.412022,90.721012,15.150593,89.751355,7.312111,75.965779,1.329357,55.827187,0.0,7.60975,31.678628,56.715197,50.199997,69.929476,62.410919,77.790773,69.059734,80.144044,-0.129318,290.743732,-54.236698,271.916192
16,-6.412365,3.570705,-0.224853,-0.126082,0.0,5.638996,-17.169193,37.805569,-24.92395,41.94064,-28.627498,33.073117,-29.000713,-7.172001,0.0,-11.683882,7.940436,29.252665,24.708464,44.235785,37.581597,49.30884,47.464738,54.208254,0.0,70.832554,24.18227,90.783039,15.05294,89.891567,7.474365,76.502666,1.783195,56.582474,0.0,7.491671,31.66177,56.737007,50.273233,69.727639,62.552858,77.82791,69.207367,80.201188,-6.471234,294.145,-54.391102,271.620673
17,-0.484863,0.397228,-0.347042,-0.152536,0.0,10.215981,-16.152935,38.695576,-24.455372,42.679882,-28.547379,32.505672,-29.005257,-9.714478,0.0,-10.350357,5.734205,26.687849,23.234037,42.504587,36.990214,48.332715,47.859163,53.407067,0.0,70.891205,24.151577,91.063865,15.080749,90.043647,7.679077,76.877151,2.22163,57.225494,0.0,7.352671,31.744961,56.66534,50.401538,69.556232,62.718868,77.858316,69.364757,80.202757,-6.91218,294.370259,-54.694227,271.296168
18,2.637474,-0.009633,-0.168206,-0.053044,0.0,6.776814,-18.807014,35.603863,-26.882927,39.554524,-30.496342,29.653828,-30.501881,-15.816444,0.0,-9.474329,5.876429,27.123622,23.070485,42.615688,36.615697,48.387487,47.297074,54.226668,0.0,70.854836,24.360775,91.091263,15.298886,90.072533,7.895474,76.859162,2.425942,57.291172,0.0,7.08234,31.845886,56.442569,50.448889,69.233229,62.761044,77.738125,69.411601,80.08453,-4.225473,294.226924,-54.8132,271.109422
19,0.590824,-2.098415,-0.018825,0.101185,0.0,5.195812,-19.515804,34.921875,-27.787182,38.024597,-31.631916,27.7817,-31.920444,-18.69009,0.0,-9.25404,8.14609,29.246712,25.322436,44.221002,38.586042,50.180373,48.752062,56.70402,0.0,70.813442,24.492783,91.020115,15.48864,89.977718,8.129723,76.862423,2.681168,57.512432,0.0,6.675701,31.832411,56.15086,50.409986,68.819204,62.763748,77.382059,69.503658,79.758524,-3.585165,292.016534,-54.782541,271.098632
20,0.208088,-2.408476,-0.066181,0.060725,0.0,6.259644,-20.017799,34.1815,-28.720081,37.698086,-32.407619,26.572895,-32.706219,-13.305851,0.0,-5.114453,8.76636,29.785336,26.832271,44.981544,40.896607,51.761814,51.831876,57.7972,0.0,70.67585,24.616207,91.055694,15.586979,89.961296,8.188591,76.638611,2.691902,57.2948,0.0,6.410162,31.901325,56.031188,50.455002,68.696592,62.804603,76.988524,69.590738,79.363247,-3.339901,289.527986,-54.811546,271.079285
21,8.642567,-3.730157,-0.087914,-0.021514,0.0,-7.072232,-28.119519,23.96466,-37.32209,27.905754,-41.03579,17.507103,-41.352654,-24.211521,0.0,-1.839545,11.172934,33.478035,29.695082,48.003239,43.92187,54.886113,54.965326,61.875716,0.0,70.669922,24.82481,91.018158,15.805413,89.929642,8.344494,76.445549,2.714962,57.088005,0.0,6.305928,31.908649,55.910527,50.392918,68.534349,62.737888,76.722615,69.565767,79.103958,5.34161,285.718461,-54.860516,270.978403
22,-0.09541,-3.121471,0.015667,-0.071569,0.0,-9.718975,-29.004352,23.963002,-37.860901,27.405178,-41.48442,18.356152,-42.055137,-21.433857,0.0,-2.83075,15.312682,37.354294,33.617085,51.249038,47.264408,57.699116,57.329663,65.045908,0.0,70.695912,24.880394,90.767338,15.886631,89.810703,8.367714,76.333523,2.615936,56.999874,0.0,6.390205,31.816147,56.108228,50.277655,68.471624,62.651178,76.573092,69.531347,79.029919,5.290386,282.547417,-54.800663,270.857261
23,-9.270504,3.459999,-0.061889,-0.155672,0.0,3.789071,-19.483749,33.857186,-27.919452,38.216652,-31.844284,27.115197,-33.046325,-7.386428,0.0,-3.822054,11.451244,32.33716,30.078194,47.832981,44.757032,54.642483,55.811727,59.436526,0.0,70.780139,24.915515,90.808994,15.905033,89.925121,8.338565,76.628391,2.518592,57.245155,0.0,6.542765,31.753247,56.076944,50.300193,68.284544,62.735923,76.472364,69.629085,79.005428,-3.935332,285.974117,-54.817766,270.66829
24,6.247879,-0.837014,-0.20501,-0.236702,0.0,-4.697811,-23.933635,27.520523,-32.648037,31.45681,-36.874271,21.065346,-38.203434,-15.19741,0.0,-2.369895,11.029117,33.215509,29.491478,48.483002,44.156855,55.258591,55.633082,60.858909,0.0,70.896298,24.907963,91.005055,15.819832,90.10088,8.207588,76.784489,2.370483,57.20921,0.0,6.67911,31.623349,56.048762,50.226538,68.320594,62.687092,76.470327,69.572966,79.002403,2.376863,285.128248,-54.95846,270.422733
25,-3.273136,-1.121906,-0.078518,-0.066653,0.0,-0.576965,-20.702831,30.287533,-29.386116,34.285939,-34.12651,25.066349,-36.364116,-9.090088,0.0,-3.765009,11.930117,33.961084,29.957335,49.319547,44.409933,56.229567,55.712481,62.354096,0.0,70.878616,24.868138,90.905663,15.769066,90.094574,8.145229,76.963623,2.303776,57.243279,0.0,6.772105,31.394736,56.084021,50.018574,68.243986,62.486131,76.590888,69.359026,79.264693,-0.840163,283.992347,-54.980868,270.342085
26,-2.988189,-0.316508,-0.091804,0.026824,0.0,2.503131,-17.751687,33.11436,-26.443772,37.311458,-31.540638,28.088275,-34.294568,-3.252583,0.0,-5.636788,11.388171,32.90141,29.864598,48.913563,44.773507,56.328528,56.442334,62.198275,0.0,70.875457,24.742355,90.969726,15.637836,90.215034,8.034633,77.181038,2.267372,57.369861,0.0,6.694449,31.188972,56.128778,49.888763,68.229685,62.375128,76.562335,69.243528,79.403904,-3.774375,283.667583,-55.018695,270.360653
27,0.400783,2.360817,-0.271386,-0.096553,0.0,3.183117,-17.84214,33.43673,-26.541504,37.661316,-31.62862,28.038185,-34.153358,-5.530804,0.0,-9.424929,9.071296,30.798277,27.645536,46.785298,42.61591,54.302769,54.445931,60.490605,0.0,70.861817,24.999241,91.36995,15.802483,90.341698,8.082814,77.197587,2.193741,57.154679,0.0,6.479001,31.275336,56.145105,49.977227,68.356138,62.37934,76.680254,69.166711,79.5494,-3.323839,286.018096,-55.240328,270.253796
28,-0.802471,-0.139853,-0.218891,-0.0669,0.0,3.02932,-17.724472,33.721516,-26.185112,38.10886,-31.227196,30.087833,-33.648331,-2.974102,0.0,-12.769886,11.085027,32.679529,29.274697,47.667762,43.342812,54.505693,54.099759,61.456098,0.0,70.898609,25.078411,91.616169,15.828301,90.461254,8.054776,77.101216,2.111698,56.772526,0.0,6.25565,31.305013,56.496094,49.93615,68.855661,62.234325,76.966763,68.983768,79.794821,-4.08494,285.875801,-55.417849,270.184454
29,-1.332527,-0.224438,0.184296,-0.872373,0.0,2.876987,-17.218106,35.457561,-26.001469,39.973903,-31.391762,31.878605,-34.251915,-1.836216,0.0,-14.097582,11.599963,33.853182,29.900167,48.554658,43.736792,55.01238,54.202684,61.551601,0.0,70.347851,25.290379,91.230137,15.854095,90.041027,7.701714,75.971317,1.255829,54.730934,0.0,6.437048,31.790952,58.103173,50.237517,70.895969,62.260063,78.584957,68.80925,80.700526,-5.405473,285.642085,-55.221559,269.302803
30,7.313038,1.7794,-0.008331,-2.947421,0.0,-9.388756,-23.331883,26.526237,-32.634293,25.139648,-38.046936,13.382755,-40.322537,-21.307068,0.0,-15.233048,9.809634,32.222921,28.15389,45.930488,41.779477,52.02571,52.262634,59.632348,0.0,69.992649,25.720962,90.27911,15.939125,88.92651,7.117813,73.893619,-0.122063,50.976768,0.0,7.49708,32.018811,61.518428,50.115275,74.347792,61.960783,81.138534,68.482528,82.306481,1.911066,287.417817,-55.226389,266.351714
31,-2.080376,-3.006813,1.437423,-5.830116,0.0,-7.904537,-22.065525,16.68552,-30.035442,11.037792,-34.331062,-0.997616,-35.624691,-27.242477,0.0,-16.00625,13.647582,32.359736,31.238941,47.060829,43.794109,54.483772,52.842706,61.364003,0.0,67.120915,25.747181,84.38197,15.735901,77.823143,5.931359,59.035172,-2.752773,35.826508,0.0,9.407008,30.845257,65.348114,48.71795,80.28549,60.812707,86.304413,67.643612,84.775325,-0.170866,284.416682,-53.790522,260.527276
32,3.78273,-2.921375,2.259945,-2.16492,0.0,-19.283398,-25.101906,-7.36187,-30.568062,-14.887905,-32.706528,-22.444096,-32.26482,-37.61039,0.0,-19.895488,14.841218,33.336356,31.993605,48.584755,44.470511,57.529759,53.578968,64.916937,0.0,56.771359,28.736882,66.302193,20.554287,55.695946,11.208584,38.288613,1.840931,21.109463,0.0,19.63563,30.485005,69.84699,44.403363,81.192196,53.682832,83.9361,58.344864,80.46464,3.582836,281.654784,-51.559605,258.521833
33,8.768028,-6.253007,-2.755943,-16.988514,0.0,-36.837032,-31.60104,-36.472458,-34.779007,-45.816352,-34.284736,-48.960743,-31.261139,-53.925819,0.0,-12.740345,18.943026,37.445327,36.033638,53.326643,48.267333,64.062866,57.069669,71.548609,0.0,54.797768,28.596233,55.934429,20.119377,43.47789,10.327377,26.848812,0.286892,13.308071,0.0,21.443534,26.745128,62.672308,35.863787,70.367879,41.737684,70.836553,44.217123,65.603563,12.298833,275.796279,-54.367579,241.927821
34,1.107445,-2.556393,-6.299664,-28.980074,0.0,-42.77362,-30.681988,-57.832374,-30.609833,-68.286003,-27.154278,-67.334312,-21.408039,-58.243446,0.0,-8.587852,20.760056,37.756104,37.732948,54.720301,50.066049,67.152462,58.603352,73.870635,0.0,53.908265,27.871102,46.2491,19.142006,32.351361,9.43182,17.27393,-0.539348,7.03061,0.0,21.099844,19.990399,52.024759,27.848497,58.808166,33.544133,59.258524,36.703432,54.76339,13.28809,273.804167,-60.785431,213.512028
35,2.621361,-6.537121,-5.416431,-29.278704,0.0,-50.202965,-32.098,-78.678326,-28.995369,-85.041756,-22.896057,-76.299717,-14.900128,-58.201103,0.0,-1.656479,26.495571,43.506834,43.305824,61.799047,55.282057,75.430574,62.955002,81.670947,0.0,48.758789,26.743298,35.390202,17.977535,19.017197,8.190479,5.511234,-1.940174,-0.531052,0.0,15.234672,9.479886,31.64356,10.97763,33.95079,12.079733,32.229324,12.300805,26.42318,15.766983,268.069073,-66.34433,185.035351
36,3.52169,0.041003,-6.381042,-37.804825,0.0,-59.335888,-33.408611,-90.605953,-28.628746,-93.984112,-20.876175,-80.723053,-11.389023,-59.408283,0.0,4.364803,25.46687,45.732589,42.547874,63.736255,55.057396,76.939543,63.300125,82.794359,0.0,42.386123,23.527393,25.888927,14.057155,13.086113,4.224655,4.46672,-5.484204,1.126728,0.0,4.883698,-1.065534,11.60415,-4.400267,8.012338,-6.635397,3.909035,-8.133122,-3.396248,19.042322,269.12617,-72.971723,148.24662
37,2.49131,-3.275526,-7.97247,-50.654722,0.0,-63.381637,-34.208622,-93.770828,-29.390064,-97.024234,-21.509845,-83.663601,-11.801124,-61.890071,0.0,14.910723,28.320023,49.634326,45.756215,67.485765,58.195687,80.448202,66.08886,85.597606,0.0,42.822865,15.016628,27.339844,3.484703,16.654633,-6.964782,8.682553,-15.98996,1.167412,0.0,-13.580335,-15.79339,-18.720347,-17.794437,-18.364652,-17.546429,-16.841603,-15.671908,-18.710072,20.997505,266.778718,-81.48032,98.519972
38,-0.09304,-0.637549,-4.364113,-40.104817,0.0,-64.202065,-34.11779,-94.056107,-29.250515,-97.534298,-21.530892,-84.051968,-12.093407,-62.301762,0.0,15.093518,28.406042,50.256376,46.017791,68.347604,58.633116,81.027211,66.529795,86.01084,0.0,36.262722,7.756634,19.844593,-3.681255,12.606938,-13.204799,5.522347,-20.713874,-2.886463,0.0,-26.192734,-26.921457,-32.626071,-26.350914,-24.238247,-22.513435,-19.503726,-16.588137,-18.590351,20.096317,267.099922,-86.652581,59.373908
39,-0.065483,-0.69137,-0.443172,-31.916516,0.0,-64.802273,-34.236832,-94.525372,-29.210861,-97.943081,-21.46748,-84.344433,-12.090866,-62.397011,0.0,15.276398,28.500891,50.904866,46.125002,69.255335,58.763878,81.682099,66.630918,86.635063,0.0,27.606811,0.533993,10.689365,-11.452549,7.463413,-20.35413,0.042549,-26.683296,-7.292851,0.0,-35.308805,-35.264228,-49.547901,-35.325015,-30.630705,-30.565398,-24.699911,-23.223329,-23.057585,18.805109,267.431324,-88.321478,28.480164
40,-0.018814,-0.642957,-2.193947,-31.552169,0.0,-65.404484,-34.334988,-95.081486,-29.13406,-98.243122,-21.341435,-84.537335,-12.018357,-62.360516,0.0,15.20988,28.465705,51.59531,46.134041,70.062894,58.833693,82.270098,66.712712,87.192594,0.0,24.900032,-4.827164,4.00573,-17.29961,8.311764,-25.460586,0.471016,-30.251392,-6.323112,0.0,-39.353439,-39.310949,-58.66396,-34.973458,-24.852899,-24.829409,-15.385184,-12.208693,-10.691609,17.117987,267.819296,-92.183733,-2.041076
41,0.044563,-0.596114,-1.924152,-20.189032,0.0,-65.759949,-34.458275,-95.299313,-29.224892,-98.494755,-21.506275,-84.784012,-12.251907,-62.539444,0.0,15.122997,28.257569,52.035454,45.894845,70.520934,58.644786,82.538293,66.629497,87.519353,0.0,25.532352,-7.793495,0.940258,-20.384606,10.646908,-27.562981,1.744079,-30.735535,-4.016922,0.0,-38.349958,-41.55318,-66.961678,-34.685781,-19.804333,-20.971428,-7.1052,-4.82787,2.346849,15.273949,268.095067,-95.996486,-21.358223
42,-0.157997,-0.751083,0.09486,-9.811949,0.0,-65.784828,-34.507954,-95.258572,-29.202816,-98.380119,-21.476006,-84.616974,-12.283814,-62.601334,0.0,15.319598,28.28863,52.374477,45.986804,70.955732,58.775006,82.828681,66.743193,87.89855,0.0,25.524032,-10.134476,0.33324,-23.597512,12.769123,-30.536831,1.738781,-32.986908,-2.531777,0.0,-35.696715,-39.798067,-60.170645,-31.963823,-8.253536,-17.359109,1.35376,-0.502494,8.480801,13.380083,268.19233,-97.637495,-30.321826
43,0.084091,-0.623765,2.741192,-3.65484,0.0,-65.830135,-34.473518,-95.42815,-29.138248,-98.374489,-21.395611,-84.562237,-12.259529,-62.489788,0.0,15.293564,28.218641,52.410563,46.02436,71.260222,58.866285,83.023256,66.839276,87.904873,0.0,22.557666,-10.715046,0.84502,-24.779389,10.959503,-32.288281,-0.451069,-35.2309,-4.895382,0.0,-30.454365,-38.262136,-56.172319,-30.061058,-6.099669,-15.262152,2.664962,1.51257,10.629012,11.618105,268.13899,-96.742372,-33.406241
44,0.366119,-0.480727,2.049648,2.502065,0.0,-65.866195,-34.340618,-95.50185,-29.005874,-98.41048,-21.264736,-84.524242,-12.210456,-62.578102,0.0,15.005325,28.038664,52.341872,45.942109,71.306313,58.875004,82.885701,66.922194,87.677002,0.0,21.701717,-10.747994,2.414257,-24.688076,9.807724,-32.759113,-0.577515,-36.163204,-6.672352,0.0,-25.901643,-36.56095,-46.119969,-28.218463,-4.263033,-13.693457,4.422533,2.764831,13.362746,10.247125,267.949472,-96.429823,-30.612967
45,0.767167,-0.308777,3.382141,6.212733,0.0,-65.756596,-34.311688,-95.668671,-29.024529,-98.640255,-21.299092,-84.726677,-12.310433,-62.827881,0.0,14.871142,27.982125,52.090165,45.914408,71.074144,58.872238,82.621174,66.941028,87.28685,0.0,18.401035,-12.751636,3.475525,-26.937183,5.407791,-35.305675,-3.883358,-39.094963,-11.226562,0.0,-21.812425,-35.553065,-36.198666,-26.803915,-2.420338,-12.458806,5.663229,3.543646,15.504973,9.519356,267.38205,-94.542618,-24.658879
46,1.071052,-0.063319,2.989197,7.671161,0.0,-65.884266,-34.162628,-95.994152,-28.872711,-98.849315,-21.147446,-85.00153,-12.288483,-63.083805,0.0,14.737835,27.927451,51.768236,45.973528,70.692069,58.98408,82.224502,67.026997,86.834208,0.0,15.177006,-14.862236,3.630535,-29.364018,1.065136,-37.849755,-7.589516,-41.817764,-16.050614,0.0,-19.835029,-35.297276,-29.321837,-25.794598,-1.621812,-11.191113,5.622505,4.777364,16.937113,9.420353,266.731837,-92.723476,-17.574612
47,1.233673,0.075929,1.454361,6.957283,0.0,-66.080429,-33.98608,-96.202881,-28.76041,-99.156875,-21.124523,-85.391704,-12.402374,-63.350612,0.0,14.566576,27.947162,51.432918,46.040008,70.245095,59.02292,81.818616,66.984574,86.442536,0.0,13.907776,-15.156716,2.425461,-29.951592,-0.911007,-38.501255,-9.110253,-42.448242,-17.887253,0.0,-19.567686,-35.688873,-28.124299,-26.335105,-2.613641,-11.432718,4.753078,4.844147,16.90244,9.618913,266.06597,-92.304228,-11.359125
48,1.315041,0.270577,-0.603871,5.112403,0.0,-66.197903,-33.93972,-96.328846,-28.754357,-99.584496,-21.165413,-85.898323,-12.490631,-63.7817,0.0,14.508457,27.865961,51.016709,45.920768,69.55827,58.863395,81.259232,66.800349,85.997342,0.0,15.060975,-14.667366,2.377419,-29.838455,-0.782936,-38.224399,-9.72258,-41.720581,-17.907383,0.0,-18.543827,-36.017088,-29.054482,-26.390483,-3.138088,-10.81945,3.839258,5.968752,16.226119,10.313004,265.509818,-93.529049,-7.073451
49,1.264091,0.146201,-0.707576,3.043975,0.0,-66.470729,-34.020767,-96.426716,-28.867767,-100.03125,-21.331409,-86.428219,-12.703994,-64.222618,0.0,14.802043,27.851943,50.795666,45.847766,69.17128,58.749613,81.136521,66.698793,85.870715,0.0,16.10622,-14.403317,2.92012,-29.936016,-0.160504,-38.093377,-10.420292,-41.137059,-17.81456,0.0,-17.737726,-36.542986,-30.059323,-26.379165,-3.176164,-9.840132,2.796602,7.761452,15.224107,11.346845,264.836449,-94.466875,-4.849046
50,0.820885,0.091501,-1.480648,1.136213,0.0,-66.608952,-34.115204,-96.350338,-28.936478,-100.201813,-21.416359,-86.678341,-12.757324,-64.479927,0.0,14.884283,27.844459,50.707463,45.739642,69.02287,58.582851,81.051467,66.568204,85.911076,0.0,18.276077,-13.280526,4.050521,-29.043354,0.724971,-36.995934,-10.61055,-39.582333,-17.109387,0.0,-16.799582,-36.580666,-31.026426,-26.072221,-3.76554,-8.861029,1.928781,9.217682,14.457377,12.182035,264.364039,-95.933218,-4.276744
51,0.513153,-0.029393,-1.881295,-0.16202,0.0,-66.647873,-34.318668,-96.219234,-29.09642,-100.199535,-21.542999,-86.66399,-12.766594,-64.454498,0.0,15.030409,27.909001,50.926788,45.669209,69.30933,58.441307,81.32102,66.460153,86.11647,0.0,20.751641,-12.107448,5.849213,-27.82632,2.561142,-35.70076,-9.650779,-38.102211,-15.789493,0.0,-15.733974,-36.220328,-30.826189,-25.541718,-3.580697,-7.993097,2.078661,10.321668,14.243325,12.754898,264.053885,-97.754803,-4.719525
52,0.30146,0.070013,-1.463401,-0.775351,0.0,-66.687103,-34.53788,-96.158237,-29.195903,-100.132301,-21.561996,-86.506771,-12.691406,-64.398513,0.0,15.136236,27.906888,51.217706,45.600592,69.666889,58.37385,81.601391,66.461647,86.373068,0.0,22.245369,-11.487374,7.462806,-27.136734,3.7523,-35.035275,-9.150387,-37.432194,-15.373112,0.0,-14.81832,-35.770247,-30.0725,-24.857468,-2.566588,-7.020089,2.720995,11.400781,14.814146,13.206293,263.951525,-99.068269,-5.667249
53,-0.093429,0.010794,-1.066384,-0.174698,0.0,-66.56852,-34.682705,-95.981941,-29.201122,-99.700848,-21.46582,-85.991284,-12.517136,-64.091549,0.0,15.189836,28.003738,51.668607,45.719239,70.281651,58.519112,82.019417,66.641131,86.554379,0.0,23.257187,-11.178097,8.342926,-26.912224,4.726273,-34.934978,-8.943752,-37.5172,-15.378502,0.0,-15.145462,-35.893829,-29.762729,-25.042935,-2.27612,-7.102261,2.626035,11.391129,14.617582,13.328579,263.894742,-99.918938,-5.909524
54,-0.191368,0.039681,-1.422764,0.469723,0.0,-66.402912,-34.583908,-95.845677,-28.976269,-99.255604,-21.151657,-85.477856,-12.139664,-63.593674,0.0,15.305531,28.106157,52.022956,45.853694,70.715769,58.654123,82.324451,66.722333,86.711954,0.0,23.983063,-10.488556,9.59491,-26.250572,5.07985,-34.40427,-9.076892,-37.237289,-15.41455,0.0,-16.260242,-36.144418,-29.882519,-25.608618,-2.286896,-7.843766,2.114804,10.507617,14.244925,13.402903,263.924954,-101.07601,-5.44927
55,0.123138,0.034617,-0.952743,0.339819,0.0,-66.609684,-34.491188,-95.906547,-28.798153,-99.172279,-20.892425,-85.20655,-11.85997,-63.41003,0.0,15.471813,28.169291,52.337648,46.038217,71.023817,58.88376,82.703512,66.865223,86.784696,0.0,24.028324,-10.543041,9.743191,-26.258721,5.434582,-34.432469,-9.146256,-37.378235,-15.521027,0.0,-17.454335,-36.208886,-29.741086,-25.670394,-1.635083,-7.974739,2.525005,10.357952,14.465602,13.848329,264.004964,-101.706465,-5.064058
56,0.316635,0.157686,-1.064873,0.17563,0.0,-66.833439,-34.394497,-96.158787,-28.750316,-99.321304,-20.881393,-85.336853,-11.897461,-63.6129,0.0,15.375395,28.142627,52.327422,46.118357,70.927956,59.022797,82.815256,66.968556,86.925993,0.0,24.501984,-10.421162,10.255898,-26.122719,5.496185,-34.274712,-8.990032,-37.172092,-15.393265,0.0,-18.220613,-36.35164,-29.44091,-25.823139,-1.423353,-8.145688,3.038942,10.192363,14.859206,14.541898,264.177436,-102.394404,-4.873642
57,0.382279,0.196255,-1.341545,0.429968,0.0,-67.01548,-34.268704,-96.40638,-28.689366,-99.518498,-20.876679,-85.537606,-11.92804,-63.775303,0.0,15.242595,28.09256,52.13381,46.095522,70.698504,59.022291,82.818603,66.965765,87.092299,0.0,25.770081,-9.935074,11.052795,-25.463264,5.671154,-33.520924,-8.365711,-36.374348,-15.046658,0.0,-19.129901,-36.819986,-29.544354,-26.325725,-1.573851,-8.747909,3.470491,9.611909,15.025716,15.341641,264.409753,-103.318485,-4.407612
58,0.565475,0.275382,-0.91095,-0.127304,0.0,-67.347988,-34.213829,-96.744209,-28.742477,-99.919681,-21.060608,-85.988308,-12.192924,-64.248607,0.0,14.941994,28.034971,51.644043,46.026472,70.045468,58.959429,82.50664,66.923022,87.176169,0.0,26.872502,-9.600162,11.684796,-24.957607,5.373127,-32.938019,-8.048092,-35.7518,-14.869137,0.0,-20.10247,-37.01831,-29.17368,-26.516022,-1.52174,-9.075748,3.98928,9.257492,15.394618,16.38961,264.721336,-103.746941,-4.498715
59,0.493241,0.202826,-0.338436,-0.884087,0.0,-67.538075,-34.139122,-97.100808,-28.700455,-100.205063,-21.08004,-86.25317,-12.265709,-64.535523,0.0,14.687557,28.060227,51.27601,46.065177,69.460827,59.014189,82.317498,66.992392,87.456058,0.0,27.435093,-9.47652,12.122933,-24.673828,5.156056,-32.522037,-7.964023,-35.242046,-14.835903,0.0,-19.580358,-36.664282,-28.844352,-26.105153,-0.662341,-8.75811,4.945078,9.575976,16.000229,17.457608,264.951981,-103.51062,-5.354983
60,0.456687,0.252164,-0.190006,-0.792017,0.0,-67.583301,-33.963249,-97.351558,-28.546245,-100.326416,-21.000457,-86.518741,-12.245361,-64.658397,0.0,14.548928,28.073219,50.870088,46.023631,68.733568,58.97541,81.99889,66.99475,87.820472,0.0,27.962894,-9.036163,12.752827,-24.096771,5.184048,-31.912434,-7.34919,-34.621639,-14.441872,0.0,-18.667452,-36.411359,-28.864816,-26.038327,-0.461757,-8.970007,5.306009,9.208709,16.067593,18.544315,265.284859,-103.070606,-6.066286
61,0.360352,0.131886,0.114292,-0.736726,0.0,-67.742535,-33.83242,-97.484619,-28.323326,-100.339394,-20.753998,-86.588722,-12.042023,-64.701462,0.0,14.784,28.17528,50.725098,46.150109,68.436549,59.117436,81.913169,67.157068,88.264298,0.0,28.127426,-8.714104,12.760197,-23.617321,6.529038,-31.284061,-5.559357,-33.879044,-12.462719,0.0,-17.21323,-35.786068,-30.015288,-25.607247,0.170012,-8.797655,5.726301,9.336891,16.266646,19.500303,265.553179,-102.360678,-6.666578
62,0.517708,0.239913,0.751465,0.260007,0.0,-67.978054,-33.917496,-97.881214,-28.387333,-100.569008,-20.80323,-86.914444,-12.092652,-64.829418,0.0,14.694128,28.27355,50.551629,46.254924,68.073086,59.222362,81.877131,67.253534,88.647693,0.0,27.962128,-8.832848,11.872055,-23.732895,8.313663,-31.204914,-3.813618,-33.534153,-10.673813,0.0,-15.94589,-35.391946,-32.689551,-25.384057,0.294592,-8.732219,5.615168,9.387402,16.016717,20.623741,266.064334,-101.003483,-6.135329
63,0.576782,0.207172,1.262661,1.523598,0.0,-68.195904,-33.932556,-98.253536,-28.400551,-100.726341,-20.785812,-87.141243,-12.061958,-64.596748,0.0,14.707849,28.22909,50.524076,46.190544,67.847389,59.15051,82.047822,67.152524,89.080515,0.0,27.63438,-9.289318,10.131637,-24.122601,12.683716,-31.147465,-0.318661,-33.018997,-7.422226,0.0,-14.436048,-34.700199,-36.616265,-24.938354,1.413696,-8.376739,6.294609,9.674728,15.851084,21.799885,266.703231,-99.14146,-4.180006
64,0.848717,0.132616,1.322731,3.506621,0.0,-68.560662,-34.092098,-98.693791,-28.622132,-101.059502,-21.025543,-87.67701,-12.316063,-64.836571,0.0,14.77302,28.208613,50.469896,46.138425,67.611477,59.092464,82.03042,67.069012,89.337927,0.0,28.070263,-8.162144,9.03249,-22.776993,17.637016,-29.820282,4.677246,-31.894261,-3.418614,0.0,-13.887513,-33.698515,-39.734445,-24.768442,3.047068,-8.998437,8.406448,8.276013,17.109971,23.195767,267.271551,-97.271564,-0.237681
65,0.839676,-0.053822,0.247787,6.817925,0.0,-68.931908,-34.241295,-99.070164,-28.903565,-101.421719,-21.401779,-88.150338,-12.768494,-65.117031,0.0,14.806365,28.275921,50.455483,46.257246,67.428016,59.220288,81.990381,67.17379,89.640294,0.0,30.205588,-5.925722,12.502379,-19.16284,25.692902,-25.415891,13.808115,-27.077848,5.455628,0.0,-14.467208,-31.253996,-39.074904,-22.153711,5.439878,-6.469952,12.341805,10.648133,20.613615,24.935326,267.594395,-96.123894,6.95691
66,1.10804,0.021748,-0.739391,10.031169,0.0,-69.256119,-34.428109,-99.505005,-29.305035,-102.031025,-21.956864,-88.780873,-13.403756,-65.562767,0.0,14.136065,28.218864,50.075645,46.226421,66.777056,59.219547,81.533577,67.182077,89.647717,0.0,33.67071,-2.396147,20.543593,-13.169123,36.075417,-18.093447,26.720953,-18.977411,18.193691,0.0,-16.16033,-27.584842,-33.470591,-17.378372,7.960542,-1.27891,18.013914,16.080144,26.007335,27.269835,267.914243,-95.636816,17.286179
67,1.083183,-0.291943,-0.77195,15.193059,0.0,-69.502052,-34.316849,-99.723587,-29.397698,-102.360615,-22.239578,-89.277455,-13.862045,-66.073265,0.0,13.984356,28.052175,49.93389,46.135079,66.278323,59.198761,81.117169,67.193674,89.425674,0.0,39.127047,1.961701,30.57664,-6.624481,46.006131,-10.669973,39.279579,-11.207193,30.545431,0.0,-15.726475,-22.937249,-24.48736,-11.310829,12.838253,5.297025,25.553691,22.826293,33.063357,29.541412,267.47723,-95.220372,32.334168
68,1.04718,-0.442479,-0.862587,20.151901,0.0,-69.717213,-34.230057,-99.915127,-29.48703,-102.908455,-22.50135,-89.900139,-14.246178,-66.693958,0.0,13.534542,27.852227,49.609281,46.014184,65.747269,59.145039,80.588672,67.191673,89.152627,0.0,46.623682,7.028172,42.391314,0.190281,53.442524,-3.545637,49.728699,-4.124788,40.855505,0.0,-13.312984,-17.675744,-12.445764,-4.221554,18.700479,12.982567,33.821961,30.688985,41.405825,31.707733,266.401238,-94.963818,51.852556
69,0.893692,-0.442355,-0.156835,29.051281,0.0,-69.673531,-34.124748,-100.084522,-29.52079,-103.317387,-22.667061,-90.322174,-14.479156,-67.137737,0.0,12.987779,27.646425,49.151389,45.858486,65.128641,59.035987,79.964783,67.160254,88.730007,0.0,53.881124,11.101003,53.66213,5.97104,60.476251,3.091272,58.579816,2.860164,50.438301,0.0,-10.191967,-11.791933,-0.148803,1.206122,21.692673,16.746116,35.958614,32.526298,41.069023,33.659168,265.168067,-94.06291,80.113021
70,0.885452,-0.162824,1.600685,36.068299,0.0,-69.65578,-34.098804,-100.271118,-29.598838,-103.665424,-22.885528,-90.73891,-14.823623,-67.652675,0.0,12.223482,27.326311,48.46596,45.525961,64.385809,58.699794,79.258852,66.856307,88.090841,0.0,59.932068,14.643894,61.089088,10.274826,64.485998,7.662975,62.514896,6.949648,54.814877,0.0,-5.122772,-5.894226,9.799728,2.921266,22.824279,13.259246,32.124626,23.742347,31.703782,35.18795,264.033927,-91.818895,115.210004
71,0.365662,-0.208803,3.516128,30.310479,0.0,-67.433441,-34.014313,-100.022278,-29.666679,-103.610184,-23.034668,-90.825165,-15.051819,-67.729603,0.0,8.846389,26.855983,47.649595,44.802456,63.736775,57.943919,78.529346,66.244916,87.211466,0.0,64.414101,18.37785,66.032273,12.087571,66.594389,6.946038,60.2314,3.000567,48.149357,0.0,0.121729,0.924602,23.060852,7.991402,33.390529,15.712887,39.186083,22.985572,35.435515,35.863163,262.783713,-87.993216,144.479072
72,0.325996,-0.155598,3.361565,30.690869,0.0,-62.894931,-34.438694,-99.233539,-30.382438,-103.676902,-23.888054,-90.931743,-15.763618,-67.852821,0.0,8.957897,27.319629,46.129805,44.419344,63.342053,56.960309,77.829033,65.068175,86.420418,0.0,66.081219,24.615172,65.92321,18.294348,62.161978,12.162506,54.373816,6.253904,43.235224,0.0,5.485459,11.131775,40.719651,17.799421,49.279407,23.918649,52.243618,28.957797,46.601959,36.398174,261.838281,-84.422636,174.380107
73,-0.090339,0.241555,1.747662,26.855829,0.0,-61.911267,-35.081314,-97.586083,-31.476746,-102.428227,-25.172814,-91.298252,-16.854973,-68.622437,0.0,7.706649,28.219346,38.968474,44.513896,56.927989,56.486893,73.4915,64.18218,85.540783,0.0,68.402309,28.010439,71.036602,20.500677,65.238653,12.945545,54.41086,5.242395,40.44045,0.0,8.923913,20.025396,54.058499,26.710054,60.928208,31.264212,61.987765,33.660887,54.714523,36.431145,261.485689,-82.551664,200.641789
74,-0.989823,0.493658,1.08613,19.664526,0.0,-62.856994,-33.922805,-94.768203,-30.605072,-99.40377,-24.735809,-89.034965,-16.761657,-67.244602,0.0,5.344473,29.275845,35.781572,45.319603,54.176835,56.818616,70.970798,63.812678,83.389769,0.0,71.338886,30.590023,75.574013,21.670521,69.396915,12.666744,55.734718,3.616905,38.845596,0.0,10.637818,27.392323,64.751112,36.593282,73.92663,42.344506,75.790813,44.863132,69.287186,35.475185,261.386382,-81.431671,219.71335
75,-1.258323,0.495435,0.850719,11.096512,0.0,-62.888752,-35.130433,-84.516621,-31.154801,-86.514141,-24.540528,-77.452538,-15.689026,-58.751004,0.0,3.410204,28.776804,37.899575,43.895404,55.583658,54.793784,70.35679,61.589713,81.600045,0.0,73.751667,32.362164,80.223679,22.104241,74.331619,11.710533,58.641838,1.667919,38.685574,0.0,10.099169,33.160577,73.597315,47.697809,87.558182,57.6932,93.286866,63.415006,90.872487,34.174364,261.391173,-80.62345,230.319218
76,-1.185173,0.591038,0.603447,14.868833,0.0,-62.402161,-35.668568,-74.113003,-31.152729,-72.139893,-23.912682,-63.924958,-14.355332,-49.397026,0.0,5.457514,28.752832,38.624883,43.003457,56.461922,53.190657,69.650044,59.648762,80.261,0.0,75.843704,32.419041,83.599938,22.683232,78.630089,13.221256,64.071682,4.55468,45.376763,0.0,9.384617,36.122076,74.882143,52.802172,90.610936,64.012292,97.555017,70.428901,97.161198,32.834622,261.565368,-80.174572,244.771208
77,-1.283043,1.24111,1.677853,8.172469,0.0,-63.877327,-35.17788,-62.945744,-30.067875,-56.12011,-22.325203,-48.594475,-12.447533,-38.528275,0.0,3.377722,27.323235,39.486473,41.191242,56.693584,51.221176,68.763146,57.608811,78.610176,0.0,77.863014,29.93288,91.362865,19.086891,89.394745,9.218696,73.086422,0.780086,51.123493,0.0,7.156478,35.822217,70.820967,52.862305,86.519947,63.966338,94.211344,69.981433,94.389679,31.407286,262.415481,-78.641012,252.55268
78,-1.085221,1.410725,3.394775,5.896189,0.0,-60.886848,-32.288326,-52.076168,-26.318218,-41.00814,-17.934402,-32.053047,-7.826614,-25.040725,0.0,2.989288,25.141347,43.482627,38.454674,60.439154,48.03751,69.66059,54.220122,75.30953,0.0,76.851036,29.772469,92.630139,19.343891,92.507183,9.929524,76.385582,2.046753,55.488304,0.0,5.884443,36.270796,69.675917,53.118334,84.914436,63.995965,92.297303,70.016322,92.708203,30.198492,263.554436,-75.36981,258.177099
79,-0.069854,2.280801,3.156315,2.772457,0.0,-55.106804,-37.117562,-38.248524,-33.594521,-25.514008,-26.781235,-19.53217,-17.950493,-19.202065,0.0,4.371595,22.33563,46.038501,36.086582,62.758154,46.592563,70.180096,54.269769,74.300195,0.0,74.879482,29.772869,93.890007,19.749722,93.792435,10.632946,78.242683,3.026733,58.162697,0.0,5.40284,36.318468,69.17732,53.337882,82.847033,64.211401,90.398367,70.335523,91.578677,30.034779,265.698954,-72.307354,260.813273
80,-0.979866,2.928735,2.785996,1.085955,0.0,-48.907505,-38.137665,-29.547902,-37.8177,-17.626477,-33.441628,-14.607789,-26.84079,-21.633191,0.0,4.398791,20.456072,44.413206,35.203095,61.381194,46.506434,69.006925,54.970921,72.804143,0.0,73.123901,29.632278,94.253288,19.871418,94.214996,10.87041,78.493286,3.391479,59.053665,0.0,5.793869,36.192399,68.924402,53.36278,81.470098,64.246117,88.610668,70.391827,90.499329,28.966256,268.567809,-69.610015,261.839348
81,-4.279931,4.375412,2.140422,-0.203949,0.0,-39.165527,-36.699806,-17.70227,-39.36621,-8.384193,-37.467659,-8.876152,-33.036415,-21.308715,0.0,1.887056,17.705597,41.953847,33.055094,58.177459,44.773742,65.702303,53.6535,68.932961,0.0,71.669415,29.959626,94.038082,20.117455,93.670704,10.880654,77.572598,3.225094,58.668434,0.0,7.228417,36.665629,69.424556,53.802183,80.675925,64.540864,87.213503,70.532667,89.413053,24.648593,272.919488,-67.507325,261.611666
82,0.479966,1.914127,0.859463,-0.027788,0.0,-38.338017,-41.717675,-12.996231,-47.374226,-5.717308,-47.661438,-8.990731,-45.111969,-24.678521,0.0,1.976915,16.297428,42.522136,32.644911,57.73771,45.256568,64.367382,54.904304,66.936866,0.0,70.989487,29.804089,93.290909,19.853851,93.001167,10.494335,76.672211,2.850002,57.776482,0.0,8.372949,36.495371,69.053523,53.719883,80.007527,64.442545,86.13712,70.363632,88.620302,25.103697,274.818609,-66.672724,261.568872
83,0.655059,1.408774,0.075703,-0.060342,0.0,-39.213649,-47.393051,-8.715957,-56.003574,-3.676849,-58.471138,-10.473747,-57.643535,-30.554569,0.0,1.836,15.225824,45.612102,33.048166,59.928515,47.007834,65.517101,57.996703,67.709845,0.0,70.644344,29.645782,92.709995,19.613239,92.510319,10.127563,75.947033,2.303535,56.708839,0.0,8.620852,36.172292,68.077347,53.307241,79.292271,63.963646,85.654157,69.863539,88.599763,25.732143,276.212856,-66.623634,261.494003
84,0.354424,0.795691,0.040718,0.035618,0.0,-39.673153,-45.344696,-8.923279,-53.358273,-4.48304,-55.443661,-10.602036,-54.34473,-32.492317,0.0,2.460396,14.892384,45.792932,31.861471,58.927838,45.238549,63.994286,55.813752,67.093317,0.0,70.524113,29.203697,92.355274,19.121258,92.452686,9.599682,75.508976,1.779739,56.112751,0.0,8.760666,36.150506,67.715983,53.23519,79.122519,63.880517,85.192375,69.77841,88.532356,26.078264,276.999411,-66.591219,261.520485
85,1.2728,-0.141341,-0.100971,0.094589,0.0,-41.6212,-46.313392,-11.803997,-54.091169,-7.042144,-56.072284,-11.993488,-54.852848,-31.712648,0.0,3.730855,15.429971,45.520181,31.736711,58.311446,44.818795,62.867799,55.205647,66.425011,0.0,70.678253,28.774772,92.329376,18.644485,92.215004,9.206474,75.52169,1.544986,56.087207,0.0,9.008076,36.393408,67.595545,53.537669,78.808827,64.180735,85.087585,69.950546,88.205351,27.349988,276.850663,-66.693266,261.607667
86,4.592995,-1.874779,-0.323307,0.20611,0.0,-49.864403,-51.980049,-18.562877,-59.68971,-12.068527,-61.445205,-15.772648,-59.968654,-33.244863,0.0,6.226053,16.852552,48.233024,33.083722,60.796714,46.343894,64.668699,56.894298,67.737652,0.0,71.060176,28.385135,92.42284,18.21397,92.099063,8.930362,75.583293,1.500663,56.107189,0.0,9.039297,36.581784,67.299317,53.809766,78.475499,64.41929,84.980102,70.032205,87.790327,31.935573,274.962244,-67.023983,261.800137
87,0.741211,0.057675,-0.229134,0.197911,0.0,-50.302746,-50.575035,-19.140072,-57.870455,-13.211586,-59.397194,-16.875675,-57.619926,-33.972799,0.0,7.046111,16.781082,48.033076,33.081202,60.766123,46.410807,64.922209,57.18492,68.597933,0.0,71.357059,27.943039,92.45303,17.861595,92.042004,8.792164,75.808422,1.585247,56.265243,0.0,8.962417,36.576806,66.903619,53.880927,78.081815,64.517979,84.943125,70.080876,87.651721,32.668001,275.013077,-67.2619,261.991206
88,0.305408,-0.069865,0.176468,0.195538,0.0,-49.340812,-51.085252,-19.96828,-58.156259,-13.47108,-59.584361,-16.77777,-57.708623,-33.497491,0.0,8.101877,17.238517,48.13473,33.10368,60.771471,46.202659,64.573085,56.895027,68.235904,0.0,71.517917,27.384338,92.347217,17.393394,91.995083,8.566028,76.054127,1.640465,56.57222,0.0,8.96495,36.43078,66.514222,53.900836,77.722045,64.695537,84.813426,70.330546,87.55381,32.96244,274.931464,-67.096401,262.174996
89,-0.118263,-0.69158,0.313648,0.160835,0.0,-49.157982,-53.806131,-20.422359,-61.124502,-12.514057,-62.613304,-15.968055,-60.638746,-30.69306,0.0,7.701882,17.895443,48.811984,33.980832,61.889079,47.209808,65.514841,58.045659,68.107747,0.0,71.710121,27.075096,92.280624,17.206432,91.940643,8.581581,76.408814,1.855442,56.974949,0.0,8.93568,36.277824,66.257353,53.903701,77.346146,64.863547,84.752342,70.549006,87.402904,32.831011,274.227537,-66.795919,262.323484
90,0.608082,-0.201164,0.229157,0.117474,0.0,-49.511261,-53.931982,-19.857216,-61.079681,-12.492542,-62.397594,-16.209904,-60.196112,-30.525627,0.0,8.8439,17.451877,49.029395,33.981388,62.36331,47.602294,66.187624,58.814933,69.133044,0.0,71.761596,27.068893,92.372589,17.241279,91.954444,8.674289,76.544494,2.000873,57.089241,0.0,8.90604,36.090671,66.110164,53.772803,77.226671,64.799549,84.63099,70.501026,87.416415,33.429056,274.008975,-66.576799,262.42356
91,0.727501,1.467585,0.525043,0.105211,0.0,-48.113468,-49.930716,-19.17382,-57.00428,-13.514614,-58.527294,-16.968464,-56.642881,-31.340561,0.0,9.638332,16.164455,46.389837,32.479754,59.536289,45.963252,63.83008,57.073782,67.883241,0.0,71.672779,26.717274,92.27219,17.018189,91.957638,8.595348,76.725712,2.044613,57.410225,0.0,8.893134,35.686662,65.923369,53.462728,77.093994,64.66061,84.513973,70.510313,87.656698,34.161507,275.456315,-66.046806,262.508526
92,-0.663162,0.6601,0.544853,0.107359,0.0,-48.095478,-50.921362,-18.906395,-58.06477,-12.107472,-59.643654,-15.045994,-57.877482,-29.422211,0.0,11.328564,16.499389,47.128544,31.803561,59.355657,44.527901,62.70122,54.955297,65.968595,0.0,71.703747,26.581867,92.264454,16.94521,91.946949,8.594113,76.825207,2.093869,57.668209,0.0,8.778439,35.318704,65.782949,53.216974,76.994094,64.589795,84.348259,70.577967,87.61787,33.517737,276.092866,-65.482561,262.592336
93,0.506435,0.061219,0.515946,-0.001,0.0,-47.890743,-50.967579,-18.243507,-58.00835,-11.871506,-59.396953,-14.79071,-57.33316,-29.34153,0.0,12.245255,15.943784,47.29527,31.523919,59.324152,44.549699,62.800416,55.235632,66.267405,0.0,71.800747,26.714939,92.33472,17.029484,91.832576,8.581821,76.665058,1.9678,57.490379,0.0,8.798161,35.278689,65.784381,53.201549,77.0142,64.58441,84.301403,70.549512,87.534494,34.057262,276.13355,-64.933525,262.570801
94,1.971451,1.429164,0.544349,-0.00252,0.0,-47.910381,-48.651798,-18.646111,-55.789536,-13.726204,-57.267506,-16.135506,-55.3969,-30.078049,0.0,13.312425,14.244363,45.700677,29.627749,57.381817,42.517456,60.957598,53.159102,65.024271,0.0,71.853138,26.756413,92.385876,17.039944,91.72958,8.538849,76.522488,1.864048,57.352456,0.0,8.761606,35.35773,65.828582,53.261793,76.934098,64.622486,84.215138,70.562171,87.400508,36.06526,277.538215,-64.352629,262.543782
95,-0.813263,0.734966,0.53389,0.155858,0.0,-47.96925,-49.65778,-18.632332,-56.767181,-13.004654,-58.177402,-14.516785,-56.26292,-27.549751,0.0,13.976996,14.723027,46.040798,28.953866,57.062604,40.731399,59.658839,50.341887,62.53332,0.0,71.966068,26.756115,92.25333,17.034966,91.530499,8.546711,76.383557,1.901711,57.347134,0.0,8.598449,35.342997,65.677207,53.230053,76.540809,64.61268,83.96947,70.593133,87.26031,35.301401,278.255421,-63.769335,262.68188
96,0.387085,-1.076755,0.441994,0.100542,0.0,-49.234783,-52.416973,-18.264793,-59.036625,-12.144813,-59.772526,-13.803268,-57.034092,-26.802933,0.0,15.298863,15.670909,48.858952,29.947962,59.456916,41.767794,61.605398,51.45957,63.948048,0.0,72.07925,26.890858,92.192768,17.162178,91.343136,8.637623,76.206058,1.944271,57.257389,0.0,8.535328,35.412392,65.697437,53.254284,76.370662,64.615928,83.888874,70.603828,87.071836,35.73975,277.17222,-63.276077,262.775976
97,0.253235,-0.346808,0.254288,0.126848,0.0,-47.974039,-51.518578,-17.667709,-57.971089,-12.255272,-58.59351,-13.873684,-55.680788,-26.871987,0.0,14.710757,15.880687,48.691107,30.343356,59.455717,42.238652,61.984791,52.064946,64.706657,0.0,72.268169,26.925499,92.258663,17.188762,91.336361,8.683628,76.251537,2.033992,57.244068,0.0,8.521396,35.350147,65.60985,53.197251,76.174123,64.540901,83.770485,70.491566,86.788821,36.032255,276.816347,-62.982519,262.893759
98,-1.053063,0.360807,0.265525,0.095577,0.0,-47.122358,-51.30653,-17.346176,-57.943794,-11.415138,-58.970512,-12.584209,-56.576826,-25.460563,0.0,14.388729,16.666745,49.062734,30.002914,59.42919,40.8436,61.228732,49.810241,63.238875,0.0,72.400601,26.837403,92.174778,17.097954,91.21716,8.64346,76.263691,2.07827,57.335392,0.0,8.558101,35.212086,65.525561,53.103922,76.026848,64.470481,83.703647,70.446266,86.600322,35.00291,277.167851,-62.693276,262.980033
99,-1.99974,-0.838101,0.099244,0.126058,0.0,-45.979666,-52.190998,-15.095444,-58.887783,-8.802681,-59.846535,-10.65556,-57.199476,-24.683876,0.0,13.885105,17.143804,49.740531,31.084484,60.685538,42.47076,62.756944,51.866876,64.863343,0.0,72.585216,26.938636,92.099544,17.206798,91.130916,8.780937,76.193172,2.236049,57.321544,0.0,8.456002,35.025142,65.345274,52.893612,75.832556,64.241633,83.581047,70.251764,86.54025,33.018419,276.322139,-62.578783,263.09848
100,0.127178,-0.499308,0.138141,-0.008596,0.0,-44.40049,-51.128723,-14.25737,-58.236271,-8.363582,-59.59065,-10.89196,-57.241522,-25.588337,0.0,12.279113,16.752016,49.020151,31.589535,60.655929,43.859892,63.536969,54.10376,66.339907,0.0,72.533798,27.069512,92.170258,17.304783,91.022461,8.823452,76.015846,2.197014,57.101074,0.0,8.632955,35.107962,65.299245,52.941271,75.935494,64.186392,83.612071,70.13371,86.485083,33.144831,275.810916,-62.441408,263.077969
101,-1.124039,-0.221326,0.053467,0.010745,0.0,-43.504577,-51.220344,-13.868362,-58.911438,-7.551807,-60.966917,-9.959541,-59.33793,-24.782284,0.0,10.400455,16.943616,48.755402,31.697969,60.907834,43.851592,63.628903,53.974381,65.94363,0.0,72.545952,27.304127,92.241119,17.42054,90.873093,8.798985,75.77282,2.044361,56.715202,0.0,8.570487,35.13875,65.152563,52.930785,75.909559,64.062285,83.568079,69.931378,86.304104,32.012169,275.568006,-62.396564,263.06713
102,-1.707321,0.298768,-0.080257,-0.072619,0.0,-40.796625,-49.526951,-11.200813,-57.527733,-5.430942,-59.794081,-8.600292,-58.390079,-24.32967,0.0,8.205987,16.356121,47.313573,31.942506,60.427255,44.759705,63.872026,55.382487,66.724753,0.0,72.602062,27.443733,92.305355,17.455352,90.795673,8.735653,75.584644,1.909263,56.549503,0.0,8.681478,35.291349,65.108955,53.039689,75.934482,64.087319,83.534587,69.914397,86.388913,30.293936,275.844167,-62.487733,262.971904
103,-5.946052,2.978765,-0.235508,0.082029,0.0,-31.354449,-42.82568,-4.212136,-50.466752,0.899585,-52.534659,-3.435871,-51.074261,-19.482937,0.0,3.116568,14.949361,42.580787,30.850994,56.189646,43.714445,60.905339,54.173019,64.806947,0.0,72.661239,27.613975,92.445831,17.511978,90.735603,8.710556,75.46392,1.847591,56.385875,0.0,8.764582,35.408304,65.021109,53.087706,75.863839,64.040426,83.40517,69.788723,86.201698,24.339661,278.797129,-62.731464,263.02813
104,-0.140625,-0.481863,-0.079377,0.008016,0.0,-31.985762,-43.320866,-5.043435,-51.217839,0.62717,-53.784067,-3.549214,-52.869576,-19.384404,0.0,1.85434,15.465545,43.207998,31.012805,56.997625,43.66334,61.566316,54.007997,64.722855,0.0,72.393723,27.799931,92.485886,17.553326,90.593834,8.580059,75.139367,1.546727,55.963692,0.0,8.90394,35.816881,65.075424,53.388158,75.970531,64.16752,83.417655,69.782596,86.100711,24.19134,278.290239,-62.818537,263.011119
105,-1.416996,0.917272,-0.297454,-0.002372,0.0,-30.256714,-42.582116,-2.699112,-50.678101,2.458076,-53.256249,-2.52713,-52.341145,-19.142498,0.0,-0.145435,14.77118,42.060416,30.645988,56.190442,43.565138,61.252629,54.140192,64.676319,0.0,72.486373,27.873172,92.410034,17.517883,90.490242,8.451747,74.986747,1.359535,55.783344,0.0,8.76436,36.055325,65.247215,53.536274,75.907102,64.222886,83.437849,69.75886,86.051855,22.770481,279.178797,-63.119854,262.980033
106,-5.9805,3.281293,-0.523591,0.007213,0.0,-22.175113,-36.990932,4.380478,-44.922672,8.8713,-47.263469,2.272065,-46.209812,-16.247612,0.0,-4.72277,13.237596,37.716621,29.187641,52.271403,42.006483,58.283608,52.384999,62.401237,0.0,72.701615,27.93932,92.455376,17.614918,90.616677,8.593781,75.109292,1.557118,56.022652,0.0,8.704807,36.302783,65.380212,53.690106,75.800211,64.345337,83.461943,69.877581,86.280108,16.786903,282.424306,-63.646523,262.951462
107,2.109833,-0.533227,-0.218753,0.02449,0.0,-25.956356,-40.08601,0.934387,-48.116844,6.160629,-50.420082,0.090752,-49.296684,-17.703552,0.0,-3.930463,13.430517,39.53995,28.896006,53.510227,41.565771,58.856442,51.893564,62.127336,0.0,72.674732,27.849025,92.305286,17.580803,90.650356,8.60757,75.102047,1.617324,56.095573,0.0,8.616566,36.559084,65.423944,53.842728,75.766422,64.438593,83.482556,69.963414,86.490566,18.899792,281.851145,-63.86222,262.936018
108,7.202156,-3.26982,-0.301598,-0.053525,0.0,-37.508766,-47.897667,-6.630249,-56.304428,-1.272423,-58.452713,-7.077163,-56.96719,-24.632881,0.0,-0.120204,13.750186,44.060672,30.046947,57.998864,43.840791,63.027447,55.360961,65.896939,0.0,72.652943,27.78027,92.30373,17.588207,90.768414,8.702614,75.209896,1.817585,56.281494,0.0,8.49199,36.71078,65.424339,53.948939,75.590272,64.552151,83.506267,70.096252,86.800924,26.10688,278.543234,-64.158886,262.844402
109,1.618378,1.142283,-0.285541,0.048412,0.0,-38.891087,-46.582604,-7.6306,-54.759544,-3.112381,-56.635643,-8.911537,-54.944401,-25.943619,0.0,-0.283385,12.950643,42.205617,29.622056,56.194172,43.511366,61.483428,55.046664,65.309015,0.0,72.790374,27.739151,92.159477,17.712821,90.751876,8.935764,75.34774,2.107612,56.716827,0.0,8.35409,36.531198,65.475432,53.731615,75.499154,64.475482,83.446777,70.206748,86.893377,27.735878,279.64637,-64.433807,262.853667
110,1.841251,-0.721201,-0.12006,-0.01503,0.0,-41.314459,-46.558908,-10.693748,-54.727735,-5.915096,-56.911239,-11.080799,-55.579061,-27.128574,0.0,0.61102,13.119993,42.376442,29.765934,56.61045,43.666668,61.879773,55.247106,65.588015,0.0,72.650333,27.831619,92.188991,17.963253,90.913387,9.264232,75.541935,2.466133,57.222152,0.0,8.538711,36.480649,65.400108,53.689019,75.513146,64.534775,83.288239,70.394593,86.943617,29.593528,278.885402,-64.537468,262.79887
111,5.351257,-3.549574,-0.019421,-0.070988,0.0,-48.771074,-51.445077,-17.379341,-60.133867,-12.159564,-62.967235,-16.226634,-62.150327,-30.697357,0.0,4.403026,13.886908,45.994572,31.041487,60.744392,45.720054,65.897156,58.146892,69.000046,0.0,72.428307,27.963535,92.063301,18.169269,90.910767,9.47691,75.59848,2.636089,57.460018,0.0,8.663101,36.474894,65.448385,53.654439,75.496794,64.507296,83.174618,70.40362,86.92997,34.966146,275.308049,-64.535528,262.700103
112,-5.199073,1.644376,-0.046234,-0.025417,0.0,-42.271483,-45.889052,-10.578186,-54.624762,-5.979916,-57.65086,-10.992016,-57.166804,-25.911896,0.0,2.12624,13.170319,42.354558,30.868006,58.26357,45.480228,64.152423,57.789877,67.753701,0.0,72.181022,28.115753,92.150894,18.399341,90.8405,9.687767,75.570534,2.748802,57.609215,0.0,8.727766,36.422036,65.456178,53.533075,75.515592,64.381881,83.074151,70.328841,86.974887,29.789824,276.924977,-64.559011,262.647238
113,-10.778458,4.690895,-0.004738,0.022601,0.0,-28.022764,-35.797274,0.402145,-44.382562,5.083409,-47.875637,-0.675877,-48.328256,-16.364593,0.0,-4.366224,11.187587,36.624367,28.172736,52.802289,42.012226,59.159284,53.549932,62.958497,0.0,72.257973,28.146378,92.068817,18.583717,90.90097,9.941471,75.743935,2.962097,57.97023,0.0,8.500241,36.3786,65.530624,53.402645,75.526003,64.259319,82.977771,70.300411,87.124595,19.042036,281.593195,-64.533079,262.647162
114,-10.761646,3.434175,-0.006031,-0.031925,0.0,-16.188921,-30.232252,12.024044,-38.583498,16.812904,-41.911194,9.88742,-42.226679,-7.671765,0.0,-9.747414,9.719422,33.660298,26.163452,50.201572,39.471678,56.468189,50.411048,59.549096,0.0,72.318661,28.104195,92.177799,18.597633,91.005512,10.025139,75.914303,3.139229,58.12849,0.0,8.260563,36.543844,65.465638,53.509375,75.415395,64.296653,82.863421,70.28322,87.342438,8.31863,285.006943,-64.50087,262.59481
115,-13.180515,4.110126,0.045387,0.062331,0.0,-0.315857,-20.343899,25.72958,-28.112286,30.955318,-31.475396,22.959468,-32.163025,4.521686,0.0,-15.814034,7.890838,29.990829,23.931063,46.700046,36.799466,53.078122,47.247278,55.907526,0.0,72.361324,28.063053,92.117626,18.5854,90.893246,10.037487,75.918904,3.16943,58.08704,0.0,7.922998,36.500076,65.315522,53.392123,75.152647,64.15627,82.778317,70.167499,87.442844,-4.810546,289.107908,-64.404144,262.64798
116,1.219848,0.331525,0.221867,0.128564,0.0,-2.085319,-22.448238,24.054028,-29.660488,30.002438,-32.239471,22.532559,-32.130398,4.717678,0.0,-14.594845,8.958861,31.453758,24.159367,46.616449,36.156497,51.867802,45.754833,54.357221,0.0,72.539428,27.837009,92.129516,18.407306,90.816948,9.907631,75.901954,3.091644,58.082302,0.0,7.553088,36.334634,64.972005,53.221383,74.905337,64.061495,82.578579,70.174218,87.526121,-3.524815,289.439945,-64.116394,262.777056
117,5.245583,-1.886203,0.29647,0.086562,0.0,-8.105152,-26.140858,17.626728,-33.086849,23.671955,-35.422371,16.875881,-34.878651,-0.181515,0.0,-12.161052,9.750835,34.126983,24.915933,48.56418,37.220123,53.627998,47.122987,56.342101,0.0,72.752037,27.869729,91.733597,18.478077,90.607155,9.958157,75.792733,3.083119,58.063672,0.0,7.290995,36.174108,64.799338,53.060103,74.647838,64.005796,82.461661,70.263793,87.486452,1.806833,287.566441,-63.733859,262.876317
118,10.468368,-4.607013,0.449112,0.103778,0.0,-21.234518,-35.418548,6.491936,-42.428764,12.846783,-44.424122,7.350323,-43.050916,-8.718715,0.0,-4.810234,12.499117,39.894904,27.832473,53.815583,40.3385,57.812718,50.465518,60.022821,0.0,72.669869,27.897686,91.574845,18.510716,90.398804,9.924923,75.536545,2.949303,57.872979,0.0,7.178744,36.050965,64.473308,52.906851,74.488916,63.871995,82.293588,70.191248,87.406362,12.382782,282.968432,-63.177166,262.989099
119,10.071865,-4.092953,0.417,0.180064,0.0,-32.731916,-43.865169,-5.098262,-50.858985,2.33931,-52.682087,-1.793358,-50.988779,-16.13253,0.0,1.923562,15.065303,45.746076,29.985475,58.02191,42.351711,61.09758,52.461205,62.769862,0.0,72.638283,27.97435,91.334702,18.597027,90.249573,9.938004,75.31929,2.822205,57.694302,0.0,7.089713,35.808656,64.031756,52.604793,74.279422,63.570332,82.08917,69.955461,87.300806,22.579696,278.885525,-62.635117,263.179209
120,14.256661,-4.722178,0.444981,0.123735,0.0,-49.833841,-54.712452,-19.604336,-61.693806,-12.570328,-62.819973,-15.424324,-60.057055,-28.374962,0.0,9.509502,17.385625,50.796025,32.648968,62.446994,45.350127,65.04694,55.837076,66.937472,0.0,72.730694,28.054424,91.116199,18.671757,90.100056,9.903511,74.949016,2.60947,57.318054,0.0,6.930607,35.733963,63.855336,52.413503,74.372011,63.303991,81.95369,69.698641,87.22389,36.958946,274.144013,-62.067547,263.28361
