takenoko1/special-research/HandMotion_SimilarSearch_自分用/NewProject/handData/test_key/d4_feature_d3/18.csv
frame,vel_0x_L,vel_0y_L,vel_0x_R,vel_0y_R,posFromWrist_0x_L,posFromWrist_1x_L,posFromWrist_2x_L,posFromWrist_3x_L,posFromWrist_4x_L,posFromWrist_5x_L,posFromWrist_6x_L,posFromWrist_7x_L,posFromWrist_8x_L,posFromWrist_9x_L,posFromWrist_0y_L,posFromWrist_1y_L,posFromWrist_2y_L,posFromWrist_3y_L,posFromWrist_4y_L,posFromWrist_5y_L,posFromWrist_6y_L,posFromWrist_7y_L,posFromWrist_8y_L,posFromWrist_9y_L,posFromWrist_0x_R,posFromWrist_1x_R,posFromWrist_2x_R,posFromWrist_3x_R,posFromWrist_4x_R,posFromWrist_5x_R,posFromWrist_6x_R,posFromWrist_7x_R,posFromWrist_8x_R,posFromWrist_9x_R,posFromWrist_0y_R,posFromWrist_1y_R,posFromWrist_2y_R,posFromWrist_3y_R,posFromWrist_4y_R,posFromWrist_5y_R,posFromWrist_6y_R,posFromWrist_7y_R,posFromWrist_8y_R,posFromWrist_9y_R,posFromBody_0x_L,posFromBody_0y_L,posFromBody_0x_R,posFromBody_0y_R
6,-2.322704,3.662293,-0.251987,-0.06606,0.0,10.359947,-19.189499,26.376205,-22.926636,40.339027,-22.225674,37.568527,-19.296284,25.15702,0.0,-5.707961,6.834906,17.46235,25.892553,38.689338,41.249189,47.694141,53.413155,51.700965,0.0,70.072883,27.196895,96.441994,19.012115,95.957519,11.795059,82.276199,6.115597,62.243339,0.0,11.116346,34.101381,52.304846,52.753488,66.3049,63.981207,73.346509,68.742077,73.193627,-5.975366,282.226664,-58.469438,266.536885
7,-1.403343,2.004085,-0.135693,0.002939,0.0,10.419056,-17.580437,30.072143,-21.208969,43.361595,-20.872158,40.15393,-18.514309,26.071151,0.0,-8.526868,6.352487,16.490275,25.012078,37.613053,39.988085,46.486747,51.970061,50.829283,0.0,70.280148,27.610165,96.763905,19.327057,96.015255,11.928646,82.465473,6.057186,62.208481,0.0,10.698234,33.976929,51.903247,52.652798,66.061764,63.96451,73.463292,68.810411,73.576073,-7.922189,284.365325,-59.148611,266.6744
8,3.081184,-4.066388,-0.124912,-0.044201,0.0,5.376469,-19.587879,27.667763,-23.678467,40.406342,-24.513645,36.36882,-23.800152,21.0821,0.0,-5.334989,8.617653,20.177342,27.962945,41.011351,43.549626,50.026602,56.087788,55.341707,0.0,70.327332,27.886997,96.894974,19.518631,95.873886,11.977055,82.315842,5.952084,61.834042,0.0,10.545414,33.86957,51.782451,52.514279,66.116203,63.869291,73.606713,68.810769,73.765511,-5.198954,280.393461,-59.631472,266.724723
9,-4.987953,1.764691,-0.045273,0.027775,0.0,12.292248,-16.432308,32.584556,-20.662079,45.828598,-20.757054,41.787987,-18.975586,27.935669,0.0,-5.990877,7.462179,19.841049,26.666372,40.366886,41.907016,48.865077,53.995634,53.08736,0.0,70.462372,28.006119,96.875084,19.606396,95.738503,12.00174,82.17572,5.873429,61.585179,0.0,10.505017,33.790246,51.625494,52.425656,66.14982,63.812506,73.740873,68.814746,74.038189,-10.410381,282.207843,-59.900219,266.802189
10,2.696148,-2.157041,-0.009624,0.123217,0.0,7.130619,-18.530182,29.161709,-22.384152,42.641041,-23.161652,39.413921,-22.46941,23.763576,0.0,-4.745741,8.527633,20.797205,27.876408,41.749256,43.519517,50.684281,56.174992,55.83991,0.0,70.555103,28.084293,96.708675,19.62117,95.414325,11.938511,81.794826,5.688595,61.079967,0.0,10.511093,33.679823,51.759368,52.226634,66.25387,63.605185,73.840995,68.663185,74.162418,-7.861078,280.065928,-60.056688,266.940532
11,0.14899,-2.152446,0.060241,0.124687,0.0,6.756272,-18.654956,28.604668,-22.909355,41.779496,-23.819206,38.75409,-23.301326,23.684258,0.0,-2.495693,9.073037,22.833783,28.776297,44.010185,44.816843,52.944037,57.757692,58.120204,0.0,70.592411,27.865918,96.623074,19.360211,95.259877,11.682393,81.618702,5.433609,60.854496,0.0,10.824501,33.572439,51.945249,52.04363,66.377926,63.430578,73.924987,68.536807,74.350064,-7.817208,277.914939,-60.101567,267.066676
12,2.922902,-0.992922,0.055024,0.168381,0.0,4.774223,-23.022343,23.628604,-27.328595,37.873203,-27.458931,36.063823,-25.700936,22.13792,0.0,-0.2204,8.870767,23.387795,29.004489,44.474079,45.441041,54.03676,58.638154,58.607661,0.0,70.510585,27.593547,96.442165,19.107112,95.170269,11.4803,81.519779,5.295604,60.685913,0.0,11.12215,33.364155,51.982077,51.789292,66.354065,63.183441,73.886418,68.299944,74.387732,-4.985269,276.919127,-60.137506,267.232167
13,0.896507,0.483295,0.019764,0.523384,0.0,3.991791,-24.239617,22.76279,-28.459431,36.901417,-28.348183,35.456142,-26.210106,21.758869,0.0,-0.657629,9.462164,23.890568,29.333336,44.666358,45.416934,53.875395,58.216461,58.139038,0.0,70.547744,27.098659,96.362594,18.796348,95.510238,11.497375,82.209114,5.721542,61.809619,0.0,11.034947,32.999482,51.846016,51.48222,65.879872,62.960065,73.232888,68.152682,74.043153,-4.156368,277.410891,-60.185348,267.76402
14,1.959331,1.013288,-0.121857,0.310172,0.0,0.993576,-26.715259,20.851181,-30.651237,35.695542,-30.079891,34.681664,-27.292122,20.670868,0.0,-0.393425,9.729777,24.670117,29.434766,44.667469,45.208304,53.018026,57.633413,57.042054,0.0,70.359878,26.923508,96.507088,18.725784,95.999794,11.581467,82.858017,6.02742,62.514324,0.0,10.836469,32.768474,51.610278,51.285002,65.571379,62.794871,72.871352,67.997578,73.877106,-2.248324,278.448864,-60.358492,268.098877
15,-3.965904,4.238363,-0.217564,0.267441,0.0,6.686508,-23.748905,25.20108,-27.604076,40.242485,-26.26292,39.411003,-22.28017,26.453819,0.0,-3.214789,8.184794,22.860743,27.406314,42.222807,42.47176,49.91907,54.118728,52.981359,0.0,70.379345,26.624165,96.56725,18.682675,96.672261,11.883225,83.850208,6.730511,63.806545,0.0,10.669076,32.688112,51.362128,51.321755,65.254773,62.898105,72.430158,68.106444,73.610443,-6.25494,282.729788,-60.616768,268.408879
16,-1.10693,3.132277,-0.202869,0.163515,0.0,5.961182,-22.418358,26.976986,-25.657505,41.963642,-24.39529,41.004765,-20.600624,27.713436,0.0,-6.869326,8.132467,21.354787,26.587566,39.929027,40.815676,47.159407,51.814832,50.286596,0.0,70.25029,26.600361,96.523201,18.848602,97.203735,12.24416,84.595802,7.316173,64.720642,0.0,10.243887,32.703451,51.189708,51.385,64.921777,62.975034,72.057927,68.154708,73.345744,-7.385937,285.908462,-60.843704,268.618791
17,-0.594269,1.479293,-0.272461,0.112522,0.0,5.249577,-21.537986,28.197293,-24.709373,42.838681,-23.657226,41.528103,-20.065864,27.978436,0.0,-8.887157,8.311568,20.8162,26.391459,39.29459,40.195665,46.042601,50.892417,49.271777,0.0,70.273018,26.537853,96.597656,18.955467,97.7322,12.591453,85.325706,7.927849,65.781074,0.0,10.198648,32.711194,51.293992,51.459928,64.818061,63.093829,71.800625,68.31306,73.210374,-7.993418,287.433774,-61.129377,268.777332
18,1.456925,-0.232861,-0.279431,-0.256487,0.0,3.252125,-23.165405,26.775707,-26.285259,41.667766,-24.919556,40.618938,-20.884609,27.176685,0.0,-8.718985,8.467377,21.46758,26.546897,39.719816,40.26942,46.33515,50.87057,49.399354,0.0,70.344784,26.71629,96.769055,19.143185,97.983937,12.727192,85.460255,7.96637,65.747761,0.0,10.245752,32.992825,51.423718,51.729234,65.066805,63.322664,72.137708,68.472253,73.50075,-6.549728,287.230717,-61.422043,268.550649
19,2.432018,-0.751453,-0.098522,-0.096083,0.0,-0.064098,-24.505783,24.420983,-27.793945,39.421578,-26.561748,38.093445,-22.792042,24.540184,0.0,-8.229169,8.637907,21.712025,26.742201,40.248486,40.534996,46.992866,51.303576,49.911722,0.0,70.472626,26.669552,96.722786,19.141766,98.032151,12.770474,85.573471,8.02723,65.945092,0.0,10.656095,33.095084,51.587467,51.819463,65.189057,63.411337,72.240806,68.558839,73.577394,-4.128227,286.496813,-61.531082,268.472115
20,-0.027786,-0.588976,0.10072,-0.130751,0.0,-0.749794,-24.155743,24.45694,-27.468052,39.428581,-26.22583,37.93618,-22.480419,24.756271,0.0,-8.048178,8.593003,21.31087,26.746216,40.191009,40.660683,46.992879,51.515603,49.999605,0.0,70.352726,26.729393,96.703388,19.110122,97.94276,12.614055,85.417705,7.729683,65.649296,0.0,11.013532,33.14877,51.629816,51.841027,65.276904,63.405509,72.482412,68.535338,73.882837,-4.165792,285.91027,-61.440141,268.343797
21,-1.807594,-0.157401,0.070175,-0.152252,0.0,2.115589,-22.213589,26.152496,-25.46719,41.088546,-24.360821,39.359802,-20.877034,26.028534,0.0,-7.434454,8.601276,21.436939,26.869197,40.575701,40.83819,47.365777,51.606066,50.400686,0.0,70.340298,26.806286,96.752849,19.129108,97.862972,12.538353,85.332333,7.541279,65.543827,0.0,11.495976,33.160898,51.632175,51.885191,65.369122,63.47483,72.709493,68.63315,74.219624,-5.982719,285.749584,-61.379299,268.18826
22,5.04134,-4.581387,0.04937,-0.131071,0.0,-3.764031,-25.54287,20.54607,-28.959126,35.207736,-28.497391,33.743396,-26.012066,19.841548,0.0,-3.801615,10.549934,24.124416,29.343524,43.608265,44.027537,50.920402,55.440916,54.816162,0.0,70.236866,26.953193,96.777614,19.256275,97.853382,12.587539,85.324962,7.490032,65.496494,0.0,11.654402,33.277989,51.650515,51.997503,65.433552,63.584152,72.841033,68.746833,74.391783,-0.94824,281.161337,-61.33679,268.050329
23,-4.046792,2.205169,0.134765,-0.093033,0.0,1.642949,-22.363094,24.967106,-25.790393,40.292393,-24.748249,38.285099,-21.537139,25.108441,0.0,-3.8739,9.051462,22.987381,27.744485,42.279457,42.217979,48.966484,53.390802,52.032861,0.0,70.089466,27.126149,96.661778,19.368702,97.680577,12.587941,85.136959,7.341523,65.221447,0.0,11.913445,33.287634,51.703151,52.002282,65.478013,63.595242,73.004079,68.77362,74.559942,-4.999581,283.358747,-61.206574,267.949537
24,-3.39862,0.792678,0.040203,-0.128132,0.0,6.633236,-20.552056,27.942592,-23.813519,42.842502,-22.719532,41.147907,-19.274769,27.810505,0.0,-4.696206,8.65884,22.069375,27.167044,41.476924,41.585197,48.563352,52.636668,51.90647,0.0,69.996163,27.319966,96.682549,19.507588,97.65683,12.604226,85.036469,7.210934,64.988984,0.0,11.944901,33.364525,51.732692,52.073122,65.538812,63.663081,73.122862,68.857575,74.733819,-8.402687,284.143762,-61.170857,267.813742
25,-0.693775,0.668547,-0.165309,-0.08156,0.0,7.757972,-20.518822,28.383316,-23.459656,43.522522,-22.146778,42.157608,-18.605828,28.597343,0.0,-5.793004,9.136418,22.349833,27.560283,41.252782,41.707315,48.203335,52.50577,51.852599,0.0,70.31686,27.345371,96.76308,19.520954,97.728458,12.59539,85.04861,7.195701,64.872722,0.0,11.492888,33.659013,51.680068,52.302858,65.672724,63.7676,73.226392,68.810373,74.835818,-9.099775,284.809412,-61.339479,267.729285
26,1.254467,-0.171061,-0.197159,-0.082943,0.0,6.467754,-22.558823,26.550464,-25.632351,42.301403,-24.019661,41.202015,-20.035561,27.508747,0.0,-6.086084,9.03842,22.288033,27.532681,41.156995,41.800002,48.13037,52.78072,51.796974,0.0,70.5424,27.309391,96.929844,19.474434,97.923031,12.590378,85.218853,7.291591,64.88435,0.0,11.085854,33.952365,51.500288,52.58029,65.74927,63.93834,73.278028,68.849622,74.898655,-7.849073,284.643816,-61.540403,267.651807
27,-8.858357,3.916421,-0.187477,-0.025664,0.0,16.961483,-15.200489,37.298104,-17.900276,52.863899,-15.983024,50.822983,-11.637028,37.458595,0.0,-9.180335,7.249708,20.768355,25.452433,39.569824,39.169472,45.586785,49.568908,48.616161,0.0,70.673938,27.198497,97.090335,19.332,98.167591,12.46574,85.396602,7.25243,64.815593,0.0,10.739607,34.129712,51.274702,52.77247,65.84817,64.033053,73.396009,68.796727,74.97551,-16.709061,288.568898,-61.729511,267.634804
28,1.732247,-2.138849,-0.164486,-0.048363,0.0,14.592258,-15.956452,35.507835,-18.850892,50.019172,-18.084515,48.095123,-15.251954,33.618667,0.0,-9.520592,8.061862,21.028819,26.424619,40.497044,40.59393,47.308164,51.546341,51.407922,0.0,70.876144,27.16745,97.216621,19.278591,98.408523,12.404503,85.573768,7.22842,64.803245,0.0,10.517145,34.387459,51.040001,53.012124,65.964742,64.162272,73.467998,68.778696,74.992405,-14.977043,286.437823,-61.894226,267.594215
29,-2.844223,-1.184793,-0.129135,0.011968,0.0,18.210788,-13.446213,38.82621,-15.982579,53.703117,-15.13115,52.026374,-12.467343,37.449462,0.0,-9.151806,8.417582,21.021433,27.095809,41.237913,41.595226,48.11597,52.888487,52.443155,0.0,71.096214,27.164554,97.334335,19.228809,98.56018,12.342166,85.638862,7.177459,64.647697,0.0,10.296992,34.422927,50.901148,53.069563,66.090959,64.179413,73.623225,68.718995,75.048696,-17.818222,285.258702,-62.020317,267.611855
30,4.044033,-3.593862,0.01474,-0.036285,0.0,13.571983,-14.421467,35.296245,-17.512276,49.070263,-18.10952,46.69598,-17.2916,31.426563,0.0,-6.679505,8.824468,21.344339,28.104861,42.863407,43.684465,50.846858,56.166829,56.194999,0.0,70.996582,27.252044,97.510047,19.2644,98.718658,12.332771,85.738517,7.116474,64.637603,0.0,10.404006,34.209333,50.901606,52.974826,66.140162,64.216526,73.72888,68.874298,75.055761,-13.769691,281.668079,-62.001079,267.578809
31,-2.229401,-2.750696,0.085727,0.060219,0.0,17.483803,-11.570435,38.715466,-14.572563,52.177837,-15.28141,49.969769,-14.791889,35.273083,0.0,-3.422381,9.748426,22.655151,29.501666,44.374908,45.524256,52.651007,58.355806,58.171456,0.0,71.116688,27.544213,97.724774,19.474137,98.720501,12.364266,85.580647,6.915528,64.312145,0.0,10.17585,33.979547,50.860579,52.77394,66.106718,64.094655,73.758496,68.846905,75.017945,-15.999172,278.911016,-61.915432,267.632661
32,8.194851,-3.84305,0.30835,0.127515,0.0,8.457916,-16.278156,28.429939,-19.679672,41.848228,-21.155274,39.88797,-21.73098,25.24958,0.0,-0.755084,10.576018,22.857434,31.020097,44.58276,48.075141,54.465568,61.83979,61.420702,0.0,71.163723,27.772419,97.724544,19.660446,98.367176,12.410522,85.161358,6.739528,63.832409,0.0,9.958698,33.621765,50.561076,52.454332,65.887553,63.896819,73.673021,68.81314,74.84618,-7.806095,275.055672,-61.608856,267.747882
33,-5.091145,2.068195,0.270435,-0.000729,0.0,15.098946,-11.167339,34.470074,-14.362564,48.250775,-15.077282,45.753033,-14.715454,33.022808,0.0,-1.553752,9.54975,21.385476,29.938526,42.680723,46.695871,52.228634,60.057981,58.347964,0.0,71.140846,27.95541,97.813454,19.826008,98.209259,12.466873,84.903168,6.607327,63.389786,0.0,9.491594,33.282435,50.275543,52.1202,65.768215,63.64841,73.782344,68.696913,74.812538,-12.900822,277.103918,-61.342003,267.727204
34,4.30299,-1.333982,0.275517,-0.21436,0.0,9.771298,-11.407505,31.133629,-15.032432,43.094467,-17.380428,39.99543,-19.188251,26.542145,0.0,-2.325336,9.701422,21.692586,30.072179,42.984881,47.060717,53.011629,60.796565,60.131328,0.0,71.149509,28.172687,97.890827,20.007362,98.03825,12.513908,84.576954,6.439029,62.986347,0.0,9.152411,33.100283,50.320015,51.842793,66.469316,63.339126,74.323018,68.472994,74.919848,-8.605442,275.747728,-61.074096,267.490636
35,-1.772415,2.508363,0.156051,-0.102197,0.0,13.145382,-11.423,33.556458,-15.33633,44.728295,-16.818649,41.81099,-17.188339,28.543717,0.0,-4.632046,8.742364,21.744531,28.541201,42.266428,44.886819,51.987265,57.905115,58.027517,0.0,71.193661,28.255177,97.613308,20.215233,97.467442,12.752747,83.866574,6.606709,62.777813,0.0,8.411011,32.635525,50.000617,51.267155,67.563781,62.68682,75.523841,67.999084,76.186435,-10.392271,278.230153,-60.932459,267.362501
36,4.307236,0.661125,-0.525844,-1.181693,0.0,8.165966,-14.790436,28.871017,-19.971348,37.667953,-22.225788,33.515716,-23.057339,20.05529,0.0,-6.703538,8.667522,23.299381,27.688922,43.133515,43.484553,52.599915,56.124109,58.344951,0.0,71.174263,28.071407,96.738556,20.143467,96.515579,12.744884,82.773559,6.500747,62.407985,0.0,7.670821,31.781072,50.178508,50.260216,68.966972,61.677941,77.306588,67.367279,78.186605,-6.103649,278.871437,-61.476917,266.160967
37,-2.49432,5.817099,-0.843338,-4.077355,0.0,2.562023,-14.562801,22.336853,-18.418648,30.821457,-19.396591,26.95348,-19.105385,15.279613,0.0,-0.379432,7.499044,20.936884,19.706495,34.870865,29.221616,38.90497,36.284999,38.40268,0.0,70.329094,26.820831,94.684456,19.077804,94.138595,11.981621,80.465332,5.913826,60.555599,0.0,8.768608,29.824016,49.670216,48.194072,69.762639,60.054844,78.400583,66.811957,79.69124,-8.61272,284.670249,-62.335006,262.065325
38,4.812893,-5.742949,0.680546,-1.113768,0.0,-11.474499,-19.178764,4.496384,-22.13221,9.308189,-22.984177,5.438461,-22.789444,-4.099938,0.0,0.044917,10.820524,17.644439,23.382238,32.612307,32.748713,37.333644,38.961015,39.790804,0.0,65.293865,23.6273,82.770641,16.343193,80.129528,9.682365,67.438625,4.064094,50.978576,0.0,13.166028,25.037804,47.910379,39.969239,64.793201,49.637427,70.509214,55.319663,70.207786,-3.819683,278.919995,-61.674316,260.944252
39,5.439617,-1.571894,-2.40215,-4.242315,0.0,-24.231422,-23.794052,-19.024933,-25.497116,-16.867756,-24.366829,-18.658436,-21.90279,-21.265686,0.0,2.312491,12.825449,18.938098,24.769955,32.23269,33.265898,38.133621,38.218478,40.70991,0.0,63.122624,22.12825,71.069561,15.712853,68.53307,9.797242,56.945172,4.540718,43.733082,0.0,9.082708,16.36791,35.93464,22.967868,44.885646,26.2748,46.486896,27.504399,43.305576,1.577883,277.334914,-64.118517,256.68875
40,6.760185,-4.110713,-4.37154,-15.054997,0.0,-37.865295,-25.925262,-43.179702,-25.969906,-43.446281,-23.740974,-42.925163,-20.418377,-38.624302,0.0,7.108053,16.123675,20.72371,28.059301,32.875006,36.284913,40.673539,40.776613,44.366214,0.0,58.737088,20.629315,58.067917,14.712239,54.572537,8.930523,44.515217,3.33807,34.108452,0.0,6.269099,6.759471,21.321392,5.847319,23.598574,3.748756,20.723932,1.365091,14.816122,8.211319,273.310929,-68.616806,241.720481
41,7.649277,-3.798058,-11.663738,-31.795714,0.0,-52.522533,-28.998436,-67.810547,-26.78849,-69.838829,-23.012146,-66.326466,-18.370686,-55.818821,0.0,11.219853,19.141443,20.444512,31.484844,32.086095,39.778393,42.411727,43.955105,47.691622,0.0,51.368214,19.075951,45.077717,17.630699,43.49897,15.707737,38.240627,13.338444,33.585526,0.0,-4.094997,-2.562154,6.470598,-4.270967,8.476764,-5.493236,6.559086,-6.08315,3.29575,15.642912,269.887292,-80.498228,210.299188
42,6.608448,-7.690631,-14.565479,-36.415156,0.0,-56.767101,-31.368954,-81.8302,-29.06575,-86.487671,-24.668713,-80.81012,-18.946896,-65.563534,0.0,7.31057,23.384276,24.486212,41.826235,40.823519,55.25396,57.788642,63.656586,69.160548,0.0,42.542999,17.897976,31.53733,20.41436,31.978592,22.033344,31.369034,22.891525,36.177509,0.0,-17.780321,-12.037823,-10.000788,-15.097395,-8.158434,-16.494887,-9.47079,-16.524608,-16.173847,22.033012,262.660558,-95.282055,174.347929
43,5.412415,1.640363,-9.987225,-44.410909,0.0,-60.109394,-32.921723,-92.124711,-30.178734,-96.600747,-24.81585,-88.275593,-17.856972,-69.617123,0.0,10.43535,23.737229,30.192012,41.499982,44.473536,54.573767,62.795711,63.078651,72.557475,0.0,37.067333,12.271042,21.098431,14.094601,21.639576,15.38134,21.665211,15.912197,25.582283,0.0,-34.128748,-24.217622,-33.659933,-27.225546,-32.010864,-27.62115,-31.033379,-25.837724,-34.76064,27.075056,264.802028,-105.639651,130.438127
44,2.009033,-0.915474,-15.747219,-49.696509,0.0,-61.77087,-33.417469,-93.66108,-30.543286,-98.083889,-24.898155,-89.760407,-17.430542,-70.776238,0.0,11.86418,25.209926,31.079599,43.18767,45.142984,56.21671,63.616929,64.713233,73.531069,0.0,27.802391,7.938503,13.5905,12.56464,14.705429,16.775665,19.027416,20.535908,27.421772,0.0,-43.028502,-31.042161,-43.336612,-28.579776,-37.241692,-23.250395,-31.408872,-16.29552,-31.688366,28.398394,264.905189,-122.072565,81.760253
45,0.673004,-0.942596,-17.022274,-41.453552,0.0,-62.855885,-33.954208,-94.346809,-30.917793,-98.519703,-25.205795,-90.391171,-17.657776,-71.332855,0.0,12.197139,25.988933,31.62246,44.029464,45.544461,56.908982,63.526391,65.179252,73.702637,0.0,19.534756,3.495037,9.481041,12.040855,13.980515,20.710213,21.468807,29.097302,35.571716,0.0,-55.781901,-31.900862,-51.687904,-24.658106,-39.666538,-15.355456,-28.913642,-5.512403,-34.055556,27.585749,265.305977,-140.580488,41.650085
46,0.119087,-0.995182,-10.601921,-29.364111,0.0,-63.368557,-34.04948,-94.424824,-30.882511,-98.509632,-25.083092,-90.419117,-17.497558,-71.334286,0.0,13.135066,26.356743,32.58799,44.474598,46.370126,57.34557,63.929584,65.585323,74.188859,0.0,15.392395,-1.894318,5.174435,6.861259,11.104362,16.570553,19.221474,26.580105,35.239964,0.0,-59.239184,-33.8053,-55.792782,-27.428743,-46.186079,-19.732338,-36.876037,-12.106755,-53.254747,25.569122,265.502114,-153.318123,13.477293
47,0.689026,-0.724023,-8.312233,-22.532627,0.0,-64.033424,-34.366482,-94.739216,-31.174519,-98.963402,-25.352692,-90.988174,-17.821266,-71.721394,0.0,13.465974,26.472574,33.116215,44.6773,46.650423,57.58137,64.006772,65.862088,74.541837,0.0,11.012867,-7.416538,2.706081,2.211765,10.168236,13.348286,18.703983,24.884983,31.971943,0.0,-63.724912,-34.705244,-58.47036,-28.998148,-51.173943,-22.674893,-42.735478,-17.208148,-66.069199,23.309057,265.906333,-164.579447,-7.927092
48,1.106621,-0.503402,-15.209793,-17.195551,0.0,-64.828629,-34.927986,-95.428299,-31.769669,-99.737366,-26.001206,-92.000805,-18.53952,-72.749405,0.0,13.565281,26.590295,33.477949,44.804716,46.750619,57.67339,64.082194,65.921763,74.914488,0.0,5.954681,-6.570614,6.983688,8.30833,19.495869,24.638157,32.001846,41.010223,49.109482,0.0,-68.575148,-30.288947,-52.905153,-23.45577,-43.886894,-17.165947,-35.074771,-12.997683,-69.552508,21.29044,266.557099,-182.914478,-23.968475
49,1.343902,-0.285682,-6.448231,-7.908579,0.0,-65.74435,-35.675331,-96.615612,-32.519348,-101.051582,-26.793891,-93.3838,-19.39714,-74.137481,0.0,13.509088,26.525618,33.722122,44.777187,46.786039,57.670636,64.180167,65.947427,75.223845,0.0,1.766224,-9.318661,7.761555,6.768059,22.601612,24.765793,35.479454,42.571667,51.142502,0.0,-72.346869,-26.723837,-50.976509,-19.247554,-41.051408,-13.628458,-32.986267,-10.966935,-77.408797,19.517109,266.969406,-192.479942,-31.179065
50,1.068192,-0.217596,-3.312229,-3.627293,0.0,-66.308453,-36.110035,-97.486805,-32.911812,-102.116787,-27.197891,-94.426334,-19.922058,-75.236778,0.0,13.507865,26.463744,33.691,44.757476,46.880209,57.668512,64.325676,65.941647,75.376912,0.0,-1.729271,-11.675079,6.174156,4.944866,21.683132,23.507572,35.503498,41.694191,48.412903,0.0,-72.934184,-27.416485,-47.247445,-19.686124,-39.883375,-14.239015,-32.842284,-12.026257,-79.479968,18.355585,267.063829,-198.021887,-34.494339
51,1.231293,0.099159,-1.841606,3.373314,0.0,-67.020138,-36.634186,-98.525059,-33.440392,-103.24165,-27.770829,-95.579281,-20.615364,-76.200577,0.0,13.154887,26.242455,33.520149,44.529852,46.834575,57.447161,64.268976,65.713763,75.31116,0.0,-6.631268,-12.93552,5.307747,3.902389,20.362347,22.690819,34.444668,40.770378,45.188713,0.0,-74.895278,-26.446071,-47.567818,-19.282246,-40.941098,-14.691349,-34.344505,-13.475904,-81.978915,17.796038,267.357696,-201.654333,-30.926317
52,0.938141,0.026058,-1.525292,4.726006,0.0,-67.450425,-37.098977,-99.393815,-33.867829,-104.253308,-28.187005,-96.541203,-21.028107,-76.969769,0.0,12.902391,26.016424,33.455151,44.278405,46.852026,57.206162,64.257516,65.468713,75.188772,0.0,-9.221202,-13.606784,4.501866,3.222245,19.076249,21.955021,33.601399,39.868184,42.927659,0.0,-74.564333,-25.061034,-46.738788,-18.300642,-41.07517,-14.338489,-35.071196,-13.844307,-82.294262,17.712536,267.553315,-204.201268,-26.03075
53,0.634552,0.077287,-1.057514,4.309777,0.0,-67.697411,-37.431794,-100.02047,-34.150864,-104.997551,-28.436532,-97.179532,-21.254883,-77.42426,0.0,12.578979,25.674241,33.414482,43.957858,46.740925,56.934053,64.064361,65.235284,74.992467,0.0,-10.380672,-14.015751,3.552784,2.801663,17.546597,21.432289,32.415058,39.141072,40.932656,0.0,-74.082667,-23.332862,-45.609743,-16.936989,-40.634846,-13.610408,-35.171522,-13.921593,-81.908877,17.601792,267.725944,-206.004078,-21.625631
54,0.299423,0.086537,-1.316814,1.394732,0.0,-67.823376,-37.490628,-100.171635,-34.220581,-105.196015,-28.534195,-97.432606,-21.401093,-77.602375,0.0,12.417304,25.452705,33.17079,43.752365,46.467519,56.7273,63.771565,65.015527,74.699103,0.0,-12.533867,-13.215363,2.821277,3.664135,16.122688,22.064701,30.890407,39.436638,39.329464,0.0,-73.467386,-21.821231,-45.044023,-15.900719,-40.349238,-13.115997,-35.450109,-14.055369,-81.529674,17.366438,267.856269,-207.855669,-20.187111
55,0.044174,-0.004705,-1.340275,-3.176435,0.0,-68.0075,-37.567349,-100.329552,-34.311585,-105.318901,-28.626823,-97.515175,-21.46685,-77.59552,0.0,12.218813,25.327141,33.168567,43.620972,46.593773,56.601601,63.913936,64.900399,74.672019,0.0,-14.084518,-11.880043,1.851334,4.557209,14.809822,22.523369,29.24136,39.607658,38.181461,0.0,-72.396807,-20.693384,-46.833402,-15.637174,-42.486716,-13.40368,-38.028374,-14.704181,-81.979199,16.87385,267.835265,-209.732706,-23.379845
56,-0.423637,-0.021983,-1.647011,-9.581466,0.0,-67.849961,-37.541234,-100.284211,-34.312226,-105.312321,-28.65239,-97.38136,-21.488411,-77.529397,0.0,12.069859,25.230057,33.048684,43.527285,46.423638,56.512322,63.67658,64.85479,74.507948,0.0,-14.907177,-11.92186,1.343548,4.635258,14.350559,22.725815,29.066815,39.991574,36.890568,0.0,-71.855144,-21.142859,-46.548491,-16.08295,-42.689875,-13.744987,-38.044175,-15.022597,-82.769338,16.148604,267.758981,-211.681326,-33.015612
57,-0.492188,0.015981,-0.875244,-14.359527,0.0,-67.896847,-37.4939,-100.372055,-34.351822,-105.244755,-28.795395,-97.175674,-21.736793,-77.477669,0.0,11.88998,25.184992,33.0803,43.502152,46.307881,56.487276,63.373459,64.829596,74.273062,0.0,-16.243263,-10.645225,1.425304,5.42585,13.823399,23.050987,28.504864,40.142201,36.616928,0.0,-71.498662,-22.262394,-47.548107,-17.751774,-44.048681,-15.418627,-39.82281,-16.449,-84.504401,15.18639,267.662237,-213.026596,-47.487864
58,-0.731483,-0.09086,-0.885921,-20.038762,0.0,-68.028271,-37.27002,-100.410542,-34.182106,-105.156155,-28.723938,-96.917828,-21.800881,-77.378174,0.0,11.735234,25.2224,33.131356,43.537387,46.373176,56.505764,63.204054,64.839538,74.097333,0.0,-15.621815,-10.145588,1.338821,5.966137,14.309303,23.562721,28.703693,40.568481,36.395221,0.0,-71.211291,-23.427174,-47.833891,-18.958531,-44.426723,-16.392752,-39.960976,-16.914555,-86.041573,13.739932,267.472326,-214.627492,-67.625677
59,-0.900765,-0.087871,-0.507351,-22.709223,0.0,-67.90123,-37.223568,-100.490021,-34.215259,-105.084583,-28.811348,-96.677856,-21.951782,-77.28915,0.0,11.485132,25.180892,33.052229,43.475983,46.350428,56.462354,63.14197,64.821804,74.043141,0.0,-13.069737,-10.517212,1.181133,5.813553,14.769172,23.598598,29.602615,40.672531,36.630695,0.0,-70.835176,-25.229443,-48.346939,-20.893613,-45.017431,-18.209755,-40.214243,-18.351794,-87.965454,12.086363,267.182985,-215.887647,-90.53637
60,-0.799805,-0.059712,0.180679,-22.887124,0.0,-67.78989,-37.278179,-100.538028,-34.359993,-104.938705,-29.025512,-96.517639,-22.281257,-77.206604,0.0,11.369609,25.052413,33.123489,43.357496,46.113947,56.390883,62.621685,64.823643,73.621039,0.0,-11.536091,-11.024689,2.528069,5.494045,15.675282,23.53997,31.299889,41.025101,36.665405,0.0,-71.563682,-28.009264,-46.775211,-23.445655,-43.875668,-20.239759,-38.931541,-19.722695,-89.783478,10.31995,266.828733,-216.673576,-113.718034
61,-0.702026,-0.056552,0.727638,-19.918216,0.0,-67.750431,-37.500114,-100.611053,-34.645168,-104.877079,-29.328209,-96.318249,-22.625198,-77.097324,0.0,11.271773,24.786258,33.16653,43.010089,46.107601,56.082947,62.516167,64.576124,73.278115,0.0,-9.913021,-10.535442,2.784783,5.758885,15.364414,23.701596,31.451821,41.314614,36.99559,0.0,-70.806857,-30.059702,-49.040689,-26.441081,-45.488975,-23.617362,-40.611124,-22.91107,-92.972815,8.588756,266.381749,-216.975106,-134.026682
62,-0.821022,-0.116708,0.21864,-17.634849,0.0,-67.798988,-37.606098,-100.513046,-34.749699,-104.662617,-29.397148,-96.069672,-22.703453,-76.986237,0.0,11.308662,24.644861,33.219981,42.825875,46.243303,55.919358,62.530431,64.442224,73.045131,0.0,-7.726365,-11.258034,2.971057,5.389206,15.751007,23.828876,31.930206,41.939746,36.986915,0.0,-70.273716,-31.675192,-49.051687,-28.228732,-45.607493,-25.420499,-40.560162,-24.467109,-94.629024,6.857557,265.820728,-217.666643,-152.105844
63,-0.629539,-0.039298,0.670509,-12.243767,0.0,-67.656636,-37.918053,-100.612668,-35.129689,-104.612641,-29.773522,-96.051144,-23.100243,-77.146145,0.0,11.253877,24.441554,33.170531,42.592495,46.10597,55.741047,62.333101,64.364394,72.722744,0.0,-7.029533,-11.960896,3.2089,4.874062,15.665806,23.588608,31.779808,42.054497,37.124977,0.0,-69.267169,-33.02467,-49.607554,-30.124327,-46.702827,-27.420665,-41.729381,-26.371044,-96.099764,5.516676,265.242827,-217.707476,-164.888214
64,-0.478135,-0.018846,0.722992,-6.706332,0.0,-67.742523,-38.097313,-100.653717,-35.320278,-104.739681,-29.966148,-96.151943,-23.325897,-77.265266,0.0,11.130487,24.238074,33.07131,42.335971,45.934674,55.518313,62.019459,64.208684,72.318538,0.0,-6.709362,-12.845398,3.328594,3.996529,15.858513,22.84037,32.033352,41.685779,36.956177,0.0,-67.937032,-34.264977,-50.382671,-31.599196,-47.68691,-28.884456,-42.887347,-27.681534,-97.55424,4.433904,264.771934,-217.589121,-172.046593
65,-0.407386,0.021353,-0.168503,-3.496525,0.0,-67.828148,-38.188774,-100.656556,-35.41634,-105.063778,-30.037812,-96.333847,-23.35183,-77.462666,0.0,11.009864,24.107732,32.917045,42.142137,45.82324,55.335137,61.978407,64.037833,72.241215,0.0,-6.083073,-13.525669,2.781132,3.696957,16.301125,22.782703,32.44915,41.613316,37.472443,0.0,-67.361341,-33.960556,-50.669844,-31.184103,-47.672963,-28.59434,-42.833176,-27.587067,-96.979645,3.597067,264.474976,-218.187075,-175.861429
66,-0.362824,-0.101517,-0.502006,-0.70418,0.0,-68.067158,-38.120052,-100.700146,-35.360859,-105.205822,-30.004372,-96.558998,-23.346268,-77.722881,0.0,11.084186,24.309013,33.027072,42.432573,45.781903,55.644519,61.899428,64.322514,72.362776,0.0,-6.459424,-13.604199,2.928405,3.890567,17.211227,23.069789,33.075622,41.736431,37.930984,0.0,-68.004123,-33.23815,-49.436453,-30.283547,-46.817878,-27.705187,-42.391361,-26.790175,-95.248213,2.920412,264.193568,-219.002912,-176.7455
67,-0.233459,-0.062381,-0.214097,1.334044,0.0,-68.232972,-38.268151,-100.825631,-35.535542,-105.487095,-30.155995,-96.867291,-23.449311,-77.995423,0.0,11.05987,24.358216,32.998482,42.561929,45.697874,55.841812,61.939542,64.570405,72.522401,0.0,-6.292522,-13.895198,2.421696,3.72789,17.454255,22.880333,33.47707,41.34422,38.128842,0.0,-67.874021,-32.313602,-49.391716,-29.260612,-46.578935,-26.799886,-42.201859,-26.12278,-94.449095,2.466351,264.140882,-219.437611,-175.401761
68,-0.424988,-0.069605,-0.590732,1.636657,0.0,-68.437512,-38.225052,-100.665768,-35.452011,-105.48008,-30.020222,-96.826298,-23.257073,-77.888374,0.0,11.183074,24.435775,33.088971,42.710216,45.815632,56.02442,62.09409,64.733562,72.616781,0.0,-5.93787,-13.586781,2.118381,3.954151,17.588791,22.989715,33.944023,41.339664,38.638218,0.0,-68.31268,-31.740097,-49.298929,-28.487082,-46.071895,-26.068504,-41.935362,-25.529969,-93.92819,1.934258,264.217181,-220.135448,-173.6192
69,-0.416908,-0.075076,-0.688225,0.898311,0.0,-68.611863,-38.281918,-100.416596,-35.448578,-105.258488,-29.944588,-96.54451,-23.118645,-77.642933,0.0,11.2705,24.488472,33.297835,42.843066,46.120271,56.185687,62.421306,64.886432,72.793349,0.0,-6.821789,-13.091171,2.220692,4.453011,17.942059,23.468662,34.168373,41.786499,38.966961,0.0,-69.863316,-31.157837,-48.660287,-27.764828,-45.440556,-25.286731,-41.226835,-24.740484,-93.180905,1.534762,264.323135,-220.806261,-172.539859
70,-0.320618,-0.113645,-0.28783,0.584054,0.0,-68.817032,-38.466614,-100.443798,-35.608154,-105.200169,-30.069912,-96.456036,-23.210243,-77.739475,0.0,11.467323,24.513888,33.402638,42.97384,46.387663,56.349214,62.682818,65.042005,73.02437,0.0,-6.906224,-13.26487,2.245628,4.170822,17.990124,23.169067,34.261493,41.616211,39.143337,0.0,-69.803286,-31.282802,-48.444485,-27.844369,-45.273083,-25.283295,-40.91183,-24.65328,-93.762424,1.331726,264.375408,-220.976509,-171.789887
71,-0.277451,0.060589,-0.027272,-0.254899,0.0,-68.86021,-38.624565,-100.330616,-35.760738,-105.08678,-30.202537,-96.274223,-23.34542,-77.727859,0.0,11.488035,24.448866,33.204358,43.00069,46.446239,56.420784,62.818077,65.1259,73.111784,0.0,-6.549224,-13.856311,2.145001,3.540814,17.963826,22.578358,34.296307,41.211285,39.305604,0.0,-69.54626,-31.544139,-48.499462,-28.002429,-45.282633,-25.257005,-40.554509,-24.484838,-94.292641,1.235475,264.570495,-220.822581,-171.910288
72,-0.258865,0.034395,-0.169052,-0.633115,0.0,-68.868427,-38.642418,-100.196915,-35.820797,-105.022041,-30.310593,-96.234833,-23.522278,-77.76741,0.0,11.493222,24.514111,32.93993,43.092747,46.18217,56.491438,62.568815,65.148587,73.105016,0.0,-6.38665,-14.035057,2.173657,3.519207,18.208237,22.688794,34.826466,41.406235,39.484326,0.0,-69.506248,-31.933469,-48.599633,-28.222958,-45.306481,-25.305312,-40.145811,-24.369837,-94.338707,1.161472,264.658446,-220.806771,-172.489847
73,-0.029869,0.062405,0.228962,-0.42408,0.0,-69.030384,-38.868897,-100.436817,-36.063984,-105.22728,-30.563267,-96.326477,-23.783638,-77.884804,0.0,11.609572,24.512802,32.879575,43.164983,46.117912,56.571998,62.542102,65.200852,73.324551,0.0,-7.267742,-14.412277,2.168404,3.132992,18.093933,22.32787,34.937737,41.086304,39.165379,0.0,-69.380185,-32.16536,-48.92177,-28.452419,-45.408273,-25.512201,-40.012072,-24.583636,-94.385644,1.317885,264.716828,-220.391527,-172.91795
74,0.06974,0.082474,0.230439,-0.292808,0.0,-69.216224,-38.942367,-100.77602,-36.194881,-105.494922,-30.753387,-96.523384,-24.054542,-78.044185,0.0,11.8492,24.556533,32.86473,43.277776,46.060966,56.6923,62.494122,65.292453,73.397034,0.0,-7.997635,-14.787655,2.168014,2.70774,17.939529,21.893978,34.920192,40.625152,39.00476,0.0,-68.766929,-32.435139,-49.433866,-28.699946,-45.47321,-25.734018,-39.945943,-24.794498,-94.369252,1.52243,264.7761,-220.026283,-173.23396
75,0.078598,0.142767,0.345073,0.009374,0.0,-69.413269,-39.011753,-101.053219,-36.234993,-105.652496,-30.791038,-96.70166,-24.110046,-77.931839,0.0,11.84137,24.584654,32.774945,43.292794,45.908529,56.654039,62.328507,65.183957,73.382745,0.0,-8.513901,-15.1306,2.262211,2.444893,17.872307,21.661022,34.906632,40.367512,38.569988,0.0,-68.952607,-32.648653,-50.247706,-28.83003,-45.711876,-25.846457,-39.990867,-24.96413,-94.176307,1.749229,264.908391,-219.533009,-173.235062
76,0.090798,0.106569,0.194859,0.406876,0.0,-69.593697,-39.075405,-101.389561,-36.247845,-105.86253,-30.77163,-96.924328,-24.071778,-77.790585,0.0,11.913569,24.463945,32.815997,43.134157,45.988384,56.454388,62.427382,64.924902,73.53465,0.0,-9.733509,-15.127579,2.351703,2.417049,17.92242,21.620258,34.954616,40.289715,38.641136,0.0,-69.142912,-32.754851,-50.811641,-28.906871,-45.904827,-25.932971,-40.201661,-25.069028,-93.680293,2.007351,265.009569,-219.170826,-172.833577
77,0.149391,0.186079,0.211578,0.895035,0.0,-69.861923,-39.24535,-101.684944,-36.298588,-105.999436,-30.722969,-96.933323,-23.9618,-77.541779,0.0,12.117271,24.284732,33.078324,42.941199,46.490835,56.24887,62.920261,64.695128,73.585409,0.0,-10.432617,-14.719997,2.521717,2.887905,18.054268,22.048325,35.048699,40.580944,38.826279,0.0,-69.594282,-32.513543,-51.044699,-28.767556,-45.924522,-25.927043,-40.347994,-25.185211,-93.460965,2.43659,265.194184,-218.6794,-171.940006
78,-0.040009,0.225438,0.060917,1.487849,0.0,-69.887317,-39.224418,-101.604973,-36.153167,-105.788749,-30.489212,-96.875679,-23.724403,-77.36507,0.0,12.074219,24.23653,33.070742,42.908793,46.698551,56.192084,63.052889,64.581125,73.594215,0.0,-10.344967,-14.240021,2.806091,3.436283,18.400452,22.589127,35.413055,41.05505,39.755402,0.0,-70.431616,-32.648338,-51.146672,-28.82211,-45.950001,-25.915429,-40.40587,-25.090798,-93.080521,2.820459,265.440704,-218.194605,-170.431075
79,0.021836,0.203702,0.045033,2.95773,0.0,-69.827889,-39.252983,-101.581032,-36.08186,-105.555977,-30.340325,-96.752667,-23.524132,-77.199463,0.0,12.240068,24.292958,33.210706,42.933617,47.017048,56.164482,63.379697,64.477051,73.813973,0.0,-9.289547,-13.538258,3.275001,4.148712,18.711891,23.247505,35.837928,41.589798,40.764381,0.0,-71.212254,-32.511582,-51.26789,-28.651345,-46.349164,-25.736469,-41.034519,-24.872982,-92.832429,3.330511,265.685143,-217.661356,-167.432608
80,-0.094414,0.217621,0.040077,4.504486,0.0,-69.789917,-39.104473,-101.333611,-35.895287,-105.196736,-30.164131,-96.457615,-23.38234,-77.048298,0.0,12.628194,24.382039,33.595991,43.022747,47.36863,56.229456,63.756251,64.505579,74.160503,0.0,-8.36491,-12.640835,3.623955,5.052955,18.833278,24.075634,36.078769,42.20866,41.914352,0.0,-71.453369,-31.875498,-50.661625,-28.038834,-46.142918,-25.163586,-41.161306,-24.301557,-92.243145,3.769695,265.962273,-217.087681,-162.868613
81,-0.049599,0.327746,0.428489,6.462838,0.0,-69.805298,-38.850368,-100.991524,-35.663566,-104.797188,-30.041599,-96.10405,-23.383621,-76.907421,0.0,13.038983,24.675181,33.916204,43.326461,47.576149,56.469628,63.933586,64.673084,74.407555,0.0,-6.977119,-11.426204,3.896393,6.425229,18.884366,25.348538,36.064499,43.155339,43.249753,0.0,-71.520621,-30.774086,-49.29841,-26.736403,-45.011944,-23.780803,-40.107581,-22.885122,-90.737781,4.356027,266.390304,-216.023261,-156.30549
82,-0.029457,0.419804,1.028939,8.530943,0.0,-69.764728,-38.342297,-100.707401,-35.212658,-104.472896,-29.763245,-95.848766,-23.307815,-76.813591,0.0,13.175315,24.851059,34.007508,43.44696,47.499788,56.531786,63.828252,64.708047,74.698412,0.0,-4.462704,-10.371037,4.063968,7.352611,18.940544,26.019962,35.919697,43.653019,45.183689,0.0,-70.020746,-28.614181,-46.817476,-24.246793,-42.674274,-21.230712,-37.850128,-20.458433,-87.884038,5.438736,266.958667,-213.882156,-147.625988
83,0.212311,0.443677,1.598362,9.028732,0.0,-69.881458,-37.971176,-100.550091,-34.87722,-104.231449,-29.584683,-95.664093,-23.293419,-76.735085,0.0,13.464715,25.08587,34.062725,43.568843,47.458934,56.554226,63.819384,64.685187,74.953996,0.0,-0.95089,-8.877159,4.800201,8.419246,19.429928,26.703003,35.871734,44.121471,48.034458,0.0,-63.309286,-23.885409,-41.110742,-19.632266,-37.871729,-16.816539,-33.367539,-16.441063,-81.340271,7.41873,267.589951,-210.516111,-138.409649
84,0.193565,0.521248,2.669529,18.002634,0.0,-69.925632,-37.601921,-100.31036,-34.522865,-104.094967,-29.342296,-95.663704,-23.201111,-76.914287,0.0,13.522451,25.3439,33.844944,43.777979,47.17971,56.686927,63.611742,64.766438,75.257993,0.0,3.36034,-7.255658,6.033371,9.986171,20.673546,28.19276,36.675316,45.616367,51.449546,0.0,-62.822924,-22.373375,-39.460872,-16.896799,-35.740758,-13.416718,-30.512653,-12.638552,-78.166783,9.995098,268.195236,-205.463779,-120.322978
85,0.236573,0.486062,3.734459,17.479427,0.0,-69.732995,-37.477742,-100.002411,-34.397999,-103.951951,-29.246865,-95.541688,-23.111916,-76.857937,0.0,13.477015,25.691691,33.15187,44.066045,46.738949,56.878848,63.487957,64.863571,75.410517,0.0,5.775764,-5.421009,7.148666,11.453762,21.788452,29.578411,37.681457,47.137584,56.651035,0.0,-56.463024,-20.156702,-34.588005,-14.778791,-30.840394,-10.745776,-25.590871,-8.938292,-68.982203,13.259577,268.790207,-198.701414,-102.734642
86,0.323455,0.341023,5.222786,24.480821,0.0,-69.709293,-37.447391,-99.894035,-34.337711,-103.88134,-29.146064,-95.568592,-22.925377,-76.877071,0.0,13.343473,25.955044,32.798077,44.243355,46.463122,56.982082,63.453142,64.901251,75.759357,0.0,8.638721,-2.470471,9.376682,13.98702,23.795448,31.817768,39.457386,49.360153,62.624668,0.0,-53.078042,-20.609521,-32.096765,-14.867393,-27.809029,-9.568828,-22.032967,-5.890189,-60.578253,17.717943,269.274472,-189.343717,-78.110579
87,0.283814,0.265489,6.453083,31.147841,0.0,-69.589382,-37.517132,-99.712235,-34.364262,-103.546601,-29.112877,-95.392159,-22.757492,-76.724179,0.0,13.355145,26.24111,32.697943,44.487529,46.369719,57.165185,63.568851,65.018331,76.297278,0.0,9.999149,1.8567,12.718791,18.02263,26.619987,35.416809,41.761963,52.607288,69.226009,0.0,-53.65862,-24.448955,-32.340389,-17.798603,-26.973812,-10.293643,-20.012262,-3.551177,-52.981434,22.762322,269.421697,-178.130069,-47.081002
88,0.274841,0.256833,7.958639,37.142863,0.0,-69.325813,-37.482239,-99.667534,-34.333111,-103.270821,-29.052956,-95.198547,-22.596748,-76.585693,0.0,13.205745,26.478329,32.613591,44.676546,46.224765,57.303851,63.773466,65.088367,76.730061,0.0,11.45791,9.716137,17.637394,26.001898,31.454447,42.489269,46.007377,58.408361,73.505384,0.0,-58.299413,-30.253583,-35.276016,-21.807102,-27.970133,-11.605168,-18.931006,-1.292266,-44.329935,27.353262,269.072622,-165.855331,-10.544047
89,0.170494,0.098689,8.957107,33.713601,0.0,-68.98455,-37.365269,-99.476818,-34.170856,-102.767303,-28.828674,-94.637775,-22.228271,-75.862907,0.0,13.136573,26.488951,32.755494,44.628023,46.329309,57.269765,64.093038,65.08265,77.152534,0.0,13.091647,21.391617,23.976071,37.651881,37.949152,52.378075,51.422402,65.843405,76.11973,0.0,-55.846347,-32.469447,-33.216238,-23.021171,-25.042343,-10.658238,-14.278273,2.739776,-27.121676,31.375654,268.506207,-153.046326,22.50445
90,0.053948,0.059812,9.82643,41.623486,0.0,-68.921288,-37.019314,-99.551365,-33.711365,-102.413384,-28.300873,-94.38152,-21.671837,-75.416737,0.0,13.086159,26.371736,33.328401,44.586243,46.686016,57.326439,64.51746,65.191985,77.723823,0.0,19.008087,30.493028,34.441154,45.296676,47.488981,57.082586,58.060959,67.058292,76.463836,0.0,-59.638734,-31.351849,-36.437446,-20.554128,-27.958963,-7.614462,-15.470702,6.067089,-20.466384,34.717461,267.4982,-139.932037,63.060117
91,0.147125,0.104654,9.99115,41.649979,0.0,-68.595017,-36.772522,-99.511299,-33.419884,-102.161831,-27.957619,-94.020001,-21.279602,-74.838375,0.0,12.963338,26.197724,33.742253,44.405067,47.001648,57.223341,64.836043,65.171904,77.906827,0.0,27.347293,35.957525,47.853481,47.641187,58.897607,55.556161,65.422714,61.254524,75.094585,0.0,-61.083353,-23.574473,-39.859057,-13.032899,-32.607817,-2.127317,-19.873965,8.610685,-18.345899,37.215185,266.351976,-127.590288,103.459218
92,0.052368,-0.09859,8.297641,31.393132,0.0,-68.174595,-36.602932,-99.399639,-33.182911,-102.018219,-27.615921,-93.72662,-20.817604,-74.402035,0.0,13.266866,26.164353,34.170072,44.429656,47.423402,57.289574,65.341124,65.227861,78.164894,0.0,35.370747,39.262694,63.389969,48.37504,73.557764,53.642847,77.19904,56.606266,77.681076,0.0,-54.107903,-13.471377,-34.01779,-1.687139,-26.170609,8.819271,-12.259949,18.161009,-3.428235,38.567076,265.003304,-117.993124,133.602268
93,0.51107,-0.12933,10.641404,30.602062,0.0,-63.80904,-37.082508,-99.766514,-33.871662,-102.475776,-28.233261,-93.939251,-21.300224,-74.423652,0.0,9.710622,25.827381,34.657517,43.925031,48.081933,56.870585,65.700524,64.984528,78.302819,0.0,40.411428,37.144809,72.505977,44.163385,80.961215,48.009658,82.297222,49.546462,77.038078,0.0,-48.164762,-3.785587,-27.731909,10.009442,-18.68381,21.004322,-2.839917,29.641504,11.0893,40.127369,264.008187,-106.302497,163.338543
94,-1.210006,-0.059602,12.985164,29.810993,0.0,-65.404084,-35.571511,-98.739018,-32.377911,-101.540348,-26.847496,-92.787781,-20.120911,-73.254216,0.0,5.372644,24.07761,32.411371,42.318965,48.160332,55.775047,65.464193,64.314586,77.740002,0.0,42.46934,29.603875,75.201508,35.006224,81.107964,38.656597,80.717262,40.075115,73.165592,0.0,-43.253931,5.482897,-21.001417,22.056843,-10.14742,34.427837,8.386129,43.052168,25.206704,39.757868,263.236168,-92.476828,192.437119
95,-0.860115,10.040284,7.223322,21.552497,0.0,-66.104725,-33.832043,-96.184754,-31.004815,-99.777237,-26.09887,-90.351471,-20.087403,-72.589406,0.0,7.395797,17.609463,24.208619,28.784423,32.073361,36.70705,43.979026,41.162034,51.988993,0.0,47.561932,27.806196,81.493916,32.635277,87.177899,36.311216,86.31245,37.772638,77.197969,0.0,-35.627697,13.228809,-11.041295,32.536323,1.638349,46.322139,21.758616,55.125407,41.03455,39.520169,272.952188,-84.63109,213.665352
96,-1.333924,-0.314322,5.565811,13.439754,0.0,-65.146339,-30.692871,-92.535908,-28.09283,-97.118294,-24.076355,-88.531254,-19.063797,-72.090923,0.0,5.416289,15.689853,20.549895,27.262226,29.657315,35.850412,41.569957,41.15513,51.08146,0.0,51.44355,27.531332,85.795979,31.471127,91.149102,34.8389,89.446381,36.422899,78.546175,0.0,-25.323911,16.760946,6.317364,39.063293,22.115293,55.611575,43.520598,66.67749,62.597721,38.425747,272.46402,-78.825777,226.93126
97,-1.651748,0.069111,7.316792,15.747455,0.0,-65.231804,-30.049233,-79.484459,-27.372197,-83.274731,-23.552994,-77.209523,-18.606926,-68.634579,0.0,2.668655,14.312436,18.03501,25.835359,27.624874,34.716501,39.484967,40.759792,49.302035,0.0,55.715755,27.380705,86.724769,29.405502,90.621208,31.035375,86.630951,31.141142,73.744943,0.0,-19.64196,21.0751,17.031233,43.821667,33.405404,60.271421,53.972027,70.832069,71.118017,36.786335,272.615413,-71.496649,242.760997
98,-1.792672,0.407701,3.805029,10.137237,0.0,-66.801521,-27.756614,-65.019642,-25.165844,-64.164058,-21.790786,-58.118946,-17.328186,-54.560463,0.0,3.678077,12.872034,15.446976,24.172445,26.595001,33.011943,37.165078,39.348918,45.810444,0.0,61.597217,29.093902,91.86129,28.501293,94.470005,27.585102,87.873607,25.666305,72.316497,0.0,-13.789793,24.965643,27.091203,46.822831,43.723331,62.006788,61.621947,71.229125,75.017723,34.855224,273.220209,-67.830059,253.095329
99,-0.511139,1.170855,0.726722,4.118111,0.0,-59.938705,-28.495084,-48.962946,-27.046165,-44.639659,-24.671264,-39.954448,-21.013847,-43.025756,0.0,5.29595,13.221369,16.684505,24.128109,26.574994,32.4507,35.318939,38.712587,42.830895,0.0,68.869332,32.155781,100.797284,28.3098,102.753559,24.117909,93.332119,19.652779,74.77184,0.0,-7.710861,28.644497,36.306006,48.370654,52.257879,61.183951,66.085896,68.160796,73.924518,34.136741,274.605243,-67.310681,257.427619
100,-1.166336,-8.121747,4.981945,3.465025,0.0,-51.237728,-30.510893,-31.21301,-30.771846,-23.874183,-29.630081,-22.291076,-26.873176,-31.946102,0.0,0.380259,18.631816,24.926628,36.374228,43.176444,50.155197,54.529306,60.795991,64.804717,0.0,70.686333,31.389073,102.051888,24.933918,102.579209,18.509697,90.492897,12.525902,69.880372,0.0,-3.636321,29.465395,44.652946,47.969486,60.52936,60.008211,71.962597,66.713404,75.490521,32.78758,266.657091,-62.511561,261.066239
101,-3.590652,4.670554,4.60999,2.179012,0.0,-38.917465,-31.52445,-9.695086,-33.358921,0.156155,-32.542076,-0.446663,-29.77945,-18.860561,0.0,-3.629566,17.502845,26.781722,34.080509,43.849783,46.843683,53.418688,56.72228,60.123023,0.0,70.949421,31.459282,101.14056,24.3166,101.568821,17.062614,88.604518,10.371437,67.652458,0.0,-1.126192,30.261814,47.998904,48.326292,63.203485,59.960897,73.292885,66.496079,75.723764,29.048069,271.465787,-58.05043,263.383393
102,0.265663,2.421135,2.633915,0.879869,0.0,-33.415787,-33.17486,-3.885687,-36.682617,7.906437,-37.154995,7.994705,-35.627071,-10.712643,0.0,-4.246996,17.099813,29.120654,33.453668,45.807147,45.937064,53.011654,55.590172,57.992486,0.0,70.913108,31.881992,100.353012,24.410751,100.746688,16.708396,87.405921,9.509708,65.670833,0.0,0.735855,30.158222,50.197565,48.276596,65.183377,59.912078,74.452855,66.533389,75.821861,29.215834,273.998511,-55.514413,264.374851
103,-2.235901,3.677447,1.760582,0.235195,0.0,-23.289013,-32.736757,5.15003,-37.879211,13.171955,-39.36652,10.171326,-38.498291,-11.204716,0.0,-6.047539,15.87009,29.527639,31.795806,44.736444,43.883863,51.645895,53.258032,56.381257,0.0,70.830368,31.782154,99.415901,24.083667,100.257293,16.080402,86.494583,8.519485,64.190952,0.0,2.633717,30.577211,51.943483,48.696202,66.383657,60.201761,75.2163,66.630263,75.796692,26.927198,277.725982,-53.806566,264.66007
104,1.484505,1.812887,0.35036,0.026466,0.0,-24.094437,-35.927548,6.041794,-41.325989,12.636017,-42.803742,8.923141,-41.739304,-14.517975,0.0,-5.27803,15.038745,31.185144,30.511385,44.965736,42.355447,51.014843,51.679377,55.343473,0.0,70.951687,31.909321,99.10381,24.018151,100.197499,15.779309,85.944317,7.984715,62.994152,0.0,4.623933,31.307768,53.492246,49.33049,67.520161,60.568756,75.905743,66.677848,76.108655,28.444988,279.54515,-53.422921,264.692817
105,2.235695,1.131551,-0.223915,-0.178767,0.0,-26.08833,-36.8829,4.903953,-41.833123,10.557037,-42.447041,7.077736,-40.35513,-14.314522,0.0,-5.194642,13.496973,29.820114,28.693392,43.729123,40.642689,50.482024,50.227897,54.699417,0.0,70.906002,32.22694,98.76138,24.153683,99.886608,15.640389,85.296032,7.499096,61.848976,0.0,6.367443,32.013649,54.465876,50.019513,68.360571,61.12882,76.480886,67.068604,76.218879,30.73498,280.673252,-53.592539,264.510601
106,4.941066,-1.234983,-0.258854,-0.071865,0.0,-33.907201,-40.958593,-1.630954,-45.663866,4.193985,-46.136318,1.251298,-43.782342,-19.10119,0.0,-1.697562,14.040846,31.021628,29.388725,44.925722,41.535513,51.026576,51.37018,55.802439,0.0,70.933571,32.199978,98.590645,23.994324,99.725785,15.340348,84.868035,6.988335,61.034741,0.0,7.518001,32.385831,54.659081,50.351755,68.832406,61.413662,76.748586,67.295129,76.134651,35.803144,279.431016,-53.724295,264.431483
107,1.488236,0.942422,-0.229831,-0.000433,0.0,-34.418627,-42.720457,-2.435543,-47.420111,2.653381,-47.63641,-1.098633,-44.899046,-24.938147,0.0,-1.090815,13.252874,31.254848,27.997514,44.525728,39.783716,50.059367,49.31546,54.722326,0.0,71.000576,32.146831,98.524784,23.930637,99.807117,15.27412,84.768802,6.900478,60.832489,0.0,8.392079,32.748109,54.903342,50.675031,69.106467,61.690107,76.846684,67.515826,76.096639,37.465462,280.339151,-53.780044,264.396763
108,3.526222,-1.237083,-0.2501,-0.010151,0.0,-41.457121,-46.620672,-6.110447,-51.421022,-0.403061,-51.51353,-3.698021,-48.634157,-26.761396,0.0,0.520315,12.922423,32.503565,28.442413,46.181479,41.03184,51.591988,51.224919,55.858954,0.0,71.060658,32.292893,98.618809,24.045605,100.031376,15.352662,84.881253,6.95105,60.933609,0.0,9.113471,32.81964,55.132855,50.804682,69.28868,61.893216,76.880139,67.796419,76.163859,41.183721,279.059791,-53.838107,264.344335
109,-2.633102,0.788701,-0.027832,0.012523,0.0,-34.762453,-42.255118,-2.163128,-47.352499,3.130897,-47.445809,-0.62558,-44.571184,-21.001173,0.0,-1.79036,11.872209,29.589526,27.592999,44.01126,40.275336,50.639401,50.416334,55.040909,0.0,71.126805,32.150128,98.340992,23.895024,100.01492,15.233986,84.88345,6.910584,61.087372,0.0,9.605733,32.737932,55.028496,50.809881,69.166167,62.037996,76.733853,68.081941,76.113607,38.714939,279.818811,-53.701619,264.327177
110,-1.818215,-0.13464,-0.065277,-0.058231,0.0,-34.430998,-42.89166,-1.767299,-47.581426,4.70089,-47.553497,1.465966,-44.65341,-19.786657,0.0,-0.524342,12.900093,31.741354,28.08815,45.059424,40.028654,50.408936,49.340493,54.268584,0.0,71.119229,31.909504,98.290455,23.678318,100.174862,15.116673,85.007779,6.952069,61.402806,0.0,9.926638,32.576146,54.906614,50.774289,69.146321,62.130881,76.673227,68.262289,76.174246,37.044914,279.654902,-53.618706,264.239677
111,-4.995472,0.885513,-0.00967,0.031443,0.0,-26.794063,-37.160259,3.335816,-41.843353,9.579964,-42.027649,6.276398,-39.520969,-12.040523,0.0,-2.585453,12.186629,30.020148,27.437696,43.593234,39.288465,49.647294,48.433429,53.072799,0.0,71.122009,31.824062,98.192963,23.58981,100.261597,15.054588,85.056633,6.990944,61.673653,0.0,10.189053,32.49697,54.982048,50.742302,69.137985,62.164572,76.622036,68.346974,76.258227,32.152273,280.489597,-53.525545,264.220302
112,-1.276702,-0.522989,0.001431,0.07746,0.0,-25.571515,-36.525284,4.21479,-41.139016,10.742454,-41.201134,8.122055,-38.608853,-5.447915,0.0,-2.07101,12.942627,29.936637,28.506127,44.011211,40.453251,50.244816,49.480185,53.484761,0.0,71.065921,31.752342,98.223804,23.525459,100.326999,15.021125,85.085643,7.038494,61.977184,0.0,10.264734,32.384287,54.92488,50.63125,69.055115,62.088656,76.447492,68.310134,76.28389,30.943114,279.9083,-53.456571,264.239454
113,-4.247979,1.620343,-0.045903,0.134986,0.0,-18.962608,-32.156662,8.300515,-36.408199,14.487831,-36.432781,11.526215,-33.946323,-2.782928,0.0,-4.171487,12.573113,28.438226,27.65817,42.21872,39.102201,48.68032,47.656498,51.929676,0.0,71.054261,31.568871,98.235993,23.416523,100.250954,15.02203,85.119645,7.192715,62.328392,0.0,10.159166,32.393019,54.582993,50.616085,68.808966,62.080691,76.265217,68.318186,76.400846,26.739715,281.459647,-53.457894,264.305444
114,0.62629,-1.065306,-0.170494,0.056774,0.0,-21.814705,-34.563618,6.9944,-38.897999,13.616295,-39.430207,10.73497,-37.581894,-5.076874,0.0,-3.742235,13.541458,30.213514,29.135117,44.233908,40.984725,50.318522,49.811205,53.655662,0.0,71.039727,31.532238,98.243889,23.430462,100.232003,15.072956,85.04599,7.290173,62.374546,0.0,10.098959,32.44621,54.497542,50.624778,68.944199,62.049593,76.328968,68.271897,76.679414,27.393236,280.319271,-53.601157,264.287148
115,-3.695732,1.580576,-0.132557,0.104037,0.0,-13.900967,-30.722065,12.142936,-35.881897,17.260574,-36.831551,13.259101,-35.244542,-5.164147,0.0,-7.373481,11.119508,27.122696,27.234945,42.35015,39.782172,49.898038,49.326328,53.256631,0.0,71.073452,31.575131,98.235066,23.473046,100.123227,15.071034,84.930783,7.226132,62.212967,0.0,10.07432,32.346595,54.200164,50.499289,68.81866,61.932106,76.241258,68.18126,76.743511,23.723008,281.817027,-53.70821,264.308365
116,-3.262001,1.444577,-0.199871,0.063751,0.0,-10.671216,-29.672528,15.422561,-34.943287,20.972991,-35.878006,16.762756,-34.135964,-3.293267,0.0,-9.599954,10.218965,25.968012,26.145619,41.495919,38.701256,48.855815,48.34814,52.489369,0.0,71.047898,31.348778,98.273598,23.319248,100.203736,15.012726,85.002892,7.259548,62.29628,0.0,10.041395,32.255167,53.779681,50.449803,68.686811,61.921819,76.132219,68.204738,76.782364,20.486538,283.18039,-53.88255,264.290902
117,-8.184792,3.243416,-0.160743,-0.004817,0.0,0.875313,-21.219212,24.704155,-26.642361,30.033623,-28.018501,24.638008,-26.83651,3.445816,0.0,-15.185563,7.283856,22.240176,22.998891,38.177414,35.664074,46.369249,45.644348,50.168443,0.0,70.980537,31.235836,98.207359,23.242137,100.224083,14.962944,85.000785,7.236167,62.165233,0.0,10.099688,32.16542,53.589923,50.419212,68.678006,61.952991,76.151103,68.291856,76.799544,12.339008,286.340477,-54.006031,264.202756
118,-5.874229,0.930529,-0.093007,0.011091,0.0,7.844123,-16.774041,31.489288,-22.228329,36.629905,-24.018597,31.155761,-23.355,8.147426,0.0,-16.238036,6.56234,21.515955,22.126037,37.945653,34.759789,45.252406,44.788797,49.184104,0.0,70.90495,31.169529,98.114125,23.200688,100.273579,14.920613,84.991253,7.173935,62.114811,0.0,10.200587,32.129085,53.529715,50.408405,68.641251,61.965859,76.051153,68.322768,76.603127,6.518,287.181313,-54.045817,264.124154
119,-5.143307,-0.407454,-0.150363,-0.05539,0.0,13.973259,-10.971268,37.455997,-16.467316,41.864994,-19.065766,36.038532,-19.666592,12.818367,0.0,-16.671808,6.125098,20.857523,21.880654,38.00397,34.766915,45.459937,45.164647,49.598425,0.0,70.907363,31.098552,98.135719,23.15419,100.373519,14.902118,85.199043,7.176338,62.285591,0.0,10.297079,32.15849,53.318307,50.502055,68.49636,62.083691,75.96401,68.412071,76.481602,1.435164,286.668757,-54.135709,263.963662
120,-3.012188,0.282212,-0.081986,-0.051562,0.0,14.926277,-8.254978,40.547081,-13.657047,45.879043,-16.522911,38.751732,-17.605019,15.943016,0.0,-17.923119,6.891124,21.213848,22.620584,37.64215,35.321557,45.022658,45.51324,48.934991,0.0,70.677361,31.067207,98.104843,23.108368,100.370453,14.824059,85.14489,7.051437,62.110462,0.0,10.292077,32.169482,53.125337,50.546887,68.523024,62.110837,76.010706,68.415505,76.474637,-1.520056,286.836351,-54.160727,263.797482
