takenoko1/special-research/HandMotion_SimilarSearch_自分用/NewProject/handData/test_key/d4_feature_d3/19.csv
frame,vel_0x_L,vel_0y_L,vel_0x_R,vel_0y_R,posFromWrist_0x_L,posFromWrist_1x_L,posFromWrist_2x_L,posFromWrist_3x_L,posFromWrist_4x_L,posFromWrist_5x_L,posFromWrist_6x_L,posFromWrist_7x_L,posFromWrist_8x_L,posFromWrist_9x_L,posFromWrist_0y_L,posFromWrist_1y_L,posFromWrist_2y_L,posFromWrist_3y_L,posFromWrist_4y_L,posFromWrist_5y_L,posFromWrist_6y_L,posFromWrist_7y_L,posFromWrist_8y_L,posFromWrist_9y_L,posFromWrist_0x_R,posFromWrist_1x_R,posFromWrist_2x_R,posFromWrist_3x_R,posFromWrist_4x_R,posFromWrist_5x_R,posFromWrist_6x_R,posFromWrist_7x_R,posFromWrist_8x_R,posFromWrist_9x_R,posFromWrist_0y_R,posFromWrist_1y_R,posFromWrist_2y_R,posFromWrist_3y_R,posFromWrist_4y_R,posFromWrist_5y_R,posFromWrist_6y_R,posFromWrist_7y_R,posFromWrist_8y_R,posFromWrist_9y_R,posFromBody_0x_L,posFromBody_0y_L,posFromBody_0x_R,posFromBody_0y_R
6,1.139156,2.529828,0.113525,-0.230156,0.0,12.516861,-10.735657,43.651337,-16.602516,49.063545,-19.463791,41.289001,-20.580162,20.16552,0.0,-17.970753,6.210499,24.12953,23.349165,41.151698,37.425739,48.435369,48.851282,52.258509,0.0,72.642758,29.766175,96.730099,22.169095,98.282124,14.481995,84.973675,7.672417,65.591641,0.0,8.77776,30.792905,52.867109,49.365861,67.279384,61.692997,76.391348,68.714191,79.698355,-1.198128,285.147891,-49.966542,262.481649
7,-2.041168,4.237709,0.041611,-0.142878,0.0,16.296238,-9.656433,47.040024,-15.679184,51.91587,-17.850334,43.664085,-17.82383,20.839737,0.0,-22.781617,3.687994,21.351168,20.336411,38.461627,34.208579,45.616462,45.522255,49.331243,0.0,72.477345,30.070244,96.905399,22.537605,98.373264,14.726143,84.752461,7.709107,65.511395,0.0,8.797557,30.650694,52.781387,49.219574,67.407232,61.635174,76.605474,68.872828,80.717903,-3.347116,289.295444,-50.032751,262.248615
8,-0.48087,-0.561509,0.074776,-0.00226,0.0,16.61895,-9.339397,49.614178,-15.380779,52.39555,-17.62183,44.454449,-17.491127,21.085064,0.0,-23.352647,4.505779,22.497676,21.093706,39.969572,34.645353,46.367792,45.446772,50.197293,0.0,72.453838,30.155193,97.215626,22.660583,98.477016,14.809913,84.688099,7.732612,65.628994,0.0,8.707969,30.587622,52.610684,49.154538,67.348816,61.622873,76.587566,68.970171,81.186181,-3.927138,288.661539,-50.057127,262.173959
9,4.347153,-3.341475,0.151932,-0.039545,0.0,10.365921,-11.97147,45.34972,-18.078403,47.936955,-20.834781,40.06509,-21.827843,17.554836,0.0,-20.44366,6.893779,24.615295,24.033346,40.966149,37.963634,47.756089,49.111523,52.65281,0.0,72.416553,29.938545,97.410221,22.447792,98.57127,14.626464,84.689769,7.601417,65.670009,0.0,8.787133,30.60285,52.477921,49.226169,67.248866,61.764553,76.476613,69.163463,81.334975,0.333687,285.266606,-49.991523,262.080956
10,0.017967,-0.55668,0.024559,-0.010954,0.0,10.252659,-12.28339,44.882161,-18.259826,47.954579,-20.776702,40.311596,-21.439281,18.306714,0.0,-19.248616,7.158676,24.616085,24.555743,40.972794,38.625525,47.949244,49.838313,52.717932,0.0,72.384624,29.95507,97.568012,22.452633,98.718029,14.611496,84.751499,7.556064,65.635769,0.0,8.807856,30.598514,52.370215,49.238864,67.123673,61.802208,76.373897,69.220791,81.116403,0.284946,284.664327,-50.033672,262.024403
11,-2.237297,-0.728421,0.123893,-0.078152,0.0,12.331776,-9.267917,47.390477,-15.373844,50.458454,-18.361633,42.519619,-19.840004,20.776005,0.0,-18.625208,8.210261,25.391325,25.610539,41.868398,39.426836,48.912576,50.186462,52.857785,0.0,72.363339,29.911457,97.611615,22.273236,98.685849,14.320233,84.701374,7.186764,65.392147,0.0,8.725395,30.784446,52.404487,49.391672,67.238147,61.899898,76.394745,69.2232,80.764167,-2.02299,283.906158,-49.980418,261.916503
12,5.314259,-3.841987,0.205811,0.060689,0.0,4.139385,-13.600914,41.554985,-19.581596,44.913185,-22.781021,37.43795,-24.678532,17.522598,0.0,-14.653743,11.030032,27.8215,29.089841,44.088065,43.1142,51.19371,53.982581,55.387539,0.0,72.315136,29.714355,97.460506,22.060844,98.611095,14.153194,84.762005,7.085586,65.470058,0.0,8.636116,30.708776,52.259324,49.399897,67.126032,62.006688,76.251137,69.372401,80.268669,3.223263,280.043821,-49.842613,261.956842
13,2.545704,1.440168,0.074879,-0.038175,0.0,1.848335,-15.620854,38.16251,-21.891632,43.236202,-24.958752,35.727962,-26.786762,15.881412,0.0,-16.868212,9.704917,25.182115,27.986608,41.674143,42.256894,49.655507,53.406511,53.912099,0.0,72.009567,29.733547,97.426002,22.068557,98.644867,14.17321,84.7313,7.135608,65.366821,0.0,8.621198,30.53059,52.11988,49.289081,66.939065,61.972739,76.183756,69.413688,80.178847,5.69751,281.469638,-49.839191,261.904316
14,-5.632794,1.402624,0.035762,0.064974,0.0,10.30988,-11.375507,44.750222,-17.785595,49.47741,-20.658931,41.571625,-22.021797,21.434578,0.0,-17.368551,8.340183,24.267973,26.330178,41.61112,40.449965,49.400465,51.434178,52.864713,0.0,71.770077,29.898537,97.566182,22.300461,98.686604,14.48021,84.72543,7.511834,65.423687,0.0,8.427734,30.166003,51.977483,49.013933,66.694397,61.820054,76.009941,69.403635,80.090902,-0.008938,282.86353,-49.877083,261.960558
15,0.876686,-3.32626,0.092835,0.125107,0.0,9.075772,-11.510478,43.030266,-17.277065,48.011513,-20.422348,41.225075,-22.536804,22.196389,0.0,-13.678482,10.764875,24.896012,29.174673,43.179778,43.489839,51.478811,54.658216,55.54557,0.0,71.553783,29.985981,97.567623,22.483818,98.801662,14.737541,84.720165,7.835174,65.487957,0.0,8.317311,29.926806,51.710832,48.831139,66.354671,61.691526,75.707289,69.356654,79.867204,0.790311,279.533127,-49.861685,262.081522
16,0.270562,1.00006,-0.053593,0.043336,0.0,10.258838,-11.12217,42.255134,-16.922974,47.395317,-20.319878,39.019478,-22.6852,18.769489,0.0,-13.926743,9.980077,24.704747,28.649375,41.324005,43.271144,49.449705,54.759981,53.974096,0.0,71.406235,30.054486,97.803566,22.681973,99.100708,15.072659,84.961029,8.290375,65.795014,0.0,8.384323,29.54572,51.565744,48.573615,66.159083,61.533742,75.447987,69.299919,79.768404,0.966259,280.532242,-50.009892,262.123913
17,-3.955273,-0.507255,-0.064865,-0.09023,0.0,15.635502,-7.152203,46.943836,-12.858204,51.093006,-16.604359,42.501171,-19.554794,22.549622,0.0,-14.068498,9.677759,23.668735,28.378093,40.909524,43.287582,49.477975,55.132843,54.13871,0.0,71.203102,30.2696,98.07058,22.962662,99.419426,15.366474,85.130287,8.579132,65.93898,0.0,8.389288,29.358616,51.520209,48.419523,65.983181,61.390852,75.283608,69.20197,79.740012,-3.091707,280.031381,-50.17745,262.040077
18,0.570465,-3.457467,-0.095764,-0.06033,0.0,12.975289,-6.44585,46.311642,-11.8824,49.091915,-16.358185,40.724133,-20.586639,21.982819,0.0,-11.640533,11.945135,25.581862,30.967819,42.737398,46.18538,51.464411,58.325931,57.212818,0.0,71.295891,30.517376,98.186073,23.312576,99.659317,15.729744,85.283752,8.890949,66.145271,0.0,8.270258,29.185999,51.507464,48.303062,65.914452,61.31559,75.140112,69.176307,79.635196,-2.667807,276.588982,-50.419779,261.994815
19,2.662834,1.847807,0.028999,-0.08545,0.0,10.823983,-8.953548,44.27853,-14.627678,46.5733,-18.8913,37.353894,-22.721557,18.128517,0.0,-14.907254,10.686971,23.794965,29.701392,39.911304,45.027177,49.05491,57.334368,55.204658,0.0,71.386299,30.413166,98.119995,23.316513,99.901909,15.797196,85.486107,8.980328,66.287018,0.0,8.059269,29.218652,51.22251,48.312571,65.772772,61.287247,74.971459,69.115594,79.453255,-0.20699,278.467491,-50.592797,261.940067
20,-3.32436,1.548638,-0.085144,-0.27821,0.0,15.975071,-7.011978,47.901627,-12.837398,50.786934,-16.758121,41.227456,-19.743118,21.489773,0.0,-14.961519,9.4324,23.357291,28.11584,39.817012,43.092612,48.847454,55.07271,54.238215,0.0,71.556725,30.47422,98.236359,23.396176,99.920449,15.864659,85.570954,9.007176,66.321762,0.0,7.95307,29.134993,51.187794,48.250364,65.862409,61.249418,75.122093,69.078494,79.60642,-3.781866,280.062695,-50.928457,261.708423
21,3.097493,-2.410192,0.146507,-0.196626,0.0,10.350208,-9.191059,44.659916,-15.016411,47.150447,-19.268326,39.424244,-22.946972,21.078769,0.0,-14.987628,10.678313,22.574851,29.522921,40.719827,44.690032,50.447357,56.949984,56.656373,0.0,71.531434,30.392315,98.027825,23.368802,99.788247,15.863698,85.477227,9.02108,66.267609,0.0,7.849367,29.177576,51.137986,48.267543,65.8693,61.296917,75.155105,69.170588,79.544831,-0.943016,277.710561,-51.040593,261.569855
22,-1.545582,1.815338,0.223446,-0.143718,0.0,14.540542,-9.480583,46.86644,-15.590206,50.345283,-19.20567,41.19445,-21.563507,21.358017,0.0,-15.004547,9.295907,23.012193,28.034341,40.051811,43.102578,49.685258,55.22616,55.052394,0.0,71.64449,29.972535,97.770367,23.031853,99.474072,15.692116,85.400792,9.033772,66.297192,0.0,7.868756,29.107687,50.953464,48.244695,65.726855,61.344947,75.125218,69.234056,79.449241,-2.788164,279.580381,-51.116713,261.480619
23,-2.917294,3.70668,0.40614,-0.248805,0.0,19.592354,-7.554371,50.756436,-14.21989,54.433445,-17.692188,44.380909,-19.426517,23.525013,0.0,-18.984127,6.453486,21.399914,24.665201,38.068153,39.496984,47.393935,51.538116,51.90421,0.0,71.610809,29.516029,97.486381,22.535785,98.946693,15.240726,85.111976,8.654903,66.003547,0.0,7.933125,29.121556,50.813118,48.269532,65.732845,61.408611,75.23301,69.297091,79.502483,-6.004469,283.344464,-51.009584,261.289217
24,3.932316,-2.759638,0.217197,-0.238171,0.0,13.12587,-9.737286,45.907311,-16.34824,49.85035,-20.329697,40.737969,-22.898678,20.852989,0.0,-16.462043,7.855257,22.330023,26.42242,39.762918,41.496178,49.026863,53.798687,54.069673,0.0,71.629887,29.376675,97.380284,22.369801,98.589672,15.092068,84.939045,8.519165,65.886395,0.0,8.026034,29.004872,50.854502,48.202878,65.777181,61.420023,75.349149,69.34549,79.566628,-2.368635,280.644937,-51.088869,261.111157
25,2.930706,0.328993,0.298187,-0.20516,0.0,9.786175,-12.065575,42.933323,-19.401878,46.600399,-23.55788,37.389988,-26.185249,17.177136,0.0,-17.523569,7.085761,22.358676,25.608662,39.255861,40.901818,48.547656,53.482032,53.663924,0.0,71.552685,29.233853,97.129589,22.150212,98.204602,14.794201,84.673176,8.141373,65.531376,0.0,8.204975,29.096078,50.865433,48.201396,65.844156,61.339315,75.396673,69.224411,79.613979,0.272919,281.026844,-51.079834,260.958911
26,-4.851711,1.94646,0.095066,-0.206308,0.0,16.273739,-8.573708,48.07592,-15.843098,52.191055,-19.749424,43.216667,-21.799656,21.663872,0.0,-17.781315,5.808515,22.651002,24.023034,39.194394,39.027063,48.046513,51.210271,52.484466,0.0,71.569748,29.432683,97.222825,22.320729,98.123291,14.889954,84.65149,8.131806,65.375199,0.0,8.328908,29.439312,50.809684,48.438481,65.808464,61.457468,75.449754,69.254446,79.750867,-4.884384,283.027783,-51.29036,260.807082
27,6.817863,-1.331994,-0.016147,-0.289115,0.0,6.335278,-12.503494,40.220604,-19.682029,44.236862,-23.98685,36.815987,-26.724735,15.857483,0.0,-17.832975,6.420104,22.618448,24.568587,40.107733,39.440841,48.672552,51.6363,53.717338,0.0,71.632015,29.876541,97.444988,22.652939,98.245754,15.010746,84.742733,8.008049,65.280247,0.0,8.445097,29.838491,50.859467,48.707996,66.005583,61.573102,75.628829,69.236908,79.89062,1.641786,281.772758,-51.5982,260.594936
28,3.85936,-1.314011,-0.03788,-0.184844,0.0,1.843723,-15.718311,35.986656,-22.802113,40.009232,-26.59782,33.389969,-28.760445,12.68161,0.0,-15.59871,7.039905,22.369753,25.216793,39.991493,40.082661,49.09301,52.179691,54.588586,0.0,71.630459,30.242981,97.872082,22.973682,98.533688,15.219852,85.047512,8.071976,65.459392,0.0,8.439256,29.999091,50.607699,48.758706,65.832127,61.533372,75.584765,69.175949,79.941491,5.216515,280.542712,-51.920711,260.494057
29,-4.575073,1.4663,0.282909,-0.154858,0.0,7.906814,-13.235745,40.367546,-20.077858,44.786361,-23.295181,38.608154,-24.487049,17.467346,0.0,-15.904349,6.109512,21.979541,23.822963,39.725399,38.250712,48.580754,49.878982,53.49006,0.0,71.55098,30.365605,98.113243,22.940243,98.393166,15.027031,84.929856,7.728424,65.10054,0.0,8.412716,29.963351,49.956541,48.733821,65.574245,61.457703,75.396451,69.040604,79.818879,0.385861,282.080038,-51.893383,260.410225
30,6.354801,-2.183111,0.542164,-0.097948,0.0,-0.123974,-18.255764,33.877247,-25.040463,38.345203,-28.543762,32.154087,-30.002953,10.066051,0.0,-13.12657,7.35146,23.245213,25.148509,40.956726,39.553151,49.475714,51.220707,55.188714,0.0,71.237446,30.089848,98.184483,22.619316,98.129414,14.683502,84.739094,7.331658,64.677395,0.0,7.710675,29.182504,48.389611,48.106609,65.187391,61.006628,75.16522,68.727035,79.839417,6.487764,279.970159,-51.604117,260.385509
31,3.377941,1.009816,0.945328,-0.773263,0.0,-2.485245,-20.242927,30.95002,-27.587356,34.45047,-31.194225,26.541367,-32.507252,1.013855,0.0,-15.415471,6.02857,21.199633,23.549459,39.426453,37.896796,48.697054,49.531883,54.584475,0.0,70.668697,29.883099,97.543659,22.108669,96.831127,13.806713,83.281322,5.978199,62.192573,0.0,7.037904,27.879483,47.484374,47.124493,66.135148,60.40571,76.39961,68.445404,80.768192,9.602583,281.079835,-50.921911,259.712106
32,2.686546,-2.801566,1.106152,-2.114026,0.0,-7.040107,-21.464286,20.14357,-25.536048,25.008408,-25.899719,19.929543,-23.732723,0.33268,0.0,-7.433861,10.086707,28.728243,25.100356,44.751511,37.128213,51.785278,46.328567,55.167175,0.0,69.803741,29.883338,96.490928,21.568473,93.891426,12.426818,79.24784,3.537059,56.802394,0.0,6.798795,26.656159,47.468172,45.852262,68.877027,59.419915,80.092199,67.884365,84.33339,12.013996,278.452714,-50.090892,257.772525
33,5.931931,-7.556497,1.265728,-5.225554,0.0,-17.554894,-21.227852,2.249714,-21.8657,7.104572,-19.563549,6.106293,-14.985329,-3.693443,0.0,-0.089859,15.531538,36.755154,29.663762,55.056988,40.410198,61.917607,48.042512,65.451719,0.0,68.788959,29.225967,93.077648,20.175624,87.885486,9.838485,71.736179,-0.439168,49.170112,0.0,8.412456,26.203676,48.754408,44.97858,73.24104,58.390856,86.213257,66.855071,88.709197,17.583927,271.335716,-49.187164,252.98647
34,10.286591,-7.816948,1.850521,-7.977338,0.0,-29.371754,-22.24696,-14.883763,-19.092797,-8.748768,-13.368393,-4.433236,-6.102746,-5.028649,0.0,5.170004,18.712092,45.17822,30.644927,64.498059,39.496317,71.095238,45.347823,71.733651,0.0,63.871765,27.381019,84.865081,17.382442,78.101051,5.562606,61.885631,-6.58104,37.398971,0.0,12.209822,23.873598,51.082781,41.600696,76.726134,54.713829,89.159987,63.508285,92.2306,27.38522,264.176077,-47.821941,245.666441
35,9.178596,-21.639209,-4.3984,-23.091814,0.0,-32.910496,-20.511932,-27.797115,-12.267586,-19.764965,-1.75589,-9.961853,9.614628,-0.180954,0.0,17.450308,23.469578,61.85703,33.558113,81.232753,41.078091,86.834183,45.566407,83.801608,0.0,63.589703,29.25935,81.377793,17.65186,72.832913,3.767716,55.183754,-10.565792,28.042809,0.0,16.490164,24.863532,57.116056,42.230032,84.626149,55.40536,97.813912,64.289552,100.128713,35.913208,243.830983,-52.870949,223.868742
36,19.383453,-36.694874,-7.675575,-35.628604,0.0,-48.108982,-25.673835,-48.707691,-12.204872,-37.670894,3.20652,-20.734405,18.925003,3.438103,0.0,32.92989,30.309486,80.260691,38.970377,99.915218,45.198659,103.213974,48.509222,97.133139,0.0,62.633778,30.550095,77.62793,17.140881,67.075973,1.066109,47.745243,-15.394981,18.834949,0.0,21.812734,26.326226,64.444915,42.621381,92.381518,55.198125,106.602786,63.606271,108.537143,54.467422,209.152029,-61.375763,190.256058
37,14.932228,-45.532382,-10.790268,-46.803034,0.0,-50.401142,-25.448478,-52.862171,-10.751152,-41.47649,6.028245,-21.399261,22.822701,7.546258,0.0,37.740209,30.622566,89.343534,39.4035,110.931972,46.144693,114.394083,50.196305,106.998817,0.0,62.60511,30.420021,73.859493,15.38229,61.352039,-2.282043,41.222729,-20.05109,10.27327,0.0,23.059988,25.091268,69.713857,40.236705,96.882679,52.277183,110.862726,60.63323,111.835986,68.347343,165.674031,-73.218338,145.507408
38,17.119423,-55.834957,-12.74612,-56.54119,0.0,-53.856708,-27.551719,-52.907409,-11.658943,-39.386329,6.330986,-17.226219,24.193772,12.325058,0.0,37.697552,29.089081,97.325034,36.142831,115.990448,42.070426,117.293913,45.999895,105.426935,0.0,62.547123,30.769878,71.046455,14.256454,57.112667,-4.835919,35.689933,-23.78405,1.646415,0.0,22.553504,23.084237,72.444274,37.081845,97.896405,48.579846,110.268909,56.918973,112.045801,83.807533,111.782856,-87.623691,90.91
39,15.882775,-64.67456,-16.514832,-60.86233,0.0,-58.784775,-29.516098,-53.84372,-12.572159,-38.921471,6.567878,-16.07428,25.698326,13.55294,0.0,35.69188,26.003568,98.822927,32.194343,115.375267,37.968816,114.501727,42.230063,101.657536,0.0,65.295925,32.97274,74.672321,15.655724,58.589859,-4.252178,33.860447,-23.931793,-0.725967,0.0,21.716169,17.88886,59.673468,28.871955,91.938719,39.139109,107.547642,47.680457,106.563915,98.118416,50.957409,-105.710415,33.896783
40,13.530075,-55.932103,-9.847412,-53.921608,0.0,-61.387024,-31.106049,-57.41787,-14.300377,-41.939186,4.85614,-18.196587,24.202446,10.830528,0.0,26.543464,14.973827,67.442235,18.575704,95.596783,23.070325,95.784349,27.026309,83.418836,0.0,63.686806,30.728342,72.644983,13.029516,52.971331,-7.401781,25.810913,-27.506144,-8.109266,0.0,20.189951,9.000968,42.440981,16.235268,80.212436,24.786518,95.836673,33.414622,93.136843,109.823502,-1.216826,-117.382816,-16.266957
41,6.63018,-54.453989,-6.346218,-48.894285,0.0,-61.249786,-30.027031,-57.279785,-13.578918,-40.524101,5.438233,-16.812172,24.766434,11.146797,0.0,10.833122,4.446449,42.118366,6.141338,75.438996,10.095673,76.971073,14.501087,66.018514,0.0,63.058056,27.915693,70.385359,10.026758,45.947153,-10.771357,16.396271,-30.999647,-16.574061,0.0,16.926535,-0.964122,21.745478,3.035571,65.978509,10.26727,79.318074,19.106196,75.008682,114.896107,-52.463727,-125.286609,-61.954154
42,2.956101,-43.076248,-3.746704,-41.000082,0.0,-61.821144,-26.858277,-55.527718,-10.50364,-39.972725,8.321869,-16.934647,27.294319,10.797638,0.0,-5.37365,-6.772334,18.738586,-6.53357,53.285277,-3.133061,55.371431,1.434138,45.914939,0.0,61.117378,26.179247,69.59313,8.091322,41.960832,-13.336596,8.69712,-34.215288,-23.851473,0.0,16.487095,-9.869287,0.680459,-9.285358,52.700139,-3.474033,63.464116,5.308327,58.625141,116.719935,-91.944412,-130.165586,-99.358673
43,1.819564,-33.459779,-2.575138,-28.84237,0.0,-59.46865,-25.161415,-57.298553,-8.773429,-40.540214,10.125115,-15.115448,29.161927,12.283036,0.0,-5.930571,-16.582489,-8.675272,-17.76781,34.264208,-14.359968,36.731319,-9.07333,29.532644,0.0,61.143814,25.218355,70.452158,7.433652,39.608671,-14.189009,4.515575,-35.504374,-27.346144,0.0,14.344037,-20.136229,-21.430675,-23.061452,37.628346,-18.748421,47.367491,-9.957882,41.995332,118.470388,-121.672926,-132.809835,-124.469778
44,1.555138,-25.5254,2.10522,-25.939952,0.0,-58.009964,-24.503448,-61.414146,-8.51754,-43.533005,9.939926,-17.88002,28.497276,9.812897,0.0,-4.175872,-22.312184,-28.088419,-24.102977,21.944343,-20.23653,27.086266,-13.699323,22.719332,0.0,61.013947,21.444758,64.207209,3.359763,32.374758,-18.666246,-4.201137,-40.046384,-36.256513,0.0,7.778878,-21.656277,-17.85042,-24.645872,36.786492,-20.571963,41.431358,-12.482057,36.250042,120.166551,-145.21577,-130.56359,-148.427174
45,-2.38607,-16.577491,-0.213501,-15.406629,0.0,-56.522186,-22.202477,-60.868515,-6.605209,-39.907036,11.544777,-14.744454,29.471008,12.97245,0.0,-7.018286,-19.628835,-22.813307,-20.213429,22.870587,-15.699332,28.135325,-9.107361,26.338428,0.0,63.673783,20.440293,59.558476,1.866234,28.528096,-20.446598,-8.623958,-41.797805,-40.006542,0.0,0.487779,-21.583393,-8.350632,-24.253299,38.830885,-20.366521,40.816655,-13.376075,35.395345,118.134092,-159.796515,-130.42348,-161.837057
46,-2.389664,4.728365,1.042832,4.401853,0.0,-55.124096,-21.90469,-60.750973,-6.150375,-38.708896,12.025795,-12.781311,29.702763,16.044663,0.0,3.517198,-12.483613,-9.165746,-12.21621,34.510987,-7.870846,39.50482,-2.237537,37.345376,0.0,63.769626,18.71038,55.895748,-0.234696,26.389892,-22.901207,-10.932942,-44.438942,-42.991642,0.0,-6.313581,-22.689475,-0.756362,-25.458074,44.531609,-21.27444,45.872272,-13.814524,40.208123,115.733064,-152.57988,-129.392012,-154.946934
47,-6.168663,18.439426,1.985275,14.967423,0.0,-51.152584,-22.274769,-58.349544,-5.999061,-34.229198,12.565727,-6.709373,30.572239,23.600899,0.0,19.616019,0.540389,15.692148,2.064005,58.764721,6.391931,64.073991,11.161025,60.18555,0.0,62.615467,18.723507,51.135727,-0.567341,19.753533,-22.929451,-14.986496,-43.868774,-46.39722,0.0,2.321337,-10.944593,27.462221,-12.543864,63.793533,-9.237157,64.38085,-3.587081,54.422577,109.166645,-131.963187,-127.804493,-137.802244
48,-6.509788,34.021677,5.018612,29.02701,0.0,-49.523427,-20.852246,-50.06725,-3.778359,-25.569706,15.254059,0.505851,33.445987,31.408767,0.0,28.663269,18.201584,51.691387,21.525505,86.942474,25.061547,91.324148,27.40502,83.901688,0.0,60.719181,15.31152,40.86042,-5.176895,9.103375,-27.435162,-23.121986,-47.665466,-53.965485,0.0,13.581528,5.828087,62.436422,6.379923,89.533581,9.189218,88.497915,12.313971,74.070888,101.680401,-96.973502,-123.762337,-107.807226
49,-4.53051,42.422172,2.856228,42.151288,0.0,-49.346501,-19.108258,-40.389164,-1.827851,-15.846142,16.960144,11.042816,34.820263,41.575996,0.0,38.795277,33.942576,84.097241,37.863509,111.132892,39.450896,111.292307,37.944577,99.06586,0.0,60.451446,13.93967,35.355286,-6.932339,1.258507,-28.824875,-28.467888,-48.379189,-58.629513,0.0,25.411453,19.99696,85.250313,21.031298,107.394273,22.306701,105.343233,22.742896,86.745679,95.946362,-53.854902,-122.109638,-64.95951
50,-4.534676,40.510505,4.367592,39.187108,0.0,-49.394154,-15.423786,-28.347668,2.566933,-5.115543,21.371979,22.283295,39.183209,54.437691,0.0,50.921786,46.624144,114.068508,50.620657,132.336354,50.711955,128.517937,46.817997,110.149797,0.0,57.304916,10.568928,29.339561,-10.18594,-7.612381,-31.427731,-35.242459,-50.28217,-66.477162,0.0,38.521318,32.952456,103.50664,34.206212,123.608714,34.028775,119.795837,32.370017,97.604048,90.448545,-13.426217,-118.705187,-25.854222
51,-0.75119,21.472033,2.744419,20.648585,0.0,-51.19883,-13.102753,-20.95919,5.205665,1.903702,23.928383,30.215652,41.666862,62.275612,0.0,58.224858,54.180546,130.905976,57.698658,144.061334,56.420536,137.066636,50.563732,114.403518,0.0,56.6907,8.924652,24.178608,-11.920372,-14.60733,-32.306488,-40.111313,-50.34716,-71.100918,0.0,50.92018,46.832241,123.902047,49.051149,136.24304,47.271941,131.682914,42.471044,106.486097,89.057533,6.302482,-116.60059,-6.948971
52,3.009704,0.647101,0.543606,3.562319,0.0,-54.765838,-12.037948,-17.830627,6.402718,5.344437,25.19101,33.291871,42.786301,64.376976,0.0,56.113297,54.600844,132.173558,57.590385,143.547237,55.616268,134.644877,48.795392,110.531533,0.0,58.430889,8.045437,21.349765,-12.717842,-15.935486,-33.047493,-40.924725,-51.136082,-71.45739,0.0,48.200198,46.69045,124.448557,49.311354,135.789138,47.772737,131.318494,42.861819,106.755693,91.707841,4.152678,-116.41638,-6.183557
53,4.385697,-22.765024,-3.24947,-19.724656,0.0,-58.708534,-13.620575,-20.699204,4.453537,2.100586,22.795486,29.508201,40.065719,61.039558,0.0,49.399773,48.100675,126.569344,50.609291,136.895167,48.870789,127.631401,42.900036,104.686523,0.0,57.200134,11.19397,26.35191,-9.493675,-11.633343,-30.401081,-37.137096,-49.167858,-67.465897,0.0,44.417361,39.787112,117.505705,41.398921,130.652997,40.335968,126.40205,37.15865,102.688311,96.028336,-20.447667,-119.731052,-27.743534
54,4.744331,-34.853659,-3.946415,-28.389375,0.0,-60.433365,-17.156158,-26.860199,1.112183,-5.296119,20.503716,21.309082,39.040558,52.617623,0.0,40.193526,35.354279,112.359083,36.836736,124.480158,35.960062,116.965775,32.404835,96.101428,0.0,59.680607,13.907284,34.016521,-6.702576,-1.761635,-28.242508,-30.004566,-47.904957,-60.156372,0.0,27.949839,21.811585,91.31662,22.648618,112.061733,23.114849,110.979989,22.987035,89.583799,101.082544,-57.23788,-123.36759,-58.069463
55,5.421479,-36.906233,-2.674049,-35.31361,0.0,-65.249497,-21.479485,-35.54702,-3.056534,-15.473328,17.271377,11.799682,37.245025,43.32637,0.0,24.068378,20.299692,94.191149,20.834142,106.577318,20.57144,101.663714,19.145469,83.429732,0.0,61.836319,15.740673,42.174133,-5.280442,7.248767,-27.884674,-24.858879,-48.921914,-55.583897,0.0,19.858182,6.549663,64.543068,6.66337,95.878445,8.874717,96.799878,11.944889,78.689415,106.982981,-95.729626,-125.562681,-94.968586
56,4.337974,-31.647904,-2.603589,-31.04334,0.0,-68.571144,-23.888878,-41.260162,-5.563385,-23.020615,15.463509,3.445633,36.362366,35.243843,0.0,8.949873,7.301637,77.706996,7.483307,90.078747,8.278081,87.699973,9.400775,71.748501,0.0,63.803845,17.269639,47.570206,-3.791748,15.927853,-27.142021,-20.047279,-49.146709,-52.275867,0.0,8.81971,-6.169737,45.866144,-6.843004,80.591889,-3.324661,82.718543,2.203431,67.229443,112.096699,-127.655917,-127.390526,-126.290313
57,3.809349,-18.837303,-3.532756,-18.940413,0.0,-70.033745,-25.76223,-49.75367,-7.360451,-29.994255,14.08223,-3.278984,34.986946,27.077019,0.0,1.030843,-3.368988,55.189567,-3.802769,76.26192,-2.000874,75.355627,0.92604,62.293723,0.0,67.198723,18.457637,52.486736,-2.693333,22.819942,-26.558728,-15.876068,-49.222424,-48.836449,0.0,-3.077261,-15.123282,30.714648,-16.385099,67.272035,-12.223989,70.797341,-5.754333,57.056364,116.829014,-144.919445,-130.000316,-143.656951
58,1.644631,-2.305612,0.053146,-0.639753,0.0,-68.472611,-27.179787,-52.977539,-8.461785,-34.327149,13.682716,-6.975174,35.157371,23.152565,0.0,1.149564,-6.812197,48.050904,-7.792834,73.156781,-5.548281,72.889594,-1.639683,59.845072,0.0,69.535973,17.293362,53.7117,-3.676403,28.06628,-27.693592,-14.652615,-50.547077,-47.898228,0.0,-12.000097,-22.769832,6.803552,-24.822079,57.201778,-19.952648,60.871734,-12.556925,48.754405,119.475924,-145.71568,-128.944891,-142.787327
59,-0.297684,11.83744,-0.004337,3.499488,0.0,-69.366257,-26.508431,-53.848183,-8.225739,-34.873146,12.972748,-7.328865,33.633133,25.583336,0.0,4.255872,1.903799,58.635533,2.228872,83.316129,4.60684,82.901629,7.737681,69.209871,0.0,67.942508,18.719673,52.319046,-2.776303,24.962997,-27.115483,-16.101437,-50.268185,-49.322445,0.0,0.428369,-12.698648,28.190789,-15.154613,71.80559,-11.554274,72.87,-5.575948,59.621286,119.9154,-132.895028,-128.212068,-138.304627
60,-3.432793,25.382192,0.890121,21.193464,0.0,-66.218811,-23.373436,-48.882843,-4.914367,-29.212738,15.841141,-1.682876,35.564163,31.508698,0.0,15.770573,15.414755,75.21818,17.44991,100.411724,19.944506,98.758962,21.788108,84.240526,0.0,66.417492,18.517914,47.720833,-2.805324,20.021233,-26.43948,-18.217323,-48.587425,-50.671165,0.0,7.8332,0.764683,54.89888,-0.431586,88.978787,2.087837,89.032633,5.68424,72.799083,116.463444,-106.645462,-127.34111,-116.243789
61,-1.948288,34.080895,0.425675,32.856888,0.0,-63.549362,-20.997185,-44.538139,-2.521728,-23.745895,17.280281,4.473358,35.743927,38.034325,0.0,27.733947,26.226931,89.857013,29.416998,114.624943,31.573967,111.7447,31.628459,96.358826,0.0,64.695739,17.451919,42.762863,-3.960263,12.375229,-26.965622,-22.108292,-48.253464,-52.293526,0.0,19.34423,14.902829,75.148927,14.941756,106.476346,16.389692,105.085134,17.633287,86.631184,114.32773,-72.18679,-127.102861,-83.009124
62,-2.074196,34.533621,1.732452,35.862676,0.0,-62.291084,-17.913093,-34.879257,0.322518,-15.051269,19.078972,13.156952,36.906601,47.680939,0.0,37.549821,36.630826,111.576369,40.637298,127.170645,42.116628,124.254074,40.726194,106.181693,0.0,61.722919,14.955586,36.960823,-6.281456,4.604713,-28.406811,-27.625431,-48.87838,-57.236172,0.0,33.672394,27.346833,92.077641,27.944627,122.347221,28.343275,119.126079,27.706656,98.152236,112.16395,-37.977983,-125.459993,-47.471262
63,-2.668258,29.364297,-0.275322,28.440813,0.0,-61.678963,-13.94085,-28.114746,4.018982,-6.800309,21.952034,21.403633,39.109932,55.667701,0.0,42.436316,43.811492,121.37159,48.500812,133.483964,49.314972,129.915241,46.273703,110.391836,0.0,61.338879,13.512611,31.993424,-7.49921,-3.168171,-28.517544,-31.09742,-47.967499,-60.940304,0.0,44.693855,41.137365,120.887596,43.202379,136.383998,42.472977,132.095814,39.450844,108.921237,109.484688,-8.631593,-125.746319,-19.048356
64,-2.908676,19.107912,1.113522,23.595759,0.0,-58.944558,-10.792603,-22.695511,7.515724,-0.896004,25.657127,27.3834,42.619377,60.984123,0.0,46.276265,45.839128,122.547311,50.815229,134.089704,51.605245,130.192389,48.16689,110.370241,0.0,60.918548,10.464042,28.433624,-10.215466,-7.224484,-30.264485,-34.156025,-48.520695,-64.489563,0.0,47.951732,46.762518,123.920714,50.297069,139.677388,49.864513,135.313449,45.779865,111.835257,106.754288,11.052641,-124.454521,5.123725
65,-0.908226,5.692468,-1.054139,12.00068,0.0,-58.608513,-10.298653,-21.909371,7.831878,0.198555,25.802101,28.477455,42.598068,62.221916,0.0,48.180271,45.154161,122.269453,49.794723,133.303986,50.427974,129.151474,47.023037,109.0885,0.0,61.365921,10.281807,28.368748,-10.23587,-7.0372,-29.965839,-33.591281,-47.915771,-63.71466,0.0,46.927843,46.118097,121.67918,49.55925,137.310439,49.190859,132.815188,45.132252,110.11778,106.978501,17.289526,-124.376221,17.668822
66,-1.942933,-1.899406,-0.689838,1.565373,0.0,-58.498054,-10.000076,-21.445449,8.200539,1.056405,26.527199,28.970719,43.62687,62.921997,0.0,47.745586,45.370547,121.531801,49.749695,133.22481,50.247459,128.722797,46.875362,108.443635,0.0,62.019562,11.105919,30.858559,-8.960678,-4.60358,-28.421081,-31.606087,-46.202808,-62.708588,0.0,45.263397,42.992921,118.840347,46.041737,135.063576,45.927202,130.497269,42.451623,108.070828,106.152889,16.315388,-123.948738,20.159463
67,-1.828857,-6.494358,0.629768,-3.062203,0.0,-58.392746,-10.294762,-22.282722,7.91645,-0.060539,26.651962,27.673668,44.093216,62.375221,0.0,46.64723,45.403348,121.718552,49.756024,134.128106,50.181058,128.575022,46.846486,108.47927,0.0,62.225888,11.570195,32.480656,-8.413845,-2.807201,-27.842594,-29.731338,-45.410762,-60.98838,0.0,42.035179,40.557466,116.566833,43.538258,132.333819,43.699673,127.941938,40.824543,107.048569,105.203064,10.618086,-122.439938,17.894316
68,-1.437721,-7.30639,0.569882,-4.226723,0.0,-58.785553,-10.774979,-23.231163,7.498237,-1.000786,26.474991,26.527359,43.99205,61.443443,0.0,45.972744,43.966399,121.014531,48.239638,133.179738,48.712276,127.636077,45.687729,108.303319,0.0,62.580299,12.031998,33.98703,-7.761795,-0.922909,-27.146256,-28.606659,-44.654595,-59.506004,0.0,39.741324,38.215421,113.997207,41.152963,129.653993,41.424726,126.008835,38.820427,106.19955,104.478281,3.904839,-121.157118,14.260736
69,-1.208863,-5.620355,0.2005,-3.872906,0.0,-59.34423,-11.065933,-23.73928,7.21621,-1.52346,26.117455,26.164994,43.616227,60.51931,0.0,45.059479,42.945546,120.210966,47.015528,132.440283,47.335074,127.051917,44.266937,107.512524,0.0,62.751057,12.324326,35.091236,-7.334266,0.833325,-26.666153,-27.493183,-44.258331,-58.065982,0.0,38.378357,36.88751,112.431797,39.769742,128.138255,40.178523,125.024806,37.840041,106.179105,103.85765,-1.163563,-120.368386,10.939783
70,-1.158073,-3.354233,-0.046463,-2.358131,0.0,-59.802361,-11.685585,-24.276627,6.555611,-2.279274,25.415291,25.501122,43.019119,59.788582,0.0,44.589484,41.953433,119.480711,45.894172,131.97303,46.197218,126.726832,43.17348,107.084668,0.0,62.671063,12.681519,35.609413,-6.947181,1.642605,-26.324981,-26.804214,-44.081371,-56.886875,0.0,38.025237,35.921122,111.442142,38.576347,127.350944,38.950622,124.599314,36.782121,106.290756,103.080425,-3.93741,-120.034001,9.162038
71,-0.953499,-0.907429,-0.416244,-0.587944,0.0,-60.376144,-12.587677,-25.564751,5.763497,-3.389831,24.667717,24.005951,42.408325,58.031685,0.0,44.284277,40.709268,118.511941,44.743787,131.385012,45.261434,126.497269,42.476503,107.265851,0.0,63.062565,13.336922,36.502842,-6.296723,3.185726,-25.716969,-25.602356,-43.598282,-55.203896,0.0,37.406356,35.248796,110.378157,37.720813,126.23491,37.996381,123.981143,35.855809,106.113927,102.517404,-4.53345,-120.059767,8.885483
72,-0.975311,1.432332,-0.487507,0.769632,0.0,-60.825577,-13.868294,-27.606354,4.404602,-5.583206,23.208343,21.231308,41.06916,54.778816,0.0,43.380504,39.448003,116.687932,43.756885,130.254942,44.634081,125.723271,42.212656,107.446291,0.0,63.474289,13.870537,37.962719,-5.619358,5.423264,-24.950958,-23.367268,-42.860664,-53.054718,0.0,36.04973,34.403261,108.560658,36.873722,124.82098,37.262113,123.175752,35.339823,105.929985,102.081139,-3.185086,-120.008228,9.571147
73,-1.017059,3.844457,-1.121452,1.730549,0.0,-61.700043,-15.896462,-31.142533,2.110725,-10.193299,20.715797,15.325309,38.634773,48.343551,0.0,42.313865,37.807894,113.814142,42.735972,127.893965,44.383158,124.011327,42.765958,106.800042,0.0,64.992027,15.340919,40.840919,-3.884663,9.352192,-23.116013,-18.890854,-41.133957,-48.985794,0.0,33.321752,33.640464,106.677301,36.485633,123.654447,37.361951,122.276765,35.991654,105.992582,101.789343,-0.014406,-120.404417,10.627919
74,-0.936036,5.531374,-1.18491,3.232023,0.0,-63.31327,-19.480545,-37.662277,-2.201843,-18.482231,16.102707,5.192871,34.110421,37.776696,0.0,41.369423,35.504659,109.758516,41.471737,124.323833,44.558621,121.549912,44.5712,106.144154,0.0,67.046917,17.537098,45.004165,-1.296719,15.120849,-20.431126,-12.398964,-38.614941,-42.600037,0.0,30.765815,31.716716,103.577801,35.106919,121.177965,36.870622,120.166876,36.660232,105.291918,101.814199,4.357545,-120.628435,12.700519
75,-1.334175,8.32414,-0.641178,5.159185,0.0,-65.699135,-23.444938,-46.737808,-7.42408,-30.215103,10.066132,-8.557548,27.6679,23.024094,0.0,39.283297,31.888358,102.925933,39.050516,118.276875,43.879405,117.445956,45.872844,104.343037,0.0,69.223858,20.188385,50.599147,1.851631,23.231392,-17.063141,-3.197525,-35.346268,-33.465134,0.0,27.168409,29.134011,98.923185,33.454997,117.434797,36.544221,117.667726,37.960578,104.439627,101.479202,10.57557,-120.270435,15.753589
76,-1.431747,10.821964,-0.729916,7.622687,0.0,-69.051819,-27.897446,-57.407387,-13.525314,-44.632553,2.687691,-25.385399,19.52861,4.801185,0.0,36.380409,27.357661,94.173843,35.747468,110.512755,42.433673,111.713961,46.687282,101.809429,0.0,71.786076,23.420345,57.854622,5.914261,33.956234,-12.520729,9.210434,-30.656971,-20.576557,0.0,22.894188,25.623562,92.947097,31.41044,112.145856,36.421999,114.111094,40.115322,103.394575,101.14226,19.010757,-119.905546,20.989499
77,-3.990853,14.699407,-0.860767,10.826966,0.0,-70.417327,-32.130523,-68.856388,-19.644836,-59.998054,-4.897361,-42.729331,10.742638,-14.378036,0.0,31.738422,23.23539,84.774344,33.043659,102.09066,41.729589,104.95478,48.341866,98.188985,0.0,74.640152,27.057724,67.004665,10.995723,47.090641,-6.517937,24.030075,-24.335896,-4.730667,0.0,18.427527,21.549337,85.272033,29.12426,104.654684,36.365262,109.503388,42.622524,101.524784,98.076581,31.088278,-119.841139,29.194579
78,-4.568389,17.07465,0.198818,14.429404,0.0,-71.942002,-35.616967,-79.507988,-25.194718,-74.128453,-12.253556,-59.063176,1.840347,-32.225533,0.0,26.851031,18.966954,74.226873,30.327844,92.709988,41.00961,97.826306,49.923004,94.658516,0.0,77.084804,30.180542,75.851875,15.676174,59.671829,-0.673348,38.227913,-17.915016,10.675506,0.0,14.316802,17.824515,76.709338,27.045297,96.667503,36.3014,104.096738,44.884058,99.10318,94.296793,45.607289,-118.85372,41.068344
79,-4.976326,19.297467,1.774727,17.929602,0.0,-71.602112,-38.242493,-85.203049,-30.008149,-83.164822,-19.098061,-71.122719,-6.77678,-47.227959,0.0,21.720738,15.486151,63.000889,28.072781,82.789481,40.351177,89.832023,51.135726,91.126281,0.0,78.985016,32.723911,84.050205,19.721592,71.741352,4.677578,52.155819,-11.704182,25.18856,0.0,9.524594,15.419158,69.469016,25.900068,89.448467,36.580061,99.143874,46.762754,96.053489,89.976002,62.171926,-116.423458,56.265116
80,-9.560326,24.320276,3.001785,21.381673,0.0,-68.292984,-39.88282,-90.733498,-33.240944,-92.542236,-24.242615,-81.865494,-13.748085,-59.604435,0.0,20.542263,14.569016,54.014666,26.924897,69.740508,39.108457,76.973902,49.889924,82.3431,0.0,80.491345,34.925491,91.224403,23.033627,82.023422,9.215595,63.718952,-6.132191,37.288399,0.0,4.345729,13.229223,63.433259,24.574657,82.367726,36.225015,93.319199,47.546403,92.231021,81.100136,84.024029,-112.737213,75.178616
81,-9.930153,24.604106,6.667728,24.825568,0.0,-66.192055,-41.142334,-94.293171,-35.671303,-97.279987,-27.918434,-87.926788,-18.822761,-66.663792,0.0,16.686598,15.196789,41.666609,28.342958,56.335642,40.825099,64.064608,51.48046,72.394874,0.0,79.444268,36.344239,95.489674,25.756131,88.730622,13.050042,71.799546,-1.326278,45.659432,0.0,1.129118,12.848939,56.379744,25.989828,76.262339,38.984375,88.627204,51.033084,89.822779,71.700502,105.859864,-105.538966,97.235913
82,-9.140716,25.288387,6.874386,25.4206,0.0,-64.260664,-41.901381,-90.478878,-37.960087,-93.4336,-31.817631,-86.326641,-24.241099,-67.841034,0.0,14.609351,15.135526,32.47603,29.037001,46.562349,41.831297,55.088827,52.473635,65.672631,0.0,77.716599,37.298436,97.370671,27.587368,93.255719,15.959359,77.749249,2.650521,52.185093,0.0,-2.04019,14.51906,53.027135,28.30676,73.399856,41.538706,85.938944,53.569767,88.643402,63.208031,128.388879,-98.016335,119.897141
83,-10.153634,26.700965,6.993302,26.047936,0.0,-60.112833,-42.442651,-80.296337,-40.421253,-82.1336,-36.069774,-77.151329,-30.134611,-63.762405,0.0,12.696489,15.12827,27.177399,29.644532,41.209353,42.831061,49.661509,53.68913,61.922183,0.0,76.687225,37.749344,98.354816,28.680874,96.494144,18.043705,81.726963,5.814354,56.444183,0.0,-5.007211,17.012701,51.757528,31.07193,71.747075,44.041555,84.381456,55.389502,87.384762,53.678489,152.594377,-90.398941,143.44961
84,-8.957199,32.001897,8.861023,25.972977,0.0,-59.04891,-44.98974,-67.7047,-43.8078,-67.506517,-40.057434,-63.59476,-34.663976,-55.530876,0.0,13.338046,10.669866,26.027058,21.993608,36.76396,32.436127,42.828376,40.877063,51.127773,0.0,74.092197,39.620922,97.54541,30.935577,94.402267,20.471683,80.338199,8.641376,57.609077,0.0,-6.100917,20.755622,51.326238,36.700566,70.607211,50.141618,83.101308,60.969874,86.478129,45.180381,182.568622,-81.078827,167.394935
85,-6.621151,24.244793,6.946735,23.378607,0.0,-55.969322,-45.983751,-48.483318,-46.637392,-45.167696,-44.118976,-45.037548,-39.714729,-49.072895,0.0,9.297228,8.428104,26.252372,19.757168,40.032773,29.843653,45.950865,38.006644,52.352092,0.0,72.582745,39.90691,97.176464,31.978603,94.82658,22.133148,81.518955,11.008232,59.465389,0.0,-5.854767,24.361328,51.240516,41.682022,71.906477,55.580039,84.338367,65.958566,88.788855,38.817484,205.206024,-73.873838,189.166151
86,-8.873748,20.996548,4.296261,20.19189,0.0,-46.536164,-44.676791,-25.033425,-48.130503,-20.819601,-48.056786,-25.120022,-45.717991,-47.046467,0.0,7.094925,9.158661,33.131813,21.206969,47.784686,31.346448,54.218714,39.67803,61.126788,0.0,72.811615,39.279247,97.010971,31.505035,95.610123,22.328132,82.254204,11.968471,60.665062,0.0,-6.616223,26.851056,53.322877,43.892687,72.851247,57.177597,84.74345,66.834163,89.182304,30.148705,225.192508,-69.372608,208.347977
87,-14.389927,17.066116,4.924038,17.798692,0.0,-29.830679,-36.666527,2.428024,-42.255667,6.061523,-44.457562,-2.153973,-43.932055,-39.325207,0.0,6.758897,9.89312,41.192835,22.891273,54.78244,33.263804,61.116414,41.368527,69.305284,0.0,73.008442,38.167282,95.922947,29.98249,94.59795,20.730675,80.522404,10.663421,58.763363,0.0,-5.590166,28.238674,54.796118,45.664417,73.9126,58.881068,85.08304,67.973903,89.279882,15.799193,241.718725,-64.408155,225.60677
88,-3.530709,14.152218,4.448341,14.458217,0.0,-24.715067,-36.434646,12.915699,-43.597715,15.958786,-47.106559,5.251385,-47.685934,-46.991478,0.0,5.49362,11.071541,45.777878,24.244509,57.784535,34.078602,64.175456,41.762582,73.469128,0.0,71.708256,37.134396,94.331051,28.370808,92.666027,18.542118,77.933716,8.288281,55.973717,0.0,-3.738827,28.997771,56.342792,46.974156,75.170715,60.399967,85.412355,69.388555,89.398912,12.222221,255.50505,-60.006077,239.699094
89,-11.39693,5.59276,1.092556,11.187124,0.0,-12.409121,-27.827946,26.882125,-37.14342,28.87421,-42.740902,15.20153,-45.26005,-48.642655,0.0,7.324828,17.3336,51.455507,34.02754,63.813092,45.756333,71.179496,54.84353,84.753534,0.0,72.010071,34.371815,93.278755,25.215672,93.625534,15.411518,77.863724,5.35381,53.994736,0.0,-2.376637,28.26209,57.915885,45.331546,76.935283,58.365107,86.348133,67.105705,90.345583,0.70534,260.901718,-59.033472,250.690126
90,-9.434384,9.339984,1.942566,10.072444,0.0,2.611977,-18.498138,37.575554,-28.793518,38.364762,-35.791351,21.331433,-39.935852,-43.05907,0.0,5.565442,18.723528,51.560063,36.014496,65.672823,48.08827,73.193332,57.545012,86.962389,0.0,71.239815,32.26561,90.974075,22.510941,91.051758,12.274475,74.358605,1.979027,49.893231,0.0,-0.060133,28.678904,59.834469,45.314527,77.753315,57.822456,86.275675,66.002174,89.456673,-8.917025,270.287345,-57.278887,260.808213
91,1.971222,12.528146,0.937386,8.428424,0.0,-5.172787,-20.107063,34.469902,-29.664608,35.028237,-35.494423,19.952809,-38.794533,-43.606922,0.0,11.738148,16.521508,51.900147,31.688607,63.056051,42.231984,68.580601,50.628595,80.78862,0.0,71.022445,30.871353,89.229034,20.532165,88.695991,9.777031,71.648231,-0.703926,47.349323,0.0,2.590097,29.83801,61.927426,46.351589,79.281009,58.360624,87.117309,65.894779,89.455673,-7.162611,282.864132,-56.558309,269.285278
92,6.929993,15.864916,0.011856,6.742059,0.0,-21.530274,-28.33255,22.086868,-35.010361,25.969574,-37.492321,15.662647,-37.74321,-39.937283,0.0,18.523222,14.28061,47.387007,23.356884,54.613003,28.750943,56.833943,33.171778,62.75046,0.0,70.763672,29.659481,88.339279,19.145599,87.346962,8.262726,70.169861,-2.131542,45.840168,0.0,4.764773,30.631983,62.996498,47.079094,79.626205,58.689468,86.947396,65.775155,88.746938,-0.456774,298.70872,-56.770609,276.007009
93,-2.300068,13.090791,-0.127819,5.101053,0.0,-25.619328,-27.316074,20.551105,-31.494816,27.563335,-31.500973,20.678055,-29.452904,-26.812363,0.0,25.338528,13.086938,43.211135,16.862568,47.491365,17.851884,47.065485,18.323867,47.785371,0.0,70.852558,28.562267,88.003338,18.129203,87.071605,7.484996,70.217594,-2.575425,46.434127,0.0,6.451461,31.136361,62.935958,47.645395,79.09551,59.083992,86.533409,65.970571,88.690165,-2.961164,311.762945,-57.10275,281.071496
94,5.137711,3.547821,0.30122,3.450774,0.0,-30.229317,-31.71159,14.622562,-35.933178,22.27264,-35.957806,15.49784,-33.858216,-32.372944,0.0,20.906812,13.289454,40.317449,17.445985,45.577176,18.636385,46.511349,19.121237,47.63134,0.0,70.752205,27.210445,87.841507,16.811931,87.184066,6.484314,70.612953,-3.089825,47.133819,0.0,7.67008,31.60386,61.987311,48.304321,77.965477,59.59815,85.910124,66.279594,88.437013,2.014985,315.271039,-56.963092,284.482543
95,2.154647,0.77472,0.15287,1.894823,0.0,-36.148967,-35.674244,13.803509,-39.820472,22.811108,-38.992366,17.781773,-35.400295,-35.737312,0.0,25.896666,14.783296,43.061971,20.174589,45.276094,22.177871,46.644199,23.353216,49.135717,0.0,70.719475,26.134128,87.821914,16.01659,87.706283,6.210285,71.734291,-2.732575,49.167286,0.0,8.104285,31.40169,60.701668,48.229135,76.384692,59.545725,84.918945,66.279546,87.8677,4.048462,316.006081,-56.931392,286.337688
96,-9.557075,2.339551,0.736553,0.673413,0.0,-28.024544,-27.982556,25.057033,-31.678837,35.312405,-30.974293,29.231014,-27.15651,-21.978562,0.0,28.20208,14.728201,41.560521,19.321864,43.098737,20.744124,44.453738,21.361999,45.930388,0.0,70.19949,25.216072,87.87196,15.224304,87.832523,5.682644,72.016354,-2.94595,49.681995,0.0,8.457806,31.180377,59.869902,48.043439,75.234664,59.395103,83.703882,66.190847,87.056657,-5.634533,318.313713,-56.320759,286.979182
97,0.839893,1.263104,1.031158,0.615788,0.0,-29.947941,-29.600029,25.564362,-33.176204,36.202492,-32.089199,29.923851,-27.917518,-20.11536,0.0,27.443798,15.058147,39.93908,18.322187,41.141385,18.281704,40.721136,17.553654,40.15349,0.0,70.020115,24.420559,87.64468,14.54813,87.621174,5.250081,72.178425,-3.061088,50.355435,0.0,8.438984,31.005931,58.874522,47.874217,74.218511,59.288818,83.014833,66.11235,86.727132,-4.919872,319.545723,-55.414833,287.563876
98,-0.424633,0.887045,1.086857,0.683046,0.0,-31.605789,-30.899025,28.291958,-33.73978,38.631489,-31.893757,32.769116,-27.062885,-13.528164,0.0,28.797724,14.93241,40.502997,17.020785,40.367788,15.52971,37.970822,13.333075,35.659319,0.0,69.976548,23.484799,87.302033,13.624054,87.339752,4.57251,72.189606,-3.309047,50.453682,0.0,8.629101,30.94649,58.260772,47.925482,73.615296,59.326313,82.542344,65.97225,86.272587,-5.500139,320.326255,-54.48361,288.140409
99,-0.525135,4.761018,1.011269,0.724048,0.0,-30.694427,-29.511394,30.405075,-31.525349,41.032036,-28.633404,35.833191,-22.695797,-10.409569,0.0,30.564515,12.666801,38.218924,13.440039,37.139872,11.301919,33.924862,8.829741,30.597144,0.0,70.057114,23.111114,87.073906,13.357086,87.228561,4.456993,72.487701,-3.197331,51.175106,0.0,8.988958,30.735761,58.001804,47.73008,73.21466,59.204924,82.205804,65.895927,86.166994,-6.240435,324.913322,-53.687502,288.690506
100,6.091049,6.280203,0.90897,0.550912,0.0,-44.357013,-35.715145,22.942154,-35.405479,34.432068,-30.232372,32.739579,-22.518608,-11.212257,0.0,33.260118,10.359323,33.586777,7.624249,31.140312,2.629283,25.541501,-2.422642,20.564875,0.0,69.886677,23.014972,87.038509,13.247852,87.071285,4.391395,72.465671,-3.163708,51.314472,0.0,9.285447,31.108549,57.92101,48.154392,73.102942,59.56015,82.095802,66.093628,86.077728,-0.451332,330.96461,-53.080478,289.012503
101,8.950539,3.501902,0.624115,0.405293,0.0,-48.522709,-42.249378,12.218513,-40.681961,24.863548,-34.11319,25.856506,-25.161633,-11.689865,0.0,31.565811,9.449938,31.288107,4.686128,28.049162,-2.162326,20.733356,-9.094094,13.336348,0.0,69.724468,22.902683,86.819149,13.243915,86.862911,4.507931,72.466999,-2.943054,51.528854,0.0,9.673622,31.111414,57.692484,48.246622,73.049181,59.668262,82.207052,66.165283,86.130846,8.126146,334.206981,-52.829424,289.158265
102,1.380455,-0.955896,0.598057,0.107322,0.0,-48.422745,-42.266499,12.384613,-41.251877,24.011948,-35.17622,24.283859,-26.737358,-20.375141,0.0,32.030173,8.964307,32.023591,5.823904,29.234263,0.592569,23.407185,-4.802552,18.049201,0.0,69.312377,22.871143,86.713737,13.263919,86.776062,4.603134,72.622077,-2.801789,51.843818,0.0,10.074889,31.174721,58.040275,48.375298,73.294417,59.804113,82.426142,66.268801,86.358816,9.062496,333.003867,-52.675472,289.018369
103,1.334587,-1.840804,0.487163,0.075459,0.0,-45.125255,-40.915981,12.529862,-40.804802,22.593086,-35.695599,20.403923,-28.247177,-33.438148,0.0,31.087652,8.406602,32.009573,8.215805,30.87838,6.037399,27.864762,3.475202,27.26866,0.0,68.722721,22.927723,86.603314,13.36219,86.550121,4.703682,72.48135,-2.761402,51.879479,0.0,10.409835,31.358329,58.438058,48.530662,73.623448,59.928429,82.688915,66.392882,86.546784,9.886396,330.974376,-52.698996,288.905141
104,3.522537,-0.914771,0.045582,-0.01519,0.0,-52.588119,-44.596836,8.767227,-44.073829,18.653115,-38.512149,17.499436,-30.992042,-38.094017,0.0,34.69768,9.596385,32.750652,9.558828,31.373137,7.320054,27.697937,4.77469,27.821253,0.0,68.21196,22.943001,86.650818,13.451397,86.670433,4.879051,72.671379,-2.564907,51.994205,0.0,10.560296,31.509617,58.561867,48.65993,73.89631,59.980768,82.936842,66.356437,86.606929,12.845358,329.90069,-53.216989,288.731036
105,-2.657524,-2.493605,0.13995,0.110249,0.0,-46.966404,-40.776237,12.049507,-41.857693,21.416588,-37.809551,18.117119,-31.643806,-40.089924,0.0,32.623175,9.984251,34.13811,12.19951,34.188474,11.990226,32.162023,11.26393,33.578182,0.0,68.016414,22.776912,86.431354,13.31076,86.66296,4.766441,72.680637,-2.67255,51.837135,0.0,10.710732,31.362639,58.475689,48.539344,73.90414,59.854044,82.915921,66.227218,86.610041,9.61306,327.277273,-53.651813,288.711473
106,0.321282,-4.718658,0.126583,0.104704,0.0,-50.4795,-41.936921,13.408973,-44.269318,21.524505,-41.089646,16.645271,-35.898045,-52.841961,0.0,33.940682,10.721539,36.487849,16.271617,38.034993,18.936097,37.89419,21.015604,43.812782,0.0,67.856163,22.859882,86.137115,13.508892,86.628433,4.970226,72.893463,-2.556679,52.009311,0.0,10.853734,31.287933,58.374653,48.391278,73.807983,59.690665,82.858135,66.107138,86.606521,9.357977,322.440555,-54.101595,288.698117
107,-2.70448,-0.011831,0.312469,0.071408,0.0,-47.66439,-38.987217,15.576931,-41.331207,24.08186,-38.322784,18.433835,-33.16959,-52.675872,0.0,33.413469,10.50046,36.189446,16.814699,38.124753,20.349848,39.434912,23.09579,46.98947,0.0,67.751221,22.848496,85.919792,13.445114,86.496163,4.827542,72.601433,-2.766552,51.648171,0.0,10.97705,31.284475,58.174199,48.419844,73.782455,59.713105,82.787728,66.136532,86.515267,6.08072,322.328873,-54.361903,288.669674
108,1.980584,-3.350392,0.377541,-0.120067,0.0,-50.782551,-40.840405,15.202045,-44.219788,23.110553,-41.897015,17.014652,-37.419903,-55.897889,0.0,33.243198,11.710335,37.507533,20.251973,40.659052,25.522692,42.759381,29.84779,51.598903,0.0,67.663994,23.078785,85.719429,13.637192,86.293075,4.86129,72.515259,-2.925327,51.515041,0.0,11.300313,31.350783,58.032098,48.473604,73.62672,59.720009,82.690619,66.078634,86.565494,7.541359,318.895186,-54.504307,288.466312
109,-4.637913,4.607568,0.734905,-0.095627,0.0,-48.779732,-38.017811,18.160652,-39.922016,27.79882,-36.419724,22.923614,-30.549374,-44.54773,0.0,33.417631,9.764383,34.785279,15.585878,36.524677,18.76353,37.784225,21.172586,44.130327,0.0,67.791721,22.914425,85.436772,13.338455,85.921223,4.476002,72.040913,-3.318626,51.17379,0.0,11.509684,31.351437,57.925357,48.513087,73.51778,59.797506,82.463797,66.161083,86.326854,2.444241,323.446536,-54.228607,288.314467
110,3.788246,-1.022772,0.768883,-0.219869,0.0,-51.856041,-41.021484,15.303108,-42.748421,24.101738,-39.105537,19.791023,-33.19313,-46.159916,0.0,34.05765,10.560716,35.021499,16.507886,37.088261,19.692676,38.074106,22.079564,45.250838,0.0,67.650707,23.254406,85.32455,13.619121,85.638439,4.577568,71.78072,-3.428856,50.899795,0.0,11.572373,31.496848,57.985552,48.589955,73.42124,59.897888,82.383782,66.288845,86.250703,5.848263,322.381382,-53.843948,288.052216
111,-3.67598,1.854785,0.559959,-0.360437,0.0,-48.13211,-37.766315,18.778473,-38.738777,28.235619,-34.605651,23.791283,-27.964313,-39.364746,0.0,32.578492,10.244739,33.576503,15.203495,35.280308,17.737608,36.223866,19.504633,42.689159,0.0,67.60017,23.392914,85.561238,13.570793,85.607243,4.384815,71.574749,-3.689529,50.709503,0.0,11.724996,31.574431,58.102321,48.738785,73.50511,60.079001,82.473196,66.438676,86.233141,1.86137,324.195208,-53.594902,287.65082
112,3.874661,-5.453698,0.583203,-0.166627,0.0,-47.785584,-39.438217,17.446804,-41.810783,25.055683,-38.879482,19.571125,-33.64238,-45.290428,0.0,32.127171,12.101402,36.124201,20.508992,40.136175,25.882896,41.991664,30.271757,52.479848,0.0,67.640098,23.886234,85.775665,14.052143,85.598625,4.673011,71.574234,-3.700768,50.705646,0.0,11.70521,31.42886,58.158502,48.520954,73.303976,59.924168,82.271383,66.416644,86.213554,5.476107,318.693833,-53.271623,287.436516
113,-3.938175,3.091745,0.567821,-0.019513,0.0,-45.804955,-36.169236,20.155677,-37.391911,29.231689,-33.59816,25.029876,-27.333458,-35.896157,0.0,31.809959,11.108541,35.213642,17.39619,38.039526,21.173809,38.983084,24.18545,47.416696,0.0,67.762081,24.122944,86.025776,14.252278,85.802319,4.80756,71.619793,-3.665474,50.768257,0.0,11.436979,31.103337,58.141236,48.255514,73.245325,59.82617,82.0877,66.541033,85.997995,1.316437,321.737557,-52.925297,287.368982
114,5.252575,-4.090743,0.52652,0.054624,0.0,-47.380978,-38.592705,17.362735,-41.037243,24.592403,-38.270325,19.650753,-33.302079,-44.047875,0.0,32.573972,11.883472,37.548907,20.381218,41.638674,25.930443,43.182372,30.495787,53.934477,0.0,67.771717,24.464367,86.223209,14.651081,85.908062,5.114559,71.65591,-3.585182,50.707889,0.0,11.114741,30.831672,58.059392,47.968165,73.177474,59.627408,81.990752,66.521743,86.009901,6.384848,317.603064,-52.582941,287.379856
115,-2.783547,2.300388,0.52256,0.049129,0.0,-45.131573,-35.647442,19.090611,-37.354271,27.716549,-33.99979,23.166584,-28.370224,-38.001194,0.0,32.916626,10.602793,37.060325,17.716453,40.210374,22.228432,41.567624,25.936223,50.402552,0.0,67.758877,24.482838,86.391781,14.608269,85.895771,5.005543,71.489674,-3.785477,50.57476,0.0,11.007529,30.582447,58.008226,47.754459,73.156824,59.456508,81.966892,66.428401,85.989659,3.423849,319.865778,-52.237833,287.391311
116,5.079392,-1.21568,0.812073,0.141779,0.0,-48.573922,-38.650635,15.272861,-40.927575,22.986705,-37.964951,18.991893,-33.100502,-42.317219,0.0,33.50197,10.54287,38.505692,17.742906,41.702387,22.194518,42.519741,25.995874,51.181137,0.0,67.705707,24.438343,86.349071,14.536686,85.759128,4.876247,71.21735,-4.039204,50.274685,0.0,10.764566,30.296271,57.901719,47.4689,73.005363,59.233663,81.862435,66.309161,85.959513,8.31217,318.625617,-51.616831,287.508609
117,-1.608239,3.002256,0.667728,0.100492,0.0,-44.707878,-36.386478,16.279095,-37.844776,24.633053,-34.377616,20.716816,-28.911724,-37.606739,0.0,32.426512,9.425681,36.85125,14.687916,39.266741,17.750971,40.075474,20.328297,47.028064,0.0,67.752732,24.294216,86.286026,14.322682,85.575417,4.671559,70.916725,-4.191032,50.050553,0.0,10.523086,30.143353,57.800905,47.345005,72.951258,59.117585,81.811022,66.179201,85.785883,6.524911,321.612998,-51.128123,287.594226
118,5.743367,-2.973505,0.71061,0.00683,0.0,-47.011299,-39.971444,12.372528,-42.650643,19.142669,-40.015915,14.464027,-35.607251,-47.314728,0.0,31.397639,9.421631,38.190555,16.479184,41.584654,20.960856,42.817316,24.817515,51.61712,0.0,67.624443,24.041141,86.013496,13.899547,85.075905,4.175857,70.271003,-4.705353,49.274654,0.0,10.255447,30.040069,57.599191,47.265025,73.010464,59.019574,81.935436,66.000853,85.689342,12.07893,318.62713,-50.606861,287.588693
119,-1.264618,0.600832,0.521278,-0.029714,0.0,-44.00433,-39.096806,13.278305,-41.525276,20.783363,-38.579293,15.677719,-33.615647,-46.08712,0.0,28.67305,9.477218,37.677631,16.200689,41.217202,20.466272,42.717082,24.054564,50.96874,0.0,67.717438,24.063881,85.943092,13.817493,84.846451,4.001061,69.921524,-4.938309,48.984867,0.0,10.085559,30.024964,57.587224,47.219206,72.790867,58.939632,81.896064,65.881835,85.623998,10.61499,319.207646,-50.284905,287.538663
120,3.449066,-1.375503,0.397476,0.069938,0.0,-47.524658,-42.310307,10.944099,-45.147022,17.803162,-42.42445,13.103622,-37.979199,-52.210339,0.0,29.290851,9.571067,38.314278,16.789183,41.851453,21.369236,42.914708,25.339059,52.839593,0.0,67.84623,24.003468,85.950394,13.705765,84.774422,3.847916,69.8153,-5.093147,48.936951,0.0,9.771879,29.828364,57.350004,47.041131,72.492094,58.821689,81.765907,65.814516,85.373143,13.850681,317.80459,-50.100804,287.581048
