takenoko1/special-research/HandMotion_SimilarSearch_自分用/NewProject/handData/test_key/d4_feature_d3/2.csv
frame,vel_0x_L,vel_0y_L,vel_0x_R,vel_0y_R,posFromWrist_0x_L,posFromWrist_1x_L,posFromWrist_2x_L,posFromWrist_3x_L,posFromWrist_4x_L,posFromWrist_5x_L,posFromWrist_6x_L,posFromWrist_7x_L,posFromWrist_8x_L,posFromWrist_9x_L,posFromWrist_0y_L,posFromWrist_1y_L,posFromWrist_2y_L,posFromWrist_3y_L,posFromWrist_4y_L,posFromWrist_5y_L,posFromWrist_6y_L,posFromWrist_7y_L,posFromWrist_8y_L,posFromWrist_9y_L,posFromWrist_0x_R,posFromWrist_1x_R,posFromWrist_2x_R,posFromWrist_3x_R,posFromWrist_4x_R,posFromWrist_5x_R,posFromWrist_6x_R,posFromWrist_7x_R,posFromWrist_8x_R,posFromWrist_9x_R,posFromWrist_0y_R,posFromWrist_1y_R,posFromWrist_2y_R,posFromWrist_3y_R,posFromWrist_4y_R,posFromWrist_5y_R,posFromWrist_6y_R,posFromWrist_7y_R,posFromWrist_8y_R,posFromWrist_9y_R,posFromBody_0x_L,posFromBody_0y_L,posFromBody_0x_R,posFromBody_0y_R
6,-0.36493,2.403314,0.539589,0.577663,0.0,-30.256919,-35.241794,20.848046,-37.022403,29.506554,-34.692409,24.797608,-29.591972,-34.286979,0.0,21.912591,11.980976,32.577294,11.749374,31.551966,9.643797,29.733626,7.151315,33.83021,0.0,61.641655,22.993344,83.041374,12.663838,81.585366,2.654068,68.495796,-6.167873,47.531388,0.0,25.986265,30.128545,59.220016,47.025285,74.289093,58.519408,83.663855,64.964286,85.072369,7.626949,331.226073,-43.807789,291.044376
7,-5.199714,-6.503652,0.192993,0.247372,0.0,-26.882756,-30.077832,29.904968,-31.426152,35.064125,-29.581467,27.974579,-25.347782,-42.296299,0.0,24.196911,15.115747,34.867827,20.448772,37.570951,23.496439,38.601294,25.814488,50.795222,0.0,61.123055,23.051732,82.510781,12.785695,81.332131,2.692486,68.366227,-6.290954,47.147782,0.0,25.548542,29.963326,58.904546,46.867353,74.08686,58.344074,83.567351,64.746925,84.939347,1.741499,324.584575,-44.300532,291.153902
8,-2.434571,-0.111694,0.260914,0.143903,0.0,-33.120449,-29.857418,33.050744,-30.3166,37.845246,-28.099147,31.271508,-24.029674,-45.227806,0.0,23.952083,16.069495,34.066171,21.429035,36.902157,24.720258,38.378609,27.510191,51.598681,0.0,60.76846,22.909687,82.228718,12.613426,81.069134,2.49345,68.179516,-6.485058,46.855923,0.0,25.481184,29.812753,58.82264,46.716435,73.944773,58.180312,83.432093,64.567911,84.863974,-1.053509,324.379135,-44.400055,291.204059
9,0.339776,-4.200819,0.186127,-0.004359,0.0,-18.896977,-27.236836,34.878341,-30.046486,37.862136,-29.230465,29.712524,-25.690396,-47.2225,0.0,18.543649,15.452386,35.624109,25.693272,41.410592,33.444023,46.023582,40.042339,61.1088,0.0,60.488766,23.104557,82.062138,12.815254,80.894634,2.622368,67.994373,-6.466267,46.722782,0.0,25.488495,29.709877,58.847389,46.65256,73.941561,58.147732,83.495832,64.594018,85.072394,-0.891025,320.092332,-44.39122,291.113716
10,0.020668,5.934301,0.276363,0.048746,0.0,-33.535412,-31.213692,31.441909,-31.530293,36.642997,-28.980824,31.532249,-24.424267,-44.231701,0.0,23.230826,14.593388,33.02869,19.123448,35.831418,21.963955,37.167993,24.31609,49.000632,0.0,60.026963,23.257519,81.847412,12.972645,80.696595,2.695336,67.795578,-6.504295,46.480454,0.0,25.603227,29.638444,58.686751,46.606148,73.775971,58.107545,83.423769,64.57222,85.102898,-0.958728,325.959087,-44.203228,291.094916
11,1.041137,-2.658775,0.171112,-0.078028,0.0,-31.449817,-33.282531,30.090317,-33.758651,36.766114,-30.97784,32.44542,-25.971611,-46.457874,0.0,31.933645,16.28982,35.809731,20.854806,38.093273,23.54558,38.773059,25.928442,51.024625,0.0,59.869606,23.422635,81.80056,13.158371,80.715249,2.854592,67.86612,-6.404468,46.617005,0.0,25.668152,29.626477,58.710439,46.647879,73.848034,58.175878,83.453347,64.676727,85.221706,0.024461,323.249674,-44.090064,290.96625
12,1.177071,-0.561188,0.278286,-0.013375,0.0,-17.575092,-31.510712,29.552444,-34.55127,35.993408,-33.31414,30.725944,-29.105301,-47.622975,0.0,25.065221,14.340274,36.755624,20.366793,39.881862,24.284091,41.700337,27.487961,52.744238,0.0,59.502285,23.498314,81.703801,13.193482,80.58807,2.813828,67.627064,-6.543605,46.419972,0.0,25.754553,29.529182,58.750725,46.608445,73.936324,58.171605,83.352756,64.718606,85.156856,1.177454,322.648972,-43.835856,290.913361
13,-1.153999,-2.921313,-0.12949,0.035358,0.0,-1.061783,-26.102108,33.581359,-31.717347,37.20726,-32.448578,27.827453,-29.423596,-47.303135,0.0,19.530519,13.498714,38.24618,23.341137,43.65417,30.594069,48.169162,36.446748,59.130898,0.0,59.53434,23.594594,82.054574,13.267285,80.841912,2.875294,67.763901,-6.48595,46.671731,0.0,25.668757,29.546522,58.681182,46.645644,73.976178,58.164454,83.215201,64.644913,84.993168,0.003846,319.680608,-43.984955,290.901668
14,-0.189515,3.925894,-0.103076,0.014919,0.0,-14.694763,-29.019024,31.8704,-32.596332,37.09964,-31.914058,29.590577,-28.144249,-45.991756,0.0,25.572648,14.048156,37.376425,19.015236,39.702266,21.864388,41.222957,24.059726,49.974447,0.0,59.475803,23.685733,82.370945,13.244327,81.010952,2.777057,67.808132,-6.625306,46.747547,0.0,25.612243,29.484352,58.76352,46.614497,74.09795,58.11183,83.123835,64.561081,84.982794,-0.198183,323.564425,-44.100545,290.87451
15,-0.808181,-4.815582,-0.262528,-0.045103,0.0,0.974235,-24.30867,35.75164,-30.381581,38.492225,-31.541096,26.469314,-28.787545,-48.970105,0.0,19.532903,13.163879,38.81663,24.108053,44.520392,32.046834,49.72589,38.630082,61.246986,0.0,59.582394,23.688961,82.760616,13.189476,81.342579,2.737679,68.002178,-6.612316,46.978466,0.0,25.552802,29.3249,58.903681,46.52943,74.476826,58.089255,83.223908,64.597934,85.107456,-1.019325,318.70735,-44.376034,290.787914
16,0.981903,6.703971,-0.297901,0.001717,0.0,-14.509667,-28.179451,30.851852,-31.617337,36.00975,-31.082669,26.708702,-27.524838,-46.546738,0.0,22.218144,11.993609,35.387963,17.115485,37.852212,19.969515,39.809861,22.211611,47.794139,0.0,59.509254,23.794533,83.023636,13.3129,81.612556,2.891407,68.14048,-6.432095,47.191452,0.0,25.298316,29.144354,58.88518,46.394085,74.583642,58.009127,83.235863,64.578334,85.123066,-0.043384,325.364718,-44.679897,290.743028
17,2.322166,-0.458892,-0.279945,-0.117845,0.0,-17.160736,-29.958652,28.612129,-33.529598,33.905869,-33.093075,22.570679,-29.590748,-50.529877,0.0,24.628324,12.26278,35.551577,17.197033,37.575051,19.683993,39.55661,21.808603,48.338716,0.0,59.652946,23.928703,83.361305,13.443203,81.978424,3.030613,68.402938,-6.2841,47.397537,0.0,25.101543,29.082024,58.853614,46.351564,74.637538,58.000273,83.273642,64.612581,85.241912,2.264826,324.855475,-44.973798,290.574832
18,0.071274,-0.02843,0.042388,-0.072507,0.0,-17.565422,-30.513817,28.104286,-34.142578,34.013145,-33.747791,23.719047,-30.150009,-50.797932,0.0,22.179673,11.585106,35.519911,16.688555,37.718288,19.260361,39.641591,21.428344,48.753247,0.0,59.584374,23.954991,83.242745,13.502175,82.046746,3.115677,68.383027,-6.218788,47.322762,0.0,25.01219,28.848977,58.784268,46.150072,74.702993,57.898014,83.28551,64.66187,85.317148,2.322819,324.786524,-44.944691,290.461804
19,0.450325,0.111385,0.034333,-0.039557,0.0,-17.485943,-30.655644,27.519379,-34.444302,33.508049,-34.166393,22.711418,-30.657028,-52.383648,0.0,22.24429,11.032119,35.258201,16.332651,37.495159,19.128635,39.565873,21.502432,48.736501,0.0,59.668121,23.931896,83.221023,13.547447,82.120376,3.228264,68.35675,-6.062096,47.242218,0.0,24.897272,28.636333,58.563115,45.930265,74.676218,57.724853,83.197268,64.572517,85.227597,2.75259,324.847743,-44.930912,290.372081
20,0.531876,0.25214,0.032146,-0.065493,0.0,-17.962796,-31.123787,25.875572,-34.942131,33.182876,-34.77673,24.310707,-31.469742,-53.625836,0.0,23.31551,10.130291,34.991414,15.313546,37.885705,18.139899,39.556968,20.625489,48.858161,0.0,59.832493,24.135235,83.276585,13.828652,82.212673,3.518875,68.431835,-5.81876,47.323757,0.0,24.741464,28.597542,58.382483,45.860376,74.540528,57.622941,83.042288,64.471531,85.093982,3.268977,325.034341,-44.914255,290.241046
21,-0.972245,-0.342258,-0.017292,-0.122846,0.0,-17.039623,-30.702633,27.132065,-35.014675,34.69384,-34.821613,26.281403,-31.073879,-48.834617,0.0,23.581605,10.757786,35.467386,15.483595,38.318885,17.960144,39.871475,20.0686,47.914763,0.0,60.145249,24.27903,83.561531,14.002339,82.448067,3.682366,68.567299,-5.685528,47.327889,0.0,24.679849,28.593553,58.270999,45.853065,74.575849,57.587582,82.946006,64.426181,85.022006,2.282415,324.62567,-44.945864,290.051787
22,-2.102211,-0.066789,-0.167438,-0.102666,0.0,-13.176052,-28.755512,29.201889,-33.035053,36.911522,-32.894817,29.230568,-29.059696,-45.702038,0.0,21.705306,9.956587,35.21621,15.118341,38.67038,18.059624,40.678577,20.462925,47.776404,0.0,60.30447,24.4701,83.826267,14.278598,82.72118,3.990921,68.86449,-5.361397,47.572185,0.0,24.591681,28.513351,58.139878,45.770986,74.637192,57.508838,82.909079,64.377385,84.966665,0.170356,324.49007,-45.12315,289.88031
23,-0.059509,-0.982548,-0.117874,-0.256425,0.0,-12.287968,-28.323795,29.943558,-32.694729,37.03672,-32.596115,27.838257,-28.714142,-45.114143,0.0,23.969632,10.817548,35.843434,16.018378,39.347214,18.88151,41.522335,21.142303,48.931384,0.0,60.436786,24.542552,84.104793,14.470401,83.084163,4.261699,69.201656,-5.034348,47.886966,0.0,24.476196,28.460963,58.114078,45.736604,74.744872,57.492239,82.892901,64.410719,84.79637,0.113211,323.444577,-45.23866,289.56094
24,-2.374901,-4.513795,-0.129582,-0.758814,0.0,2.331963,-21.996334,36.09787,-28.186558,39.687103,-29.667194,27.425171,-26.810543,-41.047542,0.0,18.108827,10.840161,37.837614,20.731133,44.714289,27.867097,49.810229,33.606242,58.228551,0.0,60.752884,24.574917,84.622536,14.625092,83.688423,4.580509,69.890144,-4.507255,48.549912,0.0,24.373295,28.773729,58.874572,46.00943,75.52667,57.685309,83.301281,64.544927,84.759381,-2.227295,318.889183,-45.333847,288.760527
25,2.09594,3.401645,-0.381946,-1.870136,0.0,-9.527481,-26.280739,27.237167,-30.510258,35.207153,-30.230862,26.084404,-26.199063,-31.300827,0.0,24.615987,12.651054,38.265458,16.447655,40.944908,17.940199,41.397056,18.37402,43.457025,0.0,60.84019,24.333938,84.618839,14.352893,83.954669,4.388546,69.60918,-4.551476,47.793376,0.0,24.60875,29.08232,60.404859,46.317428,77.480095,57.883873,84.737324,64.635811,85.134058,-0.086191,322.276558,-45.670629,286.876121
26,6.90992,-4.816421,-0.802781,-3.978875,0.0,-7.335423,-26.040282,14.194639,-31.627974,21.980203,-32.676825,14.377956,-30.086495,-34.182988,0.0,26.973136,14.622312,43.072623,18.802062,44.505294,20.164492,41.654346,20.033094,41.898186,0.0,59.760807,23.311615,83.305287,13.482434,82.403767,3.862175,67.151173,-4.712093,45.243576,0.0,24.716294,28.769332,64.081984,45.816508,80.623092,57.461735,87.415452,64.541543,86.310749,6.906773,317.465596,-46.390366,282.902705
27,13.476791,-2.919893,-0.932247,-6.090752,0.0,-22.020687,-30.136808,-9.817343,-36.48884,-2.700708,-38.376955,-3.697987,-37.227013,-37.156162,0.0,35.634693,19.966428,49.711113,18.199378,44.331961,13.56751,32.070311,7.613925,26.59079,0.0,56.205139,21.68961,76.29657,13.025414,74.414635,4.218853,59.718968,-3.869098,39.896393,0.0,22.586337,27.269278,66.402861,44.058116,84.909879,55.937685,90.959493,63.903958,88.148269,20.52269,314.562792,-47.183487,276.829042
28,12.136803,-18.365746,-3.963535,-13.89165,0.0,-36.85278,-33.500307,-32.307009,-35.511137,-23.994501,-33.781077,-17.197071,-30.216889,-34.560883,0.0,45.148197,24.592151,60.681482,22.312005,56.591357,17.133103,43.158796,10.229697,33.834681,0.0,51.611229,19.348303,65.710304,11.93767,63.618181,4.409683,51.098339,-2.543564,34.675049,0.0,16.581794,24.765169,64.067342,41.33617,84.26555,53.534667,90.80222,62.344765,88.026348,32.801182,296.26156,-51.005333,263.001906
29,15.279716,-26.133466,-6.929455,-21.228965,0.0,-50.966938,-38.125048,-54.755831,-36.28224,-43.55266,-31.172361,-30.24757,-24.946758,-31.758568,0.0,49.357265,30.531306,68.138338,28.081976,64.766099,22.2491,51.123278,14.220231,39.629822,0.0,45.718838,16.199827,51.22031,10.186518,49.90951,4.370155,41.053425,-0.927486,29.372406,0.0,6.61555,20.823159,56.282654,37.2889,78.008876,50.024342,86.470479,59.799513,85.652317,48.197365,270.254457,-57.818321,241.899304
30,17.214272,-37.590612,-13.323864,-26.94478,0.0,-52.03632,-36.097899,-61.284548,-33.15275,-55.326273,-27.194933,-41.524922,-20.037587,-34.128205,0.0,38.574173,33.063653,69.002571,36.325297,70.61916,35.748628,62.131967,32.2545,56.315153,0.0,41.779598,15.600397,39.717213,10.623579,38.303347,5.544674,32.746285,0.700447,26.749798,0.0,-8.122229,14.528384,43.368037,30.170782,67.116387,43.224276,77.973956,54.199813,80.485883,65.512968,233.086551,-71.040854,215.37723
31,15.740707,-36.469275,-13.210316,-30.963327,0.0,-51.002243,-29.352676,-57.382828,-23.126221,-53.009273,-15.23362,-39.86206,-6.498413,-28.386085,0.0,16.462827,22.309701,56.589374,30.753595,65.035287,36.228115,64.490574,39.095495,63.942453,0.0,36.638712,15.421595,27.23437,10.919037,24.647931,5.95538,22.252625,1.048886,20.517758,0.0,-24.451878,7.759699,25.812861,23.10958,51.771089,36.538056,64.465022,48.452063,70.648486,81.337023,197.710996,-84.167822,185.507623
32,12.10437,-32.199802,-13.441086,-35.039561,0.0,-46.702743,-25.821602,-49.385822,-15.89376,-43.862915,-4.454979,-31.437263,8.031304,-17.500374,0.0,-5.278116,9.484771,24.621353,20.949791,37.091151,30.552832,45.415662,38.208154,52.88159,0.0,31.758128,15.455641,18.349795,10.033631,13.744984,4.350701,12.476704,-1.050601,11.665284,0.0,-40.291137,1.193654,7.202343,16.684869,32.108115,30.562042,46.382167,42.988664,56.376793,93.588953,167.501107,-97.461348,152.457975
33,11.510925,-32.054774,-12.763755,-28.77705,0.0,-37.730529,-19.926521,-35.515617,-10.521995,-28.705719,-0.128013,-18.676597,11.322945,-6.936309,0.0,-27.711325,-3.282381,-3.904343,6.43916,10.244906,15.40054,19.010531,23.568761,28.075034,0.0,26.90613,16.953655,13.525617,10.532656,7.231962,3.630295,4.146251,-3.09914,3.202102,0.0,-50.579936,-4.99898,-11.779926,9.934295,11.253401,23.598756,27.185489,35.970384,39.892637,105.633138,137.531089,-109.691843,125.765681
34,8.878304,-28.671723,-8.788548,-26.52179,0.0,-27.273102,-10.356148,-20.793365,-0.840225,-13.836731,8.404701,-6.056854,17.887871,3.059898,0.0,-46.397839,-19.87069,-31.708954,-11.651438,-17.238356,-2.556634,-7.204662,6.959778,5.062546,0.0,21.294188,17.315129,9.424502,10.044188,-1.352068,1.849617,-7.229553,-6.286251,-7.643749,0.0,-58.792592,-9.760091,-24.943606,4.290314,-3.63185,17.402474,10.539499,29.574381,24.862544,115.417986,110.829158,-117.573847,101.213683
35,3.967117,-21.979139,-3.217071,-18.954622,0.0,-16.323921,-1.997635,-5.455719,7.450425,1.411492,15.797196,8.317589,23.795266,15.202698,0.0,-57.718184,-30.41306,-52.039561,-22.530601,-39.362807,-12.637969,-28.161504,-1.313246,-12.406016,0.0,13.773657,14.813358,2.331705,7.212347,-12.379961,-1.091572,-19.385983,-9.347317,-20.029965,0.0,-62.945128,-14.093754,-38.106331,-0.2163,-18.627123,13.001225,-5.936376,25.558616,10.685044,120.303514,90.563053,-119.872507,83.972095
36,-0.128357,-18.114027,-2.758793,-11.635423,0.0,-5.657821,2.588128,7.305817,11.446061,13.601876,18.959496,19.867768,25.616341,25.133995,0.0,-58.172099,-29.828153,-63.402741,-21.531998,-50.633436,-10.968484,-37.68974,0.885372,-17.406496,0.0,7.627041,11.558578,-3.802414,3.576702,-20.812683,-4.835678,-28.53471,-13.164196,-28.809048,0.0,-65.492444,-17.580003,-47.942193,-4.079863,-29.723018,9.369982,-17.713316,22.444749,0.903155,121.084385,73.451865,-121.722072,73.339511
37,0.325276,-10.901757,-2.763622,-5.793443,0.0,3.013515,7.486381,21.030498,17.124412,27.097172,24.408909,32.067386,29.889702,34.743496,0.0,-61.331574,-30.141404,-57.386134,-19.520099,-38.982961,-6.523912,-23.55764,7.322293,-3.724967,0.0,3.329177,6.672157,-8.861275,-1.272561,-25.899823,-9.291058,-33.386399,-17.223393,-33.144654,0.0,-63.095144,-16.434359,-44.053657,-4.057459,-23.231814,8.247861,-12.062294,19.966848,3.793038,122.15098,62.601459,-123.744375,67.597419
38,4.805305,11.059622,-2.290547,3.787289,0.0,8.541104,6.244171,24.477413,16.183365,29.46603,24.413967,34.820149,30.943611,37.255497,0.0,-63.555602,-30.491121,-56.596988,-17.950631,-37.162065,-3.301899,-19.964779,11.783266,1.723427,0.0,-1.066543,2.271984,-14.28376,-6.259964,-31.145084,-14.362839,-36.949161,-21.932098,-36.240692,0.0,-64.434468,-14.225665,-34.115318,-1.751229,-12.239105,10.172911,-3.183999,21.413339,10.681321,127.218916,73.608525,-125.772291,71.332152
39,5.18438,12.142046,-4.100509,7.529987,0.0,11.969799,2.633995,27.407101,11.547821,33.041256,19.885494,37.374126,27.124214,38.882984,0.0,-60.059837,-20.350179,-43.470994,-5.603952,-22.213587,9.546286,-5.51317,23.999109,13.971231,0.0,-5.060257,-0.222977,-17.998398,-8.194806,-34.168488,-15.980061,-38.962796,-23.303536,-39.672799,0.0,-60.502529,-8.98437,-21.983912,4.534716,1.748587,16.610064,11.350751,27.105998,22.562001,132.101235,85.771922,-130.174861,78.88349
40,2.980545,14.855241,-3.830372,10.887049,0.0,14.189747,3.937385,28.894878,13.434288,35.590565,21.875782,39.135029,28.562851,38.460216,0.0,-59.370802,-18.176318,-33.570779,-2.430716,-11.348343,12.798619,4.510688,26.608335,21.017805,0.0,-7.755902,-1.053131,-23.196694,-8.319912,-36.782559,-15.583832,-40.229199,-22.024235,-40.030884,0.0,-60.254793,-6.2155,-10.008353,8.9762,12.996133,21.86151,23.558097,32.569483,32.471441,134.722681,100.72069,-134.364332,89.864066
41,3.596603,12.510182,-3.99654,9.889989,0.0,15.323079,5.084107,28.722119,14.040711,36.096669,21.761616,38.882527,27.507637,37.35426,0.0,-59.864391,-16.341132,-22.966392,0.067892,-1.221559,15.353722,12.537149,28.946392,25.811923,0.0,-8.620308,0.170997,-25.993515,-6.052174,-37.333569,-12.675877,-39.268227,-18.522435,-38.436825,0.0,-59.774702,-3.866434,-0.480283,12.641439,22.019252,25.908985,33.955687,36.642145,40.452738,137.956455,113.524791,-138.723701,100.047974
42,1.938916,3.983371,-2.405549,8.015123,0.0,15.484153,7.232116,32.46746,14.617813,40.464317,20.229354,41.376617,23.714035,36.842033,0.0,-59.466338,-13.185195,-14.835876,4.182041,5.191172,19.816763,17.419149,33.394259,30.352977,0.0,-9.117496,1.628438,-29.116767,-3.479106,-39.439991,-9.10231,-40.001895,-14.0927,-36.452728,0.0,-60.678345,-3.309025,0.059404,14.955777,19.151396,29.624526,33.021008,41.616987,42.473082,139.575737,117.991588,-141.448884,108.546523
43,0.781974,-2.89812,-1.629879,1.582218,0.0,14.18216,10.011612,35.708794,15.611069,44.791672,18.694176,44.238167,19.491921,36.32238,0.0,-59.526199,-10.048206,-8.791387,8.091268,7.731924,24.445031,19.153132,38.573575,33.526281,0.0,-8.070819,3.707463,-29.321079,0.345841,-40.461318,-4.111873,-40.896091,-8.438449,-35.451965,0.0,-61.258168,-4.93826,-4.267317,14.158289,14.413139,30.105759,30.357059,43.629569,41.516581,140.117952,115.606459,-143.318522,110.641732
44,-0.082649,0.039076,-0.642139,3.111307,0.0,13.227287,11.812088,36.237625,16.799355,44.243225,18.794884,43.777908,18.367493,34.862183,0.0,-64.710665,-15.013205,-11.75826,3.379051,1.826522,20.865248,14.382134,36.599475,30.055698,0.0,-5.861366,5.868382,-28.632019,2.867111,-39.828484,-1.32399,-39.590298,-5.614208,-32.306271,0.0,-64.611376,-10.243288,-12.397908,9.024218,5.699106,26.11504,23.527426,41.560498,36.637014,140.007208,116.171661,-143.988756,114.279165
45,0.16555,-2.054282,0.70879,-2.375235,0.0,13.576882,11.758301,34.775803,16.273751,42.17759,17.839875,41.848801,17.312897,34.378853,0.0,-65.121256,-14.317222,-10.595222,3.760298,2.679196,21.293024,15.198024,37.309809,30.506544,0.0,-5.021473,5.816643,-27.476795,3.036404,-39.602486,-0.955067,-39.273022,-5.587898,-32.125774,0.0,-62.655093,-9.302348,-12.165881,9.665291,6.19272,26.653423,24.359716,41.844209,37.685961,140.228439,114.529681,-143.224285,112.316232
46,-0.253051,-0.44396,0.585285,-0.761056,0.0,13.523643,9.430275,33.844688,13.927459,41.483642,15.825645,41.197723,15.948509,34.255508,0.0,-65.454245,-13.922421,-10.874514,4.12029,2.407667,21.749532,15.67323,37.668418,30.756916,0.0,-4.736114,5.740505,-26.739532,3.028107,-39.66227,-0.741898,-39.727375,-5.273197,-31.568848,0.0,-62.374214,-9.23013,-13.627346,9.464109,5.710592,26.437278,23.785567,41.685592,37.928894,140.027075,114.337672,-142.587313,111.807127
47,-0.669732,1.241275,-0.410648,0.791585,0.0,13.547905,7.920685,30.771607,12.72773,38.524704,15.304436,39.154152,16.377846,33.635514,0.0,-65.816689,-13.982423,-10.402289,3.78154,2.512427,21.366699,16.528634,37.293118,30.250632,0.0,-3.809212,7.259365,-25.069657,4.929016,-38.329857,0.979854,-39.084698,-4.09219,-31.405243,0.0,-62.967667,-10.578037,-16.268442,8.071291,4.572315,25.431456,22.702051,41.047197,37.569019,139.426134,115.702846,-142.92917,112.722611
48,-1.396041,1.060057,0.215584,-0.080103,0.0,12.802917,7.33168,29.077697,12.718139,37.250495,15.877601,37.940849,17.499321,34.096366,0.0,-65.618124,-12.839108,-9.48971,4.646923,3.864909,21.649516,18.199952,37.0011,30.500523,0.0,-2.966218,7.590591,-25.191536,5.274444,-38.947003,1.374092,-39.16903,-3.768013,-31.138207,0.0,-62.371219,-10.117811,-15.533007,8.676267,6.121325,26.046269,24.092214,41.412723,38.977743,138.109429,116.793148,-142.63425,112.672753
49,-0.997719,-0.280785,0.621734,-1.283192,0.0,12.92054,5.828544,27.916534,11.63388,37.734535,15.362297,38.855003,17.614288,36.230049,0.0,-62.762933,-9.166855,-6.915904,8.126101,7.762898,24.396217,21.098659,38.509286,32.628239,0.0,-2.343246,7.245529,-26.381161,5.098354,-39.062187,1.38818,-38.938202,-3.631931,-30.764362,0.0,-60.444736,-8.052883,-12.517772,11.27076,9.827924,28.809927,27.109061,43.932837,42.390534,137.170527,116.460644,-141.953699,111.337842
50,0.513977,-0.912585,-0.951897,2.028958,0.0,10.935448,2.097999,26.523857,7.271164,38.168724,11.204544,39.334785,14.240364,37.337791,0.0,-59.57776,-4.92935,-4.531412,12.888269,11.480372,28.945024,24.990516,42.29823,35.980866,0.0,0.406186,9.113766,-23.601757,6.833474,-36.941505,2.871541,-37.554828,-2.375942,-29.532245,0.0,-61.989077,-9.44383,-15.973071,9.806423,7.719049,27.449775,25.285226,42.865877,40.116686,137.723894,115.433824,-142.866206,113.252565
51,-1.456444,-3.731015,1.47226,-2.689372,0.0,10.734604,3.151909,29.848549,7.719109,41.354462,11.207268,42.168297,13.847237,39.694519,0.0,-53.649017,1.794708,3.300399,19.94413,18.536745,35.161617,31.579846,47.471475,42.387712,0.0,0.397247,7.391087,-25.472923,5.109764,-38.256008,1.280949,-38.498726,-3.80761,-30.697964,0.0,-58.91329,-5.871779,-10.947194,13.790411,12.750317,31.345762,29.680317,46.091341,44.837968,136.329758,111.525224,-141.331638,110.385608
52,1.584503,-0.814729,-0.333904,1.26374,0.0,6.943176,-0.470398,26.958298,3.999321,40.012665,8.324066,40.830712,12.174225,39.875084,0.0,-51.789681,4.0994,2.046341,22.069573,21.936056,36.698097,34.600707,48.437184,44.521887,0.0,0.744278,7.763008,-23.958081,4.755111,-36.124123,0.478077,-36.53001,-4.523072,-29.010567,0.0,-60.248005,-6.095679,-11.201623,13.415277,11.364892,30.586042,27.536794,45.453219,41.782256,137.971098,110.501275,-141.608705,111.440128
53,-1.2071,-5.289392,-0.039437,0.30083,0.0,7.129051,0.509674,29.366066,4.468369,42.610108,8.36808,43.417465,11.885491,41.429764,0.0,-46.119789,10.009853,10.406816,28.692403,29.498073,43.001937,41.895395,53.978839,51.98519,0.0,1.297497,8.046204,-24.140579,4.81651,-35.305606,0.364575,-35.864479,-4.775734,-28.451442,0.0,-60.337686,-6.105776,-11.406444,13.294925,11.116883,30.378307,27.060716,45.15003,41.095115,136.822603,105.020423,-141.589537,111.549498
54,0.340805,-0.524242,0.247582,1.450165,0.0,5.281929,-0.759681,28.505471,2.545166,41.742714,6.50956,42.466347,10.433098,40.889351,0.0,-44.725114,9.732,6.231326,28.405825,29.777438,42.835933,42.527552,54.321065,52.591424,0.0,1.658375,7.988743,-24.334957,4.319206,-35.732288,-0.492256,-36.653458,-5.989769,-29.562286,0.0,-61.736808,-7.09398,-12.805121,11.890357,8.832847,28.763107,25.140544,43.56599,39.368877,137.251625,104.337143,-141.253738,112.840625
55,-2.414543,-2.385196,0.612465,0.80593,0.0,6.294869,1.517098,31.525475,4.683083,44.186806,8.253044,44.560845,11.599182,42.186653,0.0,-42.835897,11.523991,10.124647,30.473451,32.369572,44.780552,45.030802,56.124041,55.659678,0.0,0.355819,7.252327,-24.860985,3.227497,-35.461487,-1.864369,-36.625832,-7.678208,-30.202847,0.0,-61.878291,-7.459617,-12.897161,11.244614,8.244532,27.979111,24.293785,42.786057,38.800216,134.923902,101.809523,-140.554453,113.504131
56,2.914765,4.181083,-0.388859,1.929799,0.0,2.593666,-3.086953,24.241401,0.876319,38.276138,5.839004,39.032707,10.986076,39.125267,0.0,-48.291268,6.22417,3.243601,24.388936,26.855161,38.554481,39.367462,50.164238,48.488122,0.0,0.663036,7.30846,-24.430275,3.146404,-35.229366,-2.078842,-36.461483,-8.113552,-30.410282,0.0,-63.129676,-8.779427,-14.340268,9.685194,6.668921,26.326016,23.036127,41.201431,37.698886,137.915268,105.864295,-140.866711,115.307619
57,-2.586869,-2.419962,-0.060963,0.47759,0.0,4.895348,-0.336799,26.446747,4.12143,40.575943,8.829941,41.298294,13.438042,40.919312,0.0,-47.16355,8.745464,9.644099,27.180834,28.312447,41.083062,40.421715,52.082144,49.848348,0.0,0.777935,7.467076,-24.192878,3.038578,-34.926738,-2.385818,-36.468429,-8.668178,-30.821674,0.0,-62.881569,-8.59115,-16.002101,9.816648,6.17396,26.453012,22.956543,41.200134,38.162063,135.413051,103.28569,-140.843022,115.626566
58,3.016938,4.712921,0.238907,0.5396,0.0,1.104698,-4.493042,19.097396,0.155181,34.574226,5.791786,35.798629,11.80783,37.986442,0.0,-52.520954,2.847738,0.359264,20.250412,20.303857,34.134961,33.016661,45.650018,41.243002,0.0,0.564446,6.819328,-24.30352,2.115692,-34.850178,-3.655186,-36.226936,-10.20837,-31.392345,0.0,-62.86255,-8.500241,-16.460345,9.957433,5.697136,26.753736,22.687545,41.695335,39.009995,138.534634,107.803702,-140.49947,115.971257
59,-1.238366,0.479245,-1.681549,1.427237,0.0,0.731667,-3.843361,19.206231,1.250382,35.090516,6.894562,36.647782,12.952263,38.546997,0.0,-54.155512,2.081496,2.047403,19.047193,17.412017,32.673452,30.475447,44.163525,39.194889,0.0,2.882012,8.765591,-20.032333,3.75119,-31.048473,-2.295341,-32.827114,-8.968014,-28.927711,0.0,-63.7527,-9.609982,-20.973336,8.286362,3.742439,24.698868,20.370028,39.628463,35.398942,137.429449,108.026161,-142.047838,117.141708
60,0.000367,3.256587,0.132546,-0.206475,0.0,-1.518334,-5.625344,14.887275,0.135704,29.550338,6.569114,31.435432,13.562416,34.183891,0.0,-56.563871,-2.980155,-6.286957,13.032147,10.844577,26.75173,24.6546,38.811413,34.051098,0.0,4.411811,9.053752,-18.814866,3.251598,-28.993481,-3.189972,-30.677422,-9.919259,-27.023037,0.0,-63.168955,-9.373848,-23.130926,8.041793,3.124404,23.893995,19.393044,38.307825,34.89919,137.593455,111.04566,-141.751653,116.698145
61,-2.473549,0.734509,0.143566,1.018629,0.0,-4.753899,-4.317559,11.360275,1.25299,25.302704,7.248527,27.601227,13.700363,30.166603,0.0,-54.833094,-4.524601,-9.710166,11.342532,7.736388,25.630058,22.778449,38.343838,34.663946,0.0,6.84748,10.206733,-14.01313,3.229419,-23.548931,-4.111508,-25.923638,-11.351258,-24.097309,0.0,-64.251347,-12.066216,-25.947832,4.559063,0.087055,20.018656,15.317584,34.719082,31.134384,135.375555,111.599571,-141.352438,117.536176
62,1.083687,4.352089,1.798736,-0.915037,0.0,-14.211113,-4.023812,-1.290688,1.617942,8.871162,7.421676,12.141586,13.50238,17.568122,0.0,-54.60308,-10.907648,-13.853433,4.393363,4.091798,19.460556,20.038416,33.572797,31.991011,0.0,9.461781,7.322113,-9.981262,0.171959,-18.856682,-6.920116,-21.358875,-13.431324,-19.879097,0.0,-62.827246,-13.138876,-25.08306,2.540567,-0.541304,17.649954,14.892131,32.593628,31.163772,136.758631,115.864462,-139.254313,116.533941
63,-0.859269,2.027,0.53278,-0.541396,0.0,-23.878784,-2.96141,-14.760177,3.191368,-8.682335,8.56675,-4.582397,13.467041,2.378746,0.0,-49.240865,-13.590357,-13.355342,1.619028,5.292492,17.586215,21.486025,32.76249,34.480918,0.0,14.704857,3.544132,-2.352894,-4.012116,-10.610058,-10.120045,-13.857994,-14.394539,-12.575523,0.0,-60.986239,-15.241428,-23.604602,0.105704,-0.48342,15.279324,14.810688,30.566997,29.959632,136.079664,117.835581,-138.541231,115.936664
64,1.02063,3.516767,2.611061,-0.240271,0.0,-36.56163,-4.678848,-34.153541,2.059204,-32.646858,7.391121,-27.075577,11.449631,-16.957466,0.0,-43.095681,-16.864124,-11.369369,-1.645204,8.323387,15.036781,24.610997,30.963398,37.281836,0.0,19.347954,-0.703411,6.388367,-8.457436,0.571426,-13.808968,-2.671062,-16.524628,-3.013653,0.0,-58.678866,-16.529715,-20.269295,-1.422439,0.030869,14.164087,15.639971,30.025582,31.200075,137.281156,121.235964,-135.749308,115.580009
65,1.341294,3.998808,1.458412,1.043125,0.0,-50.254944,-7.92183,-54.374863,-1.189225,-56.042244,3.91246,-48.23774,7.222847,-35.138787,0.0,-36.318894,-18.598329,-6.854475,-3.153822,12.729483,14.321637,28.925252,31.134039,40.685148,0.0,26.659321,-2.452881,19.967743,-9.904438,15.297032,-14.514919,11.700897,-15.805767,8.733113,0.0,-56.33826,-18.626178,-17.544083,-3.428402,0.868637,13.125729,16.290351,30.204535,31.823173,138.77813,124.906553,-134.135216,116.294915
66,-0.456253,3.348466,0.353119,2.355278,0.0,-60.643868,-12.281388,-71.016266,-5.333222,-76.842911,-0.137902,-67.486039,2.90229,-51.666459,0.0,-27.501281,-17.516696,0.903791,-1.689177,20.175033,16.144472,35.146247,33.423509,45.459727,0.0,35.905861,-2.006733,36.268559,-9.074707,33.091141,-13.058578,28.656384,-12.970802,22.91074,0.0,-53.45091,-19.613827,-16.377759,-4.220795,2.308564,13.052499,17.783137,30.783377,31.988844,138.459538,127.661175,-133.644436,118.056349
67,-3.454674,4.424194,1.098827,3.982605,0.0,-67.334084,-18.289101,-83.187195,-11.098732,-89.638779,-5.474625,-79.219528,-1.930023,-61.751908,0.0,-18.870388,-14.256323,6.847065,1.760986,27.300747,19.563334,41.334244,36.863638,51.033394,0.0,45.673291,1.061829,51.06989,-6.339546,50.038079,-10.476242,45.010071,-10.168624,35.24643,0.0,-50.28202,-20.118642,-14.076426,-4.45628,5.478299,13.30885,20.017637,31.481367,33.15794,135.126892,131.212845,-132.423581,121.16643
68,-5.34565,5.81521,2.815762,4.850476,0.0,-70.466286,-22.212181,-89.214638,-15.301598,-97.328087,-9.520866,-86.674324,-5.338646,-68.080376,0.0,-11.095284,-9.199669,14.319562,7.159268,34.830295,24.702289,48.265715,41.527522,57.533698,0.0,54.271603,5.969318,64.612415,-1.371231,65.223988,-6.218536,59.472164,-7.150955,45.91238,0.0,-46.843979,-18.837481,-11.163468,-3.198578,9.14168,14.699723,23.173423,33.299923,35.926872,129.982378,136.02412,-129.406683,125.012971
69,-10.459099,8.330612,3.458118,5.74818,0.0,-70.763466,-24.957779,-91.129532,-18.196403,-98.401634,-11.941017,-88.243606,-6.528923,-68.700897,0.0,-4.764162,-3.819905,22.75846,12.735084,41.903916,29.874071,54.936686,46.042391,63.481498,0.0,62.329892,10.211369,74.218083,2.659401,75.727112,-2.74253,68.607754,-4.505161,52.530716,0.0,-41.442462,-16.557466,-5.451191,-0.474935,15.610584,17.558525,28.83299,36.318177,40.875753,119.634722,143.307019,-125.837122,129.713438
70,-9.467079,9.690739,5.349278,6.832528,0.0,-70.63575,-26.632576,-92.360664,-19.97628,-98.115257,-13.494003,-88.448708,-7.286636,-68.278633,0.0,1.02045,1.985955,30.950047,19.227782,49.610553,36.135032,61.859253,51.55595,69.649315,0.0,68.304943,13.489449,79.427433,5.783215,81.724514,-0.071686,73.816898,-2.766907,56.165771,0.0,-34.953864,-12.117197,2.836536,4.317558,24.249165,22.127915,37.040627,40.721507,47.489673,110.26898,152.042207,-120.386507,135.590415
71,-9.258133,11.639113,7.387962,9.059169,0.0,-70.209389,-27.31707,-92.371536,-20.692795,-97.077324,-14.128052,-87.872085,-7.42083,-67.683975,0.0,5.653275,6.410532,38.86277,24.088391,56.415028,40.701104,68.415801,55.182836,75.190105,0.0,70.838276,16.305794,80.952851,8.029793,83.571591,1.367787,74.669941,-2.908184,56.317955,0.0,-28.766461,-7.043808,11.989731,9.043681,32.604958,26.130921,45.087063,44.114926,54.636529,100.999054,162.810544,-113.010338,143.778808
72,-8.522621,12.507645,7.429379,10.900973,0.0,-69.263214,-27.510681,-89.381012,-21.159462,-93.52042,-14.598816,-84.966728,-7.762459,-66.471108,0.0,9.905284,10.306971,44.861995,28.217653,61.899489,44.609041,73.989788,58.071421,80.531626,0.0,71.512802,19.072288,83.030697,10.228535,83.145218,2.569198,72.241253,-3.595413,52.990402,0.0,-22.675023,-2.116063,21.392047,13.452883,40.64212,29.524613,51.910965,46.091186,60.28505,92.42308,174.526082,-105.634312,153.887674
73,-8.821655,12.70753,9.843326,12.845716,0.0,-67.481209,-27.74627,-84.195557,-21.586876,-87.875119,-14.81733,-79.465622,-7.671433,-62.532555,0.0,13.818952,14.322391,48.864089,32.139213,67.482271,47.898869,78.923918,60.192672,84.620443,0.0,69.947468,24.944298,82.422055,15.398278,80.21045,6.052952,68.922959,-2.676395,49.996491,0.0,-14.017634,5.633576,35.037344,21.508236,54.308758,36.876605,64.185934,51.846448,69.254964,83.570275,186.334267,-95.822136,165.834045
74,-4.044411,22.799438,7.5145,13.722114,0.0,-71.093159,-33.431854,-92.641022,-29.415482,-97.415451,-24.145203,-88.37653,-18.2425,-71.169983,0.0,20.819003,17.002865,40.628239,28.706099,52.739397,37.715386,57.890629,43.256077,61.25037,0.0,70.174725,28.302635,83.902634,18.111626,80.555363,7.565277,68.727425,-2.85696,49.456879,0.0,-7.90241,11.924944,45.182332,27.93648,63.214774,42.415963,71.620475,55.722819,75.317287,79.521847,208.213142,-88.311653,178.635596
75,-8.512505,18.913398,6.047676,13.978923,0.0,-71.259704,-36.863044,-91.660171,-33.255066,-95.301658,-27.869934,-87.36074,-21.602668,-71.98423,0.0,29.453131,18.69674,34.234675,25.754195,41.115067,29.826523,42.842769,30.28875,45.788832,0.0,70.411308,31.24823,85.475166,20.17535,80.482098,8.363949,67.519512,-3.554855,46.816418,0.0,-3.017669,16.502859,52.993586,32.256365,70.403905,45.860635,77.974801,57.568995,79.914147,70.969848,226.235985,-82.303471,191.723964
76,-9.061134,11.602026,4.243744,13.379548,0.0,-72.660061,-36.82132,-93.469471,-33.02552,-96.511528,-27.340668,-88.984703,-20.817696,-71.880478,0.0,33.113127,26.223164,28.017014,31.254711,32.946302,32.352201,35.299931,29.183392,42.991587,0.0,72.02243,33.588375,87.669766,22.432892,81.847607,10.247303,67.985561,-2.20697,46.610642,0.0,1.110384,19.929106,58.782428,36.213369,77.149656,49.77797,83.593743,60.54702,83.737153,61.85852,237.080874,-78.109921,204.346375
77,-9.539131,19.039924,4.083527,12.135549,0.0,-71.786842,-43.229576,-85.309548,-40.400711,-84.020268,-34.619579,-77.367325,-27.124981,-65.384285,0.0,38.512188,23.6469,23.786543,23.633451,24.270765,19.750536,22.162507,12.497863,25.620345,0.0,74.305973,35.090366,88.417431,23.88834,83.668911,11.761299,69.908878,-0.520111,48.182659,0.0,4.443016,23.913144,63.880937,41.040744,83.72416,54.834922,90.157713,65.052614,88.956149,52.230303,255.517647,-74.11548,215.878773
78,-7.246834,11.980395,2.18922,11.044061,0.0,-71.864822,-48.113651,-76.486816,-46.512417,-72.21809,-41.334709,-68.188087,-34.065193,-68.584122,0.0,40.53423,21.396641,27.104059,19.969429,23.165791,14.93393,19.123362,7.265084,20.530061,0.0,76.402382,32.796764,89.855072,21.16103,86.556564,9.449192,71.123406,-2.024815,47.824917,0.0,3.989731,24.385954,63.049604,41.083871,83.119204,54.45286,89.498936,64.099509,89.248328,44.86084,267.133644,-72.048889,226.558436
79,-6.910721,4.903588,3.380711,9.945732,0.0,-68.346382,-47.781303,-56.238464,-45.137901,-47.368744,-38.836612,-44.971515,-30.124328,-51.312286,0.0,40.653458,17.435365,37.31407,17.180891,36.933625,14.240361,34.042384,9.259524,33.093268,0.0,75.37936,32.357551,88.789936,20.503807,85.940815,8.888889,69.474758,-2.392456,45.749588,0.0,3.759673,25.463115,64.633415,41.918958,85.4539,55.060384,92.095219,64.383227,91.232528,37.814935,271.87401,-68.803362,236.340946
80,-2.301452,4.240042,3.326591,9.188868,0.0,-65.660328,-48.730328,-44.677323,-46.40902,-33.42643,-40.361676,-31.088814,-31.819611,-40.09488,0.0,35.036196,16.149339,46.701578,16.183042,49.309446,14.163631,45.589231,10.79112,40.943833,0.0,74.074093,31.939167,88.094753,20.261261,86.175099,8.952576,69.413006,-2.096924,46.349625,0.0,2.585453,26.475181,65.229641,43.066887,86.067502,56.130606,92.795519,65.201989,92.387459,35.399929,276.083297,-65.590325,245.499059
81,-0.823449,7.719555,3.240051,7.760508,0.0,-61.223762,-52.635555,-31.952419,-50.77177,-17.052406,-44.627437,-14.289596,-35.625755,-28.683609,0.0,32.747244,10.068183,55.395048,8.839473,58.759605,6.693918,50.946647,4.22095,38.317428,0.0,72.527882,31.244191,87.121708,19.606007,85.577534,8.334641,69.075154,-2.778156,46.302498,0.0,1.730123,27.250865,65.601699,43.745709,85.567213,56.551336,92.989402,65.403171,93.189128,34.480608,283.811158,-62.446146,253.267873
82,1.237839,0.606982,2.42965,6.578617,0.0,-59.799717,-50.458557,-29.781509,-48.375343,-15.747986,-42.484108,-12.387474,-34.198208,-24.843635,0.0,28.150803,12.005281,60.332005,11.965909,65.666327,11.368967,58.777587,10.2881,46.469396,0.0,70.8139,30.90287,86.547741,19.489998,85.396694,8.28503,69.143383,-2.91338,46.827541,0.0,1.003988,27.862219,66.083426,44.278467,84.874608,56.845799,92.582023,65.54784,93.2326,35.642034,284.448092,-60.092909,259.876442
83,0.227097,6.115489,1.627075,5.495219,0.0,-57.867932,-49.040119,-30.638054,-46.148312,-14.884255,-39.838269,-9.262551,-31.224381,-11.991646,0.0,28.125485,12.46148,59.44669,10.140394,64.499837,7.495821,56.067127,4.365705,42.334156,0.0,69.663746,30.516987,86.347286,19.613228,85.669041,8.629211,70.165157,-2.487522,47.939472,0.0,0.266861,28.606743,66.241408,45.0717,84.159105,57.506121,92.206703,66.109892,93.506265,35.799248,290.611533,-58.535717,265.419613
84,1.084511,0.410369,1.43977,4.866747,0.0,-55.218922,-47.237927,-30.239251,-44.427567,-14.728066,-38.464325,-8.644936,-30.538308,-10.469948,0.0,24.192082,15.337765,60.941136,14.336568,67.001346,12.979887,59.794727,10.89712,47.278573,0.0,69.065231,30.431465,86.272316,19.878788,85.61,8.963722,70.423507,-2.105587,48.297935,0.0,-0.241864,29.58834,66.231022,45.955077,82.98134,58.099654,91.07777,66.421535,92.940187,36.826046,291.075483,-57.15366,270.339941
85,0.959152,3.076504,1.591404,3.958585,0.0,-54.409058,-46.182999,-30.590309,-43.505333,-14.940743,-37.763626,-8.47847,-30.219727,-9.942696,0.0,23.275077,15.594486,59.791627,14.991753,66.008659,14.239003,59.79201,12.838096,48.150897,0.0,68.700382,30.297077,86.002132,19.810352,85.213497,8.771988,69.928379,-2.309029,47.721348,0.0,0.18619,30.893336,66.967482,47.163408,82.926839,58.947746,90.837029,66.822615,92.584529,37.728293,294.170657,-55.619161,274.317196
86,1.150978,3.888127,1.469387,3.794686,0.0,-53.716335,-45.633316,-28.30053,-43.499325,-13.396134,-38.33123,-7.716683,-31.420876,-9.65213,0.0,22.712814,15.435664,58.253301,14.728066,64.310547,14.056654,58.62352,12.829031,47.355625,0.0,68.670845,30.318146,85.932861,19.851253,84.816536,8.73508,69.151382,-2.269615,46.790943,0.0,0.675599,32.120996,67.204517,48.295726,82.540998,59.788923,90.614247,67.266675,92.202282,38.827881,298.073638,-54.201164,278.126736
87,0.95858,1.021191,1.630943,3.291211,0.0,-52.325764,-44.411533,-27.280083,-42.218079,-12.84874,-37.022324,-7.281006,-30.097847,-8.748459,0.0,21.954631,17.192735,59.147694,17.381778,65.465527,17.348384,60.314431,16.631239,50.182695,0.0,68.631523,29.99168,85.556053,19.436897,84.101509,8.164822,68.201225,-2.834392,45.867989,0.0,1.785352,33.009522,67.487136,49.148029,82.416583,60.443019,90.442913,67.643747,91.963653,39.731243,299.106772,-52.625439,281.42989
88,1.191513,-0.340652,1.206745,3.133339,0.0,-52.241764,-43.524113,-26.794098,-41.211456,-13.167618,-35.857796,-7.382423,-28.752708,-8.162819,0.0,17.830259,19.068515,60.142259,20.785621,66.965704,21.974378,62.888052,22.279388,54.03145,0.0,69.069386,29.689785,85.53146,19.060341,83.844486,7.716511,67.822643,-3.215378,45.600998,0.0,2.304674,33.081301,67.016277,49.170779,81.410039,60.312912,89.344819,67.359103,91.169457,40.821774,298.776948,-51.519676,284.574057
89,0.469185,-1.491001,0.988953,2.174108,0.0,-52.163132,-41.977844,-25.868683,-39.130257,-13.086571,-33.23774,-7.046105,-25.490524,-7.014153,0.0,14.396677,21.152913,61.136428,24.612937,68.818957,27.210159,65.863941,28.569866,59.027565,0.0,69.413807,29.328758,85.557072,18.711079,83.916012,7.413402,68.182674,-3.433308,46.233742,0.0,3.2211,32.87093,66.441233,49.038757,80.48629,60.207406,88.579472,67.247669,90.752926,41.145121,297.281806,-50.676561,286.744024
90,0.000709,-1.576759,0.642425,1.376467,0.0,-51.724994,-40.339828,-23.200859,-37.057479,-11.784965,-30.710174,-6.163627,-22.327469,-5.416122,0.0,10.999786,23.145042,61.513265,28.156026,69.911433,31.9188,68.120955,34.017079,62.997535,0.0,69.589749,28.954892,85.695797,18.564606,84.153798,7.461148,68.792233,-3.311073,47.186783,0.0,3.980221,32.152377,65.491746,48.434195,79.452143,59.75591,87.761451,67.004433,90.436565,40.939619,295.701676,-50.240347,288.11712
91,-2.30619,0.632336,0.757496,0.566597,0.0,-51.028748,-41.393097,-17.618477,-40.506649,-7.732224,-35.91695,-5.389366,-29.178097,-21.928002,0.0,9.684923,22.768563,60.991277,30.694191,69.161042,36.522788,69.24275,40.763263,67.638536,0.0,69.687241,28.363278,85.433533,18.084847,83.996018,7.151448,69.230324,-3.434555,47.979424,0.0,4.981195,31.629178,64.885134,48.106732,78.975788,59.577217,87.314181,66.906781,90.183488,38.398773,296.305397,-49.717507,288.655102
92,-6.804611,0.605549,0.408657,0.303305,0.0,-44.877766,-39.042549,-6.779206,-41.131771,1.755775,-38.617504,-0.187981,-33.58548,-32.735287,0.0,7.934521,22.335285,59.778154,33.414346,68.059119,41.255216,69.897391,47.189801,71.231262,0.0,69.733761,27.96167,85.651646,17.856938,84.30978,7.119484,70.060994,-3.334739,48.931126,0.0,5.110156,30.954741,63.915876,47.529861,78.07406,59.118956,86.644943,66.560362,89.590931,31.367529,296.861206,-49.535483,288.908667
93,-10.088494,4.137006,0.577195,-0.338886,0.0,-37.038425,-33.81205,8.025078,-38.303444,14.219971,-37.994774,8.325096,-34.824337,-37.932907,0.0,7.899941,19.683636,56.750296,32.402504,64.646099,41.616765,67.594027,48.90519,70.090176,0.0,69.321407,27.530925,85.382732,17.457927,84.069294,6.772373,70.057811,-3.625626,48.979305,0.0,6.04418,30.768971,63.822731,47.507507,78.128536,59.220547,86.851152,66.675748,89.416449,21.105474,300.941537,-49.131849,288.513106
94,-3.308624,2.728702,0.518772,-0.076953,0.0,-35.974548,-35.515697,14.027962,-42.704613,19.193321,-44.445431,10.272766,-43.344589,-54.407707,0.0,12.81053,17.627976,55.269694,31.792656,62.150307,42.097096,66.049031,50.805497,70.771999,0.0,69.018448,27.03796,85.307327,16.907856,83.74736,6.238735,69.95771,-4.067643,48.932098,0.0,6.486535,30.485709,63.746506,47.355143,78.27539,59.176198,87.150839,66.657581,89.322934,17.668024,303.615343,-48.741903,288.381257
95,-6.836563,2.062649,0.253269,0.163601,0.0,-29.216927,-34.093243,24.006386,-44.023956,27.910423,-47.774345,15.819191,-48.498837,-63.895409,0.0,17.150547,16.125305,53.586402,32.361044,60.70352,44.215197,65.625336,54.379006,72.293714,0.0,68.886829,26.886063,85.507198,16.74694,83.787609,6.111683,70.048221,-4.09956,49.052822,0.0,6.848813,30.342078,63.560243,47.312252,78.190546,59.183435,87.262237,66.609577,89.148823,10.755426,305.627181,-48.564669,288.494047
96,-1.538246,-0.232972,0.237762,0.195132,0.0,-26.987457,-32.490269,26.161651,-42.705837,29.393989,-46.697846,16.902031,-47.505696,-61.047615,0.0,17.101591,16.7796,53.446192,33.176483,60.787229,44.991338,65.833769,55.00229,72.690337,0.0,68.795872,26.83413,85.706211,16.767369,83.9977,6.149803,70.1181,-4.091777,48.982807,0.0,6.93956,30.084911,63.406274,47.061606,78.049445,58.962059,87.168511,66.4099,88.97145,9.153322,305.355182,-48.390765,288.650152
97,-1.942887,0.670276,0.278447,-0.022589,0.0,-22.837749,-30.416496,28.625748,-40.275501,31.596978,-44.10569,19.084488,-44.593437,-58.34127,0.0,18.059723,15.76961,52.997847,32.3554,60.362534,44.57062,65.671316,54.919025,72.00408,0.0,68.682678,26.580093,85.643783,16.485351,84.029365,5.87828,70.083251,-4.331978,48.733932,0.0,7.441901,29.909405,63.545929,46.992471,78.149309,58.987946,87.246058,66.500167,89.029521,7.131912,305.999684,-48.190841,288.601789
98,-2.311088,1.888488,0.307811,0.190377,0.0,-22.854824,-28.894798,30.236412,-38.038628,33.498711,-41.416969,21.215652,-41.650566,-55.198574,0.0,21.243056,15.263257,52.005357,30.907081,58.496956,42.524705,63.400062,52.376119,70.29021,0.0,68.563626,26.457161,86.058644,16.391339,84.280712,5.833157,70.308575,-4.353138,48.962162,0.0,7.86247,29.801539,63.446436,46.827906,77.850004,58.845993,87.037934,66.427771,88.864079,4.700821,307.86977,-48.003033,288.773764
99,0.610496,4.795154,0.316658,0.26008,0.0,-26.235694,-30.245693,29.171791,-38.094234,32.799546,-40.302555,21.860871,-39.519126,-52.750488,0.0,24.261873,13.145848,48.37489,26.127983,53.559702,35.608338,57.163443,43.532398,63.984147,0.0,68.455845,26.535198,86.419064,16.545742,84.538708,6.051075,70.425625,-4.089409,49.074452,0.0,8.224389,29.7234,63.272214,46.702998,77.517417,58.731521,86.761564,66.370529,88.734181,5.152519,312.656409,-47.845173,289.025329
100,0.903626,7.22901,0.504719,0.235776,0.0,-31.975433,-32.566692,25.998985,-38.23629,31.77182,-38.696846,23.007362,-36.160709,-43.230766,0.0,27.594159,11.056646,45.253184,19.020065,47.131039,24.067062,48.070818,28.103971,51.083855,0.0,68.261902,26.417255,86.58609,16.480019,84.586075,6.020313,70.377983,-4.119106,49.037132,0.0,8.698978,29.609693,63.078614,46.545583,77.2067,58.622407,86.384849,66.380606,88.585177,5.853911,319.885141,-47.542688,289.260827
101,1.127998,3.637976,0.340839,0.211124,0.0,-37.503341,-34.263851,23.879608,-38.180877,30.835739,-37.117824,24.343117,-33.55664,-42.142673,0.0,33.862407,9.397116,42.885587,15.1917,43.595914,18.760318,43.353593,21.576952,46.606691,0.0,68.097874,26.470917,86.818921,16.566067,84.720028,6.130166,70.491978,-4.003818,49.247212,0.0,9.206542,29.732836,62.913012,46.6462,76.866197,58.737869,86.042197,66.530302,88.500172,6.746189,323.51868,-47.437569,289.467514
102,3.014145,7.023566,0.301655,0.225562,0.0,-48.203522,-38.686981,17.799797,-40.160671,27.017532,-36.949734,24.195671,-31.579319,-33.271591,0.0,39.759522,7.996147,39.419437,7.880316,36.908283,6.287427,33.548949,4.649621,33.202653,0.0,67.957054,26.807728,87.214485,16.98935,84.902458,6.569504,70.403549,-3.585067,49.350312,0.0,9.586591,29.77164,62.732503,46.645051,76.549886,58.738301,85.715883,66.532833,88.337583,9.4913,330.528148,-47.404948,289.678978
103,5.474373,2.408859,0.30938,0.065666,0.0,-51.088303,-42.698341,10.152328,-43.316814,21.14447,-39.117565,20.213974,-32.902702,-33.69532,0.0,40.630029,7.133061,37.059942,5.026063,34.148323,1.492828,30.380807,-1.82738,28.326297,0.0,67.797661,27.247158,87.188278,17.519714,84.931938,7.066875,70.287643,-3.156979,49.223923,0.0,10.01704,29.738492,62.674877,46.678223,76.617651,58.824072,85.558727,66.647837,88.368556,14.668264,332.919523,-47.392977,289.72716
104,0.792755,-2.07595,0.212036,-0.14793,0.0,-50.020294,-42.143577,10.215523,-43.489551,20.838936,-39.881286,19.210396,-34.054539,-33.192192,0.0,39.297406,7.791617,38.518338,6.899546,36.435842,4.401445,33.269232,1.937098,31.240521,0.0,67.833389,27.499546,87.043419,17.82906,84.93647,7.320705,70.116371,-3.024296,49.004333,0.0,10.407847,29.736677,62.802911,46.731502,76.866629,58.913561,85.655306,66.772894,88.482141,15.127441,330.820586,-47.514519,289.556243
105,0.493492,-0.300478,0.354252,-0.118326,0.0,-51.577789,-42.587803,9.603974,-43.83213,20.043823,-40.069839,18.678978,-34.313862,-40.71746,0.0,39.863794,7.446087,39.124048,6.528995,36.516156,4.027411,33.609848,1.695246,32.492178,0.0,67.871326,27.608757,86.863232,17.868301,84.595859,7.278293,69.674869,-3.120278,48.485973,0.0,10.628753,29.882,63.178749,46.876442,77.256731,59.042039,85.885832,66.87314,88.659661,15.242643,330.49719,-47.538557,289.414999
106,-4.283249,3.644855,0.264988,0.09081,0.0,-43.520404,-37.438179,13.20607,-38.353969,24.084549,-34.75534,22.357453,-28.792991,-30.167381,0.0,37.371411,5.621424,36.49563,3.373808,33.941732,-0.146188,31.172263,-3.469681,26.661099,0.0,67.869301,27.745147,86.752556,18.052357,84.4934,7.466697,69.495849,-2.960083,48.389969,0.0,10.599841,29.769207,63.19226,46.728587,77.269748,58.888478,85.793565,66.781725,88.625464,10.541542,334.131288,-47.691421,289.495052
107,3.522148,-1.545415,0.326374,0.124082,0.0,-47.142356,-40.196331,10.645913,-41.351051,20.860405,-37.802581,18.852517,-31.946056,-39.143749,0.0,37.143317,5.393503,37.195953,4.425751,35.263561,2.339785,33.378123,0.347729,30.729438,0.0,67.859241,27.699772,86.446827,18.042686,84.290439,7.452576,69.310192,-3.00919,48.179592,0.0,10.496792,29.693611,63.161026,46.641741,77.251,58.80546,85.686119,66.761396,88.584992,13.615316,332.582097,-47.813421,289.615358
108,4.990265,2.055251,0.276295,0.117856,0.0,-52.761829,-44.848182,4.660584,-45.530113,16.26487,-41.217773,15.324852,-34.516399,-36.493824,0.0,38.622536,5.396307,37.22016,1.521592,33.237147,-3.600765,28.240699,-8.733249,21.889472,0.0,67.950004,27.462513,86.261604,17.838512,84.203613,7.293903,69.177452,-3.148957,48.045501,0.0,10.261523,29.698503,63.045775,46.58356,77.111618,58.699127,85.610043,66.653988,88.535975,18.154724,334.631997,-47.987983,289.727863
109,-0.625877,5.528021,0.241687,0.09806,0.0,-50.498634,-43.824326,2.317703,-42.846542,16.200508,-37.274815,17.364922,-29.356785,-21.739998,0.0,38.495898,4.503877,34.174048,-3.646646,28.624366,-12.874702,20.725846,-21.971464,8.504279,0.0,67.708546,27.41668,86.140721,17.837506,84.178837,7.317284,69.193188,-3.162254,48.13068,0.0,10.070023,29.595318,62.999178,46.407299,77.024043,58.504292,85.395793,66.529054,88.476867,17.064096,340.157835,-48.211047,289.82374
110,0.927177,-1.950523,0.020336,-0.023144,0.0,-42.405235,-41.186748,2.717629,-40.942806,15.516816,-36.331649,16.103142,-29.291793,-13.105201,0.0,33.958552,5.012145,33.218091,-0.946745,30.87491,-7.971608,24.001866,-15.163283,12.754461,0.0,67.555642,27.437359,86.127457,17.94912,84.376832,7.475602,69.458359,-3.030109,48.399514,0.0,10.094698,29.443276,62.875183,46.263853,77.073431,58.401786,85.41543,66.539613,88.556006,17.562086,338.20273,-48.619898,289.796014
111,5.110588,-2.432509,0.024662,-0.107199,0.0,-49.907432,-46.928043,-1.107604,-47.014572,11.092713,-42.14915,11.964249,-34.887485,-21.570339,0.0,36.083655,6.152897,35.395867,0.857985,32.767844,-5.617855,25.581306,-12.405028,16.62226,0.0,67.501317,27.292466,86.118245,17.878121,84.51035,7.490651,69.604466,-2.963825,48.533833,0.0,10.174863,29.306548,62.828488,46.170573,77.168749,58.359265,85.545415,66.586865,88.71699,22.304094,335.755213,-48.963816,289.673807
112,-1.634307,0.857762,-0.022819,-0.134023,0.0,-45.788979,-45.179947,0.308487,-45.09343,12.854461,-40.277665,13.025596,-33.03471,-16.723526,0.0,35.808397,5.945169,34.987907,0.397673,32.55299,-6.159788,25.528238,-13.005167,15.425352,0.0,67.483395,27.346802,86.224079,17.979309,84.606411,7.611191,69.781048,-2.881668,48.682651,0.0,10.29698,29.303016,62.801824,46.165633,77.360521,58.359993,85.775287,66.667338,89.000992,20.352185,336.593036,-49.304237,289.519845
113,-3.748055,-2.345861,-0.102425,-0.091131,0.0,-39.257561,-41.091236,4.914757,-41.211159,16.462853,-36.833301,16.293366,-30.114818,-14.402847,0.0,32.294107,6.381745,34.96506,4.166202,34.771756,0.939792,30.775677,-2.626961,24.575108,0.0,67.470394,27.604134,86.371273,18.289376,84.740834,7.910134,69.937603,-2.659561,48.869877,0.0,10.43335,29.305486,62.806591,46.189963,77.48475,58.40596,85.93259,66.802423,89.18628,16.330747,334.211344,-49.680045,289.392883
114,0.56266,-4.443559,-0.096748,-0.068469,0.0,-41.638561,-42.732685,6.921456,-43.637901,16.67347,-39.724033,14.928566,-33.552463,-27.418842,0.0,32.563104,7.295156,37.361629,8.616986,38.414709,8.828839,37.008232,8.506539,36.486219,0.0,67.59882,27.677055,86.444057,18.353508,84.827007,7.953701,70.051243,-2.627048,48.927853,0.0,10.52227,29.406263,62.775926,46.336978,77.529421,58.566808,86.101144,66.964259,89.333876,16.687643,329.720521,-49.982557,289.27715
115,0.353302,0.747871,-0.073231,0.009176,0.0,-47.121986,-45.429863,6.210755,-45.9654,16.382218,-41.486011,14.476227,-34.818489,-33.537986,0.0,36.101131,6.829213,38.206672,7.619902,37.714756,7.363663,36.118878,6.641492,36.178789,0.0,67.54834,27.834915,86.480187,18.582035,85.028984,8.200699,70.185631,-2.414669,49.16288,0.0,10.440068,29.547362,62.693971,46.444436,77.393632,58.625347,86.066749,67.004187,89.371767,16.877386,330.398478,-50.219347,289.216412
116,-0.089309,-1.746585,0.007508,0.006706,0.0,-45.244812,-45.075428,6.674217,-45.917221,16.509887,-41.641434,13.940231,-35.253765,-34.810147,0.0,34.822008,7.632709,38.845591,9.553764,39.078661,10.12724,38.049591,10.144728,39.425168,0.0,67.510345,27.946277,86.385063,18.682388,85.029167,8.254531,70.221061,-2.413708,49.21344,0.0,10.396892,29.69334,62.722747,46.570963,77.399584,58.732015,86.050607,67.089069,89.408582,16.649998,328.572149,-50.349918,289.143374
117,-2.271721,-0.152907,0.024433,-0.030257,0.0,-44.01178,-43.49754,8.92099,-44.64259,18.851028,-40.540238,16.524307,-34.261894,-31.485043,0.0,35.817647,7.974868,38.920149,9.720923,38.852149,9.903173,37.351565,9.566325,39.500158,0.0,67.454441,27.985496,86.310505,18.719558,85.131649,8.280372,70.307842,-2.384388,49.395595,0.0,10.441377,29.790214,62.888262,46.625253,77.388617,58.761815,85.9564,67.065887,89.426452,14.269633,328.340637,-50.434129,289.034512
118,3.35852,-2.192374,0.039997,-0.02023,0.0,-51.256302,-48.219005,6.952172,-49.890037,16.109871,-45.845031,12.943108,-39.682468,-45.088474,0.0,40.098074,8.421435,41.131332,10.524876,40.666623,11.087805,39.115848,11.150618,43.637188,0.0,67.488327,27.899242,86.159958,18.609066,85.166107,8.175876,70.400047,-2.451061,49.476723,0.0,10.414034,29.712742,62.967698,46.570271,77.401931,58.719158,85.863664,66.994603,89.423872,17.544107,326.082029,-50.478178,288.948048
119,-2.991943,0.588457,0.098179,0.000568,0.0,-46.095944,-45.734699,9.672752,-47.157944,19.047638,-43.102524,15.744186,-36.771858,-37.032761,0.0,40.358883,8.282212,40.843933,10.082619,40.505701,10.459877,38.987629,10.321087,42.253386,0.0,67.492389,27.773781,86.029209,18.479061,85.093998,8.097553,70.410267,-2.438771,49.577396,0.0,10.416134,29.53521,63.008095,46.430197,77.417813,58.627373,85.798283,66.931716,89.389378,14.486784,326.61169,-50.445379,288.88982
120,1.887543,-0.694458,0.073333,-0.01519,0.0,-50.191269,-47.688595,8.159935,-49.468724,17.192962,-45.504124,13.904045,-39.229397,-42.608151,0.0,40.659991,8.323141,41.503946,10.241195,40.960617,10.642338,39.372989,10.534793,43.122548,0.0,67.605572,27.488766,85.793484,18.147961,84.902996,7.843769,70.42384,-2.553451,49.604382,0.0,10.357087,29.422712,62.922126,46.401581,77.294324,58.670005,85.678412,66.989341,89.369827,16.323927,325.876786,-50.422446,288.834184
