takenoko1/special-research/HandMotion_SimilarSearch_自分用/NewProject/handData/test_key/d4_feature_d3/20.csv
frame,vel_0x_L,vel_0y_L,vel_0x_R,vel_0y_R,posFromWrist_0x_L,posFromWrist_1x_L,posFromWrist_2x_L,posFromWrist_3x_L,posFromWrist_4x_L,posFromWrist_5x_L,posFromWrist_6x_L,posFromWrist_7x_L,posFromWrist_8x_L,posFromWrist_9x_L,posFromWrist_0y_L,posFromWrist_1y_L,posFromWrist_2y_L,posFromWrist_3y_L,posFromWrist_4y_L,posFromWrist_5y_L,posFromWrist_6y_L,posFromWrist_7y_L,posFromWrist_8y_L,posFromWrist_9y_L,posFromWrist_0x_R,posFromWrist_1x_R,posFromWrist_2x_R,posFromWrist_3x_R,posFromWrist_4x_R,posFromWrist_5x_R,posFromWrist_6x_R,posFromWrist_7x_R,posFromWrist_8x_R,posFromWrist_9x_R,posFromWrist_0y_R,posFromWrist_1y_R,posFromWrist_2y_R,posFromWrist_3y_R,posFromWrist_4y_R,posFromWrist_5y_R,posFromWrist_6y_R,posFromWrist_7y_R,posFromWrist_8y_R,posFromWrist_9y_R,posFromBody_0x_L,posFromBody_0y_L,posFromBody_0x_R,posFromBody_0y_R
7,1.151001,-0.195231,-0.380356,-0.139408,0.0,21.123355,-4.359856,53.908573,-13.028813,47.743595,-21.945809,30.169635,-28.647595,-28.217915,0.0,-12.140476,20.647967,46.984987,40.479915,62.320468,52.938579,70.541325,61.957202,77.730715,0.0,70.83276,23.913769,87.960011,13.871167,85.015538,5.502469,70.984005,-0.920803,50.939564,0.0,10.535756,32.94403,58.006583,50.938038,69.888746,62.395481,77.674126,68.029268,78.551686,-17.167196,271.940533,-48.43035,269.705885
8,1.850086,3.918805,-0.373661,-0.186647,0.0,8.143902,-8.787541,48.063675,-15.538674,43.836364,-21.671974,29.349266,-25.373818,-21.125084,0.0,-0.322621,21.896585,44.293731,38.919815,57.636279,49.554767,64.283957,57.190675,70.255012,0.0,71.321228,24.334134,88.073662,14.202977,85.089157,5.676888,70.995324,-0.989559,50.94278,0.0,10.844052,33.215374,58.266256,51.166132,69.971356,62.534012,77.909556,68.092426,78.784955,-14.804472,275.811852,-48.291373,269.471752
9,2.758255,-0.030813,-0.355716,-0.188005,0.0,5.216194,-11.800038,44.557228,-18.528488,41.415184,-24.378594,26.498405,-27.706078,-24.983254,0.0,0.338676,21.985592,44.297374,38.984702,57.252265,49.674835,64.214228,57.2833,70.997116,0.0,71.441288,24.718197,88.361377,14.517666,85.361835,5.790733,71.04198,-1.203026,50.698333,0.0,10.969022,33.459201,58.416976,51.339082,70.066019,62.627033,78.111776,68.184138,79.049382,-11.8423,275.743412,-48.443172,269.24612
10,1.745567,0.124241,-0.223927,-0.040681,0.0,3.609203,-12.901852,42.660828,-19.686527,39.864166,-25.518162,24.382347,-28.802628,-26.738365,0.0,0.300737,21.51272,44.027365,38.712198,57.016972,49.648777,64.10524,57.35734,71.1293,0.0,71.660751,25.091641,88.4515,14.935078,85.574021,6.097641,71.16774,-1.142097,50.627529,0.0,11.07958,33.529979,58.362772,51.273404,69.922819,62.513622,78.256667,68.103405,79.260099,-9.984449,275.828487,-48.554815,269.166273
11,2.995239,0.102074,-0.192776,-0.108718,0.0,-0.259346,-15.421554,39.21959,-22.092727,36.285141,-27.591602,20.777184,-30.384487,-29.983612,0.0,0.588531,21.452328,44.181642,38.602591,56.805686,49.547827,63.968425,57.205532,71.261037,0.0,71.827229,25.100968,88.523426,15.063767,85.813466,6.296414,71.434376,-0.951896,50.792633,0.0,11.295002,33.651455,58.408097,51.349259,69.926389,62.548906,78.356468,68.120127,79.442769,-6.916981,275.894647,-48.675362,269.021641
12,-2.185638,0.594558,-0.32547,-0.190698,0.0,2.980968,-12.361988,42.830337,-19.304249,39.698685,-25.142166,23.91053,-28.4771,-24.325985,0.0,0.138036,19.733641,42.943509,37.310191,55.748173,48.900571,63.24739,57.047438,70.66228,0.0,71.863118,25.298241,88.722966,15.348576,86.079815,6.634472,71.693768,-0.616149,51.081208,0.0,11.483107,33.857677,58.649751,51.509687,70.111554,62.678669,78.651574,68.265266,79.776679,-9.087238,276.452788,-48.985451,268.794526
13,2.907474,-3.319851,-0.247364,0.007805,0.0,9.81704,-11.638378,43.139866,-20.728294,38.1236,-29.045906,18.431889,-34.854801,-36.391182,0.0,-11.350466,19.282715,45.331904,39.5667,59.68785,52.66458,68.659493,61.720253,76.702459,0.0,72.054108,25.260533,89.024208,15.451767,86.689316,6.812485,72.255204,-0.358303,51.76165,0.0,11.468645,33.756617,58.758247,51.473995,70.168019,62.724105,78.50572,68.40954,79.80874,-6.156687,273.103019,-49.209738,268.772413
14,-0.419506,4.653968,-0.273182,-0.139654,0.0,2.714585,-11.239769,42.9665,-19.337104,38.468422,-26.174583,20.230774,-30.274406,-32.05672,0.0,-2.674645,18.105839,41.904521,36.82308,55.250601,48.933139,63.319663,57.518916,70.453305,0.0,72.392544,25.55111,89.212018,15.822155,87.089436,7.201607,72.736096,0.031014,52.407933,0.0,11.652673,33.896987,59.056636,51.630964,70.327149,62.901563,78.552501,68.595284,79.974712,-6.562907,277.733108,-49.469634,268.60888
15,-1.179714,0.608316,-0.185691,-0.14956,0.0,3.804794,-9.578842,44.551495,-17.907543,39.907848,-24.997627,20.858723,-29.427143,-29.700966,0.0,-2.81099,17.796345,40.592127,36.667876,54.298236,48.876587,62.538631,57.418225,69.195165,0.0,72.583385,25.771534,89.399379,16.068592,87.414264,7.418277,73.005169,0.213192,52.796974,0.0,11.906443,34.064911,59.383741,51.846449,70.618191,63.107612,78.537151,68.756873,79.988755,-7.739748,278.323066,-49.652452,268.440962
16,-2.283405,0.483777,-0.13773,-0.103012,0.0,6.345428,-6.663174,47.117592,-15.367745,42.47834,-22.950806,22.281143,-28.009072,-26.67944,0.0,-2.893698,17.791171,38.942663,36.985508,53.280689,49.259774,61.477488,57.638057,67.544997,0.0,72.82972,26.073589,89.484741,16.359238,87.571999,7.604118,73.112984,0.240543,52.886158,0.0,11.986237,34.168356,59.510959,51.978903,70.811347,63.226679,78.578622,68.850326,80.11785,-10.021711,278.792026,-49.78874,268.323133
17,-2.088181,0.166282,-0.109863,-0.043559,0.0,8.491265,-3.546478,49.652825,-12.745342,44.772675,-20.976631,24.072029,-26.852634,-22.554977,0.0,-2.975864,17.610612,38.1498,36.916298,53.003985,49.281497,61.333263,57.670167,66.679367,0.0,73.00177,26.375759,89.655189,16.675197,87.828987,7.837085,73.297371,0.36676,53.126335,0.0,11.985879,34.111385,59.615219,51.947757,70.917842,63.25569,78.496087,68.950856,80.098572,-12.110373,278.94601,-49.899084,268.267276
18,-4.615082,-0.005237,0.071502,-0.196675,0.0,14.778615,1.306366,55.219002,-8.100116,50.534981,-16.99118,29.591721,-23.83699,-15.475753,0.0,-3.292346,16.33664,36.930427,35.967948,52.628592,48.854963,61.347466,57.707403,66.477098,0.0,72.958924,26.631329,89.588311,16.913464,87.711113,8.001423,73.139672,0.379326,52.818192,0.0,12.207427,34.220856,59.714773,52.029663,71.113109,63.317391,78.800936,69.012471,80.381302,-16.728905,278.930884,-49.831032,268.060712
19,-1.634445,-3.921978,0.059693,-0.041644,0.0,23.958676,4.146904,58.058396,-6.640983,52.345894,-17.538585,29.744774,-26.79087,-13.827816,0.0,-12.425813,16.872571,39.201273,38.228803,56.317005,52.16739,65.750147,61.532791,70.580832,0.0,72.720863,26.613212,89.472061,16.976326,87.650139,8.091144,73.140701,0.436271,52.769394,0.0,12.346365,34.125328,59.57844,51.953104,71.205931,63.272844,79.004453,69.051793,80.500912,-18.362692,274.999199,-49.770681,268.009361
20,2.249279,-0.179311,0.036049,-0.091119,0.0,20.205815,1.909481,55.110157,-9.193062,49.527409,-20.109546,27.197193,-29.270874,-16.931282,0.0,-12.147035,17.599534,39.920443,38.678877,56.499639,52.309219,65.684914,61.53431,70.419194,0.0,72.551651,26.589191,89.377624,17.0438,87.54554,8.218723,73.094513,0.59547,52.782314,0.0,12.392036,34.174679,59.545008,51.951079,71.229681,63.252009,79.086951,69.082384,80.506667,-16.109928,274.812975,-49.731147,267.911329
21,0.466667,-0.470279,0.136699,-0.236998,0.0,18.240704,1.354306,54.263318,-9.709728,49.344784,-20.638916,27.160733,-29.852039,-18.607383,0.0,-11.384318,17.894627,40.89158,38.760252,57.137755,52.288347,66.100247,61.513822,71.051926,0.0,72.375172,26.560284,89.158436,16.980503,87.159634,8.094303,72.675099,0.377724,52.228478,0.0,12.455293,34.080139,59.671399,51.798271,71.28207,63.09998,79.238771,69.000404,80.568751,-15.632996,274.338336,-49.584183,267.669971
22,1.903073,-0.657432,0.25121,-0.290215,0.0,14.627735,-1.581036,51.364059,-12.216705,47.402572,-22.639801,25.151687,-31.206413,-25.211094,0.0,-10.325336,19.288285,42.319546,39.793238,58.032235,52.836147,66.632783,61.661714,72.127396,0.0,72.092926,26.27972,88.856735,16.707447,86.759307,7.798336,72.385688,0.047744,51.734287,0.0,12.504348,33.985809,59.902865,51.671461,71.586957,62.961264,79.49091,68.857403,80.668417,-13.707149,273.675732,-49.310199,267.374584
23,4.53273,-0.290153,0.099506,-0.319706,0.0,7.184509,-6.72139,45.180634,-17.180203,42.174179,-27.008308,20.230385,-34.655308,-34.792923,0.0,-10.025389,21.101166,43.962848,40.963445,58.983438,53.250308,66.913834,61.496519,72.92084,0.0,71.930614,26.151295,88.712757,16.508537,86.441128,7.526985,72.080463,-0.295441,51.263729,0.0,12.446697,33.883031,60.142653,51.53514,71.872959,62.798995,79.769515,68.672929,80.811887,-9.136482,273.377456,-49.172756,267.046755
24,2.035812,2.3808,0.132019,-0.398229,0.0,-0.863468,-10.497139,42.746567,-20.292446,40.661248,-28.480659,20.054924,-34.033355,-36.861854,0.0,-2.243417,21.268719,43.301007,39.47652,56.678616,50.792604,63.938686,58.724778,70.186593,0.0,71.864285,26.025833,88.641735,16.280605,86.245319,7.185768,71.915897,-0.721001,50.892334,0.0,12.443931,33.862938,60.589233,51.503463,72.303928,62.74515,80.139327,68.570523,81.138263,-7.051037,275.750117,-48.991104,266.640387
25,-0.423145,-0.06506,0.07402,-0.228661,0.0,-0.597553,-9.936916,43.168591,-19.568493,41.023396,-27.837055,21.502934,-33.53524,-33.004246,0.0,-2.071023,21.472495,43.151459,39.605343,56.886468,50.878745,63.999176,58.753528,69.775236,0.0,71.895092,25.926018,88.375134,16.07745,85.941021,6.874512,71.670262,-1.123729,50.582898,0.0,12.244699,33.546108,60.730406,51.160031,72.528242,62.491725,80.390823,68.448195,81.40479,-7.422609,275.674498,-48.865511,266.401167
26,1.628243,0.153314,-0.092102,-0.096146,0.0,-2.292984,-11.66256,41.582027,-21.298153,39.161899,-29.438736,21.033359,-34.95662,-29.869057,0.0,-2.063267,21.736256,42.808263,39.767104,56.783233,50.992144,64.045773,58.856886,69.08126,0.0,71.92416,25.766133,88.321324,15.988598,86.022114,6.826332,71.882275,-1.117138,51.007084,0.0,12.08505,33.349187,60.688639,50.963369,72.738429,62.379118,80.588833,68.445429,81.666402,-5.732694,275.803526,-48.895941,266.280735
27,1.362476,0.222956,-0.188678,-0.08093,0.0,-3.977028,-13.020458,40.295151,-22.914848,37.570152,-31.090611,20.72612,-36.539681,-26.03849,0.0,-1.921537,21.686534,42.311135,39.748839,56.377916,51.056685,63.722485,59.029701,67.924131,0.0,72.064865,25.892669,88.396545,16.108429,86.116493,6.898212,71.893386,-1.111199,51.153556,0.0,11.921843,33.313372,60.512736,50.871113,72.705812,62.301399,80.624302,68.452703,81.850369,-4.308546,276.003548,-49.022947,266.176871
28,-2.173462,0.120882,-0.133885,0.077139,0.0,-0.427368,-10.606201,43.500664,-20.606461,39.878174,-29.175751,24.021721,-35.218563,-16.689571,0.0,-1.869494,20.695293,41.133148,39.112724,55.439607,50.924429,63.461837,59.305973,66.64948,0.0,72.222851,25.972973,88.410656,16.216988,86.128544,6.987728,71.806172,-1.036674,51.319531,0.0,11.63174,33.160082,60.342749,50.664583,72.534738,62.146059,80.313808,68.446009,81.690719,-6.409389,276.102446,-49.084213,266.232026
29,2.598942,-2.875593,-0.070507,0.02218,0.0,0.933872,-11.872216,40.263576,-22.762001,35.863369,-32.590748,19.416904,-39.9791,-20.297482,0.0,-8.481296,21.875713,42.549652,41.622556,58.122798,53.979123,66.639859,62.315465,69.645968,0.0,72.460854,26.132618,88.316322,16.405415,85.960213,7.157684,71.512345,-0.899151,51.294674,0.0,11.342291,33.13379,60.049917,50.531659,72.27477,61.996722,79.964944,68.391385,81.459872,-3.729246,273.203339,-49.073519,266.230692
30,-1.030197,4.160508,-0.11776,-0.047597,0.0,-6.501492,-13.445206,40.172298,-22.680416,37.918819,-30.21286,23.467311,-35.050587,-13.191239,0.0,1.505203,20.531185,40.922097,37.427641,54.122248,47.925088,60.90863,55.186677,62.707395,0.0,72.679711,26.406327,88.552849,16.743668,86.158242,7.453766,71.532258,-0.710735,51.344101,0.0,11.234277,33.16995,59.926737,50.523076,72.133966,61.950644,79.669159,68.376108,81.352945,-4.671409,277.341666,-49.103245,266.160914
31,1.125698,-0.809424,0.092103,-0.017352,0.0,-8.321652,-15.129559,38.336425,-24.183106,36.344284,-31.309902,21.62503,-35.528424,-19.447712,0.0,2.266215,21.591007,41.665683,38.356404,54.70532,48.550248,61.306303,55.554919,64.263283,0.0,72.729446,26.535495,88.549392,16.93888,86.182846,7.643371,71.487442,-0.571827,51.289386,0.0,10.928304,33.166085,59.709981,50.464672,71.91164,61.852091,79.355405,68.291498,81.099027,-3.454239,276.525561,-48.91967,266.136881
32,-0.270756,2.782337,0.048282,-0.059416,0.0,-16.351811,-16.734856,36.522045,-24.170734,36.329166,-29.143581,23.795963,-31.180229,-13.437183,0.0,11.380601,21.694007,40.190108,36.518058,51.423558,45.467619,56.527229,51.64849,59.158241,0.0,72.872212,26.646538,88.67458,17.076542,86.330715,7.782875,71.557423,-0.453644,51.371018,0.0,10.712919,33.264564,59.480949,50.568116,71.711235,61.904195,79.130535,68.290769,80.873144,-3.61615,279.299626,-48.762543,266.069193
33,2.59259,-0.547133,0.020577,-0.094219,0.0,-20.736946,-20.142666,32.959706,-27.274532,33.182545,-31.515358,20.581387,-32.621452,-20.935489,0.0,13.826732,22.59849,40.960889,37.130078,52.246431,45.677904,56.706416,51.477576,60.504363,0.0,72.796978,26.854374,88.687213,17.281425,86.307071,7.952396,71.641353,-0.356106,51.41122,0.0,10.608783,33.323017,59.179977,50.660928,71.333249,61.956671,78.918682,68.271651,80.715347,-0.91404,278.748504,-48.632446,265.970985
34,-3.676849,2.783845,0.135257,-0.050623,0.0,-18.456585,-17.983887,36.599728,-24.1096,38.361889,-26.955471,26.88541,-26.615078,-14.201202,0.0,18.739805,20.492664,39.945378,33.95581,50.012782,42.326745,53.90123,48.364083,57.096937,0.0,72.538788,26.795632,88.6092,17.207245,86.19619,7.890873,71.54718,-0.40615,51.345589,0.0,10.461446,33.195737,58.834657,50.638981,70.96592,61.954473,78.63584,68.211531,80.467209,-4.46022,281.528585,-48.36652,265.916598
35,3.345577,-5.130348,0.082386,-0.156809,0.0,-14.610615,-20.746559,33.453209,-28.072128,34.1941,-32.192951,21.34552,-33.135864,-26.425106,0.0,12.764736,22.218416,42.68617,38.301965,54.699095,48.420079,59.969765,55.443151,65.800893,0.0,72.403485,26.669094,88.564968,16.979531,86.078648,7.693016,71.594776,-0.51519,51.415329,0.0,10.428756,33.230169,58.573848,50.811648,70.644991,62.12357,78.488047,68.251236,80.267422,-0.962643,276.388061,-48.132134,265.749613
36,-2.424705,3.623119,-0.005607,-0.154351,0.0,-12.003159,-19.450871,35.645599,-26.413754,37.222686,-29.504105,25.709449,-29.237995,-19.004322,0.0,16.486866,19.057078,40.64485,34.375713,51.465263,44.635322,56.293108,52.096587,61.024437,0.0,72.346287,26.719139,88.712185,16.85234,85.918636,7.504657,71.480015,-0.697884,51.244983,0.0,10.47413,33.299762,58.359894,50.969086,70.220691,62.254369,78.317171,68.260042,80.147156,-3.217643,279.995536,-47.968036,265.579618
37,3.282486,-2.902615,-0.003102,-0.176087,0.0,-9.561333,-21.954255,33.79438,-30.070599,34.174301,-34.080872,20.802612,-34.663536,-31.868145,0.0,11.043023,19.495667,42.305503,36.225508,54.342103,47.425032,60.190621,55.501122,66.956441,0.0,72.112885,26.369294,88.717644,16.410771,85.928673,7.150132,71.537522,-0.886505,51.163559,0.0,10.647932,33.264897,58.242136,51.106765,70.075948,62.468581,78.196498,68.456704,79.914011,0.22391,277.075451,-47.812071,265.386061
38,-2.59599,3.946135,0.086483,-0.178447,0.0,-6.767109,-19.510196,37.062069,-27.658882,38.0201,-31.178661,24.874043,-31.095806,-29.130329,0.0,12.234683,16.387201,40.197493,32.236568,50.331711,43.369611,56.323144,51.851166,62.803392,0.0,72.003125,26.093365,89.224675,15.950158,86.160862,6.661995,71.467999,-1.313633,50.66565,0.0,10.573511,33.32277,58.154192,51.186485,70.102773,62.547808,78.127869,68.453716,79.607717,-2.218363,281.003163,-47.571871,265.189191
39,4.219048,-3.102279,-0.004566,-0.205184,0.0,-9.867188,-23.259361,33.05373,-31.990311,33.090603,-36.230702,18.929157,-36.887867,-37.067883,0.0,7.495191,18.272293,41.142472,35.05766,52.239255,46.384267,58.645898,54.644347,66.646293,0.0,72.009201,26.025067,90.071526,15.657875,86.562721,6.21611,71.481377,-1.894272,49.813706,0.0,10.50335,33.525497,57.692459,51.298883,70.183616,62.572705,78.172144,68.384345,79.551129,2.13204,277.892091,-47.445082,264.975214
40,-3.078701,2.474858,0.081951,-0.122982,0.0,-5.081863,-19.938606,37.052032,-28.929508,37.214447,-32.960976,22.75621,-33.243748,-29.641205,0.0,8.746711,16.493992,39.455302,32.482532,49.874202,43.626641,56.259936,52.121905,62.727785,0.0,71.6544,25.924301,91.055638,15.487118,87.056752,5.96592,71.561474,-2.184448,49.31955,0.0,10.424569,33.538069,56.305853,51.314679,70.027486,62.59312,77.944741,68.391026,79.314156,-0.829691,280.366773,-47.246161,264.852056
41,2.203846,-3.889461,0.009373,-0.51816,0.0,-7.135506,-21.826595,36.029354,-30.952961,35.224399,-35.632679,18.946072,-36.735993,-37.901837,0.0,4.600344,18.9894,40.619026,35.753081,52.25352,46.9489,59.706486,55.153307,67.537364,0.0,71.294243,25.841915,92.261925,15.357742,87.820335,5.741249,71.917992,-2.480759,48.630077,0.0,10.823069,33.347013,55.113823,51.280852,70.409277,62.692192,78.256371,68.521875,79.390677,1.465548,276.476203,-47.145395,264.332787
42,-4.378178,0.451309,0.136711,-0.604771,0.0,3.603882,-17.137859,41.654915,-26.874538,41.015488,-31.75431,24.391274,-32.767879,-27.249881,0.0,4.903094,16.116907,38.599083,34.046596,51.093662,46.637752,58.908399,56.224713,65.055158,0.0,70.529938,26.011574,93.104759,15.831665,88.4916,6.302056,72.980049,-1.949581,49.520714,0.0,11.501631,32.649369,53.247911,50.746871,70.130683,62.406028,78.801652,68.424507,80.331753,-2.832293,276.927108,-46.928347,263.727612
43,-1.324688,-1.20627,-0.106224,-1.16507,0.0,7.882141,-17.730686,43.08823,-27.164509,44.618855,-31.802032,28.272412,-32.388256,-21.428867,0.0,10.713228,16.086822,39.756768,32.903534,51.755676,44.687366,59.901481,53.736987,67.034358,0.0,69.216774,25.834076,93.094872,16.02824,89.205414,6.671047,73.96685,-1.581802,50.605694,0.0,12.751658,31.233605,51.574673,49.590867,70.43872,61.622724,80.074143,68.110396,82.457523,-4.078423,275.714916,-46.956013,262.55662
44,4.037281,9.984536,0.453644,-1.713389,0.0,-3.712417,-22.702469,33.735993,-29.567299,37.754334,-31.361927,25.41005,-29.156719,-15.806087,0.0,16.754233,11.243095,34.791417,21.179699,42.541501,27.288729,45.028067,31.392933,45.317256,0.0,67.547424,24.517776,90.786575,14.704742,87.6213,5.312839,72.514572,-2.977684,49.471069,0.0,13.968746,28.251789,49.957887,46.58319,70.391234,59.143977,80.999214,66.450569,83.989206,0.041038,285.683808,-46.420189,260.827587
45,9.405865,7.875956,0.403313,-2.536855,0.0,-17.650852,-25.914803,9.347099,-31.000271,13.334301,-31.721844,5.77525,-29.060852,-25.382,0.0,19.555355,8.645638,27.997538,12.117654,28.840925,12.425331,25.779191,11.255803,23.019479,0.0,66.169761,21.234764,85.659576,11.619655,83.115783,2.670524,69.014488,-5.10553,46.722301,0.0,14.987813,22.766006,47.528526,40.921442,68.121153,54.291197,79.786608,63.021322,83.825085,9.523516,293.54842,-45.940263,258.279388
46,5.87764,2.279763,-0.468304,-2.939283,0.0,-25.754917,-25.194809,-11.637428,-27.211086,-6.203327,-25.064484,-7.730633,-20.08334,-22.082451,0.0,16.339172,6.402802,24.889492,8.980857,27.161364,9.311987,24.798435,8.430735,22.111452,0.0,62.261707,17.599262,79.152363,8.418571,76.582558,0.287853,63.540436,-6.559261,43.650398,0.0,15.006907,17.521075,42.791739,34.924626,62.662577,48.537022,74.251191,58.223587,79.453972,15.506762,295.820294,-46.302961,255.332216
47,11.433002,-0.971185,-1.856426,-9.060508,0.0,-40.590385,-26.549915,-34.139751,-24.99377,-27.815059,-20.726165,-24.949768,-14.82011,-28.939167,0.0,16.967383,7.917502,25.501907,9.242888,27.481119,8.602437,26.258485,6.521708,24.657952,0.0,58.445726,17.86615,69.297741,8.852039,65.899091,0.637579,53.428739,-6.558386,35.869726,0.0,12.667998,14.313202,37.11301,31.031904,55.338305,44.739755,66.531308,55.208963,72.912133,27.094431,294.964401,-48.00472,246.387
48,10.116898,-0.991613,-2.92923,-14.814739,0.0,-45.727547,-26.357792,-45.70071,-21.717556,-39.773953,-14.968723,-32.399254,-7.46481,-24.22768,0.0,5.385142,7.626645,17.749452,10.740916,21.546349,11.41071,21.153752,9.913028,19.207218,0.0,54.642568,22.066246,56.118061,13.377228,51.107443,4.536695,39.789579,-3.974035,25.304071,0.0,8.176619,13.438915,29.802379,29.701726,45.269295,43.464917,56.298116,54.482024,63.859177,37.487932,294.386713,-50.657347,231.986186
49,15.099037,-21.37188,-2.713978,-14.145945,0.0,-43.829018,-20.706642,-53.92345,-15.677055,-49.753956,-9.690994,-41.695038,-3.623291,-29.87392,0.0,4.428271,13.241314,21.05536,23.142993,28.787647,29.959473,34.843535,33.565746,40.103126,0.0,48.728319,19.863636,44.812214,12.17347,39.817251,4.357126,30.330362,-3.301123,18.874083,0.0,4.832538,10.549045,17.296365,26.137962,30.275863,39.266754,40.767567,49.909172,49.694608,53.000462,273.85404,-52.957832,218.679448
50,14.571808,-15.62068,-4.442333,-23.164531,0.0,-41.511406,-19.59668,-46.421036,-14.571259,-42.011067,-8.446747,-35.894119,-2.104179,-25.489014,0.0,0.487853,16.117178,20.46563,26.931738,30.474186,34.120276,38.134127,37.799341,43.287199,0.0,45.0082,21.899837,36.104004,15.589348,31.53301,8.860021,23.64858,2.153921,14.793165,0.0,-6.50501,8.170099,8.854787,24.138261,21.486433,37.662812,32.720624,48.766085,42.769484,68.080256,259.86253,-56.892179,197.144087
51,18.167221,-25.85717,-1.617691,-28.374493,0.0,-38.802544,-21.354057,-38.9366,-17.020409,-34.528507,-11.527748,-29.754112,-5.608498,-21.445427,0.0,-2.577401,16.755011,18.532027,28.718054,27.372056,36.743965,35.158869,41.152994,40.982612,0.0,41.606272,22.879864,29.493061,17.334137,25.593,11.147798,19.079023,4.933199,11.280172,0.0,-19.99537,4.97294,3.156749,21.69526,16.086032,36.068089,28.546512,48.06888,39.538363,86.930563,236.533542,-57.826784,171.297776
52,18.034218,-31.432158,1.487686,-26.800741,0.0,-35.244599,-26.050026,-33.054451,-22.816567,-28.253128,-17.70694,-24.433022,-11.302849,-18.558861,0.0,-14.850356,14.60995,12.98463,27.043,22.038154,35.829108,30.072723,41.650727,37.188593,0.0,37.186203,22.194935,25.966953,18.97126,24.063446,14.726383,18.963306,10.262363,12.953568,0.0,-32.73377,-1.955722,-3.381236,15.349918,11.341914,30.623357,24.725001,43.914695,36.483601,106.050093,208.224368,-55.253786,147.620019
53,21.052185,-36.740495,3.941643,-26.53773,0.0,-44.000382,-28.485283,-38.574051,-26.748299,-35.754685,-23.470047,-33.391251,-18.904175,-28.782486,0.0,-11.109646,14.797073,12.355492,26.504772,21.605,34.995466,28.180184,40.574356,35.163834,0.0,32.627054,18.220207,25.62973,16.648172,25.647011,14.522312,21.84268,12.532242,16.826752,0.0,-43.691795,-8.945097,-7.836933,8.801894,8.981677,24.988215,23.048952,39.466275,35.053936,128.559179,174.868509,-49.855242,124.466925
54,9.724205,-33.390145,4.301571,-32.612393,0.0,-35.775215,-31.276634,-33.70958,-31.198746,-31.912789,-28.768593,-31.083023,-24.525147,-27.7034,0.0,-27.99384,9.128662,4.109354,21.001327,14.646055,30.261518,21.933579,37.106236,29.899747,0.0,29.886949,22.254238,24.990406,21.528173,25.156414,19.741722,22.336515,17.852874,18.365032,0.0,-55.916258,-10.979014,-6.197491,7.814517,11.940115,25.56702,27.194066,41.756122,39.34525,139.945667,145.222199,-43.891388,95.598367
55,10.340011,-42.383513,5.739601,-26.386588,0.0,-31.587593,-33.470123,-35.281768,-34.185447,-34.770584,-32.686843,-33.18647,-29.463501,-30.199539,0.0,-42.04346,2.932502,1.455994,21.160835,17.92289,37.296915,30.490149,50.900488,44.182024,0.0,26.282827,23.647053,25.995254,23.20487,25.826259,21.550266,23.041059,19.406204,19.717277,0.0,-58.752238,-11.150735,-7.050078,7.902889,10.783679,25.739045,25.699231,41.836565,38.077509,151.938829,106.80632,-36.498636,73.179413
56,6.741051,-30.386199,6.953384,-24.557959,0.0,-28.738655,-33.21492,-36.528122,-34.98555,-37.452118,-34.798828,-36.696647,-33.132843,-35.2985,0.0,-47.078903,-1.686021,-2.783122,16.462074,13.789627,33.116462,26.537265,47.48976,40.550533,0.0,23.703673,23.805302,24.573189,23.240805,25.148037,21.485161,22.80514,19.238823,20.366524,0.0,-61.182796,-10.023772,-7.939686,9.711891,10.112747,27.938884,24.810228,44.136174,37.745421,160.417185,79.920575,-27.807947,52.121908
57,4.719704,-24.083469,4.485844,-21.350662,0.0,-26.820397,-31.240814,-38.616966,-33.596489,-41.770088,-34.571114,-40.908302,-34.612381,-39.871697,0.0,-51.793973,-6.595444,-6.948076,11.758081,9.836797,28.888633,22.701013,43.775793,36.809661,0.0,22.529909,21.844459,25.159618,19.540575,24.964966,17.13945,22.440634,15.021217,19.313324,0.0,-62.602624,-7.984884,-6.901026,12.312368,10.453338,30.932396,25.77364,47.063755,38.801865,166.68611,58.898781,-21.772882,33.832921
58,3.60141,-22.461256,3.08638,-16.386142,0.0,-20.79435,-31.927483,-40.686516,-34.62188,-44.397858,-35.867775,-43.498673,-36.350693,-42.733864,0.0,-66.060238,-11.842346,-9.050245,7.889498,8.264021,26.511928,23.079093,43.21342,38.42814,0.0,23.16988,19.837086,26.953216,16.38208,26.300938,13.723572,23.291267,12.041839,19.61594,0.0,-63.955865,-7.809303,-6.267642,13.000351,10.963532,32.092016,26.804545,48.4348,39.835364,171.370445,39.31348,-17.603577,20.322734
59,1.475235,-13.6976,1.891891,-11.114519,0.0,-20.989815,-30.013687,-42.954598,-32.338326,-46.481323,-33.790444,-44.86837,-35.069435,-44.401222,0.0,-68.058216,-14.718241,-10.136768,5.41976,6.999459,24.354147,22.015955,41.565117,37.176323,0.0,25.046322,17.420163,29.507355,13.30394,28.539059,10.831856,25.117115,9.966511,21.027386,0.0,-65.768536,-9.216193,-6.643516,12.256377,11.099538,31.895453,27.378583,48.57858,40.737192,173.751909,27.924694,-14.805457,11.517029
60,-0.869339,-11.114086,2.373745,-8.23567,0.0,-19.832405,-29.275612,-42.98053,-30.888909,-46.000237,-31.779556,-44.567871,-32.840515,-44.344666,0.0,-70.502026,-15.003707,-10.073573,5.707387,7.187656,25.026405,22.989629,42.493435,38.142853,0.0,24.876355,15.495495,30.4762,10.788094,29.342743,8.168175,25.856816,7.753556,21.607144,0.0,-68.68478,-10.318828,-6.605559,11.565549,11.752122,31.77925,28.585352,49.081777,41.909535,173.92733,18.235165,-11.386952,4.705916
61,0.689667,-4.493966,-0.775612,-4.629274,0.0,-20.880021,-30.101189,-45.097275,-31.551339,-47.659447,-32.223176,-45.782227,-33.224282,-45.376099,0.0,-72.431041,-16.784509,-11.204693,4.178625,6.168372,23.701358,22.151305,41.441825,37.323036,0.0,26.100438,16.418473,32.617218,12.030419,31.059174,9.763951,27.158959,9.749714,22.925984,0.0,-69.433917,-11.555565,-7.103373,10.410662,11.062882,30.918795,28.836689,48.6011,42.110106,175.413558,14.952498,-11.366003,1.287941
62,-0.89177,-2.732024,0.16404,-3.174583,0.0,-20.726692,-29.630264,-45.10508,-30.810173,-47.234505,-31.156151,-45.108307,-31.97953,-44.891579,0.0,-73.194788,-17.103308,-11.224026,4.066592,6.238397,23.781023,22.341238,41.68779,37.414958,0.0,27.245384,17.217876,33.103993,12.980015,31.835529,10.797958,27.812119,10.773468,23.752911,0.0,-70.004275,-11.496667,-7.15134,10.47308,10.896243,31.059302,28.774136,48.803635,42.111181,175.095091,13.176161,-10.62866,-0.930955
63,-0.488113,-0.31292,0.451321,-1.824842,0.0,-20.385041,-29.106903,-44.604653,-30.302101,-46.588692,-30.616173,-44.733628,-31.42051,-44.505547,0.0,-73.166902,-17.136456,-11.14012,4.007608,6.530156,23.83217,22.828337,41.883631,37.898877,0.0,27.432735,17.964065,32.78358,13.848037,31.860534,11.721771,27.865963,11.575229,23.783466,0.0,-70.092287,-10.977006,-7.402257,10.962927,10.436332,31.523147,28.20936,49.178565,41.873634,175.108332,13.404736,-9.675985,-2.214302
64,-0.235817,1.659931,0.6641,0.14026,0.0,-19.481735,-28.552689,-43.60904,-29.733124,-45.866822,-30.169739,-44.468537,-31.210991,-44.25325,0.0,-73.005585,-17.06246,-10.902442,4.07688,6.971752,23.995908,23.260714,42.076774,38.053525,0.0,27.980954,18.668507,31.978421,14.811711,31.630497,12.818264,27.664959,12.614296,23.399929,0.0,-68.815703,-9.632577,-7.16545,11.996512,10.365912,32.215394,27.807865,49.521008,41.434613,175.129338,15.434185,-8.755062,-1.704524
65,0.161567,3.769165,0.972508,2.987096,0.0,-18.558883,-28.413505,-43.030654,-29.615867,-45.417114,-30.088142,-44.277008,-31.174598,-44.113609,0.0,-73.005789,-16.808104,-10.770198,4.38888,7.183734,24.411686,23.279257,42.427541,37.969748,0.0,28.292633,20.224674,30.818653,16.86335,30.286171,14.873852,26.674827,14.1977,22.581425,0.0,-66.978054,-7.543647,-6.491648,13.555364,10.753291,33.182399,27.673657,49.927863,41.132709,175.182237,19.442747,-7.891222,1.521969
66,0.267701,5.179359,1.527557,5.503079,0.0,-17.760178,-28.379357,-42.430184,-29.606095,-45.075394,-30.152092,-44.139473,-31.328041,-44.18898,0.0,-73.166945,-16.367156,-10.594431,4.976046,7.502447,25.137735,23.392143,43.081892,38.013412,0.0,29.753872,20.469429,29.494835,17.353844,29.332546,15.481316,26.303215,14.623318,22.289566,0.0,-63.288442,-5.120109,-5.008613,15.449404,11.830397,34.418395,28.543078,50.725247,41.658427,175.186341,24.658733,-6.627262,7.061675
67,0.431442,6.36456,2.034016,8.01253,0.0,-17.509346,-28.847122,-42.117256,-30.235085,-44.787094,-31.001495,-44.463707,-32.362679,-44.889542,0.0,-73.231623,-15.367195,-10.225696,6.13126,8.12875,26.339428,23.892574,44.010025,38.21778,0.0,31.060558,21.101829,28.06509,18.484852,27.799003,16.722221,25.41655,15.723724,21.620075,0.0,-59.038031,-2.759478,-3.406184,17.548578,12.996115,36.018595,29.244729,51.873501,42.39648,175.285572,31.054184,-4.925457,15.105096
68,0.342728,7.137755,1.74876,9.120573,0.0,-17.67334,-29.441437,-42.493584,-30.879479,-44.976746,-31.755021,-44.788514,-33.252388,-45.456231,0.0,-73.292194,-14.695654,-9.832864,7.002842,8.85147,27.304531,24.417193,44.903108,38.605906,0.0,32.496918,20.650623,27.512775,18.281571,27.29876,16.710159,25.536736,15.897205,21.86182,0.0,-54.5371,-0.663027,-2.127876,19.441388,14.227282,37.663947,30.681624,53.295663,43.648346,175.315608,38.237439,-3.489389,24.271169
69,0.058364,7.313836,1.598957,9.007681,0.0,-18.207893,-30.071914,-42.657119,-31.585784,-44.913162,-32.517288,-44.911743,-33.957779,-46.125526,0.0,-72.986425,-14.268273,-9.463294,7.420479,9.34648,27.750332,24.692748,45.342808,38.874792,0.0,33.289513,19.932644,27.436169,17.64885,27.280163,16.171818,25.703304,15.623394,22.310829,0.0,-51.148768,0.225673,-1.291152,20.250757,14.807625,38.44312,31.644505,53.963382,44.726712,175.134372,45.258044,-2.130032,32.985619
70,0.173996,6.836962,1.270615,7.218617,0.0,-19.214744,-30.508186,-42.636634,-32.174446,-44.899955,-33.340164,-45.072967,-34.931831,-46.87326,0.0,-72.829257,-14.160808,-9.351248,7.362817,9.388026,27.622954,24.796915,45.283467,38.84895,0.0,34.939087,17.985603,27.378673,15.24139,28.127014,13.918762,26.26078,14.090229,22.962776,0.0,-48.527704,0.198194,-1.114311,20.436261,14.895063,38.978342,32.211491,54.759623,45.660397,175.251451,51.679414,-0.916334,39.788644
71,0.176812,5.751717,0.541385,5.196581,0.0,-19.913338,-30.715828,-43.08165,-32.51619,-45.373856,-33.858261,-45.58191,-35.631867,-47.430954,0.0,-72.699334,-14.315363,-9.534343,7.169409,9.173296,27.390328,24.816571,45.156687,38.957508,0.0,35.509907,17.370667,28.063168,14.366581,28.843975,13.064839,26.551529,13.681446,23.514222,0.0,-47.490717,-0.157081,-1.719156,20.328309,14.641418,39.191634,32.013772,55.001394,45.983451,175.483303,56.899898,-0.319909,44.453992
72,0.080131,4.13198,-0.639427,2.5707,0.0,-20.115532,-30.463692,-43.29863,-32.339744,-45.74263,-33.774238,-45.820381,-35.619369,-47.530403,0.0,-72.409422,-14.485152,-9.612909,7.000589,8.950944,27.211974,24.890393,45.155223,39.331733,0.0,36.801052,16.740498,29.729817,13.429253,30.495701,12.224419,27.90659,13.260933,24.895226,0.0,-47.461008,-0.690061,-2.617099,19.977988,14.228753,39.14886,31.706787,55.108834,45.773599,175.654781,60.463447,-0.867989,46.456261
73,0.157562,2.329083,-0.101177,0.89272,0.0,-19.980377,-30.075851,-43.215202,-32.008964,-45.722969,-33.543388,-45.756385,-35.433906,-47.541915,0.0,-72.067819,-14.24632,-9.732377,7.323142,8.84198,27.541654,25.112856,45.56403,39.872871,0.0,37.39785,16.417648,30.418098,13.080425,30.994858,11.955608,28.147339,13.282585,25.222012,0.0,-48.128722,-1.123845,-3.102742,19.658435,13.569171,38.817389,30.65698,54.623229,45.22807,175.931161,62.388729,-0.850348,46.94518
74,0.71521,1.10797,-0.326878,-0.548609,0.0,-19.835952,-29.677047,-43.76184,-31.728881,-46.162399,-33.417595,-45.867599,-35.454872,-47.303054,0.0,-72.344622,-14.509464,-10.067139,7.160293,8.297643,27.385165,24.880327,45.512776,40.056924,0.0,37.577877,16.2235,30.764363,13.012928,31.103817,12.068196,28.351147,13.542836,25.449452,0.0,-48.753643,-1.424447,-3.28143,19.376149,13.560057,38.54586,30.254274,54.426979,44.819943,176.796421,63.412067,-1.027176,46.311939
75,0.820382,-0.432828,-0.656387,-1.418525,0.0,-18.885888,-29.05362,-44.24128,-31.112343,-46.536324,-32.800232,-45.805733,-34.876694,-46.986145,0.0,-72.730722,-14.722687,-10.431163,7.136205,7.788574,27.341354,24.44676,45.457072,39.996137,0.0,37.902409,16.281258,31.609234,13.351055,31.740589,12.582916,29.068394,14.221104,25.912136,0.0,-49.094405,-1.479447,-3.701023,19.486504,13.203745,38.650139,29.830155,54.372226,44.444582,177.736731,63.17245,-1.563635,45.086625
76,1.17588,-1.33852,-0.413853,-1.809392,0.0,-18.295235,-28.776375,-44.322052,-30.95929,-46.551567,-32.709709,-45.493263,-34.790154,-46.95108,0.0,-73.043754,-15.015286,-10.799777,6.777824,7.193515,26.860873,23.807735,44.895322,39.526253,0.0,37.786927,15.846978,31.776444,13.210579,31.827828,12.695034,29.412781,14.586983,26.014401,0.0,-49.733578,-1.851987,-4.02068,19.193831,12.863587,38.37288,29.342987,54.068846,44.020998,179.081257,62.487338,-1.808842,43.930641
77,1.21582,-2.224571,-0.520408,-2.045445,0.0,-17.484512,-28.476974,-44.220039,-30.820083,-46.524742,-32.696228,-45.281891,-34.894249,-46.903839,0.0,-73.507166,-15.310626,-11.32355,6.49011,6.516107,26.489272,23.120855,44.399238,38.96501,0.0,37.378578,15.412742,31.532066,12.873012,31.730392,12.488548,29.34835,14.574142,25.80986,0.0,-50.338485,-2.452097,-4.376616,18.559963,12.505218,37.761952,29.083709,53.530395,43.886407,180.486425,61.069342,-2.139902,42.691771
78,1.279404,-2.494772,-0.884148,-2.242009,0.0,-17.192711,-28.364342,-44.357071,-30.810722,-46.816452,-32.717606,-45.31517,-34.973808,-47.011459,0.0,-74.091251,-15.909444,-11.780114,5.772039,5.777047,25.682465,22.264197,43.570621,38.089371,0.0,37.407257,15.153591,31.590225,12.646191,31.850121,12.355774,29.55217,14.594799,26.169308,0.0,-50.387565,-3.070774,-4.786935,18.196432,12.319948,37.622161,29.072075,53.506818,43.777331,181.994207,59.383893,-2.795672,41.259085
79,0.876617,-2.8668,-1.160259,-1.899647,0.0,-16.63861,-28.104354,-44.168838,-30.603309,-46.910659,-32.518318,-45.454971,-34.857147,-47.17765,0.0,-74.4795,-16.199696,-12.306598,5.455964,5.310924,25.351304,21.818446,43.246691,37.526516,0.0,37.8922,15.187729,32.1114,12.737011,32.428951,12.516472,30.127235,14.940891,26.850609,0.0,-50.507545,-3.595164,-5.454722,17.978645,11.651309,37.592589,28.586526,53.482242,43.509489,183.129695,57.359161,-3.69706,40.201506
80,0.63176,-2.606633,-0.604237,-1.338656,0.0,-16.591553,-27.864578,-43.893539,-30.465523,-46.911163,-32.474647,-45.635101,-34.98484,-47.300949,0.0,-74.810149,-16.698886,-12.935705,4.955983,4.75785,24.925152,21.404724,42.908694,37.123921,0.0,37.724442,14.962075,31.952774,12.541512,32.379433,12.414025,30.25343,14.972477,27.143246,0.0,-50.980041,-4.521983,-6.024049,17.045343,11.154323,36.77376,28.140879,52.817455,43.13433,184.100292,55.468808,-3.96246,39.57913
81,0.160057,-2.562834,-0.706043,-1.167484,0.0,-16.546028,-27.679962,-43.535843,-30.189262,-46.610138,-32.135422,-45.512672,-34.725334,-47.078247,0.0,-74.859666,-16.893739,-13.220677,4.788652,4.495097,24.823777,21.207895,42.830037,36.871912,0.0,37.816143,15.298382,32.253925,12.643982,32.715237,12.307537,30.417847,14.694283,27.44014,0.0,-51.01653,-5.503024,-6.506586,16.197275,10.818839,36.145678,28.073083,52.327392,42.841744,184.664583,53.374623,-4.264269,38.880295
82,0.203018,-1.745943,-0.115105,-0.845289,0.0,-16.91011,-27.71006,-43.64431,-30.22911,-46.848472,-32.162544,-45.846794,-34.807068,-47.30175,0.0,-75.373776,-17.570543,-13.72109,4.186153,4.114158,24.35506,20.843505,42.515276,36.401676,0.0,37.730496,15.237637,32.439457,12.501149,32.995434,12.070622,30.720108,14.413742,27.802185,0.0,-50.680336,-6.030681,-6.916232,15.951249,10.512841,36.140756,27.922548,52.361595,42.626037,185.32172,52.055314,-3.925255,38.46164
83,-0.206794,-1.526995,0.141518,-0.518358,0.0,-17.019791,-27.611504,-43.491623,-30.102494,-46.835427,-32.012352,-46.035759,-34.691208,-47.249222,0.0,-75.574459,-17.825245,-13.869063,4.099474,4.035352,24.427987,20.849755,42.677587,36.385479,0.0,37.369892,15.20517,32.430576,12.319611,33.133289,11.761745,30.794197,14.027721,27.856487,0.0,-50.880592,-6.318642,-7.13421,15.703352,10.318562,35.968133,27.826897,52.179722,42.405953,185.611433,50.910458,-3.28723,38.325421
84,-0.250809,-0.962782,0.524025,-0.488254,0.0,-17.158356,-27.695297,-43.420212,-30.139115,-46.824257,-31.994499,-46.106323,-34.668961,-47.186394,0.0,-75.614701,-18.308188,-14.030873,3.674674,3.942251,24.107676,20.84282,42.467728,36.309755,0.0,36.820782,15.02956,31.9949,11.909969,32.8438,11.157898,30.473316,13.280125,27.559776,0.0,-50.75225,-6.402833,-7.043326,15.602532,10.518201,35.934707,28.176614,52.192522,42.519722,185.857733,50.262566,-2.266096,38.152057
85,-0.473602,-0.796648,-0.071594,-0.146182,0.0,-17.175568,-27.880669,-43.307854,-30.206795,-46.698189,-31.933434,-46.079751,-34.493844,-46.934922,0.0,-75.493355,-18.172183,-13.743357,3.846007,4.382859,24.278767,21.333273,42.592933,36.640021,0.0,36.985943,15.520111,32.189884,12.252376,33.12553,11.324466,30.535274,13.266563,27.721286,0.0,-50.696008,-6.312924,-7.022041,15.794551,10.634038,36.244188,28.360692,52.566069,42.571432,185.837769,49.756383,-1.884052,38.29634
86,-0.372254,-0.259451,-0.385975,0.553963,0.0,-16.95726,-27.797974,-43.142486,-30.09803,-46.675964,-31.838104,-46.184601,-34.428017,-46.801597,0.0,-75.475491,-18.161611,-13.576556,3.877055,4.712693,24.339629,21.742333,42.700879,36.892549,0.0,37.651611,16.009655,32.702614,12.732914,33.572616,11.754524,30.931595,13.624306,28.1208,0.0,-51.013633,-6.599952,-7.44957,15.463754,10.239639,36.012371,27.981322,52.528939,42.378875,185.852268,49.615486,-1.883274,38.968857
87,-0.660873,-0.249996,-0.241287,0.802663,0.0,-16.589081,-27.555382,-42.6568,-29.60685,-46.058464,-31.192429,-45.714707,-33.744416,-46.178055,0.0,-74.765003,-17.635053,-13.052734,4.357393,5.290491,24.777488,22.385444,43.064138,37.415902,0.0,38.118667,16.086078,33.086769,12.7859,33.704292,11.776989,30.930931,13.545868,28.271141,0.0,-51.307559,-6.809546,-7.543147,15.197505,10.069448,35.743028,27.722606,52.275465,42.136567,185.541081,49.351859,-1.774875,39.757889
88,-0.330071,0.378382,-0.027226,0.945825,0.0,-16.269241,-27.290108,-42.230598,-29.225395,-45.626472,-30.778656,-45.32547,-33.362022,-45.831573,0.0,-74.653099,-17.681126,-13.02922,4.250138,5.419771,24.633468,22.53706,42.925391,37.382273,0.0,38.271229,16.099972,33.156818,12.784401,33.653881,11.752133,30.784206,13.456009,28.225674,0.0,-51.587912,-7.20757,-7.47419,14.720125,10.065175,35.281801,27.684617,51.924532,42.146941,185.470773,49.573849,-1.542338,40.547322
89,-0.174225,0.505106,-0.079033,1.318661,0.0,-16.354316,-27.125518,-41.988098,-29.009674,-45.421348,-30.470031,-44.991165,-32.932869,-45.46257,0.0,-74.473103,-17.433902,-12.94527,4.506532,5.445034,24.852311,22.552423,43.071647,37.574304,0.0,38.16148,16.164311,33.346676,12.834892,33.883656,11.842873,30.829846,13.577374,28.46687,0.0,-51.912602,-7.841845,-7.632777,14.086992,9.878893,34.713785,27.440914,51.471673,42.046986,185.470951,49.79285,-1.446968,41.579878
90,-0.12529,0.885383,0.366188,1.155888,0.0,-16.340034,-27.103042,-41.927032,-28.910408,-45.238082,-30.222244,-44.655693,-32.501197,-45.082809,0.0,-74.425054,-17.577934,-13.011355,4.352206,5.408404,24.708402,22.477934,42.925669,37.573397,0.0,37.886135,15.69579,33.01109,12.230049,33.575833,11.200848,30.455052,12.917279,28.216416,0.0,-51.870717,-8.028882,-7.395539,13.998182,10.222861,34.657678,27.823988,51.419395,42.298711,185.465635,50.324582,-0.960806,42.382115
91,-0.476989,1.184571,0.93972,1.095316,0.0,-17.042931,-27.047448,-41.961067,-28.691231,-45.024285,-29.769402,-44.312119,-31.73964,-44.525276,0.0,-74.340444,-17.427263,-12.867712,4.617245,5.484918,25.021767,22.514552,43.119195,37.875893,0.0,36.870701,14.764264,31.833126,11.314785,32.505879,10.332333,29.31894,12.02837,27.118287,0.0,-51.735125,-7.022535,-6.288254,14.988054,11.207354,35.503301,28.718462,52.117212,42.962701,185.095963,51.210133,0.086231,43.178411
92,-1.137795,1.999064,1.024579,1.90731,0.0,-18.936355,-27.10881,-42.562271,-28.496795,-45.551582,-29.298157,-44.460457,-30.928871,-44.268791,0.0,-74.166752,-17.334779,-12.710705,4.907719,5.892064,25.428406,22.634274,43.41611,38.025978,0.0,35.96347,14.181049,30.115448,10.8292,31.04132,9.876686,27.820518,11.476135,25.566318,0.0,-52.343626,-6.190732,-5.694345,15.598055,11.80277,35.980594,29.493602,52.747943,43.85697,184.042934,52.697283,1.195576,44.573807
93,-2.519737,2.833622,0.12569,3.369855,0.0,-21.650345,-27.253899,-43.357933,-28.200714,-46.301994,-28.532547,-44.561005,-29.622482,-43.682762,0.0,-73.304538,-16.185302,-11.437875,6.242479,7.595597,26.79154,23.808334,44.47411,39.051559,0.0,36.122761,13.961884,29.323379,10.423897,30.213581,9.322002,26.723602,10.709038,24.254894,0.0,-53.706772,-5.507278,-5.217242,16.20066,12.18913,36.507943,30.008397,53.389005,44.167014,181.639521,54.731901,1.43759,47.144658
94,-4.108383,4.454798,-0.639965,4.877085,0.0,-26.021736,-27.806442,-46.627831,-27.956429,-48.489075,-27.352226,-45.615395,-27.409126,-44.521706,0.0,-71.482796,-14.521523,-7.959641,7.69186,11.010117,28.023356,26.168126,45.382094,41.363483,0.0,36.764213,14.64893,29.006378,10.932735,29.939506,9.529575,26.195309,10.485134,23.226242,0.0,-55.287836,-4.875769,-4.504415,16.641347,12.621334,36.758372,30.354564,53.737055,44.488208,177.670653,58.191319,0.93714,51.026363
95,-5.641823,6.52219,-1.493946,6.892396,0.0,-32.374329,-28.86335,-56.146019,-28.164734,-56.245583,-26.388062,-51.450508,-25.037476,-48.340347,0.0,-68.290695,-12.355751,-2.912347,9.250397,16.171901,29.203795,30.709202,46.4098,44.862137,0.0,38.621738,15.872177,29.741386,11.949692,30.437256,10.153873,26.281391,10.595238,22.777153,0.0,-56.02392,-4.995757,-4.135734,16.039892,12.615485,35.874711,30.284557,53.047198,44.372037,172.115873,63.257511,-0.469763,56.462761
96,-6.630775,8.373553,-1.834099,8.164423,0.0,-39.374337,-30.61084,-67.6325,-29.034302,-66.796967,-26.027298,-60.266854,-22.927186,-54.006501,0.0,-62.992744,-9.217607,3.232961,11.646152,22.392398,30.966356,35.856322,47.719761,49.326433,0.0,42.008297,17.481846,33.584404,13.140266,34.189568,10.580658,29.158104,10.000946,24.256153,0.0,-54.076491,-4.896363,-2.907339,15.547025,13.280884,34.964825,30.356225,52.017744,43.91945,165.356341,69.557337,-2.432619,62.553457
97,-8.030892,10.29924,-2.539318,10.007877,0.0,-45.742424,-32.857178,-80.39431,-30.177795,-77.760269,-25.420257,-69.050102,-19.817711,-58.185905,0.0,-56.623374,-5.422668,11.468453,14.227252,29.956391,32.3838,42.2883,48.071288,54.087908,0.0,46.765594,18.566917,44.649181,13.960934,44.665775,10.94363,37.92453,9.716915,30.507729,0.0,-49.762539,-4.617832,-0.695705,15.319938,14.68087,34.163206,30.418852,50.587475,43.645914,157.087103,77.357103,-5.210283,70.06186
98,-8.858139,12.917112,-2.425896,13.146897,0.0,-51.925987,-35.159386,-93.252788,-31.60112,-88.60627,-25.269447,-78.102974,-17.323631,-61.998619,0.0,-49.685271,-3.386745,16.764094,14.7469,34.505828,31.629808,46.414302,46.199843,56.633804,0.0,51.563988,23.072434,54.635788,21.180977,53.507893,19.916291,47.950459,19.527123,41.414486,0.0,-44.355685,-3.942751,0.104099,16.685104,16.287462,35.693894,33.041127,52.065323,47.445565,147.704018,87.561952,-8.161125,80.496494
99,-9.392532,14.676449,-2.471237,14.506691,0.0,-56.25911,-36.725281,-102.826927,-32.462082,-97.835255,-24.837914,-85.704094,-14.97258,-63.089951,0.0,-43.407347,-1.329968,19.928611,15.457029,36.733659,30.852469,46.907064,43.800345,56.266703,0.0,58.62648,26.787689,65.548771,26.610512,59.775707,26.178429,54.227497,25.85883,48.459503,0.0,-35.681123,-3.696663,0.364124,17.283564,19.291613,36.496075,36.770845,52.970807,51.479287,137.411991,99.063133,-11.531857,91.827917
100,-9.321167,15.586989,-1.015915,15.410408,0.0,-59.411682,-37.933411,-105.319233,-33.122017,-101.277214,-24.685387,-88.561798,-13.525589,-61.309571,0.0,-36.908462,1.30047,22.789292,16.739203,37.534303,30.308541,44.749734,40.890345,53.883274,0.0,61.653855,29.954304,72.060333,30.51725,61.966896,29.942928,55.532353,28.710823,49.870056,0.0,-25.305602,-3.690093,3.468793,16.993467,24.502224,36.294521,41.816743,52.993,55.907965,126.829439,111.115837,-13.809157,103.70404
101,-9.349365,17.091168,-1.229977,17.682126,0.0,-62.039761,-39.477791,-106.052691,-34.337071,-102.942009,-25.331784,-90.029727,-13.530934,-60.783967,0.0,-31.478415,3.676984,24.87251,18.720576,39.474427,31.536979,45.949439,40.937504,54.469255,0.0,62.88699,33.217804,74.789555,34.197682,60.734906,33.578682,53.107853,31.842167,47.87225,0.0,-16.38236,-4.09864,5.438544,16.332298,28.884237,35.519825,46.077657,52.229956,59.962021,116.024678,124.613369,-16.49453,117.79253
102,-8.376183,18.217088,-0.468154,18.8056,0.0,-65.005657,-41.435875,-105.349154,-36.477894,-104.716862,-27.702038,-92.905569,-16.390057,-64.63456,0.0,-26.396683,6.085392,25.169863,21.991693,41.814631,35.400369,49.665578,45.099803,58.84684,0.0,61.234394,37.711772,68.611301,38.556083,51.350429,37.136604,43.553009,34.09671,40.00811,0.0,-8.602475,-4.459226,6.603274,15.138391,33.292383,33.883124,51.002413,50.561614,63.704164,106.05891,139.140981,-18.552269,132.908654
103,-7.100212,17.173833,3.079885,18.517954,0.0,-66.453644,-43.352737,-105.457312,-38.57967,-106.318829,-30.149861,-94.850641,-19.345608,-68.136154,0.0,-22.132243,10.965484,30.761536,27.630883,48.052788,41.367071,56.176647,51.19744,65.61195,0.0,54.413446,35.962915,54.842274,34.478737,36.514973,31.224787,27.317494,26.741249,24.082935,0.0,-2.433145,-3.163004,10.728029,14.983003,38.36689,32.824482,54.117388,49.076011,65.199568,97.486462,152.781779,-16.94462,147.893573
104,-6.033943,16.754246,7.203838,19.554898,0.0,-68.051583,-44.750084,-105.804011,-40.277767,-107.823475,-32.567151,-96.866518,-22.814747,-72.915642,0.0,-17.406954,15.32053,36.633715,32.869281,55.041649,47.305199,65.275248,57.675798,73.800906,0.0,40.382292,31.293349,31.456021,28.884167,16.742558,25.728796,8.746514,21.930794,7.98816,0.0,-0.499647,0.754794,17.200306,18.573617,43.064022,35.880534,57.218778,51.688115,68.186843,90.297507,166.511305,-10.895794,164.423751
105,-5.763932,16.696372,6.140374,17.422583,0.0,-69.163261,-45.570144,-106.664674,-41.340213,-109.121807,-34.149868,-98.584688,-25.19482,-77.256546,0.0,-13.393855,19.323983,42.199812,38.132973,62.133919,53.624071,75.059503,64.770341,82.852702,0.0,28.094427,29.790601,14.714138,28.041275,1.772197,25.278391,-4.264183,21.401573,-1.904114,0.0,4.633035,6.644066,26.03385,24.025399,48.705971,39.906278,61.414261,53.534316,71.986296,83.763015,180.890276,-5.52598,179.528933
106,-5.390213,16.164375,5.494777,19.334288,0.0,-69.953281,-45.28965,-107.402206,-40.964378,-108.981308,-33.889068,-97.878559,-25.16629,-76.958255,0.0,-10.551268,22.779097,47.310597,41.899334,67.474798,57.305691,81.443297,67.992341,87.802194,0.0,17.683439,25.430106,-6.274486,25.744812,-15.575008,25.370963,-18.381752,24.336434,-9.972793,0.0,3.218012,10.529588,31.264432,28.51242,51.52116,44.190065,64.086573,57.338117,74.377248,77.755067,195.417667,-0.648938,197.226237
107,-5.443588,15.117143,3.043488,23.630796,0.0,-69.994251,-43.512382,-107.735916,-38.863724,-107.55312,-31.655228,-94.890083,-22.740715,-72.07988,0.0,-8.070853,25.647292,52.151014,44.035614,70.491874,58.236678,83.987143,67.445887,88.262754,0.0,8.341844,21.505319,-24.39798,24.78558,-29.547878,27.719496,-28.684227,30.265217,-12.880028,0.0,7.637637,12.134123,35.358015,27.224528,48.488635,39.691856,57.571249,49.366065,65.244967,71.619215,209.694281,1.702286,220.016504
108,-5.900116,14.809144,-1.715155,25.065975,0.0,-71.260757,-41.433346,-106.32415,-36.105034,-104.998981,-28.304191,-91.039856,-18.861763,-66.138233,0.0,-4.357776,27.701,54.284145,45.40635,71.960559,58.431908,85.088313,66.091441,87.209638,0.0,7.815331,21.979145,-32.028785,26.891567,-35.944713,31.17619,-33.017521,35.128086,-11.654445,0.0,13.654238,11.010913,37.284182,20.766305,42.627754,27.963217,46.507248,32.164777,49.133432,64.836994,224.04688,-0.894974,244.625934
109,-5.65377,14.028891,-6.23212,21.885148,0.0,-71.830811,-40.284485,-105.629013,-34.388672,-102.846051,-25.858315,-87.578636,-15.474335,-60.283711,0.0,-2.103318,29.699058,55.861164,46.654153,72.974957,58.442825,85.637781,64.566577,85.908606,0.0,14.147838,25.972274,-30.07425,31.51173,-34.872872,35.455719,-31.954308,38.779003,-6.470536,0.0,21.816112,8.070137,38.891892,11.824253,37.089521,13.459157,36.368721,12.096906,33.033445,57.858416,237.888609,-8.451902,266.32392
110,-4.965386,12.241019,-6.703057,17.69978,0.0,-72.048431,-39.946529,-104.638527,-33.464618,-101.229984,-24.255272,-85.022266,-13.021888,-56.261055,0.0,-0.58143,30.82357,56.27194,46.86939,73.174695,57.588076,85.252668,62.756042,84.46309,0.0,20.057969,26.852463,-32.428733,33.380299,-35.627735,38.617424,-31.285995,43.89069,0.484028,0.0,22.118368,6.261714,37.68146,7.323229,32.07472,6.416004,28.964241,2.803753,23.51883,51.241121,250.114085,-16.806868,284.008157
111,-5.250618,10.196475,-2.880455,8.595682,0.0,-72.248268,-39.561161,-103.01659,-32.757156,-99.875965,-23.386207,-83.401474,-12.019752,-55.409008,0.0,0.791467,31.487017,56.54253,47.087134,72.756299,57.372147,83.978794,62.355282,83.213361,0.0,16.946675,26.783718,-34.202774,33.763115,-37.225994,39.001397,-31.803852,44.087918,1.341671,0.0,22.438742,6.766438,40.886196,7.809612,33.763076,6.699513,29.950185,2.747066,23.758459,44.338068,260.29938,-21.339758,292.592659
112,-4.186317,7.548815,-0.826732,0.721023,0.0,-72.610611,-39.399605,-101.303639,-32.404507,-99.044083,-23.017708,-83.101765,-11.832733,-56.799809,0.0,1.674226,31.776367,56.559388,47.210425,72.505419,57.485459,82.549803,62.612238,82.6046,0.0,14.946441,25.140381,-36.482197,32.300674,-40.582707,37.295734,-34.856781,42.050125,-1.801632,0.0,17.271491,8.835187,45.433014,13.873947,40.893469,16.201604,39.599983,15.459191,35.46651,38.541647,267.79291,-23.776594,293.258397
113,-3.126572,4.869255,1.642078,-5.468073,0.0,-72.632046,-39.32571,-100.361881,-32.375816,-98.867065,-23.162704,-83.848503,-12.457878,-59.531673,0.0,1.011187,31.368591,55.566231,47.095878,71.381561,57.785319,81.057555,63.480843,82.554002,0.0,6.878872,20.647865,-42.29163,28.746929,-45.33197,34.550514,-39.167518,40.010685,-6.533592,0.0,11.550093,11.510215,48.728423,22.715827,49.090923,30.55293,52.427779,35.227437,52.66085,33.882282,272.602094,-23.667309,287.730253
114,-2.484787,2.439968,1.895725,-6.711146,0.0,-73.124965,-39.200054,-99.094356,-32.113334,-98.111034,-22.994098,-84.236572,-12.764053,-61.925709,0.0,0.686665,30.93424,54.502112,47.124716,70.253506,58.346359,79.439546,64.672022,82.432922,0.0,-1.739765,16.858166,-48.357776,26.597786,-49.593189,33.844448,-42.267357,40.693692,-10.28302,0.0,4.683052,13.98075,50.598769,31.321884,55.691486,44.63778,63.309116,54.587278,68.113792,30.138565,275.00981,-23.030514,280.986855
115,-1.778503,0.864914,2.696377,-3.44718,0.0,-73.53582,-38.709114,-98.159306,-31.65398,-97.332276,-22.729111,-84.090374,-13.02388,-63.263523,0.0,0.506266,30.704392,53.706173,47.501874,69.420603,59.282136,78.5938,66.153191,82.503823,0.0,-8.508888,13.117951,-53.097153,23.813255,-53.205311,31.853142,-45.704521,39.453644,-16.273178,0.0,-0.200232,13.751731,50.1607,34.858824,58.718121,51.769804,69.066181,65.228344,75.818231,27.201651,275.879145,-21.492548,277.544096
116,-0.739746,-0.407368,-0.281456,0.010868,0.0,-73.662667,-38.306294,-97.642617,-31.087212,-96.517124,-21.965058,-83.569153,-12.265824,-62.766678,0.0,0.508218,30.597947,53.155446,47.600552,68.83868,59.537141,77.940073,66.504811,82.353005,0.0,-7.774235,12.554959,-52.795109,23.972843,-52.768101,32.62603,-44.970898,40.619316,-14.913494,0.0,0.345099,12.609089,48.580346,33.812155,57.622916,51.014708,68.182533,64.707825,75.33533,25.309084,275.52491,-22.926825,277.608097
117,-0.386971,-0.657741,-1.046345,-0.192389,0.0,-73.439197,-38.31467,-97.335869,-30.96072,-95.437099,-21.601021,-82.290825,-11.71566,-61.66737,0.0,0.452458,30.710073,52.70725,47.717248,68.234823,59.585579,77.322051,66.526387,81.930262,0.0,-5.517871,13.225949,-51.617603,24.824788,-51.061443,33.668782,-42.586143,41.770054,-10.915294,0.0,-0.24946,11.701616,47.035153,33.123106,56.396132,50.513949,67.282421,64.330653,74.635561,23.867843,274.969243,-25.02744,277.517782
118,-0.27697,-0.426868,-1.092693,0.690098,0.0,-73.236809,-38.421901,-96.673599,-30.911579,-94.677715,-21.402946,-81.56028,-11.340568,-61.135334,0.0,0.519457,30.771478,52.675164,47.67879,67.925466,59.514998,76.835581,66.496536,81.514521,0.0,-4.071751,16.182415,-49.382435,27.107391,-49.905487,34.419388,-41.417873,40.562679,-10.675072,0.0,0.322374,11.459987,46.781803,32.713417,56.132001,49.859691,66.191773,63.323417,73.171348,22.614858,274.671288,-27.096148,278.336793
119,-0.053238,-0.516085,-0.438,0.079695,0.0,-72.856258,-38.254406,-96.112964,-30.733062,-94.187999,-21.182087,-81.184433,-11.02446,-60.899311,0.0,0.88597,30.835142,53.008233,47.648791,68.154424,59.481776,77.224398,66.552556,81.691065,0.0,-3.461403,16.295758,-48.421783,27.499661,-49.146446,35.090115,-40.390972,41.336998,-9.199596,0.0,0.127193,11.052755,47.014071,32.191095,56.197988,49.270073,66.027653,62.598936,72.759522,21.685009,274.331473,-28.410759,278.592758
120,-0.111854,-0.339615,0.611298,1.125537,0.0,-72.616551,-38.016575,-95.715729,-30.360787,-93.720829,-20.694912,-80.902554,-10.43898,-60.461918,0.0,1.096823,30.960866,53.278515,47.696154,68.268526,59.480541,77.336092,66.483692,81.671663,0.0,1.092476,18.434647,-46.696541,28.495857,-48.634472,34.245563,-41.223187,38.018166,-12.363991,0.0,5.553535,11.65397,46.60164,31.545321,55.257467,47.275387,63.732378,59.47113,69.40398,20.845299,274.158065,-28.527317,279.884502
121,0.112518,-0.398624,0.280838,-0.724197,0.0,-72.388561,-37.818157,-95.592476,-30.233494,-93.619903,-20.571545,-80.932434,-10.286842,-60.272324,0.0,1.320101,31.097903,53.339969,47.838501,68.246766,59.615552,77.729184,66.611738,81.897114,0.0,1.335926,18.554695,-46.330879,27.911098,-48.342281,33.021606,-41.500099,36.207367,-13.734421,0.0,6.02831,12.061091,47.454402,32.146474,55.894744,48.155491,64.358392,60.634162,70.247479,20.343378,273.879876,-28.860918,279.28074
122,0.236893,-0.329809,-0.371452,-0.829184,0.0,-72.631279,-37.846424,-95.437866,-30.271065,-93.587986,-20.572689,-81.122978,-10.200966,-60.18829,0.0,1.318557,31.139511,53.499965,47.875218,68.274319,59.691123,78.093116,66.711403,82.199827,0.0,2.036785,19.349064,-44.861733,28.102501,-46.853783,32.624588,-40.832142,35.178657,-14.507538,0.0,7.085131,12.815433,48.802857,32.938336,56.789668,49.020688,65.158071,61.502076,71.157766,20.060761,273.653595,-29.75188,278.555084
123,0.341812,-0.271862,1.329322,-0.279273,0.0,-72.673782,-37.751713,-95.359509,-30.14146,-93.506115,-20.347103,-81.063126,-9.803032,-59.788445,0.0,1.411985,31.277127,53.69969,47.964423,68.540203,59.688294,78.577733,66.586729,82.647406,0.0,-0.801452,18.406723,-44.810554,27.237957,-47.994266,31.904824,-42.115253,34.56149,-15.50917,0.0,7.055504,12.510239,48.03036,32.58836,56.913466,48.766166,65.283512,61.194152,70.921781,19.99082,273.478119,-28.834311,278.372197
124,0.402168,-0.222227,1.823411,2.785067,0.0,-72.877006,-37.656154,-95.254165,-30.028896,-93.61211,-20.213207,-81.181938,-9.59539,-59.635494,0.0,1.415233,31.480644,53.891017,48.093357,68.671435,59.731778,78.790598,66.520705,82.906226,0.0,-3.488766,16.755546,-46.628644,24.496559,-50.240696,28.075,-43.315465,29.465927,-17.106274,0.0,3.878186,11.72833,44.584527,31.154676,55.248539,47.023236,63.115504,59.136505,68.038778,20.045259,273.302742,-27.358629,281.204114
125,0.456322,-0.234108,-0.666184,1.661729,0.0,-72.937134,-37.254753,-95.068291,-29.618076,-93.539703,-19.806816,-81.003319,-9.182694,-59.283337,0.0,1.506191,31.68647,54.104475,48.272989,69.072936,59.84367,79.259667,66.56172,83.286201,0.0,-5.352814,16.838802,-41.865246,23.563591,-48.986618,26.377121,-42.989983,27.231274,-15.877556,0.0,1.057525,12.202721,43.679462,30.615064,54.125841,45.876925,61.745941,57.348855,66.691618,20.230774,273.090447,-28.29562,282.887656
126,0.58992,-0.115424,-0.714889,0.067382,0.0,-72.838165,-36.96587,-94.834076,-29.301075,-93.336731,-19.535843,-80.762547,-8.965897,-59.112167,0.0,1.827886,31.821679,54.459948,48.274459,69.515958,59.762962,79.470088,66.451816,83.292092,0.0,-2.606278,18.495094,-39.584576,24.986915,-47.442524,27.421726,-41.419213,27.707508,-14.039921,0.0,1.543266,12.551858,44.232055,30.551485,54.171463,45.451823,61.57966,56.537689,66.316472,20.630957,272.991659,-29.200246,282.971674
127,0.760574,-0.098826,2.659366,2.283332,0.0,-72.597255,-36.400131,-94.764267,-28.775173,-93.362755,-19.155739,-80.785091,-8.798309,-59.154831,0.0,2.18531,32.096345,54.693946,48.476976,69.750549,59.871631,79.527331,66.474516,83.201233,0.0,-7.122574,16.983776,-42.003891,23.061298,-50.856674,24.757782,-44.340042,24.094975,-16.1185,0.0,-0.595644,11.778682,40.657917,29.356245,52.71855,43.95776,59.810708,54.81946,64.019802,21.25752,272.908172,-26.674891,285.270345
128,0.77401,-0.097664,-3.129833,-1.0668,0.0,-72.429382,-35.973576,-94.718433,-28.490959,-93.422047,-19.129303,-80.81678,-9.12767,-59.506474,0.0,2.530655,32.188378,54.921557,48.548853,69.854425,59.910682,79.456947,66.508182,82.930346,0.0,1.520187,19.96899,-38.15284,26.405331,-45.498104,28.633083,-39.339054,28.488533,-11.43179,0.0,-0.606586,12.729848,43.135973,30.218194,53.181024,44.858476,60.853957,55.820063,65.810045,21.951496,272.828424,-29.884758,284.221461
129,0.77639,-0.033926,1.278671,-0.180299,0.0,-72.246872,-35.550648,-94.449863,-28.154938,-93.426327,-18.967964,-80.849831,-9.218376,-59.726234,0.0,2.795824,32.3153,55.115701,48.751728,70.167277,60.139196,79.558725,66.748318,82.890913,0.0,2.037575,19.582855,-39.096565,26.197346,-45.962734,28.602196,-39.603927,28.561855,-13.362945,0.0,0.04225,13.161878,44.58176,30.374929,54.058127,44.896737,61.390864,55.952283,66.343667,22.69729,272.819057,-28.636683,284.065721
130,0.73764,-0.040558,-0.42485,-3.332694,0.0,-72.187179,-35.294723,-94.238353,-28.016601,-93.521289,-19.012413,-81.036621,-9.460441,-60.085887,0.0,3.106466,32.36349,55.268657,48.761707,70.237229,60.121523,79.487984,66.754024,82.690496,0.0,2.332763,19.72015,-41.867947,28.125171,-44.776108,32.468433,-36.584725,34.426048,-9.914017,0.0,-1.572054,12.628824,47.578235,31.790779,57.047846,48.117205,65.500502,60.711708,71.448586,23.428047,272.808336,-29.068416,280.762864
131,0.821045,-0.063145,2.997642,1.454407,0.0,-72.173996,-35.219009,-93.932487,-28.063076,-93.685695,-19.181488,-81.267803,-9.692939,-60.341823,0.0,3.196497,32.364094,55.444978,48.707514,70.453292,60.043223,79.60558,66.709945,82.799781,0.0,-3.513851,18.38253,-44.23399,26.439881,-48.020027,30.234867,-39.456528,31.370659,-13.9682,0.0,-2.345663,12.447834,45.544079,31.231445,56.59182,47.212871,64.612791,59.458916,70.456047,24.259546,272.774646,-26.06032,282.246726
132,0.621369,-0.113695,-0.360786,0.171889,0.0,-72.341664,-35.135353,-93.633282,-28.006039,-93.768597,-19.168671,-81.419495,-9.694428,-60.522389,0.0,3.420157,32.187649,55.727536,48.561919,70.849829,59.933949,79.907873,66.637302,83.010165,0.0,-0.50932,20.378105,-40.946457,27.834171,-45.831036,30.757816,-39.05238,30.965915,-15.412525,0.0,-0.918624,13.345931,45.659107,31.584311,55.804205,46.833266,63.554117,58.423818,69.398015,24.895037,272.679344,-26.406984,282.437008
133,0.349479,-0.066678,4.425361,0.348025,0.0,-72.458381,-35.12852,-93.152732,-27.960491,-93.671104,-19.062973,-81.356586,-9.463279,-60.302776,0.0,3.59543,32.24173,55.924186,48.550335,71.238622,59.865851,80.197841,66.491312,83.272394,0.0,-7.027988,15.701546,-45.851669,22.931958,-50.297,26.270337,-42.950569,27.345372,-15.873516,0.0,-1.538227,13.247674,44.913026,31.578469,55.961138,46.762315,63.900438,58.292229,69.006938,25.273212,272.624417,-21.952927,282.796784
134,0.176445,-0.030839,-0.142158,-2.964057,0.0,-72.534336,-35.284091,-92.976127,-28.059894,-93.39244,-19.066886,-81.026,-9.361198,-59.945926,0.0,3.678979,32.198864,56.058062,48.476803,71.473114,59.729408,80.383377,66.248473,83.334207,0.0,-6.501778,16.692135,-43.772839,23.912327,-48.495735,27.48904,-42.650643,29.213848,-11.750713,0.0,1.329264,14.415424,47.377621,33.596671,57.500477,49.138755,66.317325,60.789465,71.642791,25.489929,272.595372,-22.054813,279.834521
135,0.083794,-0.029393,2.398624,0.199306,0.0,-72.62035,-35.358902,-92.769573,-28.042854,-93.189766,-18.927132,-80.799248,-9.144951,-59.697613,0.0,3.668617,32.199876,56.227159,48.569021,71.698972,59.853168,80.521747,66.279385,83.39897,0.0,-9.950523,13.892521,-46.760296,20.723214,-51.084629,24.450119,-44.908985,26.727608,-11.220794,0.0,0.581664,14.501985,46.689202,33.735016,57.428735,49.232393,66.456436,60.882102,71.267595,25.65933,272.565747,-19.570582,280.033595
136,-0.138313,-0.014894,-0.771434,-1.228846,0.0,-72.639599,-35.344666,-92.721657,-27.939617,-93.010346,-18.783989,-80.598805,-9.059738,-59.645268,0.0,3.661305,32.326625,56.326873,48.799597,71.698366,60.093895,80.463776,66.430278,83.252548,0.0,-6.829468,13.442047,-46.440629,20.866252,-49.331017,25.533016,-43.350403,29.179515,-7.289589,0.0,0.714564,14.395306,48.297122,34.160748,58.088341,50.104569,67.619098,62.240525,72.223727,25.674111,272.559998,-20.188922,278.813894
137,-0.236229,0.090057,1.53107,-2.371882,0.0,-72.372482,-35.397331,-92.689236,-27.971615,-92.775375,-18.780716,-80.231861,-9.052117,-59.357838,0.0,3.464087,32.316769,56.311287,48.857963,71.673419,60.171466,80.453093,66.503316,83.055786,0.0,-9.138267,13.475807,-49.146789,21.618164,-51.30328,26.789932,-44.356693,30.625603,-9.274463,0.0,2.600297,16.628089,51.538882,36.820906,59.999652,52.655725,69.750202,64.518497,74.486545,25.64205,272.666629,-18.453684,276.458586
138,-0.098557,0.01319,1.438019,3.07475,0.0,-72.240989,-35.616497,-92.779644,-28.225067,-92.730194,-18.964988,-80.139358,-9.137054,-59.243156,0.0,3.162732,32.141213,56.24866,48.732079,71.684188,60.1079,80.567849,66.492325,83.146831,0.0,-11.510273,12.22134,-49.602997,19.787441,-53.543987,24.162872,-46.850292,26.981998,-13.704494,0.0,-0.618541,14.006859,44.877495,33.695261,56.70654,49.578233,66.871769,61.800257,72.188196,25.769107,272.692209,-16.790051,279.545726
139,-0.195716,-0.008769,0.058617,-0.165157,0.0,-72.323502,-35.672413,-92.798035,-28.280274,-92.820889,-18.964943,-80.207726,-9.029114,-59.177914,0.0,3.105861,31.983503,56.275522,48.581149,71.72934,59.979867,80.680273,66.378655,83.22581,0.0,-11.37188,12.448951,-49.244168,19.932048,-53.901867,24.053421,-47.460823,26.611553,-15.704842,0.0,0.299242,14.02952,44.936923,33.748465,56.90361,49.672192,67.153857,61.897341,72.850604,25.829247,272.690946,-16.475578,279.388075
140,-0.222588,-0.002297,-1.279896,0.092922,0.0,-72.345554,-35.646744,-92.940399,-28.336922,-93.026058,-19.074074,-80.395557,-9.14653,-59.305561,0.0,3.043838,31.66308,56.199112,48.313399,71.751608,59.763358,80.768205,66.223241,83.289808,0.0,-9.537472,13.741115,-47.723705,21.448357,-52.818764,25.461925,-46.613525,27.753113,-16.115868,0.0,2.495902,13.77044,45.091423,33.391819,56.779738,49.320992,67.03269,61.464656,73.164061,25.879383,272.688414,-17.48275,279.480762
141,-0.34671,-0.054637,1.284943,1.533164,0.0,-72.501023,-35.700749,-93.054611,-28.399784,-93.148018,-19.085106,-80.522496,-9.05983,-59.282547,0.0,3.056399,31.291182,56.203805,48.018911,72.107512,59.5684,81.052109,66.076844,83.544615,0.0,-13.023365,13.415908,-49.016007,20.409347,-55.674031,23.387455,-49.283581,24.358383,-19.427617,0.0,1.388272,13.250057,42.509156,32.651259,55.528625,48.434528,65.473109,60.433868,71.354799,25.768605,272.622332,-15.961875,281.002481
142,-0.607636,0.035272,0.258728,2.238255,0.0,-72.536487,-35.763634,-93.071857,-28.46006,-93.119854,-19.066978,-80.501838,-8.892677,-59.042667,0.0,2.980347,31.069979,56.155343,47.847455,72.408965,59.44995,81.191554,65.950638,83.734176,0.0,-15.502717,10.673446,-50.076737,17.168746,-57.078965,20.137653,-50.494149,21.537323,-18.325173,0.0,-2.338575,9.753662,38.145279,29.444757,53.766762,46.176562,64.118873,59.255386,70.245527,25.381605,272.638412,-15.482511,283.221544
143,-0.65348,0.027504,-4.403035,-3.033749,0.0,-72.49078,-35.502663,-93.071698,-28.243344,-93.108857,-18.908524,-80.48037,-8.819321,-59.052567,0.0,3.180331,30.87055,56.225355,47.766006,72.749222,59.445676,81.373902,65.973251,83.819009,0.0,-9.43396,14.533619,-47.277374,22.289566,-52.478508,26.188614,-45.589908,28.405266,-13.267009,0.0,2.444267,11.715227,45.149493,31.780578,56.850752,48.490413,66.767707,61.194547,72.810121,24.944722,272.63417,-19.668949,280.156049
144,-0.658997,0.151449,0.50631,2.019535,0.0,-72.12933,-35.46595,-92.96553,-28.267433,-92.985535,-18.965813,-80.303833,-8.870842,-58.933285,0.0,3.147072,30.608753,56.146068,47.577494,72.96178,59.353471,81.476223,65.980154,83.920637,0.0,-11.945961,13.068249,-49.989956,20.914421,-54.815792,24.872154,-46.467304,26.780411,-13.057949,0.0,0.713884,10.951287,43.405526,30.516609,55.987715,46.854891,65.19879,59.303404,70.349602,24.494694,272.745154,-18.95367,282.135119
145,-0.851166,0.194415,0.175587,-0.056909,0.0,-71.812969,-35.575058,-92.901432,-28.327102,-92.536079,-18.975906,-79.802318,-8.782585,-58.704105,0.0,3.091497,30.482745,56.14771,47.492168,73.251142,59.360696,81.672033,66.117117,84.081176,0.0,-14.164193,11.857704,-51.598664,20.23788,-56.108551,24.801624,-47.402504,27.242809,-14.485714,0.0,-1.421161,10.320964,42.891836,30.125544,55.940822,46.628761,65.184328,59.228599,70.308871,23.851736,272.890237,-18.569875,282.028878
146,-0.886276,0.212866,-2.535302,-1.296808,0.0,-71.46389,-35.509117,-92.808792,-28.211918,-92.149704,-18.816044,-79.319652,-8.584671,-58.438454,0.0,2.840778,30.462639,56.032237,47.575444,73.202569,59.570202,81.652533,66.486483,84.086894,0.0,-11.26308,12.305374,-50.03746,21.659832,-53.170269,27.43166,-44.551551,31.182003,-11.286483,0.0,-0.528559,10.184051,45.110392,30.233656,56.763486,47.051467,66.474911,59.849487,72.092667,23.190382,273.053412,-20.880255,280.682379
147,-0.755562,0.201578,0.730351,-1.389854,0.0,-71.393749,-35.49464,-92.80228,-28.147236,-91.972355,-18.748707,-79.04171,-8.569107,-58.520817,0.0,2.77,30.366951,55.926965,47.588387,73.088393,59.699471,81.534416,66.761532,84.004174,0.0,-13.594837,12.159393,-51.451962,22.13958,-55.075298,28.36013,-46.015423,32.343613,-13.525017,0.0,2.35379,10.371846,47.650632,30.757164,58.28078,47.789126,67.743932,60.912336,73.688274,22.669321,273.195395,-19.915403,279.23293
148,-0.694107,0.240505,4.742798,1.277283,0.0,-71.37585,-35.503292,-92.874424,-28.093151,-91.842361,-18.68779,-78.86848,-8.566955,-58.693714,0.0,2.395904,30.326245,55.843652,47.643123,72.866598,59.868075,81.373075,67.068061,83.888441,0.0,-22.804779,8.682048,-55.754917,17.668991,-61.349705,22.91613,-52.855442,25.813339,-21.787674,0.0,0.64728,9.563508,45.339264,30.20309,57.02138,47.371236,66.468785,60.930811,72.578594,22.238228,273.375301,-14.909591,280.449614
149,-0.692322,0.090909,-3.735478,-1.524297,0.0,-71.407825,-35.49163,-92.70726,-28.024028,-91.621742,-18.506366,-78.480091,-8.218917,-58.167526,0.0,2.204799,30.418537,55.695821,47.687349,72.696895,59.86721,81.384005,67.092885,84.080115,0.0,-18.096302,11.630356,-51.40599,21.262425,-56.650715,26.972409,-49.207535,30.346928,-19.520439,0.0,1.399252,9.378393,46.962263,30.559155,57.346854,48.292935,67.390127,62.282775,74.509826,21.818424,273.40621,-18.372551,278.865317
150,-0.54776,0.019118,4.332138,2.004221,0.0,-71.40176,-35.455753,-92.531765,-27.980598,-91.516571,-18.438102,-78.458805,-8.144989,-58.102569,0.0,2.224448,30.381252,55.664761,47.777023,72.746308,60.041618,81.495971,67.287658,84.147941,0.0,-24.510383,7.894684,-56.799362,16.670677,-62.470688,21.858479,-53.914821,24.721516,-24.761123,0.0,-0.167319,8.844079,45.381526,29.601122,56.930743,47.09531,65.98591,61.167575,72.843762,21.521135,273.357076,-13.789942,280.801286
