takenoko1/special-research/HandMotion_SimilarSearch_自分用/NewProject/handData/test_key/d4_feature_d3/22.csv
frame,vel_0x_L,vel_0y_L,vel_0x_R,vel_0y_R,posFromWrist_0x_L,posFromWrist_1x_L,posFromWrist_2x_L,posFromWrist_3x_L,posFromWrist_4x_L,posFromWrist_5x_L,posFromWrist_6x_L,posFromWrist_7x_L,posFromWrist_8x_L,posFromWrist_9x_L,posFromWrist_0y_L,posFromWrist_1y_L,posFromWrist_2y_L,posFromWrist_3y_L,posFromWrist_4y_L,posFromWrist_5y_L,posFromWrist_6y_L,posFromWrist_7y_L,posFromWrist_8y_L,posFromWrist_9y_L,posFromWrist_0x_R,posFromWrist_1x_R,posFromWrist_2x_R,posFromWrist_3x_R,posFromWrist_4x_R,posFromWrist_5x_R,posFromWrist_6x_R,posFromWrist_7x_R,posFromWrist_8x_R,posFromWrist_9x_R,posFromWrist_0y_R,posFromWrist_1y_R,posFromWrist_2y_R,posFromWrist_3y_R,posFromWrist_4y_R,posFromWrist_5y_R,posFromWrist_6y_R,posFromWrist_7y_R,posFromWrist_8y_R,posFromWrist_9y_R,posFromBody_0x_L,posFromBody_0y_L,posFromBody_0x_R,posFromBody_0y_R
6,-4.182598,-4.858461,0.087684,0.309419,0.0,-18.914406,-29.511887,24.446605,-40.003624,27.57986,-44.953663,16.497356,-46.435776,-35.669472,0.0,7.897236,12.242242,45.128264,28.671717,55.873811,41.179263,61.009938,51.17542,65.158739,0.0,65.765339,24.317608,87.300579,15.14716,86.667698,5.837574,72.980999,-2.819629,51.661457,0.0,11.015755,28.480068,58.095813,45.821313,72.924347,58.361105,82.19606,66.449359,86.953732,0.835368,297.246991,-57.347883,280.479704
7,3.457306,-3.037564,0.059956,0.254165,0.0,-26.077721,-33.76442,20.909511,-45.256428,23.255298,-50.728501,12.685833,-52.6917,-46.428166,0.0,12.921558,13.467579,48.362564,30.414647,59.568313,42.93516,64.210548,52.992882,68.693801,0.0,65.661438,23.990433,87.269829,14.761585,86.410286,5.462288,72.637413,-3.139927,51.219578,0.0,10.818833,28.407499,58.043658,45.704222,72.740392,58.262329,82.255513,66.395179,86.871221,4.103789,294.208585,-57.476812,280.733027
8,-3.242283,0.982239,0.154976,0.146744,0.0,-19.926304,-31.474915,25.031204,-42.982373,27.643203,-48.156945,16.413322,-49.948632,-39.134777,0.0,8.299502,13.77774,47.375497,31.050145,59.174111,43.748784,63.592316,53.559961,66.299738,0.0,65.83612,24.051567,87.117988,14.725982,85.919288,5.297378,72.045524,-3.452408,50.650211,0.0,10.617613,28.729836,58.189932,45.846297,72.696364,58.248645,82.334788,66.251597,86.958301,0.74865,295.204995,-57.434692,280.893942
9,-0.813195,1.171628,-0.157791,0.02922,0.0,-12.83345,-30.708309,26.242356,-42.178413,28.318749,-47.494892,16.252831,-49.274356,-36.810619,0.0,3.935724,13.439606,46.856546,30.728091,57.93909,43.428644,62.910591,53.118482,66.384212,0.0,65.960563,24.318878,87.141494,14.963585,85.781456,5.471775,71.862144,-3.357754,50.57246,0.0,10.734741,29.125644,58.259118,46.214564,72.673702,58.503724,82.449928,66.383076,87.146393,-0.12683,296.403556,-57.654768,280.950095
10,-6.714397,3.426135,-0.289582,-0.116202,0.0,-3.142982,-24.638969,34.197086,-35.007088,36.512066,-39.690262,23.559757,-40.963268,-26.087723,0.0,1.777103,12.991249,45.147047,29.855225,55.306312,42.428572,60.460026,51.883252,63.120011,0.0,66.153786,24.753147,87.205605,15.444878,86.013817,5.882183,71.964157,-3.106041,50.68285,0.0,10.947447,29.503026,58.367317,46.547288,72.732451,58.74665,82.524733,66.551766,87.42858,-6.867079,299.86684,-57.970202,280.871042
11,5.877651,2.332794,-0.215664,0.076694,0.0,-11.435325,-31.016807,26.898834,-40.660927,29.587441,-44.24675,18.122246,-44.48481,-30.332485,0.0,5.024903,11.297436,44.055165,26.145866,53.215629,37.189198,57.592424,45.668703,60.296684,0.0,66.151051,25.014634,87.157048,15.727295,86.061184,6.131745,71.91647,-2.931438,50.729073,0.0,11.091387,29.601567,58.279854,46.735157,72.623363,58.965641,82.338506,66.790666,87.431989,-0.957825,302.239839,-58.154263,280.987941
12,-3.294159,0.786367,-0.337761,-0.041743,0.0,-6.527607,-27.630123,29.72921,-36.711639,33.22934,-40.129142,21.053009,-40.244053,-20.512436,0.0,1.994934,11.895032,43.361905,26.70877,52.6197,37.697194,57.13242,45.82839,59.139802,0.0,66.157025,25.403939,87.288243,16.187714,86.415562,6.538456,72.167462,-2.661083,50.927891,0.0,11.183074,29.886903,58.235455,46.987729,72.577951,59.133318,82.124281,66.884699,87.439164,-4.191696,303.063757,-58.431736,280.983749
13,6.204312,0.266132,-0.508483,-0.070766,0.0,-16.230755,-33.510693,22.759792,-42.202916,26.019779,-44.802521,14.980487,-44.177239,-32.858036,0.0,4.071835,11.843359,44.034614,26.000839,52.258472,36.438227,56.647951,44.45343,60.481503,0.0,66.266269,26.037483,87.547382,16.972526,86.935878,7.21194,72.594738,-2.275109,51.247661,0.0,11.355505,30.005118,58.218461,47.04796,72.652657,59.135801,82.125566,66.899211,87.476585,2.120322,303.373142,-58.832513,280.956236
14,2.139862,-2.007012,-0.407273,-0.018426,0.0,-24.924053,-36.044163,18.916134,-44.651631,23.371845,-46.839146,13.458126,-45.939274,-33.393196,0.0,9.288683,13.446251,44.261621,27.309886,54.077874,37.469138,58.011227,45.25668,62.033192,0.0,66.37357,26.288933,87.79858,17.386494,87.371853,7.609635,72.960217,-2.011928,51.494648,0.0,11.311576,29.901266,58.212706,46.962559,72.727511,59.09917,82.145449,66.936792,87.456873,4.408076,301.411902,-59.091894,280.983582
15,9.448024,-1.945076,-0.437244,-0.136024,0.0,-38.640644,-44.70512,7.554474,-53.554721,12.176285,-55.175296,3.623452,-53.968986,-51.334762,0.0,9.746846,14.097212,45.534939,27.788192,55.560699,37.623946,58.757925,45.333423,64.026964,0.0,66.418442,26.690197,88.119118,17.866058,87.675316,8.007488,73.203094,-1.798096,51.679779,0.0,11.325915,30.051937,58.371318,47.088394,72.936462,59.179236,82.395106,66.972422,87.589328,14.078424,299.508739,-59.306814,280.889471
16,-1.768135,-2.487208,-0.380505,-0.162478,0.0,-34.034442,-42.471542,10.39087,-51.715347,14.16726,-53.983039,4.680222,-53.398086,-49.762447,0.0,7.011846,16.203481,45.493369,31.789915,57.383695,43.017659,61.397756,51.661099,67.650553,0.0,66.567799,27.014374,88.463894,18.263706,88.044903,8.370426,73.530682,-1.545295,51.954781,0.0,11.382355,30.168954,58.428759,47.195741,73.104411,59.258153,82.662955,67.010473,87.69628,12.573497,297.068067,-59.424111,280.773529
17,-3.527298,2.413762,-0.355556,-0.023873,0.0,-30.046039,-39.384967,14.811516,-48.48714,17.261353,-50.868644,7.934281,-50.25856,-53.772422,0.0,4.410733,14.075871,44.120744,29.459788,55.620424,40.637502,59.410516,49.356153,66.150178,0.0,66.806419,27.133346,88.793541,18.527721,88.390068,8.712524,73.841011,-1.185562,52.253013,0.0,11.298696,29.949617,58.183116,47.014072,73.13662,59.117177,82.825902,66.911364,87.700245,9.349834,299.536326,-59.476032,280.804153
18,-9.710128,3.945629,-0.094929,0.028838,0.0,-17.089245,-29.455548,25.121292,-38.332787,26.158973,-41.630562,16.173866,-41.791821,-43.991238,0.0,-2.728849,11.491517,41.155168,26.401339,52.73747,37.429765,56.778331,45.788709,62.041652,0.0,66.703732,27.037067,88.779407,18.491283,88.409489,8.791626,73.8372,-0.964314,52.21859,0.0,11.140243,29.805429,58.194848,46.956162,73.165914,59.144989,82.918861,66.97136,87.735899,-0.031397,303.524156,-59.242064,280.875192
19,6.134468,4.735121,-0.198658,-0.005249,0.0,-23.928738,-35.487614,17.482361,-42.8596,19.415405,-44.533058,11.586067,-43.061783,-50.792725,0.0,-1.238899,8.882154,39.408273,20.297619,47.901326,28.381625,50.178915,34.45936,54.477263,0.0,66.82251,27.034195,88.854149,18.528557,88.561432,8.89872,73.988159,-0.78867,52.36393,0.0,11.040838,29.767416,58.107385,46.90176,73.129778,59.076916,82.862359,66.887145,87.617141,6.443178,308.277762,-59.100615,280.888428
20,-1.362648,7.073435,-0.037388,0.25803,0.0,-22.911518,-34.258164,17.076942,-39.697438,21.159095,-39.989697,14.693733,-36.99495,-33.796337,0.0,3.713312,6.420684,36.192633,12.868601,41.430612,16.490287,40.377347,18.277949,38.225234,0.0,67.055157,27.083347,88.849079,18.661171,88.631733,9.103409,74.019734,-0.528351,52.408802,0.0,10.698086,29.442486,57.76656,46.549437,72.834352,58.756036,82.494191,66.666486,87.340166,5.382986,315.350403,-58.835547,281.145664
21,1.623344,7.906745,-0.129684,0.143533,0.0,-25.023868,-35.473926,13.012711,-38.88874,19.630921,-37.327926,15.289696,-32.581409,-26.672356,0.0,9.122685,3.608978,33.103495,4.574594,33.740709,3.519564,29.807307,1.336427,23.285932,0.0,67.205143,27.08432,88.885494,18.789436,88.75304,9.350326,74.208446,-0.170815,52.620975,0.0,10.551614,29.245032,57.749553,46.363988,72.709011,58.622939,82.217907,66.601426,87.169969,7.276691,323.233353,-58.69487,281.265402
22,3.492371,4.066833,0.012668,0.087093,0.0,-28.576092,-38.672116,7.580703,-40.502873,16.758339,-37.352703,14.511268,-31.323178,-17.976162,0.0,19.593677,3.211095,30.926903,0.230255,28.833725,-4.025966,22.892854,-8.7734,14.156788,0.0,67.193871,27.166054,89.012261,18.877671,88.777497,9.425824,74.224297,-0.12212,52.608204,0.0,10.379281,29.230286,57.645578,46.321503,72.548323,58.550234,82.057109,66.515518,87.1015,11.033324,327.259702,-58.41794,281.312011
23,8.664184,2.388913,0.036095,0.06832,0.0,-45.638889,-49.467075,-4.183456,-48.955341,8.828224,-42.835407,9.925644,-34.117469,-19.262306,0.0,31.286229,3.50919,31.418919,-3.768257,25.946079,-11.975171,16.77655,-20.02325,5.499751,0.0,67.22644,27.130692,89.220154,18.865242,88.936661,9.457386,74.358696,-0.035889,52.717014,0.0,10.347381,29.157606,57.241373,46.250454,72.290146,58.440492,81.801191,66.388288,86.89828,19.92461,329.606628,-58.154743,281.338344
24,-1.589447,2.636904,0.23212,0.07294,0.0,-44.550373,-47.989105,-3.616172,-46.859699,10.765229,-40.265316,12.224304,-31.134075,-11.142242,0.0,32.889837,3.130041,30.192814,-5.811011,23.568761,-15.640799,12.957755,-25.272184,-1.451246,0.0,67.103085,27.182465,89.323666,18.902287,88.889042,9.450211,74.223027,-0.111705,52.535546,0.0,10.270477,29.19436,56.895446,46.280588,72.016949,58.43917,81.610123,66.385497,86.869603,18.522966,332.211267,-57.73482,281.379019
25,-1.426231,0.589901,-0.053615,-0.217695,0.0,-43.743771,-47.25531,-1.995255,-46.152363,12.496376,-39.48777,14.372497,-30.34409,-9.170563,0.0,32.733733,3.512623,29.100388,-5.397393,22.557784,-15.190255,12.316256,-24.697225,-1.003407,0.0,67.084396,26.981758,89.70623,18.654121,89.184517,9.216179,74.495499,-0.300694,52.726868,0.0,10.294782,29.265249,56.673886,46.402088,71.912813,58.577775,81.704625,66.509158,87.028524,17.243162,332.776153,-57.642008,281.136309
26,-2.381767,-1.600398,0.153625,-0.13054,0.0,-40.483292,-45.447819,1.202156,-44.706505,14.740928,-38.449814,16.427765,-29.77351,-7.511673,0.0,31.696055,3.752141,29.273141,-3.400051,23.563809,-11.331682,15.067064,-19.040653,4.897673,0.0,67.054871,26.847004,89.876152,18.421635,89.215416,8.892632,74.475861,-0.709213,52.518368,0.0,10.08236,29.2765,56.095494,46.366457,71.573334,58.513418,81.764955,66.434452,87.227965,14.972369,331.164199,-57.377409,280.994213
27,1.161964,-3.19236,0.03685,-0.219696,0.0,-49.56221,-48.684631,-0.065735,-48.19257,13.146858,-41.867134,14.910164,-33.232189,-15.050148,0.0,30.962929,4.722597,31.400381,-1.159216,26.494323,-8.266268,18.16087,-15.280547,9.5673,0.0,67.166291,26.924241,90.184777,18.389511,89.286232,8.754708,74.479752,-0.932224,52.421242,0.0,10.059994,29.379018,55.929633,46.464394,71.456515,58.615541,81.859594,66.525324,87.42154,16.191702,327.965256,-57.28319,280.767934
28,-2.456543,1.473315,-0.018081,-0.170184,0.0,-43.636814,-45.551182,2.545624,-45.467445,16.038139,-39.5896,17.373779,-31.438923,-5.43782,0.0,30.810949,5.12857,29.84889,-1.126796,24.380706,-8.552209,16.275371,-15.750467,7.812934,0.0,67.179588,27.036575,90.502533,18.400543,89.284149,8.635792,74.453407,-1.180779,52.378875,0.0,9.949115,29.50079,55.862868,46.567171,71.426714,58.723382,81.944822,66.641131,87.639186,13.761543,329.43038,-57.274887,280.589559
29,0.64785,-6.722965,-0.0038,-0.18698,0.0,-42.360775,-45.305775,4.445206,-47.436848,15.066971,-43.274322,14.732941,-36.858673,-18.378319,0.0,26.780685,6.897497,32.073819,5.571962,30.041687,2.404574,25.479455,-0.941335,23.040919,0.0,67.226326,27.095936,90.791931,18.361988,89.32045,8.510548,74.559586,-1.35728,52.438111,0.0,9.891267,29.529998,55.781296,46.583041,71.408275,58.751367,81.948601,66.664472,87.767515,14.421375,322.69961,-57.266705,280.394774
30,-3.727936,-7.626435,0.262493,-0.033506,0.0,-36.562042,-40.895382,10.177231,-45.190132,18.538216,-43.218441,15.087777,-38.810909,-22.767391,0.0,21.420712,8.920033,34.714773,13.098078,37.54966,14.826657,36.491196,15.612937,38.480992,0.0,67.037075,27.263386,90.862095,18.429245,89.092381,8.447297,74.371136,-1.533233,52.26511,0.0,9.927997,29.460504,55.722398,46.555179,71.404051,58.764384,81.971869,66.699683,87.767441,10.700145,315.063603,-56.997506,280.351696
31,3.349686,-6.870993,0.257069,-0.066481,0.0,-39.166809,-42.916637,7.990494,-49.492722,14.804466,-49.345207,9.629974,-46.597527,-39.515785,0.0,17.569549,10.914324,38.541495,18.788378,44.463236,23.410644,44.92902,26.693431,49.66335,0.0,66.966728,27.2631,90.863663,18.361519,88.895966,8.32869,74.142426,-1.646313,52.152351,0.0,10.019425,29.441041,55.889619,46.62434,71.578941,58.884477,82.053479,66.831842,87.695157,14.043182,308.175765,-56.747086,280.26837
32,-5.812912,-3.891017,0.348644,-0.041199,0.0,-30.638592,-36.328972,14.480576,-43.976841,21.007141,-45.310329,14.120934,-44.017181,-32.297768,0.0,16.647467,13.53096,40.116612,23.520226,48.656768,30.026632,50.427103,34.691443,55.523785,0.0,66.800938,27.236389,90.585949,18.304093,88.669934,8.206204,73.888378,-1.814106,51.999539,0.0,10.107653,29.45523,56.101756,46.681421,71.768082,58.959898,82.064976,66.901594,87.605025,8.202312,304.257729,-56.4264,280.200152
33,2.516418,-6.635366,0.133908,-0.204444,0.0,-32.806938,-37.565986,14.083443,-47.048103,18.392624,-50.006973,9.888337,-50.162761,-45.942707,0.0,15.246498,14.925396,43.420741,28.960437,54.981937,38.930684,59.058527,46.636345,67.494609,0.0,66.807724,27.173378,90.488548,18.206005,88.605308,8.035503,73.848518,-2.071633,51.838771,0.0,10.218446,29.342561,56.347733,46.597096,72.086357,58.928591,82.191775,66.931334,87.667085,10.672565,297.593757,-56.338657,279.967102
34,-5.313446,5.676988,0.080188,-0.358448,0.0,-34.231247,-35.347595,16.296341,-41.971309,24.012429,-42.933895,18.066925,-41.215999,-27.083553,0.0,20.155445,14.914515,42.402562,23.907672,50.840979,29.35002,52.135712,33.058749,54.865339,0.0,66.757199,27.107747,90.153866,18.139676,88.532673,7.895096,73.699688,-2.366066,51.556996,0.0,10.273848,29.297248,57.085909,46.504099,72.868264,58.850093,82.832126,66.932457,87.763933,5.289447,303.24455,-56.328141,279.582459
35,-2.245937,2.272674,0.296242,-1.077854,0.0,-30.084663,-32.244141,18.702541,-38.376274,26.859272,-39.452511,20.056011,-38.040676,-29.221069,0.0,21.241314,13.683607,42.996775,21.646014,50.343431,26.526767,51.857576,30.229457,53.116136,0.0,66.584576,26.32449,89.000462,17.377876,87.922543,7.276497,73.04298,-2.869411,50.960735,0.0,10.363992,29.416933,58.697682,46.511312,75.050747,58.792098,84.544564,66.94934,88.675778,2.936674,305.482817,-56.138735,278.470198
36,-1.88015,4.239351,0.807037,-2.620539,0.0,-36.823642,-32.305218,16.911438,-35.610752,26.795529,-34.16177,22.612644,-30.728805,-21.395107,0.0,26.678796,11.713707,44.069404,15.250228,48.166544,16.479715,47.113897,17.23065,42.421743,0.0,65.796444,25.791779,86.360905,16.63654,85.302647,6.237076,70.39753,-4.350563,48.294331,0.0,11.076344,29.563886,62.111133,46.303645,79.270362,58.309308,87.712298,66.411382,90.307767,0.831922,309.675398,-55.5563,275.802889
37,5.765671,0.618609,1.277619,-5.112675,0.0,-45.902378,-37.009987,-0.21199,-37.902929,9.362858,-34.084413,8.617178,-28.504909,-31.290321,0.0,22.767983,10.854593,46.011214,12.725976,48.556301,12.48121,47.150732,12.24063,40.35408,0.0,63.801132,23.907268,81.208843,14.244656,78.717979,3.634598,63.147938,-7.053463,39.847481,0.0,11.257569,27.607572,64.236669,44.304636,82.679492,56.676047,91.281991,65.224317,92.727383,6.313419,310.22795,-54.562855,270.624157
38,-1.283959,-4.123569,2.039326,-6.672268,0.0,-46.058692,-34.674041,-18.59547,-32.509031,-9.67036,-26.479917,-7.043157,-18.919647,-30.215686,0.0,12.26404,14.062169,48.567755,16.852719,53.360779,17.325851,53.294428,17.530628,46.252912,0.0,58.280456,23.263515,69.191299,13.902774,63.300155,3.098602,48.01482,-8.009594,26.845161,0.0,14.892088,25.3491,66.478901,41.081759,87.711483,53.349404,96.025954,62.408388,95.356283,4.676479,306.013663,-52.87651,263.861171
39,4.965546,-10.390717,-2.734749,-16.271233,0.0,-47.839931,-33.79462,-39.955513,-31.32506,-35.242435,-25.153318,-31.083257,-17.515686,-46.141445,0.0,8.8671,17.385378,52.366789,25.920001,62.459974,31.552046,66.426333,35.911663,63.272165,0.0,56.721164,24.355488,58.415714,15.293381,50.939083,4.526493,36.312172,-6.666218,17.749317,0.0,12.062943,21.785977,59.148089,37.461974,80.304039,50.33113,88.923396,60.313776,89.69335,9.16476,295.553792,-56.088524,247.520784
40,6.629597,-6.743182,-2.836979,-18.878213,0.0,-61.257614,-38.326046,-66.236904,-33.142851,-63.067509,-24.209845,-52.611597,-13.903587,-51.305145,0.0,10.431596,21.589124,54.860209,31.517256,66.849613,37.87871,71.759012,42.159236,69.680252,0.0,51.842296,22.665619,46.774921,12.402832,36.059704,0.739677,21.126125,-10.972973,3.513016,0.0,4.264471,11.833577,42.321472,25.019736,61.828539,36.802381,70.786399,46.943096,73.235952,14.984968,288.894254,-59.734892,228.726215
41,1.308861,-7.598425,-5.358513,-21.509496,0.0,-59.261078,-35.405182,-83.206043,-29.339854,-82.497803,-20.111395,-70.095606,-9.263603,-54.126057,0.0,6.80124,26.375509,55.434141,40.836011,72.204325,50.914332,80.732038,57.747201,82.71501,0.0,46.641975,17.832195,31.524902,6.723827,17.535198,-4.999146,3.457924,-16.355793,-11.975464,0.0,-8.388991,-2.705804,12.916161,7.796693,29.782958,18.829652,40.091659,29.736615,48.638453,15.326906,281.401706,-66.060328,207.322596
42,1.427627,-4.537278,-6.833027,-24.258674,0.0,-59.938774,-33.857448,-92.303192,-27.383537,-93.112449,-18.043899,-79.468368,-7.025184,-56.305217,0.0,9.975149,28.964179,55.899153,46.058224,75.182843,58.30259,85.60919,66.46413,89.48987,0.0,40.749619,12.373592,15.183621,0.819466,-0.849987,-10.931442,-13.427341,-22.207626,-24.988884,0.0,-22.122937,-16.277588,-19.650797,-8.172643,-6.502294,1.943625,3.809278,13.602998,18.22078,15.805406,277.135621,-73.842482,183.335115
43,1.593315,-1.434351,-8.777183,-25.834471,0.0,-63.165721,-33.569664,-93.548057,-27.205032,-94.95647,-17.878166,-80.914833,-6.868606,-58.006118,0.0,20.00286,29.011554,55.826003,46.704899,75.537253,59.53188,86.424308,67.902865,89.943933,0.0,37.41885,5.185237,3.929317,-7.609818,-11.19246,-19.487709,-23.775444,-30.300545,-35.033112,0.0,-39.963113,-29.149646,-53.091917,-22.907914,-45.872738,-13.536801,-34.599774,-1.511977,-14.536794,16.297571,275.99522,-83.720815,157.794594
44,0.329613,-0.222166,-5.403981,-20.034427,0.0,-63.710186,-33.443081,-93.684883,-27.18259,-95.186611,-17.94651,-81.246815,-6.973755,-58.288639,0.0,19.751944,28.791241,55.477694,46.497863,74.962407,59.335415,85.977655,67.673117,89.805749,0.0,30.467549,-3.997718,-8.59338,-18.480091,-25.519958,-30.923114,-38.451439,-41.636982,-49.398056,0.0,-52.487554,-41.966932,-79.404385,-38.226957,-75.580775,-30.213643,-63.851204,-18.196803,-40.548859,15.227091,276.004164,-90.524889,137.991277
45,0.516197,-0.561509,-6.325115,-18.782876,0.0,-64.251194,-33.728416,-94.093963,-27.489246,-95.616508,-18.345131,-81.779789,-7.49739,-58.761085,0.0,19.589108,28.662467,55.63049,46.420477,74.957158,59.324547,85.951523,67.730619,89.756237,0.0,26.550213,-9.889091,-20.080261,-24.433823,-37.184738,-36.625305,-49.485649,-47.08976,-58.666466,0.0,-59.957223,-48.814232,-97.788823,-45.366342,-96.156914,-36.977672,-84.051715,-24.183326,-57.056244,14.35152,275.249651,-98.241772,119.015397
46,0.351448,-0.611934,-4.589504,-16.121229,0.0,-64.473621,-33.856533,-94.361744,-27.690364,-95.977352,-18.651798,-82.230136,-7.903083,-59.170154,0.0,19.604546,28.613066,55.837489,46.387317,75.006842,59.290844,86.028464,67.683466,89.797733,0.0,23.383003,-12.896073,-26.885719,-27.642105,-43.57362,-40.035439,-56.442982,-50.704434,-64.884075,0.0,-63.234867,-51.594557,-106.040691,-48.028785,-106.038444,-39.434054,-94.306279,-26.327931,-67.180194,13.32229,274.292005,-104.211954,102.548456
47,0.549683,-0.313667,-3.670464,-11.822919,0.0,-64.545044,-33.948326,-94.710628,-27.860802,-96.443436,-18.922108,-82.748005,-8.218391,-59.635586,0.0,19.287148,28.311736,55.661093,45.983519,74.824481,58.844252,85.995316,67.266416,89.651804,0.0,22.679295,-14.06884,-29.54956,-29.082081,-45.795913,-41.72319,-59.217373,-52.596977,-67.990173,0.0,-64.957908,-53.429149,-110.28276,-50.392912,-111.725922,-42.036322,-99.724859,-29.004533,-72.677321,12.314724,273.393932,-109.439667,90.141131
48,0.595963,-0.266651,-2.140377,-8.499253,0.0,-64.500069,-34.071099,-94.955075,-28.041642,-96.769169,-19.199891,-83.072937,-8.553635,-59.883248,0.0,18.884795,28.17922,55.671887,45.825179,74.635451,58.665287,85.805631,67.089205,89.611605,0.0,23.041409,-14.545017,-30.233047,-29.906959,-47.068222,-42.797687,-60.622513,-53.955997,-69.7038,0.0,-66.315231,-55.410596,-113.928658,-52.586163,-116.604773,-44.279201,-104.670369,-31.097847,-76.638554,11.383873,272.467616,-113.106858,80.982213
49,0.530662,-0.26218,-0.701282,-3.708168,0.0,-64.400219,-34.339451,-95.184208,-28.311115,-97.165214,-19.498569,-83.415974,-8.811584,-60.052071,0.0,18.553282,28.150469,55.515918,45.70705,74.504305,58.461931,85.678561,66.854924,89.459724,0.0,23.490486,-14.402115,-30.284947,-29.660935,-46.864998,-42.584324,-60.523098,-54.008686,-70.622658,0.0,-66.443579,-56.143913,-115.960277,-53.85325,-119.470708,-45.76378,-107.720043,-32.594387,-79.413222,10.63151,271.545766,-115.091165,76.614375
50,0.460991,-0.48831,0.5793,-0.194038,0.0,-64.429424,-34.482021,-95.379662,-28.462761,-97.470463,-19.660812,-83.778683,-8.950081,-60.32872,0.0,18.494471,28.103403,55.279204,45.592022,74.282387,58.338677,85.588455,66.780082,89.566589,0.0,24.228138,-14.2374,-29.703038,-29.629372,-46.549164,-42.72234,-60.137661,-54.390793,-71.173943,0.0,-66.383632,-56.320433,-117.235177,-54.223556,-121.623488,-46.326147,-109.595496,-33.259995,-81.180315,10.041447,270.634524,-115.562919,75.997405
51,0.326683,-0.46146,0.788463,3.870232,0.0,-64.455162,-34.734901,-95.441483,-28.76469,-97.457325,-20.03223,-83.901455,-9.335197,-60.435722,0.0,18.193931,28.035181,55.123333,45.483723,74.091911,58.236097,85.495396,66.73898,89.734389,0.0,25.342472,-13.968097,-28.643635,-29.578319,-45.825874,-42.837444,-59.390373,-54.616676,-71.309807,0.0,-65.958728,-56.054252,-117.575286,-54.075756,-122.792615,-46.317632,-110.061378,-33.360321,-81.833425,9.28303,269.868246,-115.859556,79.562819
52,0.169922,-0.643242,0.696545,7.783713,0.0,-64.447701,-34.908691,-95.47221,-28.973259,-97.41964,-20.270359,-83.946247,-9.546478,-60.531006,0.0,18.170639,27.977494,55.021778,45.482192,73.983465,58.287992,85.440179,66.882933,89.898979,0.0,26.130352,-13.704357,-28.639961,-29.555386,-45.806088,-43.003372,-59.306168,-54.909107,-71.696892,0.0,-64.694721,-55.634997,-117.04002,-53.488614,-122.198224,-45.763706,-109.334933,-32.942177,-81.356001,8.436968,269.089823,-116.178995,87.211351
53,0.004532,-0.523965,0.134411,10.22756,0.0,-64.323441,-35.128842,-95.44019,-29.217591,-97.473747,-20.56184,-84.099953,-9.840042,-60.736119,0.0,18.06806,27.851708,54.954236,45.356728,73.937498,58.202036,85.461484,66.897605,89.919493,0.0,26.624084,-13.534756,-29.30682,-29.560032,-46.618675,-43.092476,-59.889611,-55.099022,-72.389099,0.0,-62.359036,-54.641321,-115.122941,-52.139164,-119.965125,-44.313781,-107.065439,-31.606658,-79.356072,7.487652,268.602451,-116.998432,97.475504
54,0.141746,-0.344975,-0.188015,11.067249,0.0,-64.511146,-35.168792,-95.38623,-29.345031,-97.442276,-20.830055,-84.27095,-10.316528,-61.160236,0.0,18.021278,27.717587,54.938799,45.278045,73.767018,58.222537,85.28431,67.057601,89.956568,0.0,26.568695,-13.733826,-30.487667,-29.990067,-48.201519,-43.604679,-61.111645,-55.582066,-73.347931,0.0,-59.640617,-53.143004,-111.789723,-50.368434,-116.889967,-42.526601,-103.832003,-30.011207,-76.682687,6.84629,268.450795,-117.969555,108.736072
55,0.239296,-0.049659,-1.189751,10.625702,0.0,-64.593086,-35.163585,-95.360985,-29.420517,-97.415382,-21.000824,-84.248325,-10.597984,-61.23547,0.0,17.883759,27.529877,54.86739,45.03276,73.742762,57.936422,85.190893,66.773141,89.8149,0.0,27.07901,-13.474754,-31.46569,-29.907097,-49.053886,-43.615871,-61.950851,-55.654449,-74.085686,0.0,-57.032384,-51.695173,-108.146121,-48.939091,-113.789683,-41.175255,-100.959731,-28.77592,-74.302042,6.365318,268.816506,-119.879574,119.777144
56,0.325653,0.073903,-1.132519,8.194848,0.0,-64.62434,-34.8307,-95.25444,-29.137516,-97.362705,-20.791099,-84.1833,-10.515815,-61.171703,0.0,17.928071,27.380367,54.649287,44.843087,73.64879,57.718604,85.048805,66.511183,89.547174,0.0,27.095982,-13.251297,-32.573055,-29.821598,-50.187915,-43.64178,-62.924881,-55.780311,-74.831451,0.0,-54.828494,-50.080721,-104.952044,-47.375701,-110.523067,-39.73526,-98.162129,-27.533089,-72.052542,6.269508,269.466093,-121.433556,128.547676
57,0.42199,0.237578,-1.069152,5.234026,0.0,-64.486004,-34.52203,-95.02248,-28.940918,-97.290516,-20.668797,-84.135876,-10.452049,-60.976525,0.0,17.790405,27.287507,54.589847,44.66495,73.533688,57.501799,84.887353,66.251153,89.310016,0.0,26.752246,-13.061108,-32.97107,-29.77913,-50.807671,-43.715207,-63.621861,-55.890427,-74.925774,0.0,-53.339209,-48.539288,-102.10291,-46.092847,-108.131257,-38.685935,-96.156636,-26.805477,-70.669802,6.424965,270.305552,-122.769241,134.383583
58,0.608482,0.281977,-0.817933,2.530137,0.0,-64.391922,-34.151916,-94.787704,-28.688209,-97.141617,-20.49012,-83.913757,-10.328499,-60.64452,0.0,17.70498,27.211443,54.384663,44.534212,73.374372,57.350683,84.744178,66.070903,89.10808,0.0,26.63974,-12.926147,-33.068435,-29.792839,-50.847187,-43.846801,-63.875438,-56.002658,-74.465309,0.0,-52.753173,-47.671738,-100.487446,-45.532512,-106.873266,-38.367223,-95.27137,-26.775306,-70.195861,6.897085,271.15484,-123.723536,137.481031
59,0.600586,0.17426,-0.579677,0.639944,0.0,-64.101059,-33.968239,-94.618607,-28.518871,-97.09893,-20.303879,-83.782997,-10.099892,-60.424313,0.0,17.719145,27.257274,54.314637,44.539485,73.365442,57.332862,84.77635,66.007708,88.967647,0.0,26.592727,-12.788178,-33.084847,-29.802487,-50.808472,-43.997853,-64.065846,-56.201489,-74.075546,0.0,-52.528562,-47.275004,-99.650857,-45.184987,-105.9267,-38.03277,-94.742082,-26.533164,-69.854011,7.38323,271.833792,-124.417654,138.625667
60,0.538033,0.122377,-0.301209,-0.516986,0.0,-63.963559,-33.977589,-94.425087,-28.492642,-97.04163,-20.227799,-83.723122,-9.960778,-60.3639,0.0,17.723393,27.396682,54.372781,44.721785,73.381522,57.554459,84.887945,66.239766,89.070955,0.0,26.122582,-12.945751,-33.437404,-30.065963,-51.324703,-44.372108,-64.465919,-56.575138,-74.036396,0.0,-52.380368,-46.890275,-99.139608,-44.5965,-105.018111,-37.362915,-93.937234,-25.995102,-69.503912,7.871968,272.348846,-124.768158,138.501358
61,0.387931,0.16885,-0.889572,-0.663039,0.0,-64.005569,-34.028732,-94.581001,-28.457908,-97.221462,-20.090789,-83.595577,-9.749954,-60.190681,0.0,17.730878,27.419801,54.666578,44.727973,73.62036,57.556695,85.157363,66.250535,89.096422,0.0,26.052109,-13.005318,-33.573211,-30.125141,-51.360145,-44.443222,-64.430305,-56.632118,-74.051262,0.0,-52.235934,-46.797569,-98.525802,-44.414503,-104.505817,-37.118401,-93.477342,-25.803534,-69.167044,8.223129,272.816525,-125.6945,138.137148
62,0.284432,0.000284,-1.045257,-0.64754,0.0,-64.130734,-34.141434,-94.722897,-28.444943,-97.392918,-19.960304,-83.611931,-9.564926,-60.335564,0.0,17.928034,27.529841,54.896215,44.862514,73.824507,57.721704,85.494582,66.439417,89.339866,0.0,26.290992,-13.075138,-33.84779,-30.168915,-51.472195,-44.435612,-64.283249,-56.575413,-74.142254,0.0,-52.393637,-46.792838,-98.309669,-44.334999,-104.210711,-36.925968,-93.03653,-25.476713,-68.653805,8.514341,273.02676,-126.732977,137.699559
63,0.202469,0.052043,-0.889126,-0.648033,0.0,-64.253678,-34.292759,-94.931969,-28.481129,-97.530075,-19.897991,-83.576569,-9.498551,-60.414757,0.0,17.995083,27.595568,55.118752,44.918386,74.02611,57.774266,85.808249,66.461673,89.523463,0.0,26.397709,-13.266598,-34.193596,-30.333721,-51.668278,-44.585438,-64.316632,-56.698918,-74.302826,0.0,-52.591202,-46.676346,-98.048484,-44.186057,-103.765288,-36.737105,-92.589908,-25.240642,-68.364832,8.770947,273.242031,-127.567966,137.214754
64,0.068573,0.145633,-0.851601,-0.572908,0.0,-64.406742,-34.268887,-95.030216,-28.411766,-97.554199,-19.806793,-83.368733,-9.473992,-60.336617,0.0,17.953685,27.498286,55.269224,44.789488,74.192613,57.660336,86.064377,66.36628,89.657732,0.0,26.578549,-13.332001,-34.291088,-30.363922,-51.582241,-44.609264,-64.339165,-56.716644,-74.344837,0.0,-52.817079,-46.673506,-98.027007,-44.226763,-103.59598,-36.809236,-92.371268,-25.32348,-68.231118,8.911618,273.496749,-128.347469,136.750931
65,0.122909,0.188141,-0.634518,-0.571957,0.0,-64.520267,-34.191078,-95.247608,-28.341728,-97.61103,-19.782737,-83.360687,-9.548126,-60.324199,0.0,17.94068,27.361015,55.366296,44.607732,74.295329,57.483001,86.187335,66.230281,89.63218,0.0,26.955163,-13.338363,-34.18008,-30.286617,-51.282714,-44.437133,-64.240184,-56.425987,-74.065155,0.0,-53.175349,-46.850952,-98.062903,-44.500818,-103.468379,-37.144929,-92.333292,-25.636598,-68.105425,9.112701,273.728906,-128.903813,136.22299
66,0.022866,-0.041521,-0.067714,-0.68685,0.0,-64.420121,-34.108097,-95.14658,-28.248619,-97.442986,-19.716202,-83.433346,-9.532906,-60.452282,0.0,17.962454,27.232907,55.416894,44.552576,74.290636,57.555879,86.244466,66.443196,89.888271,0.0,27.196563,-13.219712,-34.076763,-30.124203,-51.070313,-44.211514,-64.237656,-56.109501,-73.659989,0.0,-53.302079,-46.879672,-98.196808,-44.506542,-103.397731,-37.13521,-92.149201,-25.582486,-67.791313,9.213845,273.687329,-128.893249,135.536084
67,-0.115998,0.06301,0.408336,-0.778624,0.0,-64.199032,-33.78709,-94.945656,-27.916763,-97.016384,-19.413849,-83.185169,-9.279876,-60.168113,0.0,18.019141,26.953697,55.393862,44.263584,74.316806,57.327786,86.268574,66.306012,89.938166,0.0,27.327519,-13.006771,-33.869052,-29.931678,-50.709217,-44.043102,-64.129886,-55.903656,-73.14521,0.0,-53.845395,-46.87215,-98.256749,-44.502817,-103.203241,-37.183708,-91.981345,-25.693827,-67.700298,9.175586,273.725936,-128.407174,134.733057
68,0.018425,-0.002915,1.09544,-0.934814,0.0,-64.136215,-33.435573,-94.731708,-27.537334,-96.716789,-19.023147,-82.940254,-8.895698,-59.943901,0.0,18.134404,26.720021,55.237819,44.026192,74.207138,57.144807,86.268352,66.2174,90.037473,0.0,27.167302,-12.958637,-33.610336,-29.831669,-50.335041,-43.859161,-63.861568,-55.608844,-72.650791,0.0,-54.244162,-46.954303,-98.096995,-44.504319,-102.780412,-37.097666,-91.458844,-25.473317,-66.986841,9.237985,273.661928,-127.26776,133.73715
69,0.250077,0.018575,1.463425,-0.848377,0.0,-64.117802,-33.232899,-94.64106,-27.277485,-96.421292,-18.731392,-82.871235,-8.554711,-59.779438,0.0,18.224152,26.553961,55.018382,43.913373,73.934966,57.086243,86.0903,66.243866,90.068966,0.0,27.50061,-12.83186,-33.265011,-29.543129,-49.906345,-43.412991,-63.01775,-55.033493,-71.890812,0.0,-54.872991,-46.895492,-97.800315,-44.33398,-101.890576,-36.794594,-90.691373,-24.993393,-66.087366,9.564829,273.519523,-125.727568,132.727793
70,0.236251,0.038372,2.319603,-0.544033,0.0,-63.933883,-32.792301,-94.319995,-26.757648,-95.964935,-18.18956,-82.540798,-8.058677,-59.558429,0.0,18.163142,26.302118,54.474719,43.691639,73.40427,56.920541,85.782474,66.145966,89.976994,0.0,27.420193,-12.968273,-33.079273,-29.583767,-49.667851,-43.33263,-62.528492,-54.871639,-71.565662,0.0,-55.50789,-46.766162,-97.140438,-44.036195,-100.689666,-36.301802,-89.480454,-24.292359,-64.872766,9.935869,273.349095,-123.273176,131.97496
71,0.726014,0.084906,2.903789,0.372614,0.0,-64.25013,-32.848252,-94.171441,-26.674439,-95.892357,-17.980385,-82.683724,-7.768822,-59.884678,0.0,17.97967,26.185633,53.661034,43.601015,72.222023,56.87029,84.885797,66.125577,89.656152,0.0,27.440815,-12.894676,-32.214157,-29.338451,-48.564022,-42.954402,-61.448547,-54.379085,-70.725048,0.0,-56.606282,-46.422144,-96.103136,-43.548095,-99.005701,-35.643746,-87.993695,-23.370326,-63.336311,10.902026,273.167915,-120.129244,132.081488
72,1.474708,0.023095,3.574368,1.458397,0.0,-65.076004,-33.278274,-94.70533,-27.088749,-96.35107,-18.393402,-83.484512,-8.234115,-60.790695,0.0,17.757171,26.079916,52.612549,43.634743,70.706507,56.988381,83.849501,66.279829,89.339644,0.0,27.479107,-12.768036,-30.902206,-28.856129,-46.896904,-42.218616,-59.785515,-53.439388,-69.470215,0.0,-57.136663,-46.09409,-94.714474,-42.946319,-97.021161,-34.733502,-86.002041,-22.113718,-61.156435,12.694239,272.918283,-116.237371,133.267158
73,1.589127,-0.100579,3.888725,3.084297,0.0,-65.651619,-33.383515,-95.224114,-27.244526,-96.681061,-18.665406,-84.196587,-8.709503,-61.611351,0.0,17.544206,25.95455,51.643179,43.722725,68.979014,57.177708,82.351263,66.456658,88.828919,0.0,27.86562,-12.18441,-28.55064,-27.853466,-44.22163,-40.945839,-56.913986,-51.996998,-67.254284,0.0,-57.508418,-45.360155,-93.122808,-41.947728,-94.634359,-33.5525,-83.864951,-20.748157,-59.22235,14.673203,272.578378,-111.958809,136.112129
74,1.892967,-0.300601,4.372032,4.865216,0.0,-66.318832,-33.369553,-95.811756,-27.328228,-97.050545,-18.920219,-84.865688,-9.266441,-62.497364,0.0,17.186091,25.632534,50.573266,43.622121,67.193279,57.216586,80.797104,66.505774,88.135474,0.0,28.125447,-10.998973,-24.381671,-26.370437,-39.698719,-39.335609,-52.889957,-50.313251,-64.290058,0.0,-56.957271,-44.412453,-90.364621,-40.655916,-90.723242,-31.951979,-80.327208,-18.894941,-55.999738,16.914242,272.146805,-107.238705,140.846373
75,2.314796,-0.763433,4.136433,6.715382,0.0,-67.250393,-33.635376,-96.702976,-27.711193,-97.893276,-19.476356,-86.040722,-10.126373,-63.820781,0.0,16.966729,25.550542,49.779132,43.828887,65.500317,57.575035,79.113887,66.820368,87.37277,0.0,28.80756,-9.011043,-17.202061,-24.113045,-32.507423,-36.962219,-45.918514,-47.930328,-57.717018,0.0,-55.12944,-43.581687,-83.781786,-39.897046,-81.63917,-31.267994,-71.886291,-18.658517,-49.679195,19.503078,271.289011,-102.828232,147.467394
76,2.172135,-1.058019,4.255005,6.699426,0.0,-67.721878,-33.596638,-97.38414,-27.93219,-98.415047,-20.006447,-86.801789,-11.031853,-64.553204,0.0,16.735288,25.413407,48.961704,43.915226,64.235249,57.729781,77.929946,66.896346,86.700604,0.0,28.945599,-7.00779,-9.468693,-21.624493,-24.270973,-34.279358,-37.36401,-44.904797,-49.292519,0.0,-51.223153,-41.773852,-70.56629,-37.637266,-66.16285,-28.71388,-56.264345,-16.30537,-37.223976,21.826081,270.198169,-98.422359,154.133997
77,1.85289,-1.305749,3.102413,7.360958,0.0,-67.769783,-33.230919,-97.548615,-27.721207,-98.683857,-20.016106,-87.069374,-11.36499,-64.970833,0.0,16.315261,25.269059,48.349732,43.883004,63.267446,57.730608,76.933183,66.798187,85.948385,0.0,31.617153,-3.02112,1.320248,-17.233108,-13.129663,-29.991634,-25.95746,-40.732624,-38.825506,0.0,-44.447058,-36.876383,-52.393891,-31.929663,-45.671995,-22.544014,-36.25418,-10.252465,-20.615061,23.721388,268.86863,-95.277529,161.471165
78,1.626938,-1.289806,1.867138,7.666079,0.0,-68.05069,-33.228596,-97.858761,-27.826928,-99.303223,-20.31118,-87.750435,-11.923462,-65.721474,0.0,15.653581,25.201998,47.668354,43.847016,62.557082,57.717801,76.43771,66.733695,85.375156,0.0,36.817761,2.836596,14.660328,-11.042427,0.710444,-24.207664,-12.164206,-35.464451,-26.640398,0.0,-34.942089,-29.379828,-29.468501,-23.242337,-20.596832,-13.09788,-11.875531,-0.73107,0.388675,25.285086,267.488579,-93.473631,169.046999
79,1.32122,-1.514602,1.254227,9.430337,0.0,-68.235454,-33.49482,-98.094795,-28.271187,-100.021522,-20.892082,-88.635521,-12.595138,-66.650688,0.0,15.264467,25.542675,47.405545,44.115964,62.055052,57.896322,76.250829,66.76068,85.095761,0.0,42.874637,6.260565,29.253742,-7.37582,16.76029,-20.526226,3.979048,-31.583554,-12.208883,0.0,-25.842603,-22.859521,-7.1649,-15.83882,3.885206,-5.414597,12.374425,6.910384,20.561127,26.510794,265.836601,-92.314916,178.33996
80,0.913353,-1.114125,2.194439,10.560778,0.0,-64.932632,-34.03981,-97.928673,-29.168014,-100.850979,-21.978104,-89.385738,-13.587822,-67.261597,0.0,13.553906,25.991044,46.530294,44.035602,61.87558,57.472862,76.159994,66.242692,84.997453,0.0,48.889549,15.865659,40.192795,2.930294,28.695024,-10.842236,15.921301,-23.256489,-0.686365,0.0,-16.46547,-10.93585,15.696627,-1.536622,27.121658,9.842892,34.543551,22.096996,39.336908,27.46455,264.554419,-90.080074,188.732681
81,0.895134,4.285416,2.167511,12.112146,0.0,-63.351288,-34.578712,-99.127933,-30.300728,-102.704464,-23.591675,-89.903011,-15.700035,-67.510414,0.0,15.19532,24.439443,42.742265,38.715088,50.401477,49.230393,64.223467,55.833488,74.468466,0.0,56.027492,19.879686,52.862926,7.210739,42.943456,-6.246346,30.004961,-18.674298,11.670725,0.0,-8.543176,-2.475093,31.368548,8.709834,44.11936,21.097744,50.687467,33.764983,53.944128,28.469175,268.668237,-87.803072,200.673229
82,-1.221909,-0.320077,4.145702,12.937724,0.0,-61.646255,-33.026458,-95.563453,-29.58744,-101.330383,-23.539947,-90.325481,-15.994377,-67.752594,0.0,11.720192,25.853354,33.000791,38.956038,41.099111,48.63749,58.32261,54.632504,73.189874,0.0,60.184433,25.34317,62.406773,12.977337,53.986691,-0.597576,40.91518,-13.667793,22.563973,0.0,-2.150804,6.34073,43.462545,19.49337,57.263022,32.597215,63.732192,44.989238,66.144991,27.472715,268.168089,-83.431921,213.430882
83,-1.202591,-0.131244,4.629192,13.334433,0.0,-60.549728,-30.559913,-93.423099,-28.014724,-99.663436,-23.113609,-89.987548,-16.739067,-68.903594,0.0,7.318313,28.025017,27.467695,40.472369,35.786451,49.275075,54.274512,54.360691,73.012909,0.0,63.593617,25.691758,69.136174,13.514203,62.451176,0.872681,49.082978,-11.229377,30.426991,0.0,2.143283,11.512142,50.11661,26.228401,65.533613,39.804995,71.957965,51.671152,73.267358,26.620937,267.949249,-78.451916,226.677719
84,-1.261665,0.883648,4.376267,11.808642,0.0,-57.908752,-32.011722,-82.256527,-29.229263,-84.698891,-24.164795,-75.82671,-17.608749,-59.190525,0.0,4.915556,27.667371,29.658847,38.692154,37.361173,46.474151,52.539462,51.001271,69.495063,0.0,65.423767,28.713066,73.386257,16.810169,67.705135,4.47345,54.123939,-7.784054,35.895058,0.0,4.35648,18.041557,56.252119,33.99706,72.582892,47.856594,79.134895,58.806165,80.303756,25.794016,268.828735,-73.640905,238.482199
85,-0.697906,1.569375,2.787929,10.375008,0.0,-58.070481,-33.406472,-68.2347,-30.541237,-66.895832,-25.382882,-59.939026,-18.743798,-48.436764,0.0,4.931573,26.755898,32.681924,36.455405,39.499528,43.348159,52.636384,47.161803,67.126316,0.0,67.399498,25.582627,79.374035,13.844422,75.723885,2.648816,61.981591,-8.033443,42.322644,0.0,4.050938,19.730689,56.901152,35.938444,75.273629,49.738895,83.039435,60.459878,85.242517,25.492962,270.401186,-70.456124,248.860283
86,-0.228218,-3.126992,2.4329,9.293301,0.0,-56.599194,-34.075528,-52.699768,-31.159813,-48.292866,-25.865479,-44.297562,-18.818139,-38.093502,0.0,1.347481,27.88498,37.441239,40.032854,52.00821,49.086613,63.82924,54.631146,75.575539,0.0,68.104763,27.645916,82.78149,16.410278,79.968761,5.546219,65.968803,-4.915695,46.454304,0.0,3.203562,24.501736,58.144645,41.049698,76.490656,54.250331,84.746241,63.751607,87.254419,25.634297,267.320525,-67.653671,258.199915
87,-1.801941,2.985207,0.625568,7.382756,0.0,-51.103833,-34.999878,-37.104412,-32.835852,-28.848633,-28.578884,-25.916748,-22.681578,-26.529122,0.0,2.100934,24.756709,46.486698,37.418514,61.018997,47.174517,67.98808,53.727317,74.246132,0.0,69.025704,26.291668,86.251282,15.686875,84.248795,5.964913,70.225136,-3.051315,50.297585,0.0,1.854871,26.667397,58.152944,43.057426,75.406145,55.54783,83.657433,64.111933,86.452096,24.128271,270.40524,-66.732188,265.682179
88,-5.242356,4.079084,0.275517,5.444596,0.0,-40.721798,-34.832645,-15.202778,-34.412767,-5.466716,-32.023166,-5.254234,-27.845232,-12.751579,0.0,3.12767,19.500687,49.803115,32.833101,64.832183,43.975648,69.322976,52.6536,71.152548,0.0,68.140468,27.800571,89.217304,17.898239,87.61211,8.524097,73.717632,-0.238014,54.312034,0.0,-0.423991,29.117344,57.479235,45.330063,73.262467,57.103854,82.300986,64.900127,86.02419,19.178701,274.529361,-66.163885,271.171812
89,-6.761936,6.279387,0.223434,3.308155,0.0,-29.671509,-30.650928,-1.128364,-33.337549,6.018974,-33.224922,2.422955,-30.913439,-9.93227,0.0,-0.359363,16.314848,44.283344,30.668935,59.570283,42.671899,65.61516,52.077185,67.731785,0.0,67.746884,28.428852,91.271977,19.280102,90.060803,10.509865,76.265064,2.484307,57.535652,0.0,-0.659544,30.895176,56.724669,47.494254,71.139166,59.101418,80.299494,66.517704,84.815228,12.720978,280.826329,-65.636238,274.497548
90,-10.141445,8.30727,0.172531,1.506228,0.0,-16.055283,-22.917103,13.106769,-28.047495,17.552753,-30.357456,10.307556,-30.460882,-10.813614,0.0,-7.912129,12.057997,35.214655,27.323421,50.29284,40.030069,57.016663,50.190982,60.285007,0.0,67.381726,28.157776,92.556851,19.400574,91.248471,11.12835,77.528218,3.942021,59.653313,0.0,0.216497,32.080969,56.656003,49.152871,68.820439,60.686848,78.021102,67.658518,82.938695,2.876455,289.219932,-65.166785,276.090109
91,-8.915897,0.730656,-0.461197,0.143582,0.0,-4.942509,-16.953804,25.352302,-24.369387,27.689483,-29.632393,18.103878,-32.992018,-5.962246,0.0,-8.2091,9.788076,32.766745,26.49762,48.27512,40.604681,55.744085,52.305427,59.467394,0.0,67.578633,28.134373,93.577595,19.597802,92.071301,11.607445,78.592381,4.890553,60.942936,0.0,1.660802,32.67407,56.25444,50.179805,67.345814,61.729256,76.532485,68.396127,81.710121,-5.689401,290.030598,-65.277941,276.313701
92,-5.824391,2.332998,-0.49126,-0.26854,0.0,4.282826,-13.371128,31.566696,-21.753319,33.637963,-27.570888,21.097847,-31.500023,-5.942573,0.0,-6.100422,8.461795,29.055903,25.804571,44.623454,40.352376,51.855761,52.360385,55.687732,0.0,68.003197,27.891804,94.247086,19.366241,92.555443,11.569553,79.086983,5.184975,61.465073,0.0,2.171663,32.301813,55.12705,50.129577,66.367033,61.847595,75.85223,68.470252,81.024506,-11.150116,292.404573,-65.405525,276.086138
93,-4.126819,4.858906,-0.166981,-0.251917,0.0,9.018035,-10.023331,35.21696,-18.227589,37.870136,-23.311009,23.888935,-26.557091,-4.597516,0.0,-8.826135,6.420845,23.848453,23.245757,39.158196,37.288715,46.088753,48.55609,48.802326,0.0,68.351315,27.689758,94.157238,19.130333,92.411259,11.384434,79.068913,5.139965,61.702366,0.0,3.070663,32.301789,55.021889,50.366921,66.10799,62.206846,75.450926,68.746425,80.466912,-14.955053,297.303883,-65.250624,275.874625
94,-2.167958,-4.265064,0.084458,-0.011338,0.0,10.852524,-6.65942,37.828697,-14.618889,39.451126,-20.801021,26.291886,-25.689914,-0.664421,0.0,-6.232877,6.911168,25.324449,24.419324,41.675933,39.372593,49.345137,51.68013,52.722884,0.0,68.689853,26.992481,94.105922,18.324874,91.994808,10.788162,78.986881,4.917251,61.850429,0.0,3.770555,32.176028,54.817471,50.52546,65.540492,62.495283,74.92884,68.966491,79.531505,-16.820807,293.055232,-64.863962,275.8797
95,-0.165882,-7.223255,0.057254,0.017883,0.0,11.350582,-5.431389,38.040974,-13.541496,39.149906,-20.712719,27.252033,-26.86132,6.043453,0.0,-0.77351,8.82837,30.229581,27.495631,47.689522,43.671077,55.999572,57.141818,59.714551,0.0,68.727837,26.832035,93.899231,18.006684,91.629639,10.393811,78.66053,4.471127,61.344864,0.0,4.518229,32.226552,54.633912,50.561052,65.13841,62.468174,74.642602,68.849894,79.24218,-16.700272,285.809281,-64.520291,275.874887
96,-1.64669,-0.11609,0.385746,0.190661,0.0,13.700249,-3.575821,39.289913,-11.777058,39.798626,-19.058293,27.866192,-25.296044,6.699909,0.0,-1.900542,8.91072,29.819175,27.863502,47.284637,44.207502,55.911552,57.675848,59.549503,0.0,68.799763,26.491562,93.470501,17.518021,91.061612,9.806145,77.919194,3.803845,60.587552,0.0,4.99672,32.032051,54.457281,50.369712,64.956963,62.270956,74.385645,68.651465,78.948791,-18.073345,285.624447,-63.860928,275.996804
97,1.410221,-2.482083,0.623566,0.236294,0.0,9.607407,-4.105785,38.719917,-12.505703,38.022949,-20.738548,27.799896,-28.058624,8.743149,0.0,-3.455812,9.894997,33.448099,28.826562,50.456472,45.226928,59.477404,58.79752,63.090606,0.0,68.887379,26.162739,92.640026,17.145229,90.370892,9.335953,77.205334,3.213718,59.952381,0.0,5.368025,31.849393,54.374202,50.178632,64.875428,62.124076,74.131617,68.591123,78.679794,-16.385095,283.040819,-62.959333,276.131553
98,2.131657,-2.41496,0.322781,0.146077,0.0,9.388263,-7.169804,36.230655,-15.566334,35.90903,-23.562562,26.021724,-30.474381,7.77111,0.0,2.315011,11.651142,37.058991,30.480794,52.666136,46.74479,61.329719,60.295054,65.77292,0.0,69.013687,26.052646,92.356636,17.01717,90.107757,9.181297,76.935905,3.026298,59.764984,0.0,5.574333,31.62593,54.058595,49.927592,64.469542,61.900774,73.834708,68.404278,78.654698,-13.990116,280.51208,-62.37323,276.163851
99,1.699745,-0.106075,0.19012,0.125748,0.0,8.11607,-8.629509,34.372501,-17.174149,34.512027,-25.28151,24.397739,-32.217648,6.04525,0.0,3.037059,11.572645,37.757784,30.391664,53.232363,46.780853,61.698912,60.481614,66.326612,0.0,69.084652,26.346325,92.066769,17.399861,90.042149,9.409504,76.689961,2.972981,59.420437,0.0,5.73838,31.669885,53.751906,49.808685,64.280179,61.718846,73.918973,68.270552,79.361963,-12.005167,280.266125,-61.897906,276.149719
100,1.196457,4.070192,0.182797,0.219004,0.0,7.530223,-12.166214,32.40945,-20.686341,34.504886,-27.385495,24.235828,-32.407883,5.702201,0.0,1.973198,10.24448,35.14279,28.585464,49.944018,44.567397,58.179868,57.902707,62.422393,0.0,69.302833,26.516842,91.788528,17.797588,90.074821,9.828197,76.666191,3.26659,59.544159,0.0,5.675209,31.457834,53.409945,49.511197,64.029608,61.485664,73.8076,68.192413,79.921916,-10.511146,284.19443,-61.417545,276.226836
101,-0.672718,6.529402,0.313373,0.279952,0.0,7.838619,-13.58083,33.21849,-21.483113,36.357238,-26.723854,26.23471,-29.905541,7.359798,0.0,-3.598171,8.447766,31.701859,25.6673,45.504682,40.560919,53.017768,52.892723,57.310755,0.0,69.421017,26.452469,91.47131,17.971367,90.150868,10.040074,76.701497,3.406517,59.664677,0.0,5.542618,31.264209,53.097759,49.207051,63.726079,61.202229,73.594104,68.040013,80.201991,-10.902122,290.596318,-60.82243,276.379274
102,-3.647324,4.703159,0.157574,0.150511,0.0,12.252491,-12.473328,37.512543,-19.584835,41.410332,-23.160954,31.28128,-24.354252,12.061398,0.0,-8.553186,7.405356,27.486454,24.215893,41.502785,38.419081,48.658225,49.932235,53.282985,0.0,69.569733,26.431778,91.515244,18.012978,90.127487,10.061943,76.591278,3.364105,59.585358,0.0,5.722064,31.28487,52.874741,49.122576,63.468901,61.058671,73.47658,67.888983,80.512434,-14.25107,295.214934,-60.36648,276.445242
103,-1.945427,2.673521,0.23711,0.18614,0.0,15.715519,-10.120445,39.313316,-17.242733,44.636398,-20.81702,34.58194,-21.941597,16.475258,0.0,-9.743474,5.183441,24.688383,22.044539,39.475742,36.699591,47.026545,48.645233,51.506587,0.0,69.59721,26.326,91.54382,17.959923,90.105435,10.020848,76.466686,3.339398,59.552914,0.0,5.760523,31.254279,52.796269,49.08723,63.349896,61.02524,73.279325,67.859775,80.477694,-15.831665,297.837434,-59.764538,276.580361
104,1.389496,-0.14499,0.214257,0.066048,0.0,12.788463,-11.72739,37.437858,-18.547932,43.590866,-21.511253,33.904037,-21.973858,15.973022,0.0,-8.025466,5.773441,24.529153,22.551917,39.68783,37.062227,46.946961,48.695128,51.656727,0.0,69.625659,26.250881,91.588359,17.856353,89.988384,9.907791,76.252429,3.244617,59.444103,0.0,5.949232,31.096223,52.681401,48.985095,63.309869,60.960661,73.172608,67.798457,80.343572,-14.045288,297.675685,-59.1534,276.62965
105,-0.710678,0.581318,0.359046,0.093169,0.0,14.07716,-10.472672,38.340637,-17.090767,44.542625,-20.182137,34.831421,-20.970623,16.086502,0.0,-9.162835,5.050282,23.287513,21.886829,39.25097,36.456764,46.564035,48.058049,51.258857,0.0,69.515797,25.927746,91.44183,17.499951,89.898228,9.537529,76.106038,2.910267,59.40144,0.0,6.177623,31.020221,52.640905,48.964779,63.337497,60.955956,73.181093,67.774548,80.179699,-14.360384,298.258794,-58.398772,276.72461
106,4.658958,-6.707848,0.078015,0.026257,0.0,7.957157,-13.633163,32.761162,-20.508018,39.453232,-24.260113,30.219429,-25.95108,12.066033,0.0,-1.127748,7.628559,27.951855,25.18267,45.109689,40.553089,52.421456,52.858624,57.336542,0.0,69.471794,25.921841,91.646759,17.385395,89.825523,9.398037,76.021911,2.784839,59.411568,0.0,6.368085,30.886345,52.540547,48.907499,63.222825,60.942728,73.143412,67.768446,80.175734,-9.282463,291.563512,-57.901794,276.763433
107,3.07972,-0.83221,0.094562,-0.005002,0.0,6.564583,-15.945648,29.097679,-23.575173,36.452797,-27.703354,27.08226,-29.696263,8.104614,0.0,0.387866,6.688187,27.891809,24.404108,45.207649,40.337851,53.188927,53.295767,57.428093,0.0,69.360135,26.096981,91.580784,17.568306,89.772229,9.531624,75.900227,2.80687,59.325314,0.0,6.381435,30.875267,52.616723,48.885887,63.363925,60.925673,73.326057,67.790615,80.170708,-5.767376,290.760226,-57.371865,276.787355
108,-0.479908,-1.037963,0.163159,0.080572,0.0,3.441307,-15.725762,30.761158,-23.024998,36.453815,-27.081127,28.211025,-29.053711,8.728901,0.0,-5.236892,8.382816,29.656253,26.02313,46.463418,41.310099,54.302015,53.452058,58.971829,0.0,69.291778,26.144382,91.334335,17.643425,89.703392,9.583225,75.699051,2.755256,59.137893,0.0,6.346744,30.865066,52.560678,48.817776,63.384537,60.804099,73.38162,67.708116,80.089914,-5.854803,289.759146,-56.816225,276.90481
109,-2.449826,0.520803,0.184719,0.234244,0.0,7.647492,-13.073066,34.126923,-20.331527,39.408898,-24.775577,31.005501,-27.413578,11.254143,0.0,-8.331526,7.591176,28.100797,25.454545,44.992387,40.968064,53.419417,53.532408,57.959394,0.0,69.634243,26.087929,91.182232,17.620582,89.68388,9.605106,75.667522,2.814205,59.193775,0.0,6.130198,30.761671,52.419282,48.713072,63.136338,60.705372,73.123417,67.634361,79.89987,-7.930687,290.314767,-56.257564,277.173872
110,0.973343,-3.945036,0.155594,0.121339,0.0,5.116803,-12.132476,33.883896,-19.303035,38.294403,-24.716182,30.28553,-28.809471,11.5971,0.0,-6.79094,9.203022,30.340175,27.583933,47.777553,43.582576,56.535268,56.777861,61.61934,0.0,69.885074,26.222511,91.22121,17.721531,89.534557,9.705414,75.430263,2.909912,58.997074,0.0,6.014182,30.887939,52.293991,48.785851,62.981654,60.701989,73.00955,67.603178,79.91495,-6.597107,286.396938,-55.741733,277.322418
111,-3.169292,1.176382,0.136184,0.051821,0.0,9.844276,-8.618431,38.193088,-15.684425,42.284099,-21.64111,33.579151,-26.616863,14.448841,0.0,-10.239354,7.516174,27.596852,26.17947,45.556898,42.545206,55.127754,56.391217,60.101219,0.0,69.948979,26.374283,91.156941,17.855736,89.335751,9.81815,75.123127,2.993981,58.818936,0.0,5.927892,31.095729,52.462508,48.936288,62.979418,60.775423,73.021283,67.656259,80.065239,-9.447699,287.594316,-55.286849,277.395235
112,-2.43092,0.628051,0.066788,0.071495,0.0,12.761616,-6.022934,40.579056,-12.797413,45.182122,-18.888405,36.349549,-24.204803,17.541024,0.0,-9.959736,6.315524,24.921898,25.300959,44.240799,42.122167,53.983248,56.488845,59.410553,0.0,70.104069,26.379341,91.275868,17.783318,89.305149,9.749497,74.96648,3.002358,58.744663,0.0,5.870488,31.104658,52.442896,48.960271,62.773777,60.770112,72.845812,67.622975,80.095978,-11.614603,288.219545,-54.956045,277.463908
113,1.76318,-4.620672,-0.07204,-0.050006,0.0,11.485451,-6.159874,39.067234,-13.187553,42.932385,-20.327053,33.733669,-27.155148,15.523075,0.0,-7.121724,6.648296,25.987192,26.658974,47.340583,44.667259,57.890962,60.339674,63.347982,0.0,70.319275,26.536491,91.491989,17.879104,89.378929,9.822521,74.966903,3.107986,58.814758,0.0,6.010403,31.138967,52.478613,49.038781,62.800169,60.862244,72.879973,67.691111,80.198434,-9.58457,283.584315,-54.761232,277.399344
114,-3.197021,3.543177,-0.238942,-0.102864,0.0,15.76807,-4.874978,41.844257,-11.778832,47.057567,-17.948903,37.629673,-23.463524,19.438098,0.0,-8.277581,5.101164,22.901956,24.82327,44.241836,42.53109,54.549264,57.786937,60.178234,0.0,70.094296,26.781224,91.763272,18.122612,89.569828,10.043713,75.034001,3.315434,58.943287,0.0,6.133002,31.20856,52.690059,49.133013,62.893894,60.946447,72.963163,67.747057,80.254911,-12.537706,287.107482,-54.756289,277.27647
115,-0.17569,0.294969,-0.264587,-0.06832,0.0,15.518406,-5.214157,42.16206,-12.164269,47.10783,-18.34647,37.362179,-23.874561,19.224735,0.0,-8.054835,4.604173,22.380153,24.274408,43.857329,42.034901,54.273882,57.444013,59.985351,0.0,69.888531,27.078461,91.818935,18.467663,89.539684,10.387894,75.003147,3.627216,59.047405,0.0,6.122244,31.176363,52.978494,49.15003,62.837553,61.003059,72.953616,67.824256,80.188825,-12.508678,287.379671,-54.816158,277.18537
116,-5.480118,1.268255,-0.274418,-0.007929,0.0,22.70882,-2.195206,47.825008,-9.116386,53.627644,-14.525505,43.789249,-18.881069,25.709965,0.0,-6.840859,4.631009,21.941774,24.220994,43.025847,41.858813,52.987028,56.897385,58.628398,0.0,69.964737,27.142399,91.793862,18.624859,89.77755,10.614899,75.14621,3.910675,59.260689,0.0,6.030891,31.134792,52.93065,49.159083,62.781187,61.042715,72.800574,67.851069,79.962054,-17.807922,288.619496,-54.909702,277.149011
117,1.350494,-4.269226,-0.436752,-0.031789,0.0,19.449006,-1.921623,46.560048,-8.846546,51.251347,-15.183322,41.996716,-20.965038,24.580273,0.0,-6.273311,6.846799,26.040717,26.85623,46.616078,44.751055,56.841736,60.032429,62.666331,0.0,69.91848,27.349388,91.972618,18.902664,89.983887,10.927402,75.328743,4.198562,59.457321,0.0,5.823496,31.074116,52.959969,49.095468,62.812778,60.983052,72.852864,67.811116,79.956446,-16.298951,284.320633,-55.187977,277.087585
118,-0.548091,0.489705,-0.236916,0.086364,0.0,22.595718,-2.669186,46.682693,-9.906533,52.188011,-15.39449,41.89421,-19.89544,23.687839,0.0,-3.069995,7.760286,26.616318,27.875631,46.502062,45.704864,56.24419,60.564397,62.079172,0.0,70.010971,27.112633,91.948242,18.719994,89.96283,10.825688,75.37143,4.195725,59.575905,0.0,5.510632,30.907008,52.847497,48.977401,62.704901,60.896095,72.736169,67.714761,79.694674,-16.733127,284.779342,-55.310978,277.142953
119,1.871498,0.130084,-0.302398,-0.004606,0.0,21.411049,-4.434323,44.879585,-11.669953,50.03508,-16.888939,39.22744,-21.004773,20.869915,0.0,-2.235007,8.039768,26.777535,28.354171,46.872576,46.221394,56.274534,61.106936,61.583291,0.0,70.090736,27.198097,91.988342,18.762256,89.856697,10.819736,75.35218,4.090736,59.489913,0.0,5.185577,30.911737,52.840062,48.905474,62.816409,60.786092,72.904685,67.628816,79.793301,-14.797668,284.879289,-55.549415,277.10821
120,-1.730645,3.449538,-0.22213,0.153042,0.0,23.389847,-4.775539,47.030594,-11.652648,52.589631,-15.499523,42.39441,-17.747119,24.011914,0.0,-4.044701,8.492584,26.323608,28.082631,45.253296,44.880645,53.749436,58.516296,59.243901,0.0,70.307121,26.887596,92.08065,18.446583,90.135452,10.544815,75.71727,3.876583,59.655052,0.0,4.900154,30.792411,52.495754,48.754914,62.846741,60.62627,72.873106,67.44685,79.635887,-16.481999,288.291783,-55.725231,277.224208
