takenoko1/special-research/HandMotion_SimilarSearch_自分用/NewProject/handData/test_key/d4_feature_d3/24.csv
frame,vel_0x_L,vel_0y_L,vel_0x_R,vel_0y_R,posFromWrist_0x_L,posFromWrist_1x_L,posFromWrist_2x_L,posFromWrist_3x_L,posFromWrist_4x_L,posFromWrist_5x_L,posFromWrist_6x_L,posFromWrist_7x_L,posFromWrist_8x_L,posFromWrist_9x_L,posFromWrist_0y_L,posFromWrist_1y_L,posFromWrist_2y_L,posFromWrist_3y_L,posFromWrist_4y_L,posFromWrist_5y_L,posFromWrist_6y_L,posFromWrist_7y_L,posFromWrist_8y_L,posFromWrist_9y_L,posFromWrist_0x_R,posFromWrist_1x_R,posFromWrist_2x_R,posFromWrist_3x_R,posFromWrist_4x_R,posFromWrist_5x_R,posFromWrist_6x_R,posFromWrist_7x_R,posFromWrist_8x_R,posFromWrist_9x_R,posFromWrist_0y_R,posFromWrist_1y_R,posFromWrist_2y_R,posFromWrist_3y_R,posFromWrist_4y_R,posFromWrist_5y_R,posFromWrist_6y_R,posFromWrist_7y_R,posFromWrist_8y_R,posFromWrist_9y_R,posFromBody_0x_L,posFromBody_0y_L,posFromBody_0x_R,posFromBody_0y_R
6,-3.749428,-3.069329,0.592976,0.029257,0.0,11.614849,-5.174228,46.150692,-12.743568,44.916493,-18.423031,35.596997,-22.557815,1.485466,0.0,-16.503452,9.582577,27.608325,27.240453,43.794874,40.831423,51.838841,51.088277,56.7984,0.0,71.114651,26.884895,92.837666,18.93623,92.820683,10.952763,79.414295,3.841862,60.142353,0.0,6.294442,28.025165,50.565338,46.398729,65.407395,59.372861,74.462858,67.571303,79.054878,-6.014649,283.277218,-50.847977,266.952249
7,-1.27811,-3.075751,0.228527,-0.037495,0.0,12.090328,-1.642834,47.964157,-9.197674,45.278297,-15.905525,35.488769,-21.587448,1.842258,0.0,-15.32581,11.527184,28.726107,30.016085,45.429074,44.113334,53.772111,54.596207,59.065492,0.0,70.937782,26.727242,92.732071,18.750103,92.628914,10.741676,79.165375,3.592758,59.829895,0.0,6.392317,27.996365,50.721245,46.320849,65.281375,59.264847,74.441172,67.479603,79.192014,-6.817652,280.141961,-50.144343,266.855248
8,-1.79369,-4.92499,0.16309,0.14667,0.0,13.541679,2.064777,49.833447,-5.293613,46.291592,-13.048634,36.255444,-20.389778,6.211006,0.0,-11.822994,14.26064,30.709381,33.642649,48.308816,48.341544,57.302208,59.245704,62.837182,0.0,70.643383,26.63689,92.67889,18.683029,92.51849,10.700008,79.062824,3.536899,59.671474,0.0,6.302049,27.644276,50.430993,45.960646,64.880034,58.984907,74.138928,67.329414,79.117888,-8.243317,275.181183,-49.613228,266.96613
9,-0.141838,-2.270822,0.196255,0.10442,0.0,11.912842,4.276932,49.131054,-3.232876,44.767101,-11.928818,33.951015,-20.975155,13.200771,0.0,-11.673558,15.238445,30.652361,35.298091,48.480162,50.609328,58.335132,61.890116,63.915282,0.0,70.533096,26.157463,92.469291,18.180198,92.340408,10.252842,78.986091,3.164989,59.528938,0.0,6.258034,27.434547,50.463869,45.723414,64.595031,58.804312,74.040448,67.213249,78.947951,-8.098154,272.885374,-49.129972,267.045563
10,-1.605469,-0.062813,0.192466,0.218955,0.0,14.591538,5.552307,50.946041,-1.622234,46.659954,-10.083126,36.146107,-19.105785,15.844631,0.0,-12.362136,15.293107,30.372558,35.428348,48.595203,50.84298,58.670623,62.110318,64.208165,0.0,70.468918,25.957032,92.272362,17.986279,92.086098,10.106369,78.859154,3.047493,59.531113,0.0,6.016071,27.092277,50.142816,45.41802,64.194122,58.622963,73.784628,67.161316,78.766442,-9.473276,272.813067,-48.707159,267.255024
11,-1.730415,0.135048,0.173882,0.1349,0.0,17.472015,6.449764,52.937244,-0.752358,48.78059,-9.282143,38.184231,-18.348633,18.083095,0.0,-12.979714,14.946761,29.741592,34.995194,48.404036,50.585295,58.933902,62.185629,64.758065,0.0,70.428039,25.943104,92.061653,17.973827,91.948562,10.034294,78.755859,2.881679,59.391266,0.0,5.96026,26.946076,50.227698,45.229336,64.015392,58.471218,73.749702,67.086055,78.627046,-10.998562,272.945636,-48.328148,267.387445
12,-0.792778,0.1164,0.16135,0.168825,0.0,18.874386,6.63525,53.864994,-0.621472,50.001812,-9.136597,39.367046,-18.216122,20.0564,0.0,-12.97002,14.545,29.570716,34.500856,48.35403,50.213533,59.027515,62.067722,65.166543,0.0,70.490238,26.013119,91.976589,18.018368,91.830448,9.996964,78.612408,2.742531,59.193958,0.0,5.79703,26.730531,50.254869,45.00559,63.877417,58.296526,73.644702,66.974398,78.457171,-11.636095,273.076754,-48.011553,267.570988
13,0.754177,0.600066,0.120632,-0.08319,0.0,16.598213,6.166603,52.949638,-1.067024,49.382538,-9.427036,38.888992,-18.359917,20.148537,0.0,-13.03634,14.173522,29.088939,34.050795,47.889334,49.778563,58.44874,61.689032,64.769476,0.0,70.695145,26.208813,92.083626,18.174752,91.917618,10.00684,78.728829,2.576054,59.194016,0.0,5.881789,26.900801,50.60508,45.129609,64.109858,58.407763,73.940956,67.065319,78.589848,-10.777914,273.690081,-47.786917,267.501059
14,0.6973,0.568461,0.108513,-0.064813,0.0,15.17466,5.96751,52.352886,-1.44944,49.173237,-9.897537,38.489124,-18.884731,19.395733,0.0,-13.629625,13.624908,28.529975,33.477369,47.483177,49.24651,57.972139,61.231289,64.258764,0.0,70.714028,26.559849,92.237343,18.482918,91.938996,10.143242,78.59919,2.484741,58.972366,0.0,5.934041,27.178332,50.683478,45.307821,64.320365,58.485495,74.150747,67.080621,78.707421,-10.019875,274.27385,-47.617665,267.451554
15,1.779705,0.663817,0.05452,-0.166578,0.0,12.485859,4.778275,50.475494,-3.014488,47.300102,-11.492672,36.466804,-20.432819,17.420929,0.0,-13.808293,12.971465,27.980557,32.823086,46.671925,48.64858,57.03935,60.70909,63.293036,0.0,70.891136,26.676292,92.417679,18.580078,92.096489,10.168705,78.723884,2.439194,58.955383,0.0,6.096136,27.543956,50.933469,45.599419,64.592104,58.680058,74.421448,67.165305,78.876938,-8.218397,274.954867,-47.541372,267.302176
16,1.617416,0.589334,-0.036793,-0.087266,0.0,9.782021,3.521187,49.093438,-4.656658,46.180756,-13.142189,35.219811,-21.991253,16.026307,0.0,-14.017665,12.591317,27.9914,32.390351,46.457268,48.178042,56.538974,60.292546,62.641409,0.0,71.080822,26.703678,92.711826,18.540608,92.162716,10.098015,78.764706,2.376595,59.037312,0.0,6.143932,27.826465,51.055932,45.844877,64.882961,58.854651,74.618531,67.235047,78.930402,-6.6041,275.557283,-47.581284,267.227992
17,1.680016,0.621678,0.1325,-0.036284,0.0,7.058144,1.922596,47.732506,-6.68256,45.244926,-15.207527,34.150017,-23.905518,14.412254,0.0,-14.373631,12.149666,27.779918,31.789928,46.145676,47.532158,56.121195,59.760728,62.092732,0.0,71.006275,26.497959,92.598026,18.355327,92.107853,9.997822,78.758182,2.390613,59.137951,0.0,6.121676,28.036687,50.921785,45.999401,64.960396,58.955736,74.669265,67.285459,78.93192,-4.952293,276.180388,-47.476993,267.193135
18,-0.33276,0.465549,0.002598,0.027713,0.0,7.777691,2.057957,48.84985,-6.941906,46.337048,-15.681564,35.116848,-24.534416,15.303211,0.0,-15.227614,11.357988,27.221187,30.88069,45.800342,46.812432,56.036572,59.446294,62.072317,0.0,70.891067,26.357242,92.525138,18.22039,92.03263,9.93441,78.580604,2.444915,59.094818,0.0,5.979206,28.125621,50.854194,46.026485,65.006437,58.924726,74.662806,67.238208,78.839061,-5.321394,276.65017,-47.510736,267.225081
19,0.025635,0.060133,-0.005745,-0.045139,0.0,8.546951,1.285961,49.917538,-8.014755,47.351909,-16.740086,36.163044,-25.47274,16.446911,0.0,-15.26301,10.748165,26.92397,30.189023,45.639902,46.303299,56.230382,59.316729,62.325049,0.0,70.88063,26.479236,92.665947,18.301483,92.068222,9.962562,78.560051,2.429935,59.095756,0.0,5.975328,28.236648,51.033418,46.0509,65.232851,58.855602,74.795458,67.109112,78.892758,-5.340889,276.717305,-47.561611,267.186944
20,0.21286,-0.08697,0.12173,-0.056897,0.0,8.479912,0.342281,50.413433,-9.127464,48.065815,-17.874252,36.921558,-26.539455,17.463146,0.0,-14.905573,10.561569,27.22183,29.868922,45.838998,46.029634,56.521894,59.2656,62.708347,0.0,70.678746,26.407677,92.544445,18.179707,91.922253,9.800206,78.37856,2.223599,58.896824,0.0,5.994125,28.195337,51.17679,45.995066,65.54038,58.775882,74.985538,67.025737,78.965081,-5.192825,276.633568,-47.504677,267.13328
21,0.939354,-0.01109,0.080155,-0.214101,0.0,8.278873,-0.783451,49.539356,-10.421002,47.269054,-19.192314,36.178402,-27.814247,16.778103,0.0,-15.229269,10.19671,26.835667,29.495479,45.456936,45.807728,56.388253,59.234305,62.717782,0.0,70.514568,26.578503,92.449871,18.374245,91.950153,9.94503,78.348553,2.263092,58.835804,0.0,6.131729,28.328285,51.240899,46.12179,65.73051,58.851045,75.151042,67.063121,79.153111,-4.32756,276.628446,-47.498611,266.925147
22,0.942192,-0.138963,-0.095158,-0.243457,0.0,7.635189,-1.432812,48.282841,-11.062283,46.051952,-19.853897,34.876774,-28.42218,14.673008,0.0,-15.276632,10.282209,26.819661,29.70138,45.4465,46.00975,56.305866,59.31952,62.712422,0.0,70.504349,26.61414,92.48449,18.42191,92.114479,9.992764,78.515511,2.289047,58.952751,0.0,6.304951,28.491541,51.429275,46.30015,65.984884,58.997146,75.401032,67.170925,79.335336,-3.455063,276.490934,-47.663464,266.683141
23,0.805069,-0.652331,0.094483,-0.168826,0.0,7.136936,-2.21402,47.015888,-11.804272,45.044323,-20.574543,34.131512,-29.070911,13.320797,0.0,-14.719718,10.829639,27.545747,30.406495,46.032597,46.651682,56.662178,59.74135,63.076971,0.0,70.349945,26.678695,92.256706,18.521255,92.039474,10.086559,78.411117,2.349552,58.857765,0.0,6.406716,28.735604,51.609278,46.511003,66.07819,59.12329,75.495881,67.186684,79.467284,-2.724798,275.83827,-47.643785,266.513982
24,-0.087135,-0.44842,-0.048993,-0.248632,0.0,7.701496,-1.85027,46.725414,-11.533757,44.790836,-20.553509,33.837329,-29.276917,12.678279,0.0,-14.306397,11.08741,28.115247,30.659895,46.455416,46.829685,56.894817,59.756998,63.2981,0.0,70.214093,26.623616,92.267224,18.476384,92.086888,10.080586,78.49149,2.419465,58.955304,0.0,6.523808,28.972256,51.851204,46.790621,66.233492,59.371527,75.720974,67.303244,79.605025,-2.892877,275.385651,-47.773722,266.261151
25,-0.349102,-0.074298,-0.134536,-0.143644,0.0,8.533722,-1.38715,47.089096,-10.9502,45.145248,-20.010235,34.112022,-28.809586,12.699005,0.0,-14.382597,10.943198,28.100649,30.452055,46.482166,46.621178,57.00866,59.593829,63.406954,0.0,70.174724,26.863872,92.44051,18.776378,92.201832,10.412155,78.595836,2.780159,59.245182,0.0,6.687446,29.265509,52.081743,47.033103,66.285758,59.54654,75.752392,67.401971,79.601011,-3.328062,275.299663,-47.994341,266.105817
26,0.046749,-0.262748,-0.096989,-0.054908,0.0,8.5387,-1.077404,46.795292,-10.572041,44.803631,-19.872059,33.479656,-28.953369,11.291027,0.0,-13.70643,11.009679,28.790228,30.400259,47.00576,46.438385,57.306075,59.323843,63.700144,0.0,70.120102,26.933796,92.613304,18.845512,92.250458,10.509842,78.654945,2.966927,59.38195,0.0,6.795534,29.549079,52.348504,47.248908,66.28062,59.683514,75.779858,67.421422,79.526194,-3.38606,275.017881,-48.196077,266.031875
27,-0.676449,-0.100307,-0.038555,-0.035976,0.0,9.249378,0.007862,47.662605,-9.407673,45.561767,-18.903511,33.650162,-28.230114,10.854584,0.0,-13.697267,11.237933,28.86423,30.472383,47.072154,46.419069,57.525375,59.364845,63.846122,0.0,70.131077,27.332256,92.888683,19.241913,92.366558,10.83815,78.689014,3.203007,59.479511,0.0,6.788853,29.715323,52.44013,47.364629,66.411728,59.759801,75.855416,67.466425,79.524527,-4.185488,274.902284,-48.357611,265.980609
28,-0.057598,0.036729,-0.134674,-0.040014,0.0,9.702667,0.461265,48.064556,-8.924332,46.033985,-18.568932,33.136791,-27.967942,8.842483,0.0,-13.833722,11.223743,28.701135,30.293665,46.990977,46.128855,57.717913,59.067653,64.066225,0.0,70.296947,27.345028,93.288608,19.255417,92.707661,10.897442,79.065204,3.347946,59.81448,0.0,6.879514,29.713928,52.171367,47.424217,66.511887,59.829529,75.879894,67.475231,79.432988,-4.384208,274.927805,-48.633407,265.929387
29,0.152492,0.098578,0.075039,0.138407,0.0,9.582196,0.922715,48.145294,-8.318321,46.252533,-18.049038,32.811447,-27.462215,7.240277,0.0,-14.126407,11.31212,28.315479,30.302595,46.720819,46.101956,57.827816,59.062034,64.332864,0.0,70.353744,27.271133,93.287109,19.281727,92.855575,11.083523,79.286934,3.693821,60.119591,0.0,6.757743,29.550116,51.494225,47.340583,66.288475,59.835124,75.581282,67.570389,79.198275,-4.411938,275.036122,-48.73859,266.077533
30,0.352833,-0.1905,0.124397,0.00557,0.0,10.269219,1.303871,47.323505,-7.86573,45.487827,-17.601986,31.790417,-26.904648,4.656853,0.0,-14.527846,11.50614,27.727516,30.732933,46.356529,46.594218,57.647345,59.320608,64.203052,0.0,70.360497,27.059258,93.392098,19.070103,92.952667,10.953426,79.553421,3.689953,60.28141,0.0,6.520868,29.489539,50.678847,47.37315,66.135074,59.905804,75.50171,67.607093,79.12163,-4.26075,274.866873,-48.815838,266.104354
31,-0.697506,-0.341665,0.32365,-0.031727,0.0,12.231365,2.531765,47.99453,-6.300236,45.889092,-15.823471,32.111618,-24.872452,3.702976,0.0,-14.963174,11.981383,26.978385,31.480262,45.859512,47.380301,57.478025,59.82706,64.249217,0.0,70.276303,27.010426,93.405362,19.028847,92.98946,10.930184,79.759449,3.670578,60.538136,0.0,6.263962,29.216911,49.759359,47.233927,65.895013,59.913065,75.284472,67.736707,79.115924,-5.156897,274.560943,-48.690829,266.108362
32,0.349205,-0.255869,-0.027248,-0.268763,0.0,13.366356,2.023132,47.806595,-6.498607,45.518967,-15.606399,32.512528,-24.270183,4.828686,0.0,-15.011945,11.974653,26.211469,31.646963,45.362915,47.616447,57.07992,59.938223,63.838515,0.0,70.288101,27.23275,93.884949,19.350346,93.43531,11.26046,80.202187,3.946255,60.869614,0.0,6.10782,29.036081,48.994691,47.084492,65.741218,59.797592,75.194292,67.673845,79.351811,-5.004049,274.348392,-48.914434,265.882917
33,-1.608181,-1.16912,0.344421,-0.860109,0.0,15.726689,2.060166,49.965855,-6.466083,47.342343,-15.519081,33.942867,-23.893078,3.392544,0.0,-14.234359,12.706555,27.822574,32.394686,46.535827,48.01239,58.265453,60.048509,65.534329,0.0,69.599236,27.49981,93.910309,19.666077,93.426751,11.476799,79.997704,3.915608,60.344674,0.0,5.908662,28.318554,48.561957,46.522563,65.792755,59.471451,75.174631,67.661705,79.476263,-6.790741,273.227869,-48.748524,265.071405
34,7.769566,-0.206876,-0.243187,-2.52369,0.0,3.351299,-8.493656,39.827362,-15.802609,39.204139,-22.578083,27.466758,-28.297268,-9.866066,0.0,-8.069149,13.401333,30.469295,31.596623,47.302174,45.547227,57.193935,56.334147,66.048376,0.0,68.978325,28.54683,94.376107,20.815178,94.147866,12.314324,80.56041,4.135758,60.463143,0.0,5.762092,27.377058,49.206718,45.612078,66.742056,58.733188,75.850785,67.343073,80.313784,0.848265,273.104733,-49.122271,262.631455
35,5.539638,6.440839,-0.383113,-5.245759,0.0,-10.747925,-18.267254,18.611298,-23.682312,31.950588,-27.199917,24.586384,-29.202083,-9.777614,0.0,1.26581,11.758242,30.335001,22.742603,41.483198,30.121827,46.234263,35.417925,48.500429,0.0,68.088855,29.670513,94.298664,22.114986,94.376529,13.318679,80.695919,4.332,59.809948,0.0,4.938909,26.710894,50.433476,44.773532,68.114928,58.100617,77.448688,67.236047,81.870437,6.286165,279.680929,-49.607122,257.521053
36,6.124604,5.301014,-1.272503,-8.476059,0.0,-23.490338,-27.692849,-2.691102,-31.611477,22.44231,-32.088765,19.262271,-30.580971,-10.249867,0.0,8.57565,8.828098,27.484985,12.763044,32.970039,13.966263,32.562733,14.308126,29.470149,0.0,66.434326,31.335319,93.849334,24.232315,94.170364,15.45401,79.964882,5.973507,57.794643,0.0,2.521183,25.586431,51.355878,43.547292,69.167513,57.204692,79.283638,67.073779,84.028083,12.278653,285.141769,-51.011741,249.20482
37,11.164901,-9.214298,-0.831986,-9.671572,0.0,-39.482677,-38.894794,-23.138099,-40.529251,4.989247,-37.982242,4.718457,-32.606403,-21.846164,0.0,21.344141,7.848181,28.461778,9.643167,31.166236,9.791886,29.437101,9.788799,27.765418,0.0,63.342499,31.445034,91.500618,25.018627,90.724022,16.696347,75.826447,7.271633,53.289379,0.0,1.896849,22.193938,49.401318,39.875464,68.31227,53.758748,79.531986,64.698451,82.700425,23.327596,276.13753,-51.959685,239.743307
38,18.005802,-15.739099,-5.301372,-17.801804,0.0,-57.053901,-49.98199,-49.899971,-48.957201,-19.357166,-42.997226,-15.31034,-33.808879,-32.886715,0.0,29.264656,7.871065,29.113121,8.455113,31.072393,8.275685,28.568723,8.046023,27.240583,0.0,61.431953,38.32362,90.195614,33.271362,87.764156,25.224792,74.64917,15.130851,54.850502,0.0,-3.682029,21.891682,52.829762,39.393564,72.513916,53.592293,84.182447,65.397614,86.720945,40.987867,260.860182,-57.606588,222.403254
39,13.826569,-24.089392,-6.643193,-20.767392,0.0,-60.753948,-50.243397,-68.923187,-47.605551,-38.723064,-40.256012,-32.26078,-29.571888,-35.254223,0.0,27.558295,9.714946,30.653004,11.46163,34.804811,12.581196,33.750188,12.927529,31.261548,0.0,57.590321,45.910538,94.906037,41.532738,92.225213,33.191082,79.539242,21.760735,60.32127,0.0,-9.892342,22.107722,55.264321,39.043945,73.983687,52.901294,84.908051,64.764832,86.673619,54.222176,237.647964,-64.842041,202.513036
40,17.001869,-34.496559,-7.441429,-21.50962,0.0,-60.801098,-51.076893,-75.495334,-47.7703,-57.39767,-40.127243,-50.648254,-29.176014,-47.916263,0.0,20.453836,13.730316,34.370761,21.669875,43.408471,28.446458,46.882414,33.524651,51.425466,0.0,53.030228,52.56205,99.30455,48.783291,97.319458,40.038952,83.730801,27.386296,63.254196,0.0,-15.846613,18.437426,52.971455,35.248914,70.698059,49.294625,80.071463,61.967378,81.126901,70.410827,204.535124,-73.096688,182.387135
41,17.02755,-35.303822,-8.319866,-23.119404,0.0,-60.764465,-51.389145,-80.173611,-47.557314,-71.463764,-39.771149,-63.865196,-28.874691,-57.200649,0.0,17.695421,15.380571,36.537361,28.668765,49.667468,40.624145,56.948953,50.177403,66.241489,0.0,50.14262,57.59079,99.130291,54.836163,95.44479,46.210648,82.112709,33.135338,64.575462,0.0,-20.660119,14.204102,46.113528,31.386092,61.581747,46.071513,70.65334,59.815611,72.564922,86.498211,171.260574,-82.35672,161.297003
42,18.459526,-31.979569,-10.708248,-25.323658,0.0,-59.948113,-49.916519,-92.057476,-46.389616,-85.454075,-38.823853,-76.677475,-28.541645,-64.111645,0.0,2.539208,15.073301,35.616119,30.043354,50.122859,43.232816,58.858171,53.722007,68.634768,0.0,50.460354,61.169586,102.34053,59.517414,98.435955,51.617546,86.507526,38.989826,71.194828,0.0,-27.052195,10.836703,39.67207,28.458196,51.718094,43.888401,60.139553,58.570858,65.308989,103.830231,141.685378,-94.192474,138.377718
43,15.488503,-27.137527,-8.987274,-19.079958,0.0,-58.516869,-48.721184,-99.522744,-46.296845,-96.176835,-39.723221,-86.181588,-30.476166,-69.733819,0.0,-9.810165,12.656617,27.923252,27.978963,42.506705,41.619882,52.754581,53.052533,64.282339,0.0,48.748855,57.265663,106.947017,56.177936,105.192615,49.468597,93.153934,38.31998,75.538158,0.0,-31.246918,4.394425,24.256235,21.555414,34.011609,37.019107,43.04034,52.324403,51.79729,118.413489,117.355893,-104.084993,122.105802
44,11.023658,-23.163518,-9.060173,-18.826885,0.0,-56.036659,-47.889152,-102.627662,-46.673401,-102.044883,-41.304588,-91.428955,-33.082718,-73.146858,0.0,-18.570609,8.110151,17.518659,22.955271,30.724757,36.7102,41.858591,49.406967,55.75557,0.0,48.737789,52.624603,105.018196,52.856678,105.458702,48.164028,94.353115,39.519447,76.930275,0.0,-35.771934,-1.71518,8.988396,15.654785,18.816709,32.000619,30.150676,48.65415,42.208623,128.85189,97.321175,-113.730423,106.407717
45,9.358223,-21.973119,-8.64925,-17.406027,0.0,-55.879349,-47.250824,-105.938049,-47.018715,-108.46907,-42.762359,-98.442375,-35.313904,-79.333488,0.0,-25.047338,3.98234,8.253153,18.952393,20.949636,33.288449,33.009442,47.253132,49.623113,0.0,48.778244,48.401401,104.131153,50.02399,106.221714,47.367405,97.30513,41.257747,82.274128,0.0,-41.301096,-4.020674,-1.284841,13.474347,8.342795,30.259153,22.248858,47.397442,37.524953,137.931564,78.434215,-122.658222,92.087849
46,8.598816,-19.961543,-6.70047,-12.737338,0.0,-57.016685,-47.457939,-111.966339,-47.866745,-117.785591,-44.33242,-108.449295,-37.20861,-87.851761,0.0,-34.472729,2.896045,3.334701,18.51115,15.898959,33.631059,29.893115,48.712572,49.631461,0.0,47.803264,45.155182,108.13385,47.348602,114.134273,45.893909,106.93182,41.22203,90.471313,0.0,-46.133047,-5.048572,-6.712356,12.016538,4.021329,28.615357,18.791768,45.703456,35.532305,146.447754,61.022356,-129.441318,81.900195
47,0.910698,-8.202202,-4.106106,-8.348711,0.0,-54.791611,-46.830414,-110.983017,-48.016685,-118.933617,-45.173996,-110.056961,-38.415207,-89.420792,0.0,-36.810582,2.078006,-1.382573,17.206314,10.871944,31.978636,25.458071,46.922872,45.600623,0.0,44.712341,44.855976,109.942005,47.27988,119.862534,45.993004,113.313915,41.359371,95.385349,0.0,-51.328029,-4.449315,-8.465784,12.400137,3.206013,28.850194,18.50138,45.568278,36.14858,147.447023,54.906824,-133.458853,75.638154
48,-1.582397,-4.315983,-1.493362,-4.322511,0.0,-53.301064,-46.495034,-110.444001,-47.456452,-118.528519,-44.343155,-110.172089,-37.125092,-89.422783,0.0,-37.378254,2.307791,-0.558687,17.338756,11.37926,32.105348,25.971192,46.936457,45.815162,0.0,43.366081,45.514881,109.831489,47.886291,121.462715,46.309535,115.057193,41.26934,97.037475,0.0,-53.351627,-2.774094,-6.64816,14.300605,5.460663,30.845233,21.1112,47.35415,38.38862,145.94878,51.987987,-134.868061,72.712789
49,-2.250344,1.304545,0.958854,2.109154,0.0,-53.356224,-47.622436,-110.538025,-48.413589,-118.646278,-44.833694,-110.367805,-37.012458,-89.562515,0.0,-37.15668,3.848693,2.508746,18.889846,14.359719,33.544065,28.778008,47.802383,47.920518,0.0,41.855793,45.681748,109.559956,47.406979,120.777592,45.1092,114.704647,39.395863,96.224751,0.0,-54.028042,-0.654054,-3.23918,16.124564,8.90118,32.283418,24.381007,48.170984,41.526522,143.748315,53.90266,-133.859328,75.432071
50,-3.085327,7.263701,2.053208,7.434261,0.0,-52.843735,-47.452034,-110.714401,-47.703209,-117.810837,-43.571709,-109.098953,-35.25769,-87.843132,0.0,-36.962593,5.190542,6.591146,19.939622,18.919956,34.34624,33.302324,47.95377,50.873176,0.0,41.416111,45.844459,108.211887,46.692878,118.946468,43.713272,112.626972,37.501991,94.074646,0.0,-53.293915,1.703237,0.760463,17.910905,13.395876,33.241865,28.551409,48.08872,45.492332,140.666988,61.194254,-131.80212,82.894225
51,-3.393997,11.705074,2.601986,11.193343,0.0,-53.186852,-46.700317,-110.371262,-45.85318,-114.885384,-40.64502,-105.10817,-31.44857,-82.647995,0.0,-35.166927,6.643042,12.187253,20.983142,25.628132,34.305139,39.501239,45.929,54.092886,0.0,41.169971,45.503082,107.222282,44.919685,116.702144,40.799388,108.842067,33.889011,88.673057,0.0,-51.139795,4.103766,6.803778,19.212449,20.438238,33.224501,34.015499,46.216806,47.995187,137.268974,72.171309,-129.204151,93.359549
52,-2.996567,18.719576,1.578306,17.394937,0.0,-53.968666,-48.466209,-108.611183,-46.464134,-110.814285,-40.303322,-99.716217,-30.464836,-78.931503,0.0,-33.768503,9.720577,18.249661,24.961277,31.9106,38.639888,44.652384,50.064752,58.391011,0.0,42.112901,46.380386,106.049429,44.44079,112.546926,39.023987,103.064998,31.155842,82.724613,0.0,-48.574758,6.240679,13.309628,21.076755,27.938109,34.700243,40.163802,46.895146,51.215199,134.400707,89.474612,-127.497545,109.338213
53,-1.969093,21.684602,0.733566,22.85258,0.0,-55.330719,-49.4832,-107.753861,-46.344864,-107.53624,-38.95031,-95.649193,-28.020813,-75.46312,0.0,-31.802438,12.930407,26.739417,28.303913,40.803623,41.685511,52.990171,52.475827,65.19887,0.0,43.729631,48.645378,104.347727,45.642843,106.578821,39.000755,94.878078,30.069889,76.155682,0.0,-46.182639,7.752033,21.36626,23.378477,36.3977,37.721468,46.822108,50.260426,55.284317,132.913147,108.640109,-126.282446,129.671688
54,-1.412087,23.888968,-0.501057,24.66338,0.0,-57.072784,-48.118286,-105.811798,-43.754562,-103.802787,-35.392204,-91.023285,-23.774803,-71.025261,0.0,-29.28349,15.399312,34.399012,30.868883,48.483614,43.982182,60.318914,53.964624,71.139532,0.0,47.263006,50.010521,105.541392,46.121172,106.231436,38.659745,92.827446,29.251957,73.762654,0.0,-44.204137,9.485262,28.256075,25.922613,43.201823,40.505337,52.386135,52.755483,58.851965,132.304046,129.30259,-125.980517,151.108581
55,-0.14138,23.462958,-1.401603,23.733672,0.0,-58.107742,-47.639511,-103.667496,-42.786735,-101.319511,-33.998932,-88.027634,-22.139442,-68.130134,0.0,-26.091136,18.355804,40.78955,34.136987,54.809623,47.149348,66.249825,56.690578,76.054333,0.0,50.057481,50.496677,106.328573,46.195684,105.868246,38.451988,91.657928,28.857902,72.089412,0.0,-42.012708,11.532214,33.055749,28.602896,48.340693,43.514707,56.909612,55.591469,62.044103,133.176916,149.063537,-126.36787,171.140242
56,0.311462,21.099394,-2.388966,20.230596,0.0,-58.957763,-48.150558,-101.682861,-43.348571,-101.123817,-34.634193,-87.90731,-22.685119,-68.74237,0.0,-24.584494,20.92982,43.827392,37.341622,57.476431,51.130761,69.006592,61.85808,79.971032,0.0,52.434397,50.796123,106.607603,46.798914,106.435633,39.330689,92.59021,29.836853,74.091271,0.0,-40.589447,13.385523,36.049891,31.697271,51.13459,47.458643,60.454296,60.295986,67.078948,134.656654,166.822752,-127.58856,188.030659
57,0.10833,13.512311,-1.760427,13.180119,0.0,-59.688675,-46.105797,-101.842346,-41.205253,-102.088669,-32.30191,-89.141578,-19.921875,-67.780449,0.0,-22.978588,21.782656,45.819757,37.365965,59.561471,50.374196,71.661699,60.58202,82.394168,0.0,54.327655,48.941883,107.513225,45.15588,109.127838,38.178806,95.98455,29.250114,76.965557,0.0,-40.199123,14.702279,37.044776,33.458127,52.322594,49.160676,61.977999,61.868516,69.68408,135.891597,177.566758,-128.222374,198.442473
58,-0.318763,9.178458,-0.720818,5.281254,0.0,-59.838707,-44.881966,-101.391381,-40.304261,-103.236031,-31.903359,-90.249344,-20.060349,-68.026108,0.0,-22.969782,21.537815,43.855624,37.364285,57.632536,50.5231,69.721662,60.83616,80.96015,0.0,54.792732,45.672615,108.849243,41.817821,113.859924,35.356567,101.543793,27.243748,80.320381,0.0,-39.712259,16.38478,36.536829,34.855958,52.360261,49.616913,62.706962,61.166388,71.126384,136.410136,185.062159,-128.10589,202.04067
59,-0.710427,4.665898,-0.071777,1.165242,0.0,-59.224594,-45.332451,-102.298096,-41.021782,-104.906776,-32.786911,-91.872574,-20.990295,-69.23838,0.0,-23.515557,21.370793,41.624236,37.281824,55.408349,50.520248,67.649269,61.233808,79.30871,0.0,53.860405,42.972198,107.605877,39.356666,113.633194,33.311725,101.882789,25.538555,80.432819,0.0,-39.170904,16.77424,35.467486,35.150348,52.019893,49.706884,62.742976,61.117063,71.716138,136.228781,188.732165,-127.648595,202.21002
60,-1.116211,1.608401,0.1833,-1.423137,0.0,-59.358375,-45.694404,-103.547035,-41.430038,-106.407737,-33.112129,-92.977386,-21.068001,-70.032829,0.0,-24.454089,20.766058,39.589189,36.70894,53.158756,49.976547,65.852479,61.016669,77.965786,0.0,53.445774,41.669883,107.501083,37.96035,113.697784,31.83744,102.185016,23.979526,80.492935,0.0,-38.547485,16.652765,35.601286,35.283778,52.227128,49.92012,62.946011,61.505695,72.157209,135.437719,189.887667,-127.140146,200.333984
61,-0.917038,-0.192735,0.266681,-1.282235,0.0,-59.481605,-45.593467,-104.526489,-41.487419,-107.426124,-33.350532,-94.193321,-21.486465,-71.335602,0.0,-24.999099,20.494825,38.933091,36.527505,52.274304,49.877808,65.216512,61.005442,77.595851,0.0,53.685368,41.080216,107.448819,37.204491,113.325943,30.888085,101.943478,22.873719,79.78759,0.0,-38.819656,16.394512,35.613402,35.044952,52.310343,49.665844,62.837627,61.285148,71.710457,134.686208,189.497473,-126.707938,198.85429
62,-0.619011,-0.251584,0.497807,-1.372514,0.0,-59.534134,-45.588935,-105.191871,-41.724174,-108.578842,-33.796188,-95.454048,-22.137657,-72.573051,0.0,-25.288041,20.186086,38.189777,36.360347,51.688788,49.891381,64.892248,61.178245,77.275713,0.0,53.203239,41.048687,106.889923,36.930622,112.619305,30.314609,101.38623,21.9394,79.051609,0.0,-38.055778,16.935594,36.055374,35.55385,52.771433,50.139779,63.700379,61.709793,72.719224,134.177513,189.206557,-126.099815,197.442444
63,-0.574699,-0.187252,0.110824,-0.407034,0.0,-59.699204,-46.014084,-105.95256,-42.225929,-109.258049,-34.345482,-96.248703,-22.688828,-73.328316,0.0,-24.970434,20.35716,38.444065,36.446242,51.754638,49.902941,65.034929,61.177134,77.333116,0.0,53.240765,40.946572,106.518872,36.713894,111.876423,29.939393,100.978226,21.328309,78.7542,0.0,-37.570581,17.091897,36.448329,35.59579,53.07501,50.157291,64.17314,61.762984,73.43506,133.690807,189.037144,-125.900998,197.053249
64,-0.285255,-0.078213,0.207985,-0.212965,0.0,-60.128129,-46.413163,-106.755845,-42.786187,-110.067605,-35.06337,-97.340195,-23.535164,-74.317383,0.0,-24.927863,20.377883,38.420439,36.441759,51.661037,49.897828,64.760683,61.222977,77.178678,0.0,53.231472,40.96708,105.92244,36.624195,111.16396,29.71391,100.405323,20.948536,78.306439,0.0,-37.011591,17.351878,37.001502,35.852228,53.555194,50.462153,64.910033,62.075133,74.291946,133.488471,188.984311,-125.610094,196.865664
65,-0.453759,-0.276914,0.312859,0.072594,0.0,-60.560898,-46.549324,-107.158516,-42.971168,-110.418503,-35.349724,-98.138351,-23.900711,-74.945114,0.0,-24.600931,20.422529,38.518092,36.417825,51.628655,49.845649,64.270113,61.222842,77.042853,0.0,53.226196,40.896126,105.465786,36.522823,110.77478,29.512516,100.088837,20.627254,77.943809,0.0,-36.672903,17.45552,37.30598,35.906136,53.666073,50.531078,65.275706,62.17544,74.853158,133.111181,188.738164,-125.220766,196.969025
66,-0.804771,-0.266823,0.282726,-0.135666,0.0,-60.781654,-47.008507,-107.285889,-43.4011,-110.256867,-35.690071,-97.951309,-24.074181,-74.605293,0.0,-24.306012,20.514734,38.670294,36.462852,51.812091,49.818738,64.185033,61.1809,77.01893,0.0,53.040367,40.883126,105.504307,36.49086,110.659218,29.492569,100.016751,20.641617,78.078129,0.0,-36.301906,17.656592,37.584796,36.204884,54.074429,50.877672,65.681579,62.523293,75.297292,132.420691,188.501589,-124.823759,196.863607
67,-0.957825,-0.134221,0.114304,-0.008953,0.0,-60.738464,-46.839523,-107.218345,-43.194122,-110.114456,-35.483436,-97.73291,-23.904487,-74.292045,0.0,-24.227132,20.520798,39.228641,36.527938,52.326991,49.898396,64.750519,61.223965,77.274787,0.0,53.07106,40.886524,105.937328,36.501903,110.824081,29.550659,100.21812,20.808311,78.370914,0.0,-36.114198,17.624098,37.77101,36.276724,54.204326,51.010842,65.777193,62.676754,75.194156,131.606764,188.393016,-124.565557,196.880302
68,-1.099731,0.248311,0.311222,0.022983,0.0,-60.784218,-46.415955,-106.843804,-42.664994,-109.746758,-34.921967,-97.34729,-23.406876,-73.957192,0.0,-23.860162,20.739605,40.054639,36.827106,53.120211,50.207568,65.689792,61.407561,77.877779,0.0,52.907947,40.68932,106.034649,36.287945,110.85347,29.366512,100.456055,20.685745,78.54768,0.0,-36.050582,17.511787,37.587068,36.181975,53.97979,50.945164,65.573936,62.674803,74.966618,130.642903,188.651976,-124.118465,196.913934
69,-1.599518,0.81308,0.320423,-0.148954,0.0,-60.856453,-45.99083,-105.99717,-42.029457,-108.913284,-34.076889,-96.368912,-22.383316,-72.9982,0.0,-22.543161,21.19804,41.264589,37.263916,54.400656,50.579688,67.076756,61.649141,78.676311,0.0,52.559464,40.26963,106.219746,35.828854,110.901157,28.975479,100.571377,20.471821,78.881149,0.0,-35.739657,17.434401,37.447413,36.17575,54.027362,50.95681,65.392772,62.70101,74.651061,129.153528,189.465828,-123.687899,196.765752
70,-1.849045,1.503178,0.3811,-0.032777,0.0,-60.993118,-45.277313,-104.956764,-41.183556,-108.130669,-33.087158,-95.408386,-21.332336,-71.889061,0.0,-20.418626,21.881827,43.207813,37.933797,56.769735,51.13501,69.48349,61.95262,79.828981,0.0,52.432617,39.554329,106.20829,35.089439,110.868667,28.354385,100.685165,20.117992,79.188755,0.0,-35.615847,17.001234,36.998982,35.853339,53.720833,50.69384,64.815937,62.501037,73.652075,127.413179,190.94962,-123.198103,196.713589
71,-2.620903,2.088769,0.356701,0.207185,0.0,-61.28199,-43.834785,-103.13237,-39.40361,-106.387802,-31.194969,-93.920242,-19.564682,-70.275719,0.0,-16.522372,23.194517,46.98947,39.146588,61.111666,52.097711,73.381325,62.504298,81.959099,0.0,52.917274,38.469417,105.96183,34.007812,110.717468,27.424129,100.771408,19.472911,79.353664,0.0,-35.271329,16.380062,35.895329,35.327633,52.531828,50.227785,63.735156,62.107613,72.529131,124.87595,193.025557,-122.757728,196.907942
72,-3.735695,3.094215,0.980964,0.209161,0.0,-62.01226,-41.795013,-100.533966,-36.801613,-103.57251,-28.450447,-91.29245,-17.111549,-67.507187,0.0,-9.905977,24.570328,51.805347,40.578196,66.790344,53.299053,78.418182,63.265236,85.155201,0.0,54.506264,36.56876,104.787861,31.997017,109.694355,25.652516,99.97839,18.195042,78.824192,0.0,-33.848662,15.782577,34.966677,34.80636,51.624838,49.810401,62.91947,61.73285,71.699033,121.198585,196.154315,-121.718434,197.151646
73,-5.230545,4.444313,1.523793,0.588543,0.0,-62.705887,-39.34037,-97.134361,-33.449524,-99.644714,-24.701385,-87.262298,-13.41655,-63.387794,0.0,-1.46514,25.635424,57.449755,41.757333,73.321821,54.333273,84.5148,63.87985,89.01417,0.0,56.963035,34.355907,102.368225,29.585483,107.676498,23.463661,98.202793,16.421768,77.659069,0.0,-30.855977,15.392068,34.641808,34.43797,50.919155,49.565252,62.618721,61.511672,71.462294,115.979656,200.665794,-120.183025,197.807355
74,-6.261246,5.669231,2.630333,1.453135,0.0,-63.04866,-36.596855,-93.22039,-29.670867,-94.937988,-20.49369,-82.511398,-9.345565,-58.640945,0.0,7.444827,26.615675,63.931844,43.024217,80.419253,55.512953,91.233443,64.610493,93.111618,0.0,60.207893,31.70367,99.563884,26.407115,105.100009,20.316181,95.558795,13.566043,75.417182,0.0,-26.973197,14.671342,34.71439,33.731867,50.858072,49.130703,63.025039,61.232524,71.785558,109.704774,206.438929,-117.566328,199.364394
75,-7.274414,6.553398,3.670166,2.541931,0.0,-63.675178,-34.355598,-90.373775,-26.395134,-90.728691,-16.730484,-78.180244,-5.646057,-54.558357,0.0,15.590349,27.471289,69.388296,44.150816,86.088744,56.570726,96.757882,65.25234,97.000017,0.0,63.655448,29.305538,96.785854,23.156833,101.806125,16.726982,92.076461,9.908031,72.217037,0.0,-21.864265,14.272237,35.660628,33.09464,52.094278,48.628215,64.612457,60.842298,73.24372,102.363184,213.09742,-113.963338,202.011418
76,-7.673492,7.132605,4.889877,3.862241,0.0,-64.36013,-32.957909,-88.66737,-24.241837,-87.796372,-14.129677,-74.947609,-2.857704,-51.49157,0.0,22.161568,28.005998,72.725696,44.697888,89.921691,56.992568,100.643588,65.305939,99.730781,0.0,66.686897,27.144184,93.854015,20.146248,98.209545,13.307121,88.04821,6.311062,68.353821,0.0,-16.580245,14.428985,38.460639,33.001162,55.245031,48.59466,67.94346,60.868864,75.659742,94.58507,220.275699,-109.178083,205.919333
77,-8.725182,7.04219,5.421821,5.530071,0.0,-64.475246,-32.287079,-85.621845,-22.855796,-85.782875,-12.202331,-73.018844,-0.55664,-50.012375,0.0,26.457619,28.36189,75.120661,44.771556,92.947535,56.992518,103.343798,65.233827,101.308998,0.0,68.721222,25.767598,92.178887,17.979687,95.394768,10.574833,84.722752,3.189984,64.935711,0.0,-12.014852,14.88327,41.697237,33.178731,59.517789,48.729955,72.376744,61.028673,78.666567,85.750803,227.274015,-103.865347,211.40553
78,-8.563339,5.799784,6.598755,6.562179,0.0,-63.220264,-32.272659,-78.876079,-23.207153,-82.830047,-12.65094,-71.22298,-0.979111,-49.435089,0.0,28.726279,30.102869,71.443745,46.180638,93.713216,58.040299,104.157964,65.840043,101.752279,0.0,69.903797,28.480408,91.772599,19.965786,91.469433,11.25198,80.438805,2.662697,62.075764,0.0,-6.353537,17.66825,47.662451,36.187359,65.896273,51.587986,78.098414,63.317909,82.14414,77.155357,232.949971,-97.298699,217.843881
79,-9.60894,5.622017,4.997544,6.962334,0.0,-61.122791,-30.244263,-76.610607,-21.8909,-81.410065,-12.024582,-70.221497,-0.981628,-49.388283,0.0,31.438777,32.656149,66.754381,47.123616,88.411486,57.540293,99.688235,63.907243,98.831756,0.0,72.391056,30.499569,93.771389,21.758972,91.875709,12.477379,80.634132,3.070552,61.19656,0.0,-3.429815,19.901899,51.494879,38.60721,70.507078,53.831898,81.676579,65.293787,84.640203,67.61289,238.410174,-92.234682,224.644401
80,-8.277603,3.989089,5.100128,6.976895,0.0,-61.043038,-28.540741,-76.192497,-21.407845,-82.733025,-12.878815,-72.365467,-3.086609,-51.786518,0.0,29.723684,33.665349,55.847653,48.135113,79.018532,58.31289,93.127204,64.155788,96.431567,0.0,74.145424,32.115646,95.279171,23.415768,92.945091,14.060028,80.95301,4.527031,60.775463,0.0,-1.847992,22.023705,54.901835,40.97235,74.28582,56.089073,85.088783,67.265502,87.951754,59.521929,242.185493,-86.947912,231.407526
81,-8.180168,2.798454,5.209843,6.241547,0.0,-61.531941,-27.805733,-73.893551,-20.996453,-79.483692,-12.925347,-69.047745,-3.747116,-49.362099,0.0,25.125848,34.977546,51.121549,49.127331,72.81763,58.694915,85.993192,63.687634,90.826458,0.0,75.276992,33.665576,96.591224,24.843841,94.519832,15.215137,81.528053,5.434158,60.454708,0.0,-0.772695,24.123663,56.947774,43.278455,76.787008,58.168172,86.902145,68.900961,89.813973,51.587277,244.797735,-81.492553,237.462861
82,-6.062279,2.179531,5.344253,5.176216,0.0,-61.604954,-29.135273,-65.159695,-22.84845,-66.269222,-15.045822,-56.11171,-6.044609,-40.446259,0.0,19.655045,34.758689,48.076116,47.993136,67.853513,56.556239,79.5102,60.635989,84.987203,0.0,75.784664,35.323643,97.253002,26.370026,95.695633,16.471962,82.093288,6.395817,60.277634,0.0,-1.005433,25.746451,57.785838,45.036613,77.16103,59.592111,86.793464,69.816708,89.770069,45.785769,246.80841,-75.887529,242.470221
83,-3.751854,3.086421,4.43858,3.627219,0.0,-61.714451,-31.695637,-57.596752,-26.472965,-52.210613,-19.592926,-43.15781,-11.306053,-32.042221,0.0,14.718495,31.674429,48.809563,43.593259,62.745643,51.452444,71.965079,55.265507,77.036418,0.0,76.159378,33.855297,98.020546,25.084488,99.108673,15.773746,84.846462,6.27127,61.129428,0.0,-4.135166,25.248904,55.791473,44.111913,75.331131,58.360425,84.921513,68.700507,88.999004,42.257824,249.786684,-71.22504,245.989293
84,-1.716476,1.549367,5.414852,2.465904,0.0,-59.991246,-34.104332,-44.429135,-30.018712,-36.110058,-23.9851,-29.543839,-16.448136,-24.430527,0.0,6.988393,27.266154,47.384809,39.736292,61.378946,48.546828,68.068282,53.583056,72.696673,0.0,74.48267,34.124405,97.302624,25.533085,99.210651,16.341087,84.854244,7.159332,61.805362,0.0,-6.159011,25.857244,55.254688,44.211245,74.066396,58.00851,84.214113,68.083868,88.49149,40.68682,251.270858,-65.664716,248.390004
85,-13.868477,1.064231,4.585613,1.49168,0.0,-41.354966,-26.459988,-14.411602,-24.339043,-5.007695,-21.244549,-3.630284,-16.783963,-15.535675,0.0,0.806337,24.520509,51.124735,38.047653,65.237545,47.486648,68.45111,53.540004,71.466803,0.0,72.997776,34.844296,97.449669,26.649376,99.79026,17.552307,85.835724,8.406532,63.309288,0.0,-8.230268,26.411614,53.905565,44.409822,71.561058,57.761397,81.576407,67.51238,85.550972,26.878561,252.354386,-61.018885,249.900981
86,-10.901882,1.881857,3.673359,0.701682,0.0,-24.518292,-19.617577,11.824802,-19.704438,19.733951,-19.871705,15.666263,-18.774662,-14.297024,0.0,-3.04064,21.865981,48.353277,36.594825,64.196815,46.703837,67.335391,53.857141,72.487129,0.0,71.831806,35.76844,97.730907,28.059551,99.855823,19.230663,86.667515,10.280868,65.290981,0.0,-9.961403,26.783883,53.148073,44.644437,69.438289,57.83677,79.575335,67.428869,83.371652,16.005393,254.299923,-57.316812,250.666343
87,-11.051835,1.299537,3.176285,0.614182,0.0,-6.473785,-11.777732,30.861157,-14.165073,36.446675,-17.66185,27.627102,-20.099498,-17.540908,0.0,-5.473174,20.909122,44.115631,37.399174,62.240747,48.40185,66.307024,56.369148,74.205421,0.0,70.593578,36.354526,98.046077,29.021736,99.839092,20.334297,86.617138,11.439331,64.970295,0.0,-10.433806,27.393039,53.099266,45.32211,68.339119,58.540156,78.303277,67.960639,82.068941,4.954399,255.683049,-54.139686,251.364114
88,-11.101879,0.32934,2.345592,1.010583,0.0,9.283207,-2.394722,44.898995,-5.91386,48.116776,-11.870453,36.671425,-17.122959,-18.446205,0.0,-6.746628,21.73139,41.211595,40.348336,61.190064,52.139862,66.159095,60.52952,76.616737,0.0,69.784767,36.427265,98.347229,29.232754,99.820015,20.657765,86.616028,11.955185,64.678871,0.0,-9.877139,28.205599,53.046617,46.317909,67.141519,59.488852,76.819266,68.516305,80.494576,-6.151423,256.085069,-51.798037,252.447377
89,-10.148884,0.728012,1.676594,1.584639,0.0,21.201554,4.268612,56.95538,-0.056167,58.286923,-7.974872,45.642094,-15.430217,-15.105445,0.0,-8.075064,23.586299,40.620397,43.240553,61.719463,55.038847,66.818195,63.219665,77.738409,0.0,69.208202,36.248772,98.476742,29.041912,99.548023,20.506016,86.078648,11.937035,63.938587,0.0,-8.320868,29.125952,53.214838,47.3824,66.301911,60.34533,75.469859,68.803074,78.712447,-16.308981,256.863225,-50.130117,254.08216
90,-0.216842,2.307465,1.22057,2.401313,0.0,21.444294,3.411907,57.808101,-0.490803,59.369854,-7.556088,47.48267,-14.302323,-6.696854,0.0,-4.295235,24.700214,40.649741,43.375416,60.566496,54.45943,64.456365,61.98021,73.447509,0.0,69.1959,36.196529,98.529121,28.720745,99.082443,20.040699,85.245071,11.49765,63.053352,0.0,-6.590461,30.138585,53.610386,48.395514,66.157983,61.080197,74.837769,69.0131,77.543462,-16.531385,259.191926,-48.915109,256.504709
91,-0.930542,1.728826,0.989502,2.912705,0.0,25.116669,3.941196,59.75394,-0.748661,61.799846,-7.90519,50.474842,-14.944313,5.555614,0.0,-2.520936,24.093776,41.04834,42.533721,61.089349,53.892956,64.442397,61.569829,70.816756,0.0,69.134239,36.119201,98.623489,28.440628,98.898994,19.565139,84.532928,10.932746,62.090011,0.0,-4.507422,31.155812,53.48754,49.136544,65.580642,61.33766,73.684581,68.751809,76.066615,-17.458649,260.898389,-47.922329,259.395051
92,-0.281479,1.877509,0.119945,2.349245,0.0,25.380707,5.750473,59.56081,0.35487,61.220798,-7.232483,50.322842,-14.758953,15.370033,0.0,0.318954,22.887469,40.620088,41.321338,59.772102,53.273896,62.82834,61.57887,67.415753,0.0,69.882557,36.367836,98.888134,28.762138,99.271763,19.889706,85.148266,11.223942,63.684254,0.0,-2.100774,31.829917,53.323728,49.46828,64.83403,61.241206,72.615397,68.34622,74.848798,-17.730709,262.721694,-47.792965,261.690092
93,-0.708939,1.57781,0.056019,1.925452,0.0,26.435463,7.506306,60.700093,1.327034,62.821186,-6.641452,51.804028,-14.801788,23.233372,0.0,0.78076,21.077033,39.597649,39.665735,58.533512,52.442945,61.925202,61.703753,65.780083,0.0,70.630119,36.583706,99.186767,29.074722,99.586327,20.175465,85.397209,11.374386,64.314125,0.0,-0.219091,32.092442,52.86023,49.439109,64.300457,60.923537,71.999202,67.90016,73.829657,-18.425869,264.210324,-47.723167,263.526364
94,-0.71101,1.834222,-0.040054,1.43424,0.0,29.249485,9.907357,62.485772,3.443253,64.530304,-4.468299,52.412911,-12.752277,28.072895,0.0,-0.923515,18.340737,36.461951,37.809085,55.509668,51.814733,60.113272,62.220777,64.121912,0.0,71.329238,36.74818,99.311027,29.267921,99.871032,20.277488,85.611442,11.306133,64.7574,0.0,1.385704,32.078672,52.473524,49.223822,63.900227,60.54224,71.538284,67.477602,73.128901,-19.135003,265.923685,-47.761345,264.839743
95,2.578423,0.832272,0.01704,0.491496,0.0,27.927246,8.849579,60.426453,2.264328,62.949531,-5.652329,50.706184,-13.969917,26.922409,0.0,-3.517538,16.473108,34.708202,36.53552,53.775037,51.389742,59.679278,62.444536,64.02894,0.0,71.771747,36.777077,99.143658,29.409233,99.937603,20.377521,85.740978,11.21846,64.927151,0.0,3.165375,31.955233,52.403462,49.056021,63.834711,60.326843,71.498542,67.272109,72.736107,-16.567154,266.613351,-47.754879,265.188633
96,2.481113,0.395672,-0.138371,0.001778,0.0,24.594326,7.409867,58.298756,1.425705,61.0238,-5.984985,48.021984,-13.667633,19.984944,0.0,-2.714067,15.827149,34.078879,36.040183,52.36488,50.998689,58.929826,62.057089,64.056444,0.0,72.266121,36.753147,98.98169,29.490486,100.007744,20.446804,86.050072,11.093994,65.135285,0.0,4.334978,31.616606,52.355223,48.771007,63.857213,60.139245,71.70301,67.191315,72.78736,-14.117037,266.850188,-47.924246,265.031576
97,1.03014,0.45962,-0.102596,0.063122,0.0,24.740158,7.051358,58.704232,1.187027,61.69384,-6.087433,47.92115,-13.510162,18.74548,0.0,-4.639642,15.375655,32.929519,35.803741,51.651935,50.914981,58.766706,61.943963,63.895214,0.0,72.510853,36.691303,98.853848,29.476971,99.998165,20.478928,85.903233,11.147198,65.022503,0.0,5.011873,31.750962,52.3715,48.894569,63.916727,60.263066,71.749693,67.339515,72.693387,-13.12563,267.159276,-48.065575,264.944166
98,1.504898,0.669622,-0.234856,0.170554,0.0,23.542466,5.775387,57.818619,0.285519,61.094902,-6.528648,46.987381,-13.406101,16.696026,0.0,-3.509017,15.297503,32.472318,35.31301,50.963529,49.996764,57.886664,60.62443,62.898018,0.0,72.688466,36.697277,98.786465,29.472233,100.012265,20.487214,85.768948,11.176449,64.897808,0.0,5.472779,31.801178,52.504029,48.922357,63.946454,60.282481,71.714879,67.332995,72.548484,-11.651757,267.690401,-48.331456,264.976223
99,1.181317,0.225191,-0.126892,0.166689,0.0,19.865844,3.767406,56.145687,-1.526367,60.23743,-8.055542,46.17049,-14.561909,13.431347,0.0,2.582748,15.909364,33.935853,34.838718,51.746845,48.558622,57.314003,58.418829,62.075022,0.0,72.742962,36.602429,98.71043,29.382351,99.936688,20.409336,85.456776,11.114926,64.552586,0.0,5.643284,31.884208,52.452603,48.993469,63.855175,60.334092,71.592057,67.35982,72.289763,-10.490495,267.795787,-48.478403,265.023107
100,1.481666,0.37816,-0.134594,0.070865,0.0,16.840267,2.30777,53.971997,-3.06356,58.543202,-9.519458,44.170887,-15.916065,8.807041,0.0,5.774293,15.882403,34.626284,34.225758,51.942977,47.479237,56.634748,57.097061,61.956633,0.0,72.666756,36.430046,98.871918,29.216126,99.9245,20.276551,85.384392,11.058529,64.47432,0.0,5.843787,32.061382,52.42258,49.188069,63.905378,60.529977,71.653745,67.530621,72.146205,-9.014918,268.064989,-48.619086,264.985014
101,-0.394695,0.179446,-0.138759,0.036507,0.0,17.978096,2.925957,54.366028,-2.772125,58.899216,-9.554455,44.10862,-16.230652,11.062534,0.0,5.199607,15.407123,34.083276,33.810278,51.825145,47.284724,56.661709,57.175127,61.66311,0.0,72.597851,36.266418,99.268398,29.0667,100.126613,20.197448,85.474514,11.110279,64.559635,0.0,6.064607,32.179757,52.492111,49.350719,64.039944,60.708658,71.698897,67.679612,72.031596,-9.400475,268.144072,-48.748707,264.921158
102,0.831322,0.087884,-0.15572,0.077805,0.0,17.0587,1.61364,52.905098,-3.798626,57.859153,-10.187004,43.202499,-16.502358,10.034294,0.0,5.544409,15.624472,34.159389,33.89238,51.671126,47.231581,56.372037,56.977426,61.487812,0.0,72.517067,36.220894,99.688751,29.013107,100.244408,20.161365,85.590019,11.12455,64.573288,0.0,5.934771,32.162122,52.476933,49.338283,64.044749,60.696308,71.756449,67.630867,72.090544,-8.547106,268.131059,-48.88238,264.898066
103,-0.234696,-0.168579,-0.164349,0.122427,0.0,17.201615,1.661351,53.197014,-3.456562,58.265465,-9.660862,43.463379,-15.858329,9.664845,0.0,3.96466,16.06889,34.336329,34.636065,52.058512,48.110907,56.909562,57.824877,61.960474,0.0,72.43507,36.1768,100.045201,28.934796,100.384037,20.066712,85.735051,11.075135,64.77776,0.0,5.872538,32.229466,52.400313,49.438528,64.081737,60.778855,71.781791,67.662569,72.086183,-8.756367,267.86656,-49.021294,264.924573
104,0.146805,-0.263971,-0.054016,0.041941,0.0,18.305592,1.80399,53.285545,-3.485172,58.363243,-9.930851,43.191879,-16.387356,10.220535,0.0,0.390399,16.506589,34.418791,35.753761,52.364078,49.613035,57.669081,59.465153,62.328161,0.0,72.49561,36.093293,100.379551,28.866566,100.673413,20.05362,86.024815,11.16671,65.101902,0.0,5.849505,32.15812,52.381133,49.465254,64.198321,60.903381,71.862671,67.801977,72.070091,-8.58209,267.494112,-49.047838,264.858037
105,-1.289921,-0.371181,-0.22126,0.034765,0.0,20.736615,3.238827,55.545605,-2.200618,60.055104,-9.009933,44.734875,-15.809681,13.717793,0.0,-1.980694,16.990811,34.53761,36.774494,52.737247,50.920982,58.349779,60.815313,62.332261,0.0,72.735707,36.217278,100.731434,29.005257,101.038456,20.210049,86.35207,11.347985,65.50256,0.0,5.79766,32.10299,52.259831,49.446939,64.27719,60.905358,71.90055,67.776919,72.118294,-9.844769,267.010884,-49.241856,264.780755
106,0.932465,0.068864,-0.123264,0.05376,0.0,18.549007,2.129963,55.034717,-3.185349,59.673969,-9.871067,44.413639,-16.501465,11.324913,0.0,-2.205441,17.472365,35.118286,37.168709,52.967799,51.047744,58.434723,60.708065,62.604432,0.0,72.943748,36.296528,100.876602,29.066986,101.116287,20.285007,86.428047,11.476295,65.706322,0.0,5.612989,32.207385,52.232747,49.547604,64.267902,60.973604,71.917889,67.771608,72.051381,-8.883642,266.986197,-49.336458,264.740964
107,0.141689,-0.053266,-0.084595,0.010522,0.0,18.566437,2.255127,55.663719,-3.160332,60.154976,-10.050224,44.756676,-16.853405,8.967167,0.0,-2.452097,17.493817,35.630654,37.152456,53.343328,50.909003,58.817205,60.512575,63.44898,0.0,73.221886,36.36216,100.980904,29.095493,101.284104,20.307484,86.580574,11.527485,66.038407,0.0,5.602171,32.291514,52.233846,49.668512,64.379448,61.084471,71.938637,67.82648,71.980418,-8.715695,266.854257,-49.394795,264.672812
108,0.155319,-0.128676,0.007576,-0.031357,0.0,19.346764,2.269192,56.535874,-3.444477,60.535103,-10.637535,44.822571,-17.59481,6.715966,0.0,-3.570149,17.101147,35.596914,36.923437,53.342204,50.784268,59.204875,60.550614,64.260134,0.0,73.365486,36.353462,101.042015,29.110588,101.392433,20.374031,86.708153,11.656231,66.234444,0.0,5.527922,32.249659,52.233859,49.669562,64.454747,61.095043,71.969747,67.806992,71.880592,-8.540068,266.658801,-49.366911,264.574675
109,0.075715,-0.098541,0.086346,0.053871,0.0,20.017868,2.29232,57.244468,-3.576394,61.136901,-10.939854,45.120094,-18.007313,2.777744,0.0,-4.236115,16.535451,35.650612,36.376204,53.545338,50.291252,59.749279,60.254681,65.895223,0.0,73.267994,36.296425,100.871921,28.964962,100.944935,20.13533,86.357334,11.333027,65.949955,0.0,5.652077,32.393242,52.279505,49.776884,64.447782,61.036158,71.971229,67.613626,71.84022,-8.44709,266.508396,-49.263302,264.576682
110,0.01712,0.106631,0.2276,-0.02423,0.0,21.031883,2.092964,57.355522,-3.842617,61.640465,-11.186371,45.467834,-18.225186,-1.3293,0.0,-5.427071,15.799695,35.131365,35.723811,53.290284,49.723975,59.86984,59.8587,67.083609,0.0,73.147053,36.045673,100.610607,28.581539,100.571125,19.640064,85.930286,10.746426,65.347584,0.0,5.769588,32.424375,52.27155,49.810809,64.497823,60.982286,72.070387,67.479183,71.858682,-8.415733,266.574368,-49.021465,264.511793
111,-1.117252,-0.115326,0.269451,0.021835,0.0,24.08662,2.87899,58.975284,-3.316899,63.174007,-10.826684,47.083339,-17.998627,-1.487641,0.0,-5.666044,15.34709,34.820403,35.310739,53.267413,49.432391,60.076606,59.688319,67.927183,0.0,73.06382,35.777596,100.273361,28.248138,100.190048,19.287621,85.534859,10.422066,65.021805,0.0,5.978674,32.484977,52.207725,49.909758,64.538294,61.018583,72.043724,67.439872,71.784582,-9.521724,266.42431,-48.740753,264.498896
112,-0.47136,0.009325,0.308979,0.010584,0.0,24.919522,3.153992,59.633801,-3.27547,63.741223,-10.955005,47.385647,-18.265068,-3.944927,0.0,-6.482077,15.095543,34.534239,35.120966,53.044851,49.24972,60.076123,59.549788,68.669447,0.0,72.884846,35.418686,99.945316,27.848728,99.874226,18.879673,85.200863,10.008808,64.566021,0.0,6.145672,32.524152,51.914497,49.988539,64.459612,61.04253,72.012404,67.400747,71.759598,-9.983809,266.399734,-48.422499,264.475579
113,-1.093059,0.168097,0.285324,-0.097443,0.0,26.119629,4.018547,60.667625,-2.363903,64.925171,-10.012974,48.737549,-17.32021,-1.456764,0.0,-7.507936,14.909649,33.910263,34.976001,52.995105,49.189378,60.195005,59.602041,68.741942,0.0,72.689678,35.157864,99.591099,27.520466,99.514881,18.503597,84.808697,9.588272,64.137737,0.0,6.439704,32.645158,51.855551,50.11703,64.620991,61.13071,72.139129,67.467809,71.9551,-11.071815,266.530392,-48.132122,264.340697
114,-1.584824,-0.001791,0.185887,-0.087438,0.0,27.954529,5.230808,62.311752,-1.123707,66.358658,-8.758987,50.292938,-16.037029,2.535427,0.0,-8.484346,14.600786,33.238802,34.852735,52.958746,49.294724,60.392298,59.903642,68.482874,0.0,72.604316,34.974277,99.437896,27.364082,99.610725,18.406414,84.871421,9.548938,64.200782,0.0,6.481829,32.485126,51.740781,50.016833,64.763079,61.139614,72.215983,67.584714,72.129619,-12.65423,266.494712,-47.943826,264.21937
115,-1.665813,-0.265255,0.216178,0.022205,0.0,29.734714,6.721241,64.348858,0.290222,67.756496,-7.474961,51.778118,-14.828854,7.053142,0.0,-8.997739,14.626734,33.119129,35.009359,53.401151,49.626608,61.033008,60.410514,68.472796,0.0,72.417984,34.886261,99.203385,27.327622,99.471383,18.434258,84.811821,9.642598,64.308312,0.0,6.473938,32.413903,51.783155,49.948414,64.786482,61.117606,72.137548,67.637956,72.099053,-14.319523,266.194519,-47.727128,264.206637
116,-1.779911,-0.083462,0.034127,-0.046337,0.0,31.27613,8.877571,66.455337,2.428035,69.191253,-5.534329,53.347183,-13.091423,12.215343,0.0,-9.726777,14.726115,32.790864,35.365214,53.887621,50.195181,61.676941,61.159572,68.107864,0.0,72.295738,34.984417,99.191643,27.436546,99.505005,18.497463,84.911361,9.611149,64.360107,0.0,6.484089,32.245373,51.819488,49.776105,64.847887,61.001589,72.217156,67.627124,72.29984,-16.099102,266.076647,-47.692669,264.12589
117,-1.236615,-0.038335,-0.012154,0.022304,0.0,32.17368,10.2388,68.012341,3.932167,70.317662,-4.017746,54.63628,-11.549652,16.886296,0.0,-9.976828,14.856248,32.690594,35.621096,54.31197,50.580257,62.102575,61.637928,67.64486,0.0,72.334992,35.130478,99.207138,27.59515,99.505165,18.623943,84.95002,9.707142,64.523483,0.0,6.454943,32.057702,51.998626,49.580937,64.90424,60.857563,72.244252,67.583875,72.434135,-17.335482,266.003592,-47.704588,264.113474
118,-0.640663,-0.067184,-0.006157,0.090576,0.0,33.114888,10.875092,69.163044,4.510071,70.955693,-3.55442,55.21835,-11.172729,18.189846,0.0,-9.743622,15.047945,32.852652,35.875754,54.668195,50.832692,62.277921,61.817942,67.486815,0.0,72.405853,35.29374,99.25042,27.796807,99.627228,18.80571,85.069222,9.859932,64.730553,0.0,6.315054,31.971498,51.998157,49.474615,64.78789,60.771198,72.129149,67.559903,72.371025,-17.976391,265.90248,-47.710991,264.170122
119,-0.321213,-0.063455,-0.08329,0.016067,0.0,34.056553,11.306111,69.970997,4.765011,71.536984,-3.531909,55.582158,-11.294723,17.853928,0.0,-9.625123,15.151217,33.079943,36.063772,54.984345,51.024576,62.394716,61.93512,67.587469,0.0,72.492325,35.566578,99.336845,28.104492,99.654465,19.084179,85.131111,10.089798,64.876236,0.0,6.164494,31.958815,52.058166,49.413927,64.805402,60.700309,72.130594,67.526607,72.39149,-18.303967,265.800959,-47.800644,264.148123
120,0.53603,0.160292,-0.060997,-0.042682,0.0,34.130196,10.650479,69.299424,4.300633,71.14309,-3.771057,55.475327,-11.331756,17.751572,0.0,-9.394028,15.23395,32.677132,36.161795,54.652758,51.086844,61.985706,61.881854,67.408071,0.0,72.529083,35.744545,99.418396,28.300037,99.720841,19.240917,85.207237,10.195965,65.041992,0.0,6.159727,32.000422,52.126746,49.440208,64.839057,60.712239,72.167583,67.542588,72.449498,-17.775359,265.928572,-47.869063,264.072762
