takenoko1/special-research/HandMotion_SimilarSearch_自分用/NewProject/handData/test_key/d4_feature_d3/25.csv
frame,vel_0x_L,vel_0y_L,vel_0x_R,vel_0y_R,posFromWrist_0x_L,posFromWrist_1x_L,posFromWrist_2x_L,posFromWrist_3x_L,posFromWrist_4x_L,posFromWrist_5x_L,posFromWrist_6x_L,posFromWrist_7x_L,posFromWrist_8x_L,posFromWrist_9x_L,posFromWrist_0y_L,posFromWrist_1y_L,posFromWrist_2y_L,posFromWrist_3y_L,posFromWrist_4y_L,posFromWrist_5y_L,posFromWrist_6y_L,posFromWrist_7y_L,posFromWrist_8y_L,posFromWrist_9y_L,posFromWrist_0x_R,posFromWrist_1x_R,posFromWrist_2x_R,posFromWrist_3x_R,posFromWrist_4x_R,posFromWrist_5x_R,posFromWrist_6x_R,posFromWrist_7x_R,posFromWrist_8x_R,posFromWrist_9x_R,posFromWrist_0y_R,posFromWrist_1y_R,posFromWrist_2y_R,posFromWrist_3y_R,posFromWrist_4y_R,posFromWrist_5y_R,posFromWrist_6y_R,posFromWrist_7y_R,posFromWrist_8y_R,posFromWrist_9y_R,posFromBody_0x_L,posFromBody_0y_L,posFromBody_0x_R,posFromBody_0y_R
6,0.073837,0.806115,0.05563,0.208,0.0,21.3322,7.196549,59.854798,3.286904,63.127373,-3.439579,47.978737,-10.598877,9.441033,0.0,-5.815345,19.659936,34.680316,39.271224,52.344145,52.149902,57.660583,60.653922,63.086913,0.0,71.822353,34.207935,98.377682,26.795151,98.36269,18.041439,84.351276,9.381832,63.024181,0.0,5.82441,31.536367,51.364746,49.031494,63.408892,60.191461,71.350032,66.663349,71.302077,-12.143183,263.86852,-47.061567,261.351734
7,-0.944526,0.115646,0.078541,0.014906,0.0,23.262211,7.367122,61.042007,3.648548,64.658844,-2.626019,50.01178,-9.315113,14.192138,0.0,-5.923705,18.769544,34.041076,38.488044,51.788366,51.699162,57.613135,60.473834,62.274525,0.0,71.784004,33.941139,98.307266,26.480369,98.213836,17.740894,84.199012,9.091449,62.676613,0.0,5.847307,31.34656,51.234873,48.85542,63.507286,60.072271,71.368101,66.594905,71.266422,-13.062509,263.994092,-46.957826,261.376566
8,1.851482,0.355053,0.050113,0.099517,0.0,20.979607,5.422886,59.254704,1.758625,63.27483,-4.271393,48.587116,-10.807812,5.237915,0.0,-6.314116,18.440723,33.539427,38.09888,50.89422,51.246444,57.232776,60.10564,63.461034,0.0,71.698162,33.807198,98.27734,26.288968,98.133854,17.52697,84.058468,8.833649,62.19904,0.0,5.702033,31.147414,51.115991,48.635823,63.633491,59.846919,71.424948,66.363452,71.224407,-11.19544,264.361625,-46.892126,261.488563
9,1.167572,0.159513,0.035752,0.072989,0.0,19.201996,4.430111,58.173374,0.782673,62.472141,-5.02605,47.936062,-11.328232,1.750729,0.0,-6.533663,18.604226,33.273876,38.149232,50.270492,51.196452,56.951936,60.016547,63.57074,0.0,71.54639,33.765003,98.200664,26.231506,97.998356,17.427063,83.885776,8.632267,61.776706,0.0,5.633379,30.979095,51.061169,48.385091,63.738405,59.575612,71.607779,66.100037,71.292617,-10.011824,264.535723,-46.84033,261.576137
10,1.105053,-0.133405,0.047596,0.035519,0.0,18.785248,3.74073,57.303749,-0.337532,61.539162,-6.453712,46.900314,-12.977806,-0.462456,0.0,-6.594142,17.872187,33.459745,37.507879,50.410121,50.740091,57.21314,59.853921,64.319044,0.0,71.364647,33.729778,98.121734,26.210975,97.970031,17.374729,83.831405,8.497924,61.650192,0.0,5.573036,30.857978,50.971989,48.205891,63.763932,59.355731,71.783434,65.838153,71.472459,-8.895968,264.411173,-46.781931,261.620511
11,1.900578,-0.056761,0.067371,0.058515,0.0,16.398044,1.784923,55.775036,-2.493119,59.822193,-8.66771,44.910701,-15.17498,-8.03833,0.0,-6.906537,17.840805,33.909559,37.362889,50.384915,50.463721,57.143843,59.629125,65.873499,0.0,71.109798,33.803604,98.041637,26.329788,98.074093,17.476845,83.883717,8.517197,61.655949,0.0,5.451116,30.774787,50.815476,48.081662,63.703046,59.165292,71.853088,65.572058,71.604629,-6.987167,264.357775,-46.706337,261.682389
12,1.487526,0.203751,0.046967,0.135789,0.0,14.052738,0.488308,54.554226,-4.000534,58.226932,-10.309685,43.09608,-16.905865,-14.499733,0.0,-7.375703,17.720862,34.017611,37.26073,50.227341,50.289178,56.9642,59.461769,66.832694,0.0,70.958095,33.946689,98.025615,26.555225,98.110118,17.721187,83.894657,8.752819,61.773342,0.0,5.261827,30.850777,50.646786,48.089961,63.633701,59.051203,71.87417,65.3318,71.608421,-5.499017,264.560553,-46.658746,261.817205
13,0.016147,0.032493,0.065094,-0.010288,0.0,13.272663,0.425732,54.810562,-3.941059,58.08197,-10.179874,43.259377,-16.572223,-10.921829,0.0,-7.673056,18.094687,33.942992,37.678706,50.450186,50.700991,56.928434,59.758702,66.086675,0.0,70.98833,34.034465,98.098697,26.763244,98.361751,17.977558,84.182041,9.046463,62.44598,0.0,5.310178,31.060322,50.512986,48.25691,63.665503,59.160476,71.949283,65.420005,71.768206,-5.487551,264.592944,-46.598333,261.806815
14,1.817837,-0.048671,0.142021,-0.009448,0.0,10.568012,-0.857906,52.574032,-4.871532,55.788815,-10.851231,41.237194,-17.172043,-15.600655,0.0,-7.908005,18.513465,34.233131,38.094508,50.692679,50.936976,56.934608,59.861467,67.084388,0.0,71.05775,34.134681,98.211376,26.914432,98.446392,18.168205,84.273914,9.290451,62.841488,0.0,5.240548,31.256824,50.511319,48.43033,63.655721,59.270862,71.88988,65.455869,71.823794,-3.686291,264.543569,-46.472889,261.796663
15,1.300072,0.205394,0.198738,-0.002889,0.0,8.278701,-1.755169,51.646648,-5.355801,54.893131,-10.927655,40.38351,-17.015156,-20.439995,0.0,-8.536377,18.792219,33.909189,38.435914,50.632003,51.132416,56.874896,59.908928,67.908991,0.0,71.233784,34.05645,98.296406,26.851147,98.479328,18.183105,84.307033,9.460899,63.134983,0.0,5.153961,31.483756,50.649503,48.691731,63.885741,59.506253,72.002647,65.634488,71.8541,-2.408792,264.751078,-46.296724,261.795889
16,0.848121,-0.022539,0.052482,-0.08471,0.0,6.755333,-1.420028,51.06284,-4.760467,54.225644,-10.315006,39.783497,-16.562954,-20.854957,0.0,-9.194945,18.762999,33.715132,38.638357,50.952463,51.38894,57.188712,60.175591,68.195537,0.0,71.440671,34.084088,98.519635,26.884324,98.629521,18.262848,84.455899,9.653229,63.51447,0.0,5.145983,31.71185,50.78081,48.912255,64.04943,59.690406,72.104487,65.766363,71.977269,-1.589796,264.735227,-46.273367,261.717867
17,0.803753,-0.155179,0.200776,-0.223697,0.0,6.291973,-0.718002,50.204636,-3.682823,53.398613,-9.153385,39.047562,-15.591259,-21.673954,0.0,-10.080372,18.849536,33.552445,38.907527,51.290522,51.693987,57.619372,60.463867,68.968665,0.0,71.508762,34.099708,98.563236,26.839428,98.706905,18.144539,84.49078,9.489383,63.57217,0.0,5.226172,31.905117,51.057748,49.11676,64.255812,59.924996,72.289244,66.033915,72.268064,-0.819964,264.595451,-46.106512,261.509573
18,0.738899,-0.083968,0.101417,-0.023564,0.0,6.988495,-0.098396,49.647194,-3.105491,52.680176,-8.724632,38.242035,-15.527343,-24.212219,0.0,-11.064933,17.928294,32.942178,38.241425,50.937112,51.300699,57.910203,60.383147,70.135809,0.0,71.573673,34.122551,98.696789,26.805302,98.851811,18.122635,84.600346,9.516609,63.561527,0.0,5.117455,32.005832,51.066875,49.272729,64.244129,60.075865,72.310733,66.100593,72.37772,-0.114029,264.529654,-46.038059,261.50418
19,0.189503,-0.098381,0.16967,-0.000308,0.0,7.217423,-0.070747,49.841435,-3.002746,52.943287,-8.546276,38.576878,-15.312561,-23.206867,0.0,-11.107701,17.72495,32.759495,38.097633,50.899741,51.275233,58.142422,60.404167,70.250035,0.0,71.605442,34.024441,98.668865,26.705097,99.034046,18.081276,84.875805,9.587643,63.861248,0.0,5.02757,32.034039,50.954908,49.381372,64.228135,60.236884,72.313239,66.296465,72.430738,0.04402,264.447318,-45.899843,261.519917
20,1.092888,-0.42446,0.101681,-0.041608,0.0,7.218647,-1.084671,48.300945,-4.138653,51.351482,-9.605976,36.964886,-16.29467,-26.753197,0.0,-11.106614,17.359573,32.959999,37.809333,50.884958,51.134677,58.596127,60.428064,71.3568,0.0,71.723625,33.951805,98.699249,26.619198,99.231651,18.022579,85.043793,9.570786,64.024681,0.0,4.976367,32.003979,50.805744,49.373975,64.118664,60.281716,72.146255,66.416459,72.380301,1.107279,264.034464,-45.827791,261.489915
21,1.703842,-0.335193,0.146828,-0.039397,0.0,5.917225,-2.793239,45.975186,-5.951191,49.131214,-11.266651,34.927929,-17.739578,-30.805515,0.0,-10.564236,17.541081,33.467476,37.905688,51.081633,51.160389,59.032085,60.410304,72.222467,0.0,71.732116,33.743866,98.69648,26.410629,99.308464,17.860187,85.067116,9.454731,63.969543,0.0,4.957595,31.951528,50.592101,49.398613,64.131632,60.362041,72.076983,66.553446,72.351476,2.783558,263.711029,-45.708526,261.462276
22,0.603138,0.037359,0.041004,0.023762,0.0,5.75219,-3.450348,45.506355,-6.84383,48.492394,-12.262516,34.384644,-18.772476,-31.784923,0.0,-10.640584,17.249298,33.298638,37.535309,50.875473,50.794345,59.027923,60.156646,72.436456,0.0,71.822262,33.586716,98.664974,26.332203,99.486568,17.901787,85.238583,9.609466,64.228901,0.0,4.926386,31.95569,50.24384,49.449927,64.108463,60.447429,71.991384,66.668153,72.382314,3.355396,263.755264,-45.698822,261.492914
23,0.896416,0.089093,0.162517,-0.107927,0.0,4.304718,-4.542915,44.623695,-8.051079,47.701927,-13.464295,33.46328,-19.982586,-34.089214,0.0,-10.303488,17.436217,33.618061,37.619006,51.129317,50.769534,59.130034,60.102207,72.509977,0.0,71.790047,33.409424,98.420998,26.170052,99.248612,17.771668,85.029511,9.477391,64.034752,0.0,4.899228,31.879304,50.053117,49.410901,64.107931,60.47718,72.009427,66.795531,72.397986,4.20187,263.852681,-45.586247,261.393311
24,1.242279,-0.002457,0.055974,-0.028282,0.0,3.079674,-5.703003,43.578392,-9.538593,46.296524,-15.110264,31.992187,-21.727467,-36.662991,0.0,-10.293498,17.427571,33.80714,37.612805,51.525247,50.728667,59.441094,60.049953,72.69892,0.0,71.916103,33.199069,98.336643,25.994796,99.218639,17.653278,84.996265,9.411003,64.109973,0.0,4.808751,31.773588,49.881266,49.38173,64.066201,60.553318,71.938822,66.955688,72.353983,5.374826,263.865179,-45.599596,261.379984
25,-0.377186,0.269602,0.057163,0.017068,0.0,2.779507,-4.951813,44.013073,-8.686729,47.109432,-14.334995,33.527584,-21.016125,-28.718674,0.0,-10.271329,18.171145,33.914092,38.195359,52.029884,51.100467,59.308986,60.158857,70.838467,0.0,71.777344,33.174064,98.411339,25.982849,99.363876,17.632416,85.122116,9.351768,64.196228,0.0,4.610285,31.622102,49.863371,49.224341,64.084355,60.448404,71.9643,66.919996,72.505765,4.902855,264.15804,-45.637218,261.420311
26,0.039986,0.383989,0.053661,-0.068803,0.0,2.257805,-4.291352,44.281368,-8.109318,46.848919,-13.88364,33.504719,-20.640301,-23.598244,0.0,-10.621009,19.00385,33.623383,38.998929,52.135576,51.729036,58.874917,60.471869,68.919733,0.0,71.766392,33.231136,98.516041,26.024529,99.474003,17.654469,85.276989,9.379303,64.458881,0.0,4.398556,31.697327,50.073632,49.231307,64.096977,60.472661,72.055716,66.988663,72.670565,4.836788,264.553267,-45.68961,261.362746
27,0.545883,-0.016179,-0.0107,-0.050277,0.0,0.789974,-4.672222,43.251926,-8.335957,45.964016,-13.850304,33.206692,-20.32608,-18.793064,0.0,-9.885339,20.049803,33.870237,40.063643,52.497002,52.602336,58.543232,60.936245,67.432475,0.0,71.646698,33.334797,98.740173,26.035526,99.697586,17.575138,85.474411,9.215835,64.506386,0.0,4.164843,31.596192,50.068766,49.120959,64.04812,60.389668,72.001425,66.967532,72.609099,5.265919,264.52484,-45.817062,261.300221
28,1.654999,-0.134937,0.028049,-0.099702,0.0,-0.801808,-6.35574,40.974437,-10.063385,43.558857,-15.253853,31.455723,-21.181961,-14.983052,0.0,-9.323732,20.74862,34.129342,40.830533,52.778485,53.246232,58.470057,61.253939,66.232158,0.0,71.646572,33.397454,98.99564,26.053437,99.838475,17.534352,85.62212,9.143818,64.710125,0.0,4.008269,31.729189,50.355781,49.20011,64.050084,60.44649,72.101535,67.023193,72.696636,6.793871,264.362082,-45.91606,261.172698
29,4.069954,0.114559,0.025566,-0.206567,0.0,-6.480606,-10.897557,36.251369,-14.776142,38.92107,-19.324322,27.616298,-24.10944,-13.263199,0.0,-8.559162,21.900463,35.043903,41.749343,53.055374,53.788821,58.327488,61.282493,65.333764,0.0,71.411946,33.606503,99.083485,26.173863,99.896885,17.510663,85.608021,8.951592,64.444989,0.0,4.006934,31.916984,50.452853,49.331848,64.109932,60.503461,72.221614,67.051462,72.820099,10.728796,264.442079,-46.025523,260.931569
30,0.249927,4.34182,0.106522,-0.171296,0.0,-7.65992,-11.845688,35.235558,-16.179394,39.204025,-20.128715,28.32415,-23.949623,-8.567482,0.0,-11.976344,17.101369,30.130546,36.414255,48.610147,48.986367,54.654129,57.406444,60.785204,0.0,71.314121,33.64476,99.004841,26.166023,99.655506,17.459862,85.451809,8.866871,64.316357,0.0,3.862883,32.04734,50.405527,49.502872,63.927003,60.687823,72.252082,67.232564,72.751964,10.824852,268.743153,-46.072872,260.719527
31,-2.470928,0.008114,0.014328,-0.310839,0.0,-5.76012,-11.179939,38.290066,-15.529598,42.489956,-19.341362,31.901562,-22.76762,-0.292591,0.0,-11.803147,16.715046,29.887224,35.84541,48.57795,48.612604,55.010046,57.309298,60.393558,0.0,70.889866,33.529793,98.615398,25.963223,99.115643,17.191441,85.065296,8.547936,63.922176,0.0,3.793525,31.751592,50.183485,49.395957,63.833315,60.763591,72.302359,67.435933,72.857928,8.157406,268.726471,-46.255062,260.383892
32,0.014729,-0.077521,-0.17387,-0.571043,0.0,-6.532643,-12.893074,38.211227,-17.664494,41.657226,-21.651055,30.924636,-24.968766,0.580764,0.0,-11.62601,16.816934,29.934265,35.591542,48.227899,48.287031,55.025644,56.994889,60.21957,0.0,70.555664,32.846901,98.323746,25.350964,98.591034,16.890221,84.800652,8.65749,64.003464,0.0,3.749954,31.217031,49.948784,49.161787,63.722139,60.833912,72.494687,67.676994,73.51778,7.931603,268.664601,-46.669464,259.8285
33,-4.3308,-1.452555,-0.006889,-1.013831,0.0,-3.491443,-11.148948,42.58659,-16.277641,45.339077,-20.602489,33.716183,-23.856937,-1.499496,0.0,-12.080493,16.350669,31.036732,35.272872,49.309927,48.345805,57.144942,57.620408,64.757225,0.0,69.762313,31.645397,97.204513,24.124832,97.475486,15.82933,84.001098,7.779865,61.893173,0.0,3.695886,29.85278,49.561486,48.092196,63.918185,60.244715,73.188206,67.469859,75.058972,3.301883,267.264268,-46.975273,258.866891
34,-4.776947,-1.070308,-0.070828,-1.695148,0.0,1.523209,-9.731746,45.247158,-15.280185,48.176983,-19.984222,36.176571,-23.402343,-1.545044,0.0,-9.653454,14.654065,31.878181,33.067642,49.601377,46.231928,58.134641,56.069078,67.585419,0.0,68.97115,28.951172,94.746403,21.519024,95.590222,13.614384,82.41164,6.038178,58.873158,0.0,3.852905,26.949696,49.361637,45.540028,64.931942,58.613244,74.479766,66.869954,77.439957,-1.885907,266.281633,-47.456944,257.259416
35,1.570393,-1.39898,0.712864,-3.118729,0.0,-2.738823,-13.804848,31.438637,-18.856625,28.81168,-22.929417,16.696976,-25.139156,-16.523174,0.0,-7.505244,15.485163,31.17325,33.930678,48.738995,47.077575,58.546183,56.793373,70.927943,0.0,67.177895,24.765495,88.910935,16.447838,87.923767,8.340168,74.081406,0.954746,49.569958,0.0,5.597317,22.566441,49.904299,41.456695,66.958565,55.593735,76.203726,65.061173,80.116417,-0.844803,264.980231,-47.273369,254.238265
36,2.796307,5.268261,1.031307,-4.146268,0.0,-16.094181,-21.054589,10.514648,-25.248631,8.486091,-27.595562,-0.422276,-27.650265,-27.812428,0.0,2.290323,8.651653,26.441353,20.673495,38.158222,29.061251,44.04547,35.257238,53.649795,0.0,60.552761,20.77723,76.121716,12.371842,71.598542,4.360096,57.515923,-2.897564,34.684193,0.0,12.730304,20.598418,52.772494,38.444719,69.738013,52.272193,77.851449,61.686784,82.387523,1.328631,270.383522,-46.864935,250.227027
37,3.802986,-6.337618,-1.828823,-9.16696,0.0,-23.867752,-26.489777,-13.648236,-27.975952,-17.070374,-26.965634,-19.67664,-23.625183,-36.083828,0.0,12.715991,9.714847,30.419599,21.002415,44.013002,29.270844,47.920074,35.376354,55.467147,0.0,54.005762,16.927609,62.047159,8.739269,55.059992,0.842726,41.963614,-6.231748,21.954237,0.0,12.489323,16.53839,48.614488,33.268423,65.996166,46.982344,74.061437,56.893686,79.777932,4.492859,264.166681,-49.332516,241.180844
38,7.080265,-7.486533,-5.252002,-13.872959,0.0,-32.989666,-34.720711,-42.663288,-33.860584,-46.488751,-29.712982,-33.603905,-23.361111,-35.140251,0.0,23.677578,10.695468,34.752168,21.064276,47.315191,29.108403,44.615512,35.100539,49.036014,0.0,47.869256,13.367431,47.710985,5.898616,39.307027,-1.425276,28.355455,-7.685698,14.025918,0.0,4.784033,10.701235,37.009572,26.411608,55.310134,40.174472,64.126241,51.033214,71.672833,10.923821,256.796844,-55.233821,227.424581
39,3.855903,-10.557974,-6.763436,-14.27982,0.0,-44.387683,-37.228763,-66.962814,-33.282325,-67.043518,-26.216674,-44.161994,-17.366752,-32.507629,0.0,31.188243,11.86113,36.612449,21.380709,45.120951,28.89797,39.698747,33.987859,41.320461,0.0,40.112967,11.134735,34.531855,2.062065,20.457499,-6.139612,15.143526,-12.451704,4.959578,0.0,1.316896,-0.547652,7.499038,11.731831,28.268258,24.264368,48.852548,35.862534,55.479232,14.058666,246.35765,-62.718315,213.263541
40,2.586743,-23.568237,-7.632751,-18.874767,0.0,-53.464537,-40.327875,-79.494581,-34.349178,-73.033424,-25.364056,-39.785368,-15.132935,-26.071695,0.0,41.782922,14.1146,44.113117,23.223984,48.316875,30.39493,39.369914,34.931967,38.509329,0.0,29.260912,8.668659,23.111932,-2.05354,0.742223,-11.39197,7.136724,-18.231829,0.124254,0.0,-5.590369,-11.680226,-24.555588,-2.763966,-5.507599,8.446086,32.194239,20.311656,38.42446,15.80658,223.001044,-71.189895,194.600405
41,3.26889,-35.057203,-9.754051,-21.311771,0.0,-56.656065,-42.506601,-88.30414,-35.354107,-80.682712,-25.045921,-38.975389,-13.659347,-23.477743,0.0,39.750136,17.280556,49.310365,32.66698,56.630605,45.581888,50.369576,54.765903,52.766721,0.0,22.804567,6.028667,18.948423,-6.181561,-7.356669,-16.581877,6.84427,-24.197691,0.364294,0.0,-21.289016,-25.028424,-57.680195,-18.760535,-41.49716,-8.386564,12.195663,4.040002,18.715284,18.2175,188.509453,-81.801916,173.854246
42,0.718506,-23.649025,-7.27422,-22.567546,0.0,-61.360594,-43.644613,-94.61899,-37.203781,-83.965919,-27.755905,-38.590765,-17.017879,-25.798193,0.0,31.886468,13.49454,37.479783,27.012347,38.988661,38.104358,33.592805,45.699992,38.444837,0.0,14.694443,3.501102,15.898922,-11.457104,-18.504158,-23.597054,3.394455,-32.404152,-3.496616,0.0,-30.42596,-38.27863,-87.637661,-34.115133,-74.950631,-23.91315,-2.684353,-10.767451,3.722728,18.082947,165.592103,-89.929195,152.018375
43,1.815971,-35.103485,-4.879097,-20.671037,0.0,-65.790693,-45.314706,-100.145765,-40.418014,-89.505569,-32.130626,-42.278245,-22.203666,-29.977071,0.0,26.047596,7.928376,25.196984,21.731841,28.557898,33.7667,28.402874,42.589136,34.778987,0.0,7.921314,1.341694,14.28677,-16.515324,-29.222637,-30.575592,-0.356163,-40.930573,-9.409287,0.0,-31.714092,-49.285875,-110.630674,-47.601621,-102.973141,-38.072655,-13.59465,-24.709267,-8.000353,18.891815,131.987115,-95.815395,132.845835
44,1.536942,-35.609376,-2.626373,-24.113845,0.0,-64.586317,-48.295298,-103.831209,-45.52454,-98.217075,-38.493439,-45.808714,-29.161228,-34.06679,0.0,19.442711,3.272686,10.701353,17.369793,19.229209,30.209154,23.601613,40.500577,31.10414,0.0,-0.111386,-1.56395,12.836918,-19.882862,-37.358746,-34.441967,-5.805004,-45.471794,-13.823582,0.0,-39.027396,-53.206569,-115.366689,-51.610334,-115.653106,-41.845154,-19.465903,-28.820368,-11.967044,19.731743,98.773149,-99.138782,111.1274
45,-1.668079,-35.011168,-2.599217,-19.749603,0.0,-59.501358,-49.394532,-106.000512,-48.41066,-103.620221,-42.542691,-49.757687,-34.008877,-38.455056,0.0,7.188693,-0.66746,-4.371707,14.31085,8.6416,28.059097,18.995452,39.44909,28.58794,0.0,-3.709614,-2.484432,13.147797,-20.549938,-38.838924,-34.956447,-9.061649,-46.198517,-16.150646,0.0,-44.767765,-56.579822,-119.249876,-55.181453,-123.769099,-45.200135,-25.505347,-32.024276,-16.741667,17.555941,66.505302,-102.245722,94.121118
46,-1.355004,-28.703499,-0.775371,-17.95418,0.0,-54.423912,-48.752174,-109.394451,-49.361641,-110.523102,-45.095455,-51.9566,-38.099704,-41.809696,0.0,3.290389,-3.082235,-13.227118,12.171098,2.957492,26.144951,15.188816,37.759518,26.148736,0.0,-7.123249,-3.319027,13.824566,-21.957665,-42.717362,-36.453186,-11.737507,-47.552273,-17.931759,0.0,-48.03922,-60.023703,-124.097814,-58.189457,-130.597687,-47.120899,-28.431445,-32.840443,-18.857563,15.636217,40.687844,-103.585813,79.052979
47,-2.112648,-30.093705,-0.239582,-12.383118,0.0,-51.170597,-49.273922,-106.78117,-51.094631,-112.594974,-47.581558,-47.609802,-41.242653,-39.404571,0.0,5.066059,-6.880244,-17.627903,10.961519,5.478694,28.027573,20.427437,42.753712,32.643558,0.0,-8.71518,-3.641671,14.91624,-21.865197,-43.2426,-36.081013,-12.421315,-47.074814,-18.061627,0.0,-49.940047,-61.053812,-124.490708,-59.332075,-133.280138,-48.11652,-31.75242,-33.524188,-21.194477,12.889469,13.729371,-104.459495,69.805093
48,-3.659706,-17.921248,0.671711,-9.359949,0.0,-50.041157,-48.708961,-104.099155,-50.694568,-113.067283,-47.296245,-47.68507,-41.228439,-39.656319,0.0,4.310901,-7.585588,-23.794114,10.298196,2.364837,27.175275,19.12175,41.534457,31.643591,0.0,-11.410962,-3.926445,14.620845,-21.782502,-43.571663,-35.925477,-12.829777,-47.088707,-18.304276,0.0,-52.729393,-61.707835,-123.140553,-59.852013,-134.721818,-48.425013,-33.399556,-33.649102,-22.455963,8.772852,-1.479027,-104.244695,63.157994
49,-3.819053,-16.109806,0.48397,-4.842202,0.0,-49.106541,-48.332703,-102.724,-50.447411,-115.229302,-47.152588,-47.859627,-41.409966,-39.840294,0.0,3.669629,-8.692754,-25.525762,10.243202,4.999684,28.101798,20.850237,43.103257,34.331099,0.0,-11.470367,-3.603779,15.360237,-21.281433,-43.259079,-35.320816,-11.000347,-46.681789,-17.694568,0.0,-53.837158,-62.763118,-122.071691,-60.614142,-135.886517,-48.839852,-35.431305,-33.688128,-24.090737,4.268452,-15.57514,-104.446072,60.329485
50,-1.602173,-7.832756,1.690018,-2.937738,0.0,-50.353844,-48.479142,-103.515622,-50.964867,-120.586682,-47.958287,-47.555752,-42.474633,-39.685353,0.0,10.342756,-8.597213,-22.788606,10.035325,10.319692,27.819864,22.697007,42.94128,35.651755,0.0,-13.107433,-4.26614,12.851154,-21.654453,-41.052876,-35.604939,-10.069393,-46.716671,-17.325588,0.0,-56.14773,-62.55909,-121.27894,-59.615429,-130.702528,-47.563749,-35.14752,-32.258774,-23.150656,1.92449,-21.402727,-103.497843,59.396916
51,-3.277085,-4.770194,2.669815,0.615824,0.0,-50.726188,-48.951553,-105.435756,-51.718242,-123.707988,-48.612682,-47.985042,-42.727409,-39.52779,0.0,9.652565,-8.249676,-24.890826,9.899813,10.424945,27.398948,23.760045,42.700558,36.765429,0.0,-13.529835,-4.988171,3.20977,-21.943932,-37.615562,-35.996887,-9.705769,-47.264122,-17.628536,0.0,-57.14167,-62.331817,-121.483426,-58.612559,-120.346483,-46.518629,-33.924997,-31.356915,-21.843424,-1.995352,-24.501044,-101.470785,61.684617
52,-4.085014,-2.558382,2.766415,4.476973,0.0,-51.742916,-48.823849,-109.433029,-52.047844,-127.195873,-49.036205,-48.262528,-42.997055,-38.856228,0.0,8.345581,-7.622724,-22.708948,10.286032,12.827951,27.730832,25.679576,43.261907,38.380895,0.0,-13.52044,-6.232682,-7.532925,-22.563893,-37.35981,-36.489579,-9.770153,-47.97432,-18.12806,0.0,-56.622849,-61.335807,-116.538107,-57.316356,-113.160069,-45.653463,-32.212121,-31.03241,-21.061689,-6.730974,-25.781313,-99.354978,67.439703
53,-4.642513,0.308401,2.127307,6.137046,0.0,-51.538559,-48.411301,-112.04678,-51.673806,-128.332455,-48.602555,-47.309613,-42.297615,-37.156872,0.0,8.1395,-7.550001,-19.571695,10.060871,14.828021,27.539726,27.150408,43.358527,39.683476,0.0,-13.787052,-7.020343,-17.875156,-23.209533,-32.985431,-37.024578,-11.224788,-48.594657,-19.831214,0.0,-55.915585,-60.583113,-116.020502,-55.822274,-97.789471,-44.468874,-30.4628,-30.369896,-20.775012,-11.955087,-24.480765,-97.809271,74.568896
54,-4.701313,2.122701,1.058224,6.663567,0.0,-51.068665,-47.507973,-113.870762,-50.788411,-128.302094,-47.709069,-45.919258,-41.307724,-35.524178,0.0,8.279378,-7.621959,-17.545244,9.848209,15.73243,27.388407,27.36212,43.317519,39.849245,0.0,-13.775024,-6.746589,-25.799309,-22.989692,-32.590519,-37.088596,-12.738544,-49.142887,-21.272953,0.0,-55.160519,-59.71074,-114.238756,-54.902908,-93.197704,-44.02151,-29.269263,-30.451314,-20.610583,-17.131782,-21.571311,-97.226429,82.019216
55,-3.986264,2.814701,0.737858,6.39575,0.0,-51.21215,-45.781082,-114.711925,-48.835624,-126.773323,-45.856784,-43.752914,-39.631622,-33.370021,0.0,6.651143,-7.95848,-18.117275,9.394825,14.882504,27.02516,27.150291,42.96945,39.483071,0.0,-13.458263,-6.273834,-29.86631,-22.494484,-34.378258,-36.71553,-14.108402,-49.285778,-22.812069,0.0,-52.858859,-59.16257,-109.717854,-54.656043,-92.757758,-44.168316,-28.98,-31.034559,-21.042305,-21.574328,-18.386824,-96.944853,88.784752
56,-2.946647,2.553095,-0.131699,4.944627,0.0,-51.103432,-43.726227,-112.971337,-46.518631,-124.250874,-43.51252,-41.809513,-37.493569,-31.444588,0.0,6.823421,-8.073989,-17.927966,9.303497,14.926662,26.9838,26.506507,42.668578,38.131534,0.0,-12.791633,-5.651596,-28.495948,-21.937774,-37.166668,-36.072601,-14.852359,-48.739437,-23.470378,0.0,-50.91503,-58.416513,-103.495216,-54.289721,-94.562784,-44.226232,-29.425004,-31.474259,-22.065886,-24.937946,-15.694849,-97.493523,93.868259
57,-1.22881,1.958612,-0.184661,2.162487,0.0,-50.557605,-42.330116,-112.035827,-44.745895,-122.472541,-41.622242,-40.751255,-35.661621,-30.585331,0.0,6.069362,-8.098702,-18.25042,9.344758,14.468054,27.065175,25.788232,42.578299,37.117605,0.0,-12.411072,-4.632409,-26.268105,-21.228871,-36.755585,-35.59116,-15.364735,-48.427861,-24.033921,0.0,-50.76074,-58.46382,-101.630328,-54.480394,-93.689226,-44.487782,-30.172153,-31.719458,-22.683822,-26.466471,-13.643445,-97.977899,96.123538
58,-0.644977,1.236219,0.573474,0.784348,0.0,-50.948296,-40.658055,-111.413498,-42.953224,-121.021809,-40.019428,-39.529896,-34.337803,-29.560181,0.0,4.023644,-8.324067,-19.457851,9.208604,13.875892,27.010075,25.229465,42.400482,36.331942,0.0,-12.251667,-4.342964,-24.172611,-20.908676,-40.838928,-35.42102,-15.888507,-48.405052,-23.884895,0.0,-51.03947,-58.145998,-97.164477,-54.723314,-100.222969,-44.888734,-31.217057,-32.120749,-22.748611,-27.409269,-12.426282,-97.702246,96.88883
59,0.168102,0.671962,1.17516,0.478689,0.0,-51.075989,-39.522583,-111.3162,-41.457424,-120.615406,-38.395809,-38.48481,-32.680412,-28.525154,0.0,4.102388,-8.432717,-19.40645,9.163267,13.816679,27.052083,24.948759,42.411344,35.767086,0.0,-11.793972,-4.801952,-25.310989,-21.126251,-39.649475,-35.537224,-16.670941,-48.458347,-24.022534,0.0,-51.171949,-57.559825,-94.151644,-54.184406,-95.308636,-44.583631,-31.570454,-31.931972,-22.869809,-27.512913,-11.803937,-96.798832,97.317902
60,-0.13987,0.263112,0.344067,0.396283,0.0,-51.102848,-38.973037,-111.334282,-40.764221,-119.85181,-37.55801,-37.839431,-31.750087,-27.691909,0.0,3.248615,-8.368928,-19.602366,9.335211,13.99512,27.217809,24.522212,42.48944,35.178685,0.0,-10.651486,-4.710984,-26.507298,-20.827446,-37.446087,-35.105015,-17.428105,-47.951191,-24.038304,0.0,-50.591575,-57.127097,-92.456502,-53.787851,-89.425526,-44.417775,-32.054169,-31.858643,-23.337648,-27.789694,-11.615632,-96.591676,97.639378
61,0.027237,0.195879,0.315444,0.368798,0.0,-50.356441,-39.299274,-111.006626,-41.031292,-119.379123,-37.612163,-37.400184,-31.556442,-27.295292,0.0,2.281844,-7.856308,-19.571868,10.128969,14.137824,28.052366,24.235394,43.217575,35.334888,0.0,-10.641574,-4.990047,-28.327251,-20.827411,-35.037643,-35.031269,-17.889907,-47.969696,-24.197341,0.0,-50.576496,-56.628746,-92.173191,-53.340382,-85.810262,-44.109295,-32.501255,-31.482916,-23.613493,-27.803891,-11.466128,-96.317666,97.961801
62,-0.793613,0.53356,0.60323,-0.011041,0.0,-49.890061,-38.978497,-110.328461,-40.718617,-118.412796,-37.267479,-36.519631,-31.123913,-26.140045,0.0,1.439124,-7.72636,-20.144689,10.287952,14.09434,28.156724,24.067483,43.240609,35.163037,0.0,-11.148376,-5.79578,-30.697369,-21.430847,-31.282722,-35.512127,-18.189217,-48.390759,-24.476269,0.0,-51.223726,-56.020554,-92.591112,-52.499305,-79.17003,-43.315586,-31.848719,-30.573289,-23.393538,-28.609394,-10.975176,-95.726326,97.908152
63,-0.39782,0.56556,0.247204,0.111238,0.0,-49.318485,-39.004348,-109.68251,-40.684307,-117.720279,-37.047603,-35.970256,-30.659088,-25.472831,0.0,2.292299,-7.462334,-19.898194,10.591295,13.711111,28.489892,23.855987,43.516009,35.161185,0.0,-11.152897,-6.306427,-31.938664,-21.829251,-29.489388,-35.741226,-18.405956,-48.392784,-24.571289,0.0,-51.191432,-55.493879,-92.933642,-51.823108,-75.551852,-42.683306,-31.283414,-29.813204,-23.231759,-29.017937,-10.426727,-95.489845,98.002279
64,-0.290073,0.579583,-0.012783,0.222412,0.0,-49.739147,-38.995926,-109.787132,-40.697731,-117.324669,-37.142956,-35.991417,-30.814877,-25.425705,0.0,-0.63866,-7.289062,-20.465173,10.574005,13.362882,28.295051,24.052582,43.216051,35.295121,0.0,-11.17923,-6.361988,-29.613774,-21.972977,-29.844017,-35.845333,-18.32769,-48.342442,-24.484875,0.0,-50.525996,-55.255985,-92.30383,-51.58651,-75.523798,-42.411128,-31.124844,-29.380914,-22.945718,-29.31815,-9.864091,-95.512768,98.207744
65,0.216648,0.808622,0.037731,0.257697,0.0,-49.582592,-39.27253,-109.857387,-41.080879,-117.779961,-37.544769,-36.107174,-31.171566,-25.562977,0.0,-0.335379,-7.160936,-19.902208,10.677862,13.412658,28.378692,24.071737,43.235594,35.418887,0.0,-11.449253,-6.845078,-30.579506,-22.279907,-26.260563,-36.053764,-18.041565,-48.53999,-24.579277,0.0,-50.244384,-54.854886,-92.03831,-50.957162,-68.998854,-41.779903,-30.346283,-28.786968,-22.714247,-29.111418,-9.085177,-95.484953,98.435733
66,-0.305466,0.830802,-0.360592,0.15676,0.0,-49.764175,-38.995582,-110.120498,-40.750236,-117.666286,-37.26123,-35.907943,-30.973056,-25.41782,0.0,-0.131633,-7.456967,-20.153896,10.232105,13.287843,27.89016,23.932039,42.741567,35.253952,0.0,-10.84861,-6.344662,-24.87006,-21.957733,-28.725895,-35.72295,-17.899441,-48.0298,-24.075989,0.0,-49.184216,-54.7044,-90.868338,-50.980535,-72.725535,-41.669957,-30.506235,-28.511043,-22.14347,-29.41543,-8.306721,-95.844091,98.540147
67,0.29599,0.423892,-0.470741,0.7465,0.0,-50.429649,-38.984298,-110.57191,-40.639572,-117.870517,-37.118866,-36.262516,-30.890499,-25.890312,0.0,-1.433561,-7.42905,-19.859285,10.317858,13.308405,28.055904,24.189131,42.955217,35.733278,0.0,-10.409569,-5.88818,-24.536671,-21.487484,-28.238686,-35.184883,-17.543598,-47.413994,-23.9702,0.0,-47.945897,-54.610057,-91.17423,-50.826424,-71.795635,-41.539347,-30.669534,-28.49251,-22.422655,-29.066821,-7.951233,-96.262213,99.218243
68,-0.016033,0.493133,-0.314656,0.678094,0.0,-51.221958,-38.986507,-110.828075,-40.683311,-118.029075,-37.192508,-36.702129,-31.067951,-26.323368,0.0,-2.835215,-7.385794,-19.477241,10.539733,14.202353,28.294563,24.132277,43.111328,35.561525,0.0,-10.077632,-5.525299,-22.615253,-21.217357,-28.85289,-34.932048,-17.375759,-47.138317,-23.716506,0.0,-46.889811,-54.732083,-90.745719,-51.006075,-73.093994,-41.694317,-31.02279,-28.635432,-22.344615,-28.977774,-7.531802,-96.471789,99.822635
69,-0.068115,0.561928,0.189641,0.207469,0.0,-51.312881,-39.021515,-110.759251,-40.766624,-117.810276,-37.258587,-36.776894,-31.120605,-26.356064,0.0,-2.405191,-7.509319,-19.257187,10.508648,14.243931,28.301659,23.852492,43.032115,35.213129,0.0,-10.438775,-6.125519,-26.403065,-21.58667,-23.757466,-35.186383,-17.079083,-47.365769,-23.932366,0.0,-47.465702,-54.386842,-91.0928,-50.416877,-65.229424,-41.131326,-30.372193,-28.126874,-22.179754,-28.912113,-7.076483,-96.148372,99.923495
70,-0.285313,0.220381,0.033931,0.22789,0.0,-51.573486,-39.235748,-110.524086,-40.864517,-117.185039,-37.170147,-36.660816,-30.859325,-26.264866,0.0,-0.885494,-7.335492,-19.287309,10.7062,14.574036,28.483255,23.577141,43.079928,34.812758,0.0,-10.177322,-6.495083,-27.80635,-21.735145,-22.704952,-35.213344,-16.84909,-47.31372,-23.885284,0.0,-47.386396,-53.766053,-92.02475,-49.866922,-64.464818,-40.74722,-30.079509,-27.875982,-22.323175,-29.041884,-7.016283,-95.958899,99.991204
71,0.004189,0.109484,0.367287,0.454211,0.0,-51.956143,-39.21286,-110.09436,-40.80217,-116.89682,-37.09861,-36.626175,-30.754303,-26.214649,0.0,-3.177114,-7.135026,-19.24685,10.876032,14.816962,28.593905,23.792156,43.171911,34.897331,0.0,-10.469273,-7.492516,-34.238617,-22.321541,-16.192474,-35.629726,-16.615162,-47.71954,-24.322334,0.0,-47.53522,-53.20631,-93.691239,-48.964026,-54.346161,-40.088719,-29.31502,-27.569935,-22.866128,-28.897785,-7.148468,-95.451702,100.203746
72,0.057987,0.359943,0.19479,0.336787,0.0,-51.526131,-39.409172,-109.764198,-41.041912,-116.69141,-37.267284,-36.655483,-30.768951,-26.199177,0.0,-1.112168,-7.18521,-19.062667,10.664932,15.101316,28.273995,23.564229,42.777048,34.477392,0.0,-10.404167,-7.853028,-34.286911,-22.532456,-14.086384,-35.763725,-16.603832,-47.792324,-24.363064,0.0,-47.463899,-52.800091,-94.359539,-48.606831,-51.316402,-39.91538,-29.163077,-27.587565,-23.175418,-28.742775,-7.063741,-95.159889,100.265317
73,0.063023,0.217991,-0.000103,0.457706,0.0,-51.09676,-39.193096,-109.722714,-40.825367,-116.578434,-37.127037,-36.653149,-30.672112,-26.305813,0.0,0.922477,-7.262169,-19.404523,10.342324,14.563971,27.856414,23.559814,42.420014,34.460454,0.0,-10.756108,-7.570301,-32.095711,-22.224301,-9.805767,-35.477646,-16.506249,-47.62246,-24.784561,0.0,-47.04231,-52.471258,-94.773408,-48.257527,-45.314484,-39.755983,-29.105951,-27.733234,-23.961802,-28.62858,-7.142445,-95.10882,100.426328
74,-0.046738,0.169709,-0.323628,0.701108,0.0,-50.835651,-38.968803,-109.628597,-40.594528,-116.421146,-36.939491,-36.46067,-30.517582,-26.23035,0.0,3.101223,-7.276273,-19.59553,10.211863,14.148464,27.706854,23.485207,42.339485,34.422137,0.0,-10.200462,-7.255417,-30.754245,-21.758136,-9.143955,-34.952144,-16.380317,-47.126014,-24.804084,0.0,-45.919638,-52.268827,-94.969219,-48.160066,-45.075794,-39.872858,-29.786676,-28.073515,-24.884366,-28.640951,-7.273988,-95.398081,100.826184
75,0.011135,0.278025,-0.271362,0.504495,0.0,-50.639625,-38.494789,-109.569157,-40.049148,-116.313938,-36.476955,-36.19503,-30.159737,-26.052383,0.0,2.2891,-7.367077,-19.993684,10.035251,13.433469,27.49221,23.485201,42.188888,34.584627,0.0,-9.770302,-6.432632,-25.715538,-21.042057,-9.325218,-34.334873,-16.274494,-46.736996,-24.961178,0.0,-45.972144,-52.09437,-93.186658,-48.287457,-46.879443,-40.19929,-30.661111,-28.505929,-25.561966,-28.613989,-7.265427,-95.653616,101.061215
76,0.130623,0.330568,-0.153362,0.082462,0.0,-50.561005,-38.306751,-109.810993,-39.889847,-116.518753,-36.410236,-36.28545,-30.213455,-26.256489,0.0,3.23734,-7.508769,-20.326506,9.872909,12.736535,27.327818,23.40537,42.055335,34.498146,0.0,-9.487599,-5.913071,-22.311402,-20.577473,-10.484677,-33.95208,-16.2323,-46.539963,-25.241822,0.0,-46.436885,-51.720701,-90.87878,-48.20449,-49.827908,-40.330232,-30.923545,-28.678948,-25.769244,-28.458818,-7.133794,-95.78243,100.944742
77,-0.002083,0.327605,-0.207676,0.002204,0.0,-50.690723,-38.070511,-110.053322,-39.633819,-116.636352,-36.183597,-36.23584,-30.050239,-26.2645,0.0,2.90866,-7.538077,-20.517606,9.945379,12.265237,27.45913,23.258583,42.193723,34.284891,0.0,-9.110161,-5.30563,-17.4623,-20.02454,-11.458866,-33.488503,-16.229141,-46.333775,-25.479939,0.0,-46.475812,-51.178161,-88.014906,-48.036603,-52.668785,-40.367294,-31.468282,-28.761922,-26.069659,-28.420721,-6.9497,-95.949926,100.803435
78,0.005013,0.222308,0.282257,-0.401958,0.0,-50.953549,-38.177513,-110.056492,-39.645298,-116.538906,-36.124764,-35.98708,-29.999176,-26.0331,0.0,0.956353,-7.575905,-20.488052,10.013372,12.093812,27.571923,23.553681,42.332315,34.498448,0.0,-8.582954,-6.133896,-19.715138,-20.449448,-10.946217,-33.749428,-16.276325,-46.61372,-25.788792,0.0,-47.862911,-50.436786,-86.375816,-47.294165,-51.649774,-39.681883,-31.034936,-28.016625,-25.727599,-28.348457,-6.857284,-95.600418,100.271585
79,-0.123848,0.258295,0.167805,-0.276444,0.0,-50.895081,-38.283177,-109.761898,-39.774193,-116.360962,-36.119397,-35.931828,-29.888111,-25.761235,0.0,0.320324,-7.369553,-20.163164,10.392243,12.646503,27.999761,23.839049,42.628385,34.614916,0.0,-8.585118,-6.231789,-18.482655,-20.498864,-11.035572,-33.777935,-16.543293,-46.739308,-26.225487,0.0,-47.981281,-49.805894,-85.289818,-46.762927,-51.098491,-39.259924,-30.6379,-27.6717,-25.43573,-28.409866,-6.712962,-95.370174,99.881168
80,0.38594,0.547109,0.186573,0.114435,0.0,-51.213867,-38.479191,-109.74599,-40.04916,-116.494663,-36.434875,-36.415603,-30.300899,-26.124241,0.0,1.024989,-7.461833,-20.058646,10.430991,13.12279,28.115203,24.080598,42.70816,34.767205,0.0,-8.505329,-6.734665,-21.820393,-20.710236,-10.50309,-33.889584,-16.506832,-46.824406,-26.224228,0.0,-48.51397,-49.497765,-85.625368,-46.38284,-49.67011,-38.873069,-30.149755,-27.224892,-24.955039,-27.969361,-6.275046,-95.129036,99.88641
81,1.010388,1.342966,-0.009442,0.357671,0.0,-50.787083,-38.676258,-109.641964,-40.46925,-117.011879,-36.992432,-37.19711,-30.941288,-26.777447,0.0,1.379813,-7.579035,-19.929667,10.334661,12.795766,28.023535,23.700611,42.536883,34.486204,0.0,-8.485233,-6.925037,-21.647484,-20.774814,-8.957702,-33.916946,-16.313289,-46.844387,-26.013221,0.0,-48.460216,-49.143738,-84.36634,-46.053296,-46.764254,-38.610445,-29.953772,-27.075271,-24.892826,-26.902994,-5.044287,-95.082499,100.131874
82,0.925815,1.383024,0.042481,0.410227,0.0,-50.223404,-38.806286,-109.302898,-41.053871,-117.618267,-37.942222,-37.832142,-32.203319,-27.525959,0.0,1.244747,-7.695249,-20.273111,10.141771,12.631158,27.76674,24.066483,42.363191,35.154985,0.0,-8.512276,-7.563927,-23.531605,-21.172119,-7.787659,-34.169838,-16.238743,-46.950703,-25.762551,0.0,-48.566069,-48.654218,-84.281149,-45.442048,-43.852605,-38.033123,-29.445876,-26.604579,-24.547796,-25.929245,-3.808596,-94.992084,100.394768
83,1.254341,2.38448,-0.914749,1.468641,0.0,-49.238365,-38.977478,-108.509903,-41.393898,-117.880737,-38.411865,-38.800426,-32.700302,-28.510482,0.0,1.949615,-7.954126,-20.837318,9.732421,11.92616,27.262239,23.783925,41.921453,35.219391,0.0,-7.049687,-6.801178,-20.558968,-20.458947,-7.09433,-33.495873,-15.049759,-46.311505,-24.546513,0.0,-46.893942,-48.52934,-81.515855,-45.486311,-43.699513,-38.307961,-29.858165,-27.260739,-25.06419,-24.682812,-1.618235,-95.914741,101.66929
84,2.865956,3.182394,-0.827305,1.661561,0.0,-47.887471,-39.325527,-108.330494,-42.15802,-118.728836,-39.591133,-40.3713,-34.147488,-30.324658,0.0,2.090054,-8.620475,-21.509502,8.924781,10.371921,26.397739,23.141307,41.319072,35.222028,0.0,-4.667645,-6.953728,-19.398995,-20.28122,-5.931416,-33.14344,-13.769428,-45.863983,-23.031475,0.0,-46.528886,-48.088917,-80.874829,-45.102674,-43.055055,-38.142173,-29.776901,-27.501231,-25.403946,-21.898967,1.311486,-96.824157,103.078178
85,3.821113,3.62562,-1.268933,2.146241,0.0,-46.740406,-39.824077,-105.894653,-43.150715,-119.098056,-40.831901,-42.75222,-35.49321,-32.760338,0.0,1.180125,-8.625335,-21.535444,8.967654,9.983949,26.342436,22.353853,41.257087,35.002369,0.0,-1.868957,-6.323421,-17.230625,-19.674934,-5.884803,-32.618362,-11.940811,-45.391594,-20.740493,0.0,-46.18795,-48.312763,-80.767075,-45.573836,-49.653914,-38.836285,-30.610822,-28.426944,-26.267884,-18.087868,4.408124,-98.103104,104.695437
86,3.75198,5.144655,-0.689598,2.297041,0.0,-47.021816,-39.400349,-101.296062,-43.110855,-116.474602,-41.04649,-44.084129,-36.053135,-34.056816,0.0,0.057712,-8.946622,-22.532756,8.812957,9.587338,26.260462,21.315353,41.212849,34.478312,0.0,0.779847,-7.130642,-15.08488,-20.199772,-4.489975,-32.86219,-10.074588,-45.275871,-18.762714,0.0,-46.145015,-48.540875,-83.2096,-45.74176,-52.906629,-38.9612,-31.095328,-28.610892,-26.583027,-14.18973,8.722177,-98.646544,106.161876
87,4.382446,6.330078,-1.01477,2.65465,0.0,-47.717136,-38.337764,-97.49097,-41.803482,-114.480606,-39.748889,-45.857025,-34.988822,-35.451015,0.0,-1.479089,-9.588141,-22.440476,8.491639,9.068863,26.103931,20.056985,41.084791,33.506163,0.0,3.432358,-7.108772,-11.844727,-20.030857,-0.825474,-32.630425,-7.187565,-44.693688,-15.865105,0.0,-46.491879,-49.240711,-85.802753,-46.87257,-61.332991,-40.126375,-31.949651,-29.747656,-26.786001,-9.500525,13.981244,-99.354555,107.745515
88,3.832856,8.724222,-0.307629,3.188112,0.0,-45.211315,-36.275769,-93.656926,-39.230954,-109.920479,-37.167538,-46.632214,-32.975178,-36.360363,0.0,-3.010376,-8.860548,-17.509305,9.688714,10.856297,27.211665,21.229403,41.52207,33.789239,0.0,4.736641,-5.732597,-1.45729,-18.844505,3.569596,-32.143101,-5.426582,-44.535095,-13.515507,0.0,-47.869703,-49.342704,-89.277727,-47.866264,-78.021219,-41.314619,-31.573022,-30.885234,-26.463639,-5.068296,21.277071,-99.062811,109.505232
89,5.411865,12.452276,0.282543,3.234715,0.0,-46.673413,-37.304215,-92.058684,-38.918095,-105.579123,-36.07976,-50.873623,-31.442019,-40.390045,0.0,-2.67328,-7.416842,-10.937628,11.478553,14.579572,29.127188,24.497648,43.289244,36.297099,0.0,9.194744,-4.664749,6.756478,-18.36129,3.784562,-32.133064,-2.802635,-44.336322,-10.667976,0.0,-47.243548,-50.080757,-93.992519,-48.994351,-92.318934,-42.139234,-29.680724,-31.228795,-24.670222,1.160277,31.984774,-97.96356,110.995374
90,6.861099,16.168753,0.706765,4.39884,0.0,-51.006855,-41.377006,-94.966581,-41.012947,-101.944261,-36.825113,-57.781975,-30.791239,-46.795795,0.0,1.316019,-5.833111,-2.924469,13.167309,18.919236,31.244029,29.869026,46.08106,41.191906,0.0,13.162033,-3.862496,16.505584,-17.977238,8.566143,-31.956311,1.284679,-43.844307,-7.640465,0.0,-44.378619,-50.1158,-96.229934,-49.110331,-95.848563,-41.913561,-26.197414,-30.549102,-21.306411,8.875603,46.2644,-96.402568,113.505087
91,7.877312,17.453859,1.415199,5.886457,0.0,-53.923737,-43.471356,-99.019404,-41.331539,-100.807165,-35.914713,-67.204926,-28.573317,-54.763012,0.0,3.829124,-2.032009,10.07466,16.967997,28.812381,34.736014,40.097957,49.47677,50.844619,0.0,16.158646,-2.64077,24.489704,-17.2729,14.87923,-31.298012,5.988933,-42.825771,-3.961567,0.0,-43.321113,-50.390744,-94.903356,-49.33225,-96.420076,-41.33848,-22.251353,-28.842018,-17.26786,17.508082,61.860041,-94.232202,117.533326
92,9.327988,19.663628,1.750923,6.293689,0.0,-55.854344,-46.370545,-103.288336,-42.516278,-100.495497,-35.748545,-77.646973,-27.062674,-62.840527,0.0,7.599506,3.441406,25.087723,22.28309,41.305978,39.78936,52.724614,54.452125,62.320069,0.0,21.479691,-2.684727,33.200352,-17.027744,20.025078,-30.159908,11.232479,-40.71468,-0.086918,0.0,-43.932961,-49.299566,-83.844623,-46.890034,-84.746291,-37.506651,-16.294347,-23.749499,-11.940529,27.38193,79.747566,-91.935419,122.050912
93,11.027984,20.635351,1.21986,8.194847,0.0,-61.9105,-49.6142,-108.003405,-44.689911,-103.816938,-36.945745,-88.756107,-26.941217,-70.800499,0.0,12.735208,8.479382,36.488887,27.046894,53.737861,44.312219,64.825262,59.194211,73.908627,0.0,28.685166,-1.690372,33.860127,-15.99131,24.265251,-27.699818,16.445034,-36.599956,4.367272,0.0,-39.436431,-48.29601,-70.144065,-43.826996,-61.307785,-32.837714,-10.728751,-17.637548,-5.329758,38.661707,98.737899,-90.463766,128.600741
94,8.241532,20.109562,0.219143,10.25612,0.0,-64.033665,-49.540764,-109.759655,-44.072011,-106.180333,-35.828866,-95.313824,-25.161187,-74.262303,0.0,16.38441,13.837008,46.978528,32.0651,65.160332,48.624325,75.878511,62.818299,84.377887,0.0,33.619995,0.643295,41.060085,-13.235218,36.320263,-23.719151,26.225922,-31.444656,11.49836,0.0,-36.022442,-46.404496,-50.647731,-40.49006,-37.975855,-28.063098,-4.33478,-11.537947,1.725646,46.977019,117.265017,-90.170843,137.274417
95,5.10633,19.752018,0.577297,9.316661,0.0,-63.272094,-45.550289,-108.233459,-40.145027,-107.638618,-32.055084,-97.508846,-21.717521,-73.526104,0.0,17.002772,18.679469,55.913998,36.665616,75.46361,52.353951,85.403179,65.233592,92.967481,0.0,38.145252,2.768303,48.896713,-10.571537,47.394436,-19.865158,36.646111,-26.06789,20.789074,0.0,-32.410259,-41.860524,-29.631441,-34.27535,-14.897398,-20.631146,3.823716,-3.432656,10.319161,52.004001,135.602824,-89.672894,145.176867
96,2.813942,20.253258,0.383217,8.715775,0.0,-62.692463,-44.102073,-107.336254,-38.198089,-108.396938,-29.783294,-97.015308,-19.381553,-71.364269,0.0,20.918311,21.472854,61.210232,39.368198,80.948863,54.861709,90.566934,67.248793,96.854657,0.0,45.409584,5.929539,54.809727,-6.60466,51.779698,-15.420719,42.131138,-21.106819,26.177662,0.0,-25.939403,-34.555074,-8.636925,-25.692192,4.312766,-12.099919,13.442768,4.160705,19.391889,54.629036,154.542666,-89.478584,152.579226
97,0.07663,20.336387,3.903225,11.525158,0.0,-60.975151,-42.106064,-104.480255,-36.010986,-106.580372,-27.380631,-94.067345,-16.767311,-67.828972,0.0,24.127566,23.788791,63.429171,41.369059,83.001742,56.121739,92.448098,67.280668,98.088479,0.0,50.309841,18.497566,56.576672,8.355938,52.470051,0.030384,44.151169,-6.233482,31.895176,0.0,-17.187387,-21.794635,11.425309,-11.200703,26.396227,2.599409,33.291685,17.643649,39.706565,54.541386,173.677541,-85.739639,162.902872
98,-1.270958,18.790329,4.157467,12.543732,0.0,-56.514645,-40.251686,-101.691959,-34.007881,-104.699375,-25.209022,-91.727119,-14.468651,-65.280647,0.0,26.481319,26.100541,64.910144,43.035295,83.461561,56.947861,93.095243,67.061726,98.789322,0.0,54.138805,24.760792,62.085262,15.67424,58.641415,6.707279,50.689018,-1.258656,36.390964,0.0,-12.794068,-11.127758,23.825371,0.125551,38.668009,13.273152,45.006615,26.702372,49.212794,53.10771,191.450702,-81.74489,174.429436
99,-1.638634,17.991514,3.585194,12.868428,0.0,-52.201046,-38.300148,-99.820587,-32.196464,-103.244213,-23.702614,-90.186607,-13.340767,-64.356617,0.0,27.211072,28.109553,64.938759,44.01809,81.924753,56.87744,91.619679,66.045128,97.586016,0.0,58.103107,27.755252,66.314106,19.117046,62.814136,9.575878,54.345565,0.572238,39.270057,0.0,-9.482357,-3.537694,33.840843,8.186598,48.907363,20.895734,55.115095,33.56367,57.898532,51.281633,208.646395,-78.347139,186.502043
100,-3.331352,16.31604,3.659774,14.020505,0.0,-49.776318,-35.256821,-97.108932,-28.922996,-99.606525,-20.413856,-86.569599,-10.260864,-61.180183,0.0,27.104244,32.00341,65.031199,45.855411,76.153918,56.30941,87.287134,62.940725,94.154805,0.0,62.809388,30.261624,68.502903,22.016499,64.382653,11.924652,53.805119,1.562691,37.534172,0.0,-7.510233,2.705508,42.989883,14.949466,57.995814,27.506684,64.591585,39.684384,66.238988,47.772022,224.381883,-74.865624,199.941996
101,-0.112083,23.030557,5.134632,15.249647,0.0,-52.039639,-34.605767,-97.587925,-29.864571,-98.284905,-22.969368,-84.100937,-14.668671,-61.129704,0.0,30.262506,30.903981,55.315969,38.054593,54.923669,41.684751,60.610845,42.017561,64.819654,0.0,63.228837,37.233799,71.791478,29.921998,67.79805,19.633164,57.186722,7.938172,42.271431,0.0,-5.47883,10.235588,49.479741,23.918182,65.106843,37.059658,73.206447,49.143633,74.923936,47.490195,246.993037,-69.900736,214.77224
102,-2.551003,11.111542,1.320637,13.213575,0.0,-51.925678,-33.218719,-94.224701,-28.736572,-95.387077,-22.376678,-82.211197,-14.674713,-60.755802,0.0,32.923862,32.376593,47.636552,38.04985,43.632507,40.45435,51.078557,39.910995,60.235612,0.0,65.78587,31.205567,79.057469,21.650437,76.411686,10.495011,64.792752,-1.299797,45.237568,0.0,-4.503692,8.398081,47.484351,22.196655,61.258632,35.643203,68.580008,48.394576,69.605411,44.778259,257.767298,-68.741032,227.648534
103,-2.351372,8.843387,1.372387,10.032219,0.0,-54.569263,-30.705322,-92.554378,-26.781829,-93.779731,-21.470993,-81.908397,-14.988533,-61.97771,0.0,30.252515,33.645379,38.909935,38.757276,34.261093,40.324008,42.937038,38.880592,55.562441,0.0,67.122116,28.629421,81.84874,18.650276,79.577202,8.010281,67.519066,-2.675365,48.16547,0.0,-3.840048,9.311728,50.430734,24.092541,65.534576,38.508953,72.757806,51.770088,74.539762,42.290165,266.384765,-67.505367,237.454833
104,-2.321937,5.900981,2.902428,7.995357,0.0,-59.170796,-28.593407,-90.82061,-24.695503,-91.669831,-19.816292,-80.555786,-14.294449,-61.85994,0.0,24.135951,36.552045,34.980781,40.616346,27.685488,40.523905,35.646796,36.887164,48.349782,0.0,66.53231,29.083488,83.137482,19.221943,80.794029,8.814377,68.105827,-1.691231,49.331337,0.0,-2.237971,13.870934,54.276747,29.970044,69.501349,44.649303,76.633212,57.016218,79.261038,39.893709,272.187665,-64.677458,245.352109
105,-0.580925,3.061141,3.056339,6.471653,0.0,-60.840386,-29.637474,-85.559658,-26.180969,-84.714661,-21.741486,-73.936318,-16.765503,-58.94442,0.0,18.867443,34.120313,30.613878,39.23631,26.765037,40.289538,32.807327,38.032461,44.138243,0.0,65.430691,29.786442,84.542255,20.171688,82.104778,10.060822,70.316631,-0.258442,52.431599,0.0,-0.53997,17.570981,55.691919,34.610254,71.424775,49.303579,78.732233,60.929515,81.38461,39.277983,275.221809,-61.65592,251.796765
106,-2.727425,-7.03683,0.94273,4.747804,0.0,-57.897835,-30.618324,-68.600429,-26.224914,-66.491031,-20.852348,-59.247379,-14.76416,-47.993603,0.0,9.508328,35.120571,38.454093,45.077739,44.496803,51.262858,53.999018,53.900156,66.489781,0.0,66.621277,26.35865,86.884438,16.146103,85.376083,6.199459,72.772728,-3.469002,52.576916,0.0,-0.243408,18.00731,56.490302,35.010026,72.686805,49.460388,79.453873,60.644759,81.885443,36.56765,268.170174,-60.696098,256.529764
107,-2.450775,1.908878,1.79504,3.533643,0.0,-54.979099,-31.094061,-52.782246,-28.239218,-48.199574,-24.384499,-43.234737,-19.755981,-38.793789,0.0,0.74794,31.89126,43.237009,42.363802,51.801933,48.932953,58.117326,52.106443,64.835432,0.0,65.98312,27.026253,87.248188,17.087654,85.924702,7.197693,72.842045,-2.4986,53.02961,0.0,0.734435,21.990865,58.50749,38.968215,74.738747,52.561321,81.72336,62.424084,83.913437,34.172865,270.057804,-58.845068,260.042159
108,-5.446037,2.003838,1.826317,2.825476,0.0,-47.2832,-31.574839,-31.683151,-30.978693,-25.753407,-29.233979,-23.428929,-26.385887,-27.992123,0.0,-2.968435,27.396756,47.593969,38.440712,56.117434,45.765169,60.231166,50.173383,63.115621,0.0,65.885502,27.529037,87.62186,18.112644,86.55891,8.329662,73.797192,-1.380581,53.847004,0.0,1.876064,25.196639,59.303157,42.054649,74.727842,54.921348,82.188107,63.952556,84.917413,28.85923,272.005242,-56.886349,262.811235
109,-8.354027,4.276043,1.407532,2.026859,0.0,-32.331608,-29.311632,-6.372425,-31.050711,0.612419,-30.945751,-1.533142,-29.216595,-16.301365,0.0,-7.314762,19.170897,45.248664,32.01904,57.084829,41.723271,61.316072,48.971387,62.267393,0.0,66.15588,27.512832,87.671161,18.378284,86.877788,8.850563,74.153125,-0.455406,54.781116,0.0,2.796614,27.037838,59.55968,43.859527,74.358562,56.323316,81.951355,64.895533,84.66536,20.711924,276.174769,-55.272096,264.731578
110,-8.047874,5.381203,0.838508,1.472685,0.0,-18.195683,-26.293963,13.568664,-30.474604,18.74588,-32.284779,12.170024,-31.969964,-15.715176,0.0,-11.569823,13.98564,43.026402,27.293984,55.438093,37.61304,59.664507,45.580906,59.944502,0.0,66.589314,27.472802,87.339009,18.527401,86.691662,9.242661,74.029072,0.376637,54.999836,0.0,3.839481,28.383973,59.776499,45.257483,73.732462,57.451645,81.261431,65.536688,84.289189,12.967667,281.42084,-54.129971,266.069131
111,-2.319695,1.835481,0.525891,0.78943,0.0,-14.669438,-26.434175,17.146477,-33.101801,20.042313,-36.81942,11.692715,-38.039909,-20.089016,0.0,-11.460154,13.044614,39.373224,28.126689,52.02668,39.718915,57.787271,48.728844,59.531281,0.0,67.448066,26.853183,87.11689,17.991176,86.511017,8.974685,74.078499,0.638076,55.224426,0.0,5.576371,28.93612,60.359904,45.982728,73.214129,58.124131,80.633626,65.95007,83.694076,11.01836,283.12964,-53.233692,266.73188
112,-2.53846,2.599334,-0.09636,0.242049,0.0,-10.239715,-26.143535,21.058434,-33.844299,23.271195,-37.763225,12.903397,-38.989929,-21.047046,0.0,-14.615766,11.859995,35.935529,27.822661,48.799968,40.068114,55.692672,49.553916,57.635723,0.0,67.863305,26.439938,87.353325,17.681168,86.626694,8.891327,74.449128,0.948658,55.677498,0.0,7.34746,28.940134,60.073778,46.173315,72.367087,58.344667,79.681818,66.090083,82.902991,8.921774,285.582555,-52.888178,266.82751
113,-0.968582,2.913422,-0.040912,-0.063319,0.0,-7.697365,-26.470711,22.240036,-34.133251,24.975975,-36.927177,14.048332,-36.801681,-22.672199,0.0,-18.289188,10.028106,32.897507,26.026033,45.849224,38.613644,53.007826,48.250253,54.203598,0.0,68.124012,26.032196,87.363315,17.268963,86.469715,8.651424,74.452045,1.018604,56.011379,0.0,9.0741,28.678127,59.826282,46.214379,72.080565,58.501723,79.356369,66.188131,82.400331,8.396822,288.350906,-52.48546,266.61912
114,0.561401,1.239751,-0.268135,0.042485,0.0,-10.014495,-28.052742,20.732369,-35.652317,23.039635,-38.128463,13.384804,-37.460678,-22.190689,0.0,-18.685836,9.309788,31.542703,24.786343,43.849091,37.102895,51.022871,46.649966,53.04532,0.0,68.206661,26.26292,87.491214,17.590507,86.750553,8.99105,74.66978,1.320385,56.16624,0.0,10.084534,28.497074,59.052388,46.10308,71.327641,58.409776,78.672445,66.097542,82.11245,9.437135,289.446084,-52.274683,266.517032
115,-1.430465,0.500647,-0.269177,-0.023749,0.0,-9.246575,-27.120335,21.161567,-34.529068,23.931564,-36.822544,14.988327,-35.992607,-17.930432,0.0,-18.848757,9.039371,30.323948,24.509455,43.110297,36.780892,50.070927,46.318737,52.731147,0.0,68.239792,26.387799,87.634987,17.817353,87.138588,9.229603,74.924629,1.527581,56.349518,0.0,10.768395,28.339413,58.543799,45.987507,70.786102,58.340801,78.112653,66.072854,81.921196,8.491848,289.798333,-52.058682,266.344885
116,-7.923489,2.594641,-0.378959,-0.130121,0.0,2.050907,-20.601219,29.433437,-27.60474,32.259831,-29.76915,23.284779,-28.851208,-13.492859,0.0,-21.823818,6.442137,27.731913,21.525824,41.398897,33.680614,48.368505,43.233106,51.080448,0.0,68.182319,26.754329,87.858261,18.290565,87.556411,9.676723,75.020164,1.878799,56.388336,0.0,11.229498,28.489504,58.074991,46.071488,70.288073,58.348878,77.597062,66.01807,81.792175,1.060055,292.255455,-51.945945,266.077245
117,-3.692081,1.536079,-0.408909,-0.020439,0.0,5.656059,-17.899842,31.953025,-24.710541,34.581298,-26.876988,26.781921,-25.926098,-9.04057,0.0,-22.975167,4.888657,26.306515,19.755735,40.338839,31.906277,46.839552,41.418904,49.959924,0.0,68.127285,27.075874,88.155933,18.690422,87.96175,10.044811,75.046978,2.153892,56.294437,0.0,11.429556,28.351059,57.573429,45.878148,69.880002,58.13947,77.090955,65.831904,81.646123,-2.132148,293.692703,-51.854976,265.957975
118,-2.972855,0.4212,-0.464276,-0.004607,0.0,8.019356,-15.667854,33.599831,-22.214138,36.194,-24.420742,29.067833,-23.621773,-2.751629,0.0,-23.594339,4.831105,25.683947,19.75592,39.846108,31.785271,46.256739,41.067704,50.202442,0.0,68.042199,27.45932,88.49881,19.203907,88.382607,10.577568,75.168503,2.610226,56.343705,0.0,11.437881,28.404967,56.953825,45.851484,69.271464,58.041225,76.399623,65.717012,81.306471,-4.582117,294.05243,-51.796366,265.891895
119,-0.774399,-0.067,-0.218433,-0.157809,0.0,8.278176,-15.445564,33.424851,-22.008545,36.211075,-24.164554,29.423996,-23.35413,-0.382885,0.0,-23.785073,4.94606,25.319608,20.141453,39.885999,32.294008,46.099054,41.624385,50.308802,0.0,67.913761,27.397247,88.606442,19.192509,88.489872,10.609772,75.154415,2.689613,56.405125,0.0,11.759007,28.577053,56.872883,46.015419,69.119743,58.156686,76.136331,65.758742,81.018949,-4.801432,293.968854,-51.459715,265.71751
120,-0.132717,-0.683515,-0.272884,0.018488,0.0,6.76276,-16.037052,32.781681,-22.301502,35.548313,-24.204208,29.28043,-23.161606,4.281475,0.0,-23.23479,5.350414,25.157476,20.653018,39.785976,32.89542,46.21738,42.223771,50.708154,0.0,67.8983,27.562088,89.005874,19.396717,88.844261,10.802765,75.243072,2.828373,56.420745,0.0,11.771061,28.70847,56.298937,46.073526,68.657936,58.105581,75.740017,65.625658,80.856335,-4.410828,293.315099,-51.209278,265.765758
121,1.418896,0.208618,-0.20184,0.148139,0.0,4.344726,-18.304779,30.695297,-24.542931,33.734688,-26.179917,27.964233,-24.783772,8.046158,0.0,-23.675257,5.555919,24.899816,20.667443,39.200557,32.754888,45.431692,41.992799,49.843277,0.0,67.941204,27.451035,89.36237,19.27478,89.054089,10.698498,75.383228,2.764858,56.646435,0.0,11.582216,28.575349,55.93067,45.921052,68.412182,57.942585,75.424979,65.49534,80.576594,-2.484953,293.569255,-50.904139,265.959435
122,-0.730282,0.088253,-0.011753,0.005002,0.0,5.376423,-17.842655,31.482067,-23.922935,34.899158,-25.463734,29.481068,-23.926552,10.075344,0.0,-23.38824,5.562317,24.054466,20.726625,38.602653,32.826124,44.990622,42.100764,49.859741,0.0,68.048126,27.24757,89.539856,19.005558,89.075203,10.434174,75.388458,2.55574,56.634705,0.0,11.597135,28.445562,55.771045,45.792512,68.450023,57.827001,75.345259,65.408358,80.448301,-2.70219,293.730151,-50.402847,266.03708
123,0.026024,-0.429116,0.03677,0.032098,0.0,4.916553,-17.786385,32.107624,-23.91283,35.192974,-25.501076,29.553097,-23.918667,9.805927,0.0,-22.890655,6.033547,24.009017,21.293197,38.698909,33.372652,44.926303,42.611835,49.858567,0.0,68.077618,26.938889,89.673328,18.636909,89.062328,10.098026,75.399708,2.32402,56.690289,0.0,11.628677,28.205414,55.675196,45.583697,68.618824,57.686667,75.456237,65.33669,80.428232,-2.168947,293.402602,-49.858858,266.170745
124,0.745125,-0.725555,-0.105835,0.034555,0.0,3.918194,-18.875714,31.585018,-24.872509,34.856243,-26.302208,29.324398,-24.51709,9.863537,0.0,-21.847061,6.692016,24.428463,21.891954,38.986506,33.902693,45.275859,43.046744,50.238987,0.0,68.083248,26.758907,89.965061,18.41082,89.246464,9.896187,75.571323,2.19524,56.854511,0.0,11.621514,28.063796,55.54846,45.433582,68.70956,57.562944,75.570216,65.261368,80.459095,-1.000236,292.798705,-49.541107,266.326958
125,1.354511,0.355115,-0.056007,-0.128922,0.0,2.817696,-20.185387,30.950546,-26.42664,34.444633,-27.873779,28.836525,-26.061104,9.735168,0.0,-22.067276,6.269605,24.160947,21.45665,38.634268,33.551592,45.060127,42.876262,49.891121,0.0,68.049671,26.484558,90.120014,18.070575,89.320552,9.588649,75.720874,2.019516,57.124614,0.0,11.791686,28.12609,55.768822,45.535606,69.08809,57.697016,75.922835,65.382349,80.61641,0.779709,293.34222,-49.17168,266.386436
126,-1.408848,-0.711711,-0.016434,-0.067395,0.0,4.050762,-18.754795,33.263249,-24.921947,36.499455,-26.331562,30.465054,-24.448711,11.186108,0.0,-20.959967,6.265012,24.462241,21.803737,39.488993,34.124599,46.109144,43.493409,51.092106,0.0,68.109043,26.303959,90.197353,17.933269,89.472279,9.551422,75.882099,2.135067,57.323513,0.0,12.00675,28.291989,55.701675,45.749189,69.162216,57.900311,76.070617,65.497995,80.79172,-0.216082,292.86907,-48.775057,266.557602
127,0.869499,-0.460954,-0.096336,0.014956,0.0,2.041706,-19.683918,31.779385,-25.713421,35.042347,-26.954635,29.1805,-24.996734,10.49271,0.0,-20.164783,7.040436,25.372985,22.454154,40.204507,34.600781,46.549436,43.751426,51.087523,0.0,68.189357,26.246063,90.293849,17.985008,89.577907,9.726779,76.045589,2.455043,57.651134,0.0,12.070057,28.618476,55.597848,46.065487,69.048842,58.160935,76.133751,65.666537,80.803774,1.00906,292.648047,-48.51575,266.812489
128,1.030152,0.127736,0.012451,-0.039446,0.0,0.196529,-21.135899,30.26897,-27.148293,33.843944,-28.250702,28.2346,-26.195927,10.677967,0.0,-20.565369,6.890111,25.232318,22.200966,39.963719,34.486296,46.660884,43.819847,51.34364,0.0,68.310322,26.124366,90.301929,17.93256,89.602649,9.764694,76.204891,2.631798,57.923183,0.0,12.180676,29.035056,55.644173,46.48844,69.01378,58.534784,76.250607,65.918787,80.784618,2.365797,293.030003,-48.176714,267.027263
129,-1.140438,0.236418,0.010929,-0.001358,0.0,1.085186,-19.828583,31.70858,-25.914711,35.196579,-27.166363,29.568786,-25.261208,11.750198,0.0,-20.48318,6.683062,25.123427,22.211883,40.202569,34.568362,46.785434,43.909137,51.463781,0.0,68.491379,25.981888,90.232498,17.824653,89.597282,9.748226,76.401832,2.738468,58.114151,0.0,12.257074,29.252318,55.49097,46.764698,68.964144,58.819996,76.35715,66.119772,80.792584,1.543133,293.531355,-47.848011,267.290839
130,-0.461872,-0.121969,0.109314,0.033518,0.0,-0.118824,-19.623047,31.591037,-25.467385,34.936672,-26.656678,29.419132,-24.7225,12.288173,0.0,-20.245515,7.385164,25.271665,22.771477,40.532995,34.886191,46.646063,43.960451,51.262956,0.0,68.575973,25.803886,90.082535,17.670124,89.473755,9.656238,76.457794,2.743023,58.122139,0.0,12.313217,29.302991,55.355885,46.861881,68.881251,58.952883,76.427151,66.234801,80.7614,1.36559,293.638298,-47.454368,267.553269
131,1.291568,0.89196,-0.048294,-0.032814,0.0,-2.172065,-21.027282,29.447251,-26.79467,33.072075,-27.924099,28.228661,-25.971061,11.286187,0.0,-21.111281,7.279422,25.11267,22.324898,39.699772,34.206221,45.699133,43.204244,50.251052,0.0,68.596664,25.919025,90.125313,17.748779,89.463409,9.67139,76.492012,2.683674,58.084488,0.0,12.418847,29.390232,55.270348,46.980059,68.911817,59.089327,76.524976,66.376357,80.792695,2.913145,294.750164,-47.246675,267.740361
132,-0.054039,0.103296,0.037697,0.060774,0.0,-2.278621,-20.993522,30.25232,-26.948547,33.763436,-28.19799,28.800637,-26.209396,11.247551,0.0,-21.177193,6.785209,24.564882,21.990285,39.346979,34.060811,45.746286,43.265278,50.604993,0.0,68.450569,25.752456,90.056808,17.54647,89.404197,9.473716,76.480293,2.528709,58.052581,0.0,12.481191,29.500864,55.145403,47.150614,68.881152,59.255757,76.532424,66.485656,80.751718,3.086122,295.073624,-46.981962,268.021299
133,-0.723701,0.368625,-0.405327,0.122402,0.0,-2.138317,-20.769207,30.709099,-26.188534,34.517372,-27.039219,30.155731,-24.695595,12.538353,0.0,-20.28359,7.01602,25.077102,21.944849,39.598588,33.556545,45.507102,42.346963,49.98707,0.0,68.612343,25.907341,90.315124,17.668522,89.810165,9.591018,76.778343,2.630321,58.253929,0.0,12.468705,29.302794,55.05752,47.010033,68.833332,59.122413,76.462806,66.316126,80.735193,2.537476,295.621205,-47.212234,268.322657
134,0.43816,0.589828,-0.301987,0.128256,0.0,-3.053284,-21.286652,29.930614,-26.634476,33.849849,-27.333355,29.558338,-24.917874,12.07204,0.0,-20.776643,6.509135,25.319089,21.143353,39.080712,32.613937,44.850485,41.330575,49.140656,0.0,68.554779,26.149246,90.486877,17.920841,89.904625,9.800251,76.701073,2.77161,58.245758,0.0,12.361259,29.440855,55.150281,47.083182,68.723367,59.066344,76.350679,66.141619,80.528675,3.116621,296.363594,-47.373236,268.603474
135,-0.812359,-0.343654,-0.34885,0.117153,0.0,-1.832577,-20.436916,31.196594,-25.686573,35.111984,-26.321022,30.908501,-23.821426,12.89431,0.0,-19.821598,6.267828,25.597003,21.120518,39.303298,32.789444,45.586945,41.722284,49.849873,0.0,68.627117,26.567791,90.771297,18.355934,90.070255,10.168133,76.758739,3.019054,58.350803,0.0,12.31045,29.676037,55.194086,47.245511,68.698444,59.106432,76.328152,66.072965,80.371866,2.427075,296.124588,-47.599273,268.825275
136,0.59832,-0.113707,-0.269303,0.11982,0.0,-3.33775,-21.157047,30.548332,-26.300663,34.421677,-26.75568,30.016479,-24.145535,10.538612,0.0,-19.775569,6.529526,26.182113,21.279995,39.570924,32.8054,45.591169,41.545825,49.407209,0.0,68.673169,26.70464,90.956234,18.49767,90.144139,10.310017,76.805569,3.164383,58.40736,0.0,12.261149,29.78215,55.248143,47.295777,68.61502,59.052783,76.3387,65.896767,80.144946,3.121914,296.064817,-47.772057,268.999031
137,0.027695,0.544812,-0.359127,0.038001,0.0,-3.924786,-20.924836,30.370788,-26.071324,34.098953,-26.50256,29.861526,-23.90276,9.598777,0.0,-20.139267,6.211424,26.315975,20.844296,39.194085,32.241396,45.188395,40.843587,49.035458,0.0,68.801537,27.205731,91.212525,18.968514,90.299881,10.647103,76.890335,3.311406,58.395195,0.0,12.279551,29.754708,55.4916,47.183329,68.740929,58.86999,76.494484,65.679418,80.13556,3.23762,296.628939,-48.043173,269.056342
138,-0.658276,0.055204,0.148316,-0.101233,0.0,-2.959305,-19.481964,31.381062,-24.878277,34.713993,-25.573963,30.29385,-23.242435,9.824444,0.0,-20.683794,5.812419,25.728322,20.694453,38.841516,32.397799,45.174996,41.233653,49.293934,0.0,68.617447,27.388321,91.00058,19.149135,89.895492,10.727989,76.544357,3.268558,58.102455,0.0,12.437039,30.091593,55.744529,47.40563,68.940531,58.991502,76.745141,65.751764,80.203806,2.665873,296.695156,-47.808328,268.966122
139,-0.500542,-0.3552,0.070518,-0.07084,0.0,-1.894031,-18.63335,31.867756,-24.012199,35.162808,-24.861957,30.862553,-22.637214,8.689099,0.0,-20.020608,6.251426,25.928244,21.256776,39.384067,33.004434,45.593824,41.822788,49.627608,0.0,68.671852,27.399491,91.007653,19.108532,89.8312,10.616158,76.503868,3.110218,57.987671,0.0,12.691068,30.186071,55.854161,47.490352,69.085743,59.058835,76.954178,65.786999,80.446374,2.234996,296.337594,-47.668145,268.89292
140,0.53286,0.461868,0.001614,-0.043263,0.0,-2.195881,-18.794357,30.782078,-24.2971,34.015469,-25.233868,30.073689,-23.101753,7.686596,0.0,-20.20124,6.137868,25.967641,20.867514,39.092963,32.448187,44.995302,41.102136,49.063802,0.0,68.721187,27.348953,90.9417,19.064209,89.87463,10.568699,76.506557,3.065151,57.906887,0.0,12.858264,30.152109,55.766414,47.457501,69.093499,59.031801,77.031046,65.761855,80.630539,2.817467,296.792382,-47.61692,268.842577
141,-1.232117,0.602573,0.034126,-0.002667,0.0,-0.478077,-16.992588,31.923352,-22.495525,35.109066,-23.590118,31.542241,-21.630924,10.026066,0.0,-20.486378,5.787249,25.45515,20.473534,38.61168,32.081648,44.746942,40.769042,49.087243,0.0,68.66573,27.430721,90.793637,19.170628,89.784725,10.631092,76.286259,3.042938,57.715702,0.0,12.892584,30.148576,55.811566,47.412163,69.132821,58.977781,77.065465,65.75642,80.745345,1.633546,297.387567,-47.534598,268.832522
142,-0.801555,-0.102629,0.171009,0.000839,0.0,1.074898,-15.956269,32.517059,-21.446881,35.637405,-22.633873,32.165657,-20.855404,11.371055,0.0,-19.90632,6.026247,25.760382,20.627861,38.700663,32.206557,44.881805,40.884367,49.114203,0.0,68.620468,27.286606,90.57161,19.074051,89.676728,10.590992,76.09774,3.076859,57.663048,0.0,12.904873,30.176822,55.752385,47.47263,69.088239,59.07205,77.02161,65.879131,80.749903,0.860218,297.275545,-47.335362,268.823968
143,0.687149,0.821626,-0.093315,0.047832,0.0,0.435665,-16.352165,32.029678,-22.03141,35.089348,-23.434158,31.124359,-21.894425,8.737861,0.0,-21.039773,5.592253,25.895603,20.068044,38.368211,31.515941,44.199747,40.096741,47.994458,0.0,68.7071,27.328526,90.664879,19.053383,89.866036,10.512692,76.109711,2.939438,57.592507,0.0,12.891325,29.887064,55.562638,47.258356,69.051423,58.917612,76.964713,65.784394,80.816704,1.573311,298.083052,-47.402733,268.857681
144,0.341743,-0.438502,-0.025635,-0.011004,0.0,-0.573887,-16.719463,32.576683,-22.463115,35.160027,-23.778843,31.147957,-22.138092,9.802735,0.0,-20.569741,5.554524,25.406627,20.255123,38.331507,31.934312,44.660294,40.743008,48.726608,0.0,68.619599,27.49506,90.507523,19.22604,89.855805,10.622212,75.996025,2.928727,57.40091,0.0,12.901996,29.73186,55.514485,47.113527,69.175838,58.812501,77.056956,65.763411,80.975897,1.938772,297.622792,-47.40465,268.824919
145,0.395371,0.00168,0.076996,-0.003174,0.0,-0.167519,-17.215279,31.818031,-23.027733,34.560173,-24.303715,30.17482,-22.63773,7.615379,0.0,-21.597948,5.265976,25.292141,20.055953,38.569517,31.921072,44.988682,40.957541,48.268778,0.0,68.585449,27.375435,90.180016,19.035713,89.567116,10.389015,75.726288,2.658142,57.152207,0.0,12.928758,29.370028,55.588079,46.854941,69.31858,58.660755,77.14726,65.737772,81.052974,2.356579,297.594104,-47.305218,268.791377
146,-2.071198,-1.507476,0.007244,0.042991,0.0,3.846451,-15.419986,34.12658,-21.455635,36.840294,-23.034942,32.367371,-21.635971,9.900055,0.0,-20.116407,5.591216,26.010718,20.838133,39.890778,33.02927,46.624426,42.356571,49.824061,0.0,68.530484,27.330265,89.91219,19.003624,89.427807,10.358448,75.636875,2.604447,57.073986,0.0,12.996103,29.094126,55.578261,46.634899,69.375884,58.532314,77.140368,65.710626,81.175758,0.3036,296.035384,-47.279755,268.783124
147,-0.891964,-1.042656,-0.100456,-0.000618,0.0,8.454048,-14.18581,33.599156,-20.508796,38.163151,-22.381977,32.191166,-21.418007,9.843418,0.0,-15.689285,4.3476,24.934076,20.533148,40.670192,33.787751,47.30709,44.14805,50.226439,0.0,68.500706,27.398346,89.817844,19.008831,89.341656,10.273567,75.48785,2.371067,56.797131,0.0,13.108032,28.756673,55.533875,46.335657,69.466065,58.293365,77.185904,65.54542,81.343942,-0.571347,294.924244,-47.363194,268.714022
148,4.670964,-2.295361,0.027157,-0.01314,0.0,-0.266144,-20.144635,28.645591,-26.804844,33.621048,-28.509568,27.457306,-27.218663,1.330181,0.0,-7.486114,6.216031,27.052077,21.805935,42.192784,34.44864,48.312312,44.42432,51.765074,0.0,68.4188,27.402821,89.586731,19.033699,89.096489,10.278122,75.26738,2.306946,56.582268,0.0,13.214144,28.577177,55.557821,46.175377,69.497977,58.193156,77.21269,65.51573,81.42439,4.116709,292.548363,-47.318945,268.620362
149,1.449165,-0.751688,0.048786,0.122945,0.0,-1.842247,-22.472637,26.052383,-28.862526,32.386253,-30.196804,25.772598,-28.644596,0.309849,0.0,-6.571998,7.842734,28.599049,23.104201,43.522221,35.338032,49.26475,44.900194,52.314381,0.0,68.301304,27.372368,89.440167,19.000111,88.942806,10.23135,75.023792,2.228176,56.433575,0.0,13.170573,28.259878,55.511509,45.913086,69.367535,58.027887,77.006815,65.453769,81.251884,5.586199,291.71108,-47.249834,268.657712
150,4.870285,-2.916225,-0.035808,0.085586,0.0,-9.948647,-27.963512,22.085175,-35.301029,28.217903,-37.146835,20.896294,-35.924698,-5.99477,0.0,-0.13947,9.516035,31.616643,25.077583,45.881593,37.367249,51.245518,47.030929,54.982171,0.0,68.207199,27.585845,89.502777,19.255439,88.978225,10.470966,74.923049,2.415493,56.400787,0.0,13.099621,28.303301,55.659327,45.891832,69.301808,57.987157,76.83752,65.416818,81.14077,10.477673,288.718516,-47.264453,268.666959
