takenoko1/special-research/HandMotion_SimilarSearch_自分用/NewProject/handData/test_key/d4_feature_d3/27.csv
frame,vel_0x_L,vel_0y_L,vel_0x_R,vel_0y_R,posFromWrist_0x_L,posFromWrist_1x_L,posFromWrist_2x_L,posFromWrist_3x_L,posFromWrist_4x_L,posFromWrist_5x_L,posFromWrist_6x_L,posFromWrist_7x_L,posFromWrist_8x_L,posFromWrist_9x_L,posFromWrist_0y_L,posFromWrist_1y_L,posFromWrist_2y_L,posFromWrist_3y_L,posFromWrist_4y_L,posFromWrist_5y_L,posFromWrist_6y_L,posFromWrist_7y_L,posFromWrist_8y_L,posFromWrist_9y_L,posFromWrist_0x_R,posFromWrist_1x_R,posFromWrist_2x_R,posFromWrist_3x_R,posFromWrist_4x_R,posFromWrist_5x_R,posFromWrist_6x_R,posFromWrist_7x_R,posFromWrist_8x_R,posFromWrist_9x_R,posFromWrist_0y_R,posFromWrist_1y_R,posFromWrist_2y_R,posFromWrist_3y_R,posFromWrist_4y_R,posFromWrist_5y_R,posFromWrist_6y_R,posFromWrist_7y_R,posFromWrist_8y_R,posFromWrist_9y_R,posFromBody_0x_L,posFromBody_0y_L,posFromBody_0x_R,posFromBody_0y_R
6,1.076786,-3.654809,0.471806,-0.17379,0.0,17.574943,-16.420796,38.307735,-21.842594,48.880245,-22.771855,40.808864,-21.460968,22.489986,0.0,-15.960703,6.085318,24.262268,23.607948,42.34721,37.894116,50.860258,49.720926,57.235222,0.0,67.460049,23.568352,90.6786,15.601787,89.793766,8.940525,77.712627,3.676586,59.76717,0.0,11.086088,34.007026,58.697829,51.942989,69.544561,63.522179,78.336758,69.567199,85.09949,-23.768778,291.872331,-66.972422,267.966524
7,-5.468617,-3.11721,0.275024,0.178915,0.0,23.89943,-11.460617,44.294701,-16.616821,54.370491,-18.129238,46.587731,-17.858276,27.99733,0.0,-12.498382,7.624916,26.999849,25.745426,45.495332,40.432626,53.817151,52.3427,59.926144,0.0,66.92577,22.650822,89.818737,14.926117,89.402973,8.538082,77.660603,3.521748,59.77145,0.0,10.947323,33.449964,58.465414,51.443997,69.457382,63.14759,78.368041,69.296362,85.049806,-28.7988,288.684207,-66.258803,268.074525
8,5.686238,-4.185579,0.061913,0.133554,0.0,16.506774,-15.329007,37.9827,-21.226284,46.775562,-24.031712,40.100704,-25.329873,21.369094,0.0,-9.199181,8.057145,28.919052,26.715242,48.075005,42.090983,57.133457,54.96687,62.650375,0.0,66.706444,22.352875,89.343738,14.750828,89.258068,8.507835,77.715191,3.668987,59.870109,0.0,10.716204,32.84681,58.296946,50.965764,69.223929,62.856473,78.077727,69.144419,84.919167,-22.777439,284.462458,-65.861767,268.171909
9,-2.33519,-3.653216,0.111488,0.081609,0.0,19.489757,-14.094727,40.193287,-19.672222,48.93227,-22.39246,42.72575,-23.741764,24.394855,0.0,-4.780087,9.536882,31.422438,28.711237,51.659765,44.516366,60.563594,57.559078,65.777416,0.0,66.485802,22.212319,89.289402,14.676212,89.197598,8.515824,77.683491,3.771034,59.798126,0.0,10.50198,32.712837,58.116067,50.903557,69.21789,62.834404,77.991685,69.097798,84.840892,-24.855846,280.784545,-65.493496,268.228821
10,0.619663,-1.494817,-0.114715,0.002606,0.0,19.093449,-15.253132,39.304527,-20.909775,47.891441,-23.639774,41.916779,-24.885635,23.875877,0.0,-2.926438,10.001208,32.485805,29.572174,52.208701,45.673804,61.265968,58.913993,66.09296,0.0,66.446983,22.414272,89.45985,14.834243,89.414623,8.676498,78.058353,3.994995,60.09526,0.0,10.243739,32.555312,58.086946,50.793814,69.064353,62.790277,77.75113,69.049595,84.823775,-24.055704,279.272073,-65.427732,268.213772
11,0.419426,0.107977,-0.054875,-0.034839,0.0,18.56995,-15.504398,38.584854,-21.158501,47.39653,-23.835114,41.64164,-25.026764,23.654468,0.0,-2.774792,9.789033,31.974746,29.334175,52.096982,45.522465,61.231066,58.901347,65.993419,0.0,66.527344,22.579743,89.679154,14.966675,89.438187,8.801777,78.092194,4.159928,60.116879,0.0,10.258892,32.654717,58.054847,50.906694,68.998144,62.898512,77.589145,69.115346,84.865937,-23.472479,279.367947,-65.318808,268.16683
12,1.136398,-0.729334,-0.230575,-0.089588,0.0,16.771122,-17.087265,37.678894,-22.781639,45.949745,-25.122219,40.427101,-25.879806,22.961083,0.0,-1.933369,9.970234,32.15775,29.411561,52.55128,45.684585,61.973714,59.150584,66.581554,0.0,66.734092,22.953209,89.992859,15.244915,89.518776,9.014728,78.201599,4.369651,60.210765,0.0,10.101071,32.798287,58.037446,51.050227,68.859157,63.030671,77.381171,69.19724,84.909978,-22.194884,278.628341,-65.408186,268.06697
13,-2.816425,0.29508,-0.223091,0.0783,0.0,19.856449,-13.262409,40.532902,-18.58065,49.003429,-21.134056,43.764645,-22.451317,26.346085,0.0,-2.4755,9.931369,30.401013,29.396877,51.621208,45.719474,61.391717,59.272541,66.314842,0.0,66.915664,23.106147,90.303451,15.412147,89.894805,9.181034,78.650939,4.543624,60.486705,0.0,9.773608,32.812699,57.804832,51.013818,68.618626,62.923904,77.043556,69.021906,84.804644,-24.894636,278.914937,-65.514604,268.136786
14,-1.869644,-0.358448,-0.247227,-0.007348,0.0,21.115482,-11.359177,43.415371,-16.555184,50.94524,-19.298882,45.858501,-21.025246,28.195598,0.0,-3.016088,10.193523,30.065053,29.701244,51.246345,46.124989,61.48239,59.696235,66.786281,0.0,67.169826,23.112991,90.529117,15.386616,90.323169,9.137352,79.044353,4.502769,60.661949,0.0,9.454383,32.675613,57.778489,50.824528,68.597235,62.711717,76.916263,68.795442,84.802692,-26.631775,278.549069,-65.629326,268.122018
15,4.232448,-2.64624,-0.083943,0.088599,0.0,15.610108,-12.309814,38.598496,-17.848743,45.509743,-21.793567,41.717743,-25.255542,23.802727,0.0,-1.741634,10.208195,29.153333,29.981887,52.522084,46.919544,63.825374,61.340784,69.10002,0.0,67.343571,22.987301,90.653481,15.267552,90.628899,9.019238,79.201332,4.38065,60.598698,0.0,9.187609,32.557534,57.702216,50.653147,68.679265,62.505657,76.776041,68.604609,84.656431,-22.252522,275.899455,-65.566464,268.207243
16,-6.765747,0.880128,-0.18449,0.076595,0.0,23.740597,-8.287651,45.785477,-12.847801,52.892647,-15.337612,49.317467,-17.201019,32.06155,0.0,-2.248851,11.161523,29.162892,30.635763,51.932393,47.160568,63.118789,60.704546,68.883363,0.0,67.704941,22.812699,90.841725,15.133324,91.102833,8.940685,79.726513,4.389553,60.948029,0.0,8.935186,32.440456,57.63103,50.482086,68.496768,62.329112,76.396548,68.461237,84.464375,-28.851162,276.779058,-65.583847,268.283313
17,8.86686,-1.053425,-0.16341,0.11535,0.0,12.9902,-13.861325,35.624107,-18.824364,42.880096,-22.127095,39.913376,-24.84795,22.50056,0.0,-1.924389,11.04442,28.837579,30.621227,51.958785,47.307201,63.418365,61.405252,69.25573,0.0,67.896435,22.68528,91.035576,15.066444,91.523918,8.916779,80.205208,4.421162,61.228374,0.0,8.736411,32.383028,57.505158,50.366637,68.344504,62.187099,76.0792,68.340564,84.270972,-19.788265,275.727513,-65.55122,268.400543
18,-3.198372,0.897382,-0.03812,-0.040632,0.0,17.101467,-13.833698,38.86924,-18.45504,46.518791,-20.255928,43.269035,-20.967247,26.372864,0.0,-1.531682,12.203067,30.541865,31.326058,52.519096,47.36721,63.135758,60.500732,68.660407,0.0,67.698818,22.606441,90.954242,15.010185,91.465954,8.884666,80.198742,4.404052,61.176269,0.0,8.698052,32.506096,57.433737,50.425362,68.306021,62.193978,76.156697,68.349246,84.364525,-22.760158,276.632132,-65.362861,268.367148
19,2.597751,1.363103,-0.026036,0.009053,0.0,14.967213,-16.068386,34.524365,-21.010929,43.506833,-22.701862,39.658322,-22.796917,23.215794,0.0,-1.728468,11.593603,30.25727,30.710086,51.459682,46.668949,61.77515,59.682885,67.820107,0.0,67.512452,22.647732,90.740433,15.071137,91.21811,8.937046,80.092598,4.423199,61.11826,0.0,8.757505,32.672452,57.271383,50.507354,68.0369,62.21785,75.993367,68.379232,84.282236,-19.921835,278.004214,-65.148325,268.38518
20,1.109333,-0.033962,-0.081688,-0.053204,0.0,13.787522,-17.643791,33.19542,-22.60746,42.229683,-24.111763,38.279435,-23.931976,21.829846,0.0,-1.478515,11.736728,30.880467,30.776393,51.900826,46.656548,62.130004,59.534733,68.019622,0.0,67.565667,22.63686,90.573761,15.079434,91.040955,8.983784,80.090218,4.536576,61.243149,0.0,8.736571,32.860123,57.24856,50.645341,67.826294,62.320516,75.914042,68.444502,84.198366,-18.536717,277.976087,-64.954228,268.337811
21,2.972775,-0.02843,-0.142742,0.019957,0.0,10.388168,-21.440975,29.052532,-26.643688,38.843227,-27.796452,35.014378,-27.024262,18.491741,0.0,-0.531906,11.893586,31.52235,30.70759,52.42752,46.377017,62.222333,59.211642,67.51049,0.0,67.588269,22.813603,90.512158,15.255192,90.950421,9.139218,80.007832,4.657711,61.168854,0.0,8.532771,33.006719,57.107214,50.742722,67.769373,62.346304,75.969593,68.401031,84.16848,-15.277594,277.949658,-64.810622,268.359769
22,-5.351154,2.943605,-0.116924,0.034383,0.0,15.5564,-18.963776,34.614692,-23.869561,45.35083,-24.063458,40.448707,-21.906933,24.144756,0.0,-2.2737,11.239279,30.773614,29.903242,50.151437,45.275044,59.448455,57.526857,65.21934,0.0,67.648327,22.88261,90.543205,15.339294,90.978035,9.227234,79.985573,4.736527,61.191914,0.0,8.508602,32.991813,56.915169,50.744241,67.684664,62.340215,75.925367,68.372835,84.084091,-20.329439,280.890743,-64.628237,268.391632
23,0.434658,4.020409,-0.140625,0.093268,0.0,14.479213,-18.986801,33.94749,-23.93097,45.277439,-24.216477,40.025425,-22.000534,23.262703,0.0,-8.275062,9.144655,27.460754,27.551564,45.773592,42.724505,55.159716,54.931449,61.915223,0.0,67.868866,22.95409,90.73835,15.472893,91.216667,9.407272,80.262955,4.941227,61.50761,0.0,8.335602,32.941226,56.826409,50.72805,67.511256,62.356492,75.729952,68.40471,83.913129,-19.549953,284.892038,-64.424034,268.465786
24,-0.765381,0.865172,0.006352,0.080955,0.0,15.122497,-18.510006,36.139355,-23.163334,46.778126,-23.327397,41.09103,-21.122383,24.266018,0.0,-9.697704,8.728409,27.142159,26.90048,45.671667,41.800892,54.58051,53.842333,61.031279,0.0,68.052143,22.877838,90.903316,15.466163,91.514247,9.516082,80.590816,5.172672,61.860923,0.0,8.184313,32.789814,56.734376,50.693827,67.44869,62.415155,75.675833,68.492223,83.744426,-19.958479,285.729805,-64.060827,268.519336
25,-4.100418,4.565381,0.08678,0.094268,0.0,17.949428,-16.125344,41.507366,-20.48164,52.403812,-19.652161,45.832569,-16.111244,28.966037,0.0,-15.26464,7.803239,24.373481,25.460078,40.888702,39.655831,49.445309,50.901927,57.04077,0.0,68.197117,22.887657,91.216095,15.532562,91.846298,9.671093,80.805382,5.401543,62.099934,0.0,8.158798,32.538058,56.568206,50.571352,67.347481,62.387046,75.603326,68.515268,83.549468,-23.726978,290.262007,-63.642128,268.580425
26,0.209884,2.396423,0.913994,0.213582,0.0,19.112835,-15.202148,42.524838,-19.689685,53.953274,-19.183124,46.261059,-15.792366,28.987072,0.0,-18.242011,6.712751,23.717258,24.41426,39.333826,38.468888,47.424044,49.523459,55.862411,0.0,68.149212,22.879829,91.218796,15.575603,91.808304,9.684013,80.706985,5.263916,62.185627,0.0,8.348557,32.031742,56.283043,50.105038,66.90604,62.058806,75.248138,68.427855,83.19633,-23.179482,292.597998,-62.390522,268.733575
27,0.842228,1.847337,1.232139,0.453458,0.0,20.526856,-14.183384,44.026909,-18.922302,54.868447,-18.665142,46.912834,-15.561573,28.989579,0.0,-21.752583,5.898017,22.651212,23.133409,37.693341,36.746065,45.671247,47.559352,54.471027,0.0,68.383427,22.990918,91.435616,15.809247,92.046273,9.921559,80.962349,5.370965,62.575711,0.0,8.011375,31.497391,55.622178,49.565944,66.036274,61.633482,74.5737,68.212321,82.57606,-21.960594,294.379043,-60.781723,269.120741
28,0.428707,-1.24947,1.5985,0.421644,0.0,22.574868,-12.605804,45.595723,-17.463775,56.239964,-17.641548,47.608738,-15.104621,29.954854,0.0,-19.345589,6.435072,24.292414,23.907512,39.611284,37.641853,47.378312,48.422401,55.947047,0.0,68.648872,23.272957,91.588863,16.047489,92.025661,9.977566,80.505077,5.121082,62.253525,0.0,7.941573,30.873947,54.826684,48.957481,65.380633,61.138466,74.038077,67.902569,81.878589,-21.137341,293.075656,-58.788677,269.488468
29,10.380833,-3.556811,2.053585,0.592681,0.0,12.09145,-17.464931,36.072853,-22.802479,46.137612,-23.850506,38.814743,-22.438007,21.115368,0.0,-16.310322,7.543269,24.877042,25.487593,40.741699,39.94565,49.63424,51.729938,58.16354,0.0,69.092216,23.8824,92.067123,16.653786,92.212738,10.327698,80.214111,5.077617,62.193054,0.0,7.564252,30.211006,53.83801,48.284018,64.28765,60.60283,73.022838,67.638116,81.003659,-10.300547,289.491644,-56.279131,270.053948
30,2.725113,-2.933108,2.971161,0.872965,0.0,14.544228,-17.10759,36.557648,-22.807514,45.938484,-24.043625,38.372681,-22.821304,21.588295,0.0,-11.755821,8.86978,27.709423,27.199624,44.299894,42.082856,53.07459,54.152024,60.399214,0.0,69.354332,24.780143,92.3405,17.562446,92.1576,10.841514,79.76754,4.968864,61.996788,0.0,6.758447,29.525589,52.53735,47.498936,62.911024,59.941187,71.954791,67.277506,80.193741,-7.046585,286.531844,-52.779121,270.900221
31,4.767986,0.043979,3.155948,0.940521,0.0,12.356781,-17.073166,35.642201,-22.955761,43.235699,-24.391651,35.092106,-23.500465,18.94661,0.0,-11.467249,8.95791,26.948954,27.526283,42.88844,42.584838,52.110641,54.902044,59.268811,0.0,69.685078,25.919529,92.297207,18.783028,92.230282,11.765545,79.522625,5.454186,61.911839,0.0,5.549225,29.005823,51.154338,46.961855,61.644498,59.537203,71.063053,67.071889,79.433284,-1.659623,286.595528,-49.004197,271.860447
32,1.112286,0.895072,4.257969,0.744685,0.0,14.42736,-12.170254,40.263473,-18.121971,45.889435,-20.437008,36.520706,-20.819687,20.525894,0.0,-11.511845,7.863112,26.254929,26.419691,42.158896,41.764619,51.314555,54.342561,58.245125,0.0,69.644783,27.383332,91.610733,20.220085,91.41362,12.731964,78.176445,5.74561,61.034546,0.0,4.716151,28.574015,50.373306,46.453365,61.057807,59.131145,70.561121,66.937805,78.907739,0.092171,287.551168,-44.10672,272.6657
33,14.004902,-2.399708,6.269371,-0.4366,0.0,4.547287,-15.572743,33.694004,-22.296398,36.700046,-25.614544,27.144619,-26.985592,10.969608,0.0,-9.491384,8.71969,28.776606,27.258954,46.155222,42.821849,55.070599,55.769119,61.422691,0.0,68.877411,28.901871,90.239113,21.574642,89.79847,13.448571,76.271714,5.448944,58.778961,0.0,4.739295,28.862303,51.585689,46.475892,62.71625,59.052339,72.28996,67.060787,80.195593,14.836813,285.299901,-37.097609,272.377541
34,-2.105141,8.0516,8.575447,-3.017693,0.0,4.024704,-7.513664,39.895466,-11.235866,43.75185,-12.435219,36.577847,-12.504982,23.183453,0.0,-5.341263,8.051586,31.308335,19.817362,42.89522,28.890646,46.312883,35.887598,44.565186,0.0,67.638314,30.069844,87.516335,22.223935,85.422913,12.997811,70.504212,3.228367,51.743866,0.0,7.595535,29.186443,54.902377,45.850175,67.745117,57.821616,77.622985,65.594091,83.015796,13.552082,293.5184,-27.701752,269.526747
35,10.444988,-3.019818,8.121998,-0.665003,0.0,-11.46064,-14.424156,15.211007,-16.466377,17.986657,-16.562255,14.457974,-15.591957,5.296063,0.0,0.503834,11.33556,31.026927,21.954025,41.048698,29.949901,44.242367,36.025042,43.140135,0.0,56.303925,31.735119,72.434063,25.055889,66.153202,15.959027,50.735344,5.428322,36.105343,0.0,18.003012,28.138588,56.207572,39.629056,66.255772,47.430652,71.27608,52.013286,73.190219,24.914674,290.722221,-18.66215,269.085383
36,12.310788,-6.125962,14.145848,-17.303552,0.0,-29.133053,-20.454415,-13.875676,-20.329216,-12.040512,-18.805092,-11.35579,-16.50396,-13.265294,0.0,8.039113,15.555979,34.367316,25.645403,44.765023,32.827149,48.444866,37.941738,47.488673,0.0,55.726535,35.885799,70.256744,28.505126,61.973876,18.131412,47.163288,5.829357,33.846679,0.0,25.679316,20.068303,54.878011,28.465273,63.286404,35.36225,66.609046,40.852566,66.930444,38.401108,284.917901,-3.340656,252.103473
37,15.375148,-8.874102,17.522609,-31.743985,0.0,-49.174736,-30.174614,-47.969719,-27.780395,-46.935482,-24.092971,-41.444172,-19.751907,-35.603897,0.0,18.349703,21.593156,39.831646,31.915873,50.102506,38.506248,54.08458,42.709401,53.758908,0.0,54.142708,39.962219,65.59306,31.957604,55.838345,20.734829,41.606964,7.454956,29.888111,0.0,30.214057,12.087693,51.978805,17.69857,59.116732,23.56066,60.309318,29.424862,58.676662,55.593458,276.593421,15.999155,220.90911
38,3.174912,-5.251675,15.755985,-47.05198,0.0,-58.711384,-32.253822,-71.731842,-26.717354,-70.581516,-20.492603,-60.796589,-14.240433,-47.146362,0.0,25.233318,26.133466,41.675637,36.373314,49.701709,42.025206,54.615856,44.785091,55.069067,0.0,51.649762,36.803788,59.74656,28.358368,48.088578,17.455502,35.153515,5.132184,25.927163,0.0,26.001234,-4.240759,34.567276,-1.952085,40.342823,2.946767,40.800103,9.542662,38.849426,61.005324,272.143041,33.992094,174.658425
39,10.692993,-11.850732,11.022572,-53.383302,0.0,-67.050762,-39.836952,-99.121078,-34.824211,-100.648945,-28.826237,-90.334419,-22.43589,-72.076469,0.0,26.137406,30.828857,42.661866,47.156518,54.756413,57.812391,65.143758,64.556487,73.507987,0.0,48.29575,32.875774,52.331303,24.704567,41.745953,14.874127,31.78307,4.546726,25.856804,0.0,16.599307,-20.391993,13.379733,-21.259105,16.912823,-17.636304,16.313094,-10.662728,14.942689,74.101913,261.429996,47.418262,122.41281
40,3.757828,-2.884102,8.649445,-64.724003,0.0,-68.228405,-36.67273,-103.611546,-30.76339,-105.406059,-24.548607,-94.777279,-18.482002,-73.845383,0.0,27.077099,31.394626,46.117159,48.529723,59.047152,59.298538,70.089595,65.689965,78.318603,0.0,53.927467,27.153087,54.768642,17.998695,49.389965,8.433483,42.089584,-0.424233,33.991401,0.0,-2.637441,-34.878417,-7.40669,-35.135886,-1.394791,-29.995927,1.811158,-20.447155,0.900929,80.8862,260.940022,59.094166,60.082935
41,1.06707,-1.594778,1.475761,-50.078294,0.0,-67.467144,-34.743691,-103.074944,-28.566994,-104.92012,-22.597893,-94.143471,-17.042038,-73.429848,0.0,27.750783,31.951762,47.17256,49.195293,59.766692,59.897418,70.909739,66.020724,78.907949,0.0,49.797363,17.617252,44.689694,8.862648,40.977711,0.52644,34.226372,-6.433571,26.397217,0.0,-19.970151,-42.234441,-25.843566,-42.994323,-20.181402,-39.087785,-16.347495,-30.881251,-17.960592,84.89074,262.804196,63.507397,13.463593
42,0.255226,-0.967444,-3.72052,-37.529183,0.0,-66.392269,-33.893555,-102.876663,-27.456116,-104.111755,-21.410065,-92.965851,-15.937843,-72.11998,0.0,28.266634,32.66661,47.710999,49.755962,60.615242,60.195895,72.017962,65.921702,79.260877,0.0,45.88987,6.898922,37.940701,-1.454727,34.864048,-8.876598,28.965683,-14.503658,21.182304,0.0,-34.201139,-48.926772,-42.862832,-50.438354,-37.628345,-47.575991,-33.081616,-40.325088,-34.635544,87.643822,265.245502,62.284733,-20.65684
43,0.859314,-0.259451,-4.379059,-23.67541,0.0,-65.275005,-33.011604,-102.528442,-26.79055,-103.643417,-20.992584,-92.685413,-15.721619,-71.679966,0.0,27.793182,32.465156,47.491205,49.402479,60.465189,59.787638,72.098756,65.475358,79.121001,0.0,42.492851,2.351635,31.568402,-5.498909,29.648541,-12.782856,23.827034,-18.39014,16.647629,0.0,-41.18182,-47.123932,-46.411394,-48.819358,-42.210455,-47.10433,-38.290776,-41.491856,-41.065504,90.80456,267.991715,60.207098,-41.326586
44,0.796165,-0.093552,-2.879093,-14.842771,0.0,-64.607174,-32.303901,-102.098407,-26.195503,-103.340355,-20.603439,-92.528835,-15.502533,-71.495567,0.0,27.449837,32.289019,47.268916,49.082155,60.430572,59.398413,72.112712,65.026976,79.297792,0.0,40.428337,-0.915619,27.787468,-8.664391,25.442413,-16.20639,19.425613,-22.27985,12.981949,0.0,-45.98949,-45.634648,-48.790094,-47.009193,-45.718177,-45.691075,-42.388768,-41.01647,-45.868527,93.834394,270.528178,59.561674,-53.539342
45,0.743363,0.058009,0.696327,-6.121022,0.0,-64.072495,-31.859802,-101.604744,-25.843209,-102.965138,-20.391861,-92.248203,-15.37143,-71.248215,0.0,26.892477,32.361896,47.24666,48.977932,60.369759,59.211667,72.307707,64.783567,79.55334,0.0,38.470139,-4.265991,25.387482,-12.287864,21.799507,-20.243248,15.478272,-26.773212,9.517937,0.0,-48.192337,-44.481835,-49.907548,-44.83028,-47.476347,-43.051331,-44.459216,-38.538167,-47.540315,96.254677,271.894462,61.934921,-58.352089
46,0.727134,0.032863,2.947541,-2.933033,0.0,-63.748844,-31.190231,-101.391345,-25.307121,-102.970664,-20.089233,-92.241794,-15.335769,-71.140045,0.0,26.598842,32.461488,47.219404,48.911489,60.363313,59.071544,72.502913,64.587782,79.768479,0.0,35.634681,-5.64663,22.488624,-13.6848,19.118019,-21.613633,12.936264,-28.202992,6.444259,0.0,-49.036892,-43.752952,-50.191618,-44.04158,-47.624005,-42.361018,-45.388412,-38.246903,-48.32867,98.638772,272.094878,66.539423,-61.117569
47,0.507889,-0.012646,5.493095,1.709757,0.0,-63.050834,-30.526222,-101.000187,-24.787559,-102.913604,-19.778686,-92.152553,-15.179901,-70.982643,0.0,26.219805,32.520743,47.106265,48.80634,59.979682,58.897456,72.540802,64.410299,79.873195,0.0,34.70684,-4.563217,26.158195,-12.735191,23.283394,-20.323311,16.121933,-26.125397,7.906723,0.0,-45.395877,-44.648302,-54.01277,-45.254777,-52.675423,-43.158079,-50.480789,-38.498646,-51.885932,100.632665,271.985266,73.518522,-59.504778
48,-0.46566,-0.103531,9.241104,7.773139,0.0,-62.700279,-30.255226,-100.602756,-24.393562,-102.869167,-19.327812,-91.77285,-14.618591,-70.679066,0.0,26.237293,32.454436,47.292319,48.650038,60.342935,58.767052,72.992211,64.318204,80.360739,0.0,37.759586,0.375183,33.944756,-8.339092,28.773445,-16.430866,20.060234,-22.757721,8.319763,0.0,-37.97973,-45.714398,-60.202187,-46.492268,-60.652002,-43.685227,-57.866543,-37.805881,-54.532805,101.274645,271.186919,83.867266,-52.426455
49,-0.501869,-0.300008,13.327309,11.132389,0.0,-62.447067,-29.706368,-100.19767,-23.978348,-102.840946,-18.993851,-91.702606,-14.315483,-70.486473,0.0,26.118473,32.256921,47.430726,48.385363,60.302933,58.550703,73.206225,64.121887,80.671282,0.0,43.566684,7.876991,44.290535,-1.757939,34.079223,-10.976246,22.754562,-18.76474,6.162552,0.0,-26.910592,-46.139667,-67.185455,-47.062836,-70.278212,-43.445901,-66.293263,-36.040492,-54.749499,101.66787,269.726491,98.089669,-42.454486
50,-0.797974,-0.126131,10.510139,11.330429,0.0,-62.388485,-29.001434,-99.797424,-23.414016,-102.75333,-18.557808,-91.49937,-13.937301,-70.046402,0.0,26.105369,31.923369,47.443891,47.988196,60.152323,58.161836,73.224923,63.685867,81.071325,0.0,49.650776,15.248886,55.569168,5.106091,41.891693,-4.75169,27.906029,-13.62735,7.782532,0.0,-16.648742,-46.697391,-73.929162,-47.969733,-80.216768,-43.780354,-75.200273,-35.015658,-58.437141,101.444698,268.425818,109.17461,-32.298599
51,-0.920311,0.031011,5.577095,8.797223,0.0,-61.980972,-28.659187,-99.125335,-23.145012,-102.499717,-18.305671,-90.87656,-13.57434,-69.374233,0.0,26.076371,31.598995,47.58851,47.504517,60.224818,57.633129,73.334344,63.066054,81.316017,0.0,56.496495,21.854187,67.011452,11.185536,48.783714,0.319782,32.497559,-9.685638,9.591248,0.0,-7.578674,-47.110729,-81.034084,-48.844496,-90.399639,-44.109817,-83.734494,-34.08033,-61.836378,100.778011,267.343494,115.005329,-24.614711
52,-0.443069,0.378913,0.556114,4.153777,0.0,-62.059605,-28.19062,-98.744591,-22.867951,-102.380276,-18.23243,-90.704956,-13.66214,-69.140579,0.0,25.609377,31.239027,47.605615,47.101275,60.210504,57.209175,73.332615,62.557539,81.160925,0.0,61.730244,25.777085,69.598435,14.968701,49.206162,3.245099,32.438942,-8.187332,7.985688,0.0,-3.91535,-45.72358,-83.988755,-47.727214,-94.033398,-43.450662,-87.179,-33.552309,-64.283059,100.416475,266.859334,115.642976,-21.324007
53,-0.023758,0.378517,-5.833557,-0.84573,0.0,-62.109879,-27.848946,-98.515354,-22.662987,-102.265491,-18.159073,-90.574562,-13.649117,-68.869217,0.0,25.395907,31.075932,47.367457,46.867575,60.016609,56.936202,73.338124,62.229015,81.17435,0.0,63.586029,25.843781,67.504853,15.516724,49.445641,3.835739,32.954933,-7.806907,8.630699,0.0,-4.924948,-44.066607,-83.499297,-46.565881,-91.881094,-43.192987,-86.96531,-34.195495,-66.991361,100.585281,267.434257,110.001983,-21.973331
54,-0.052506,0.570846,-14.749397,-5.399234,0.0,-62.166275,-27.428146,-98.348842,-22.194236,-101.923576,-17.773956,-90.058124,-13.419731,-68.345169,0.0,25.18866,30.951146,47.26479,46.780272,59.942236,56.83172,73.343273,62.065277,81.026198,0.0,62.214661,21.094368,62.649261,11.240067,50.473114,0.155823,36.188484,-10.401924,14.421638,0.0,-11.285635,-46.940879,-81.130631,-49.302832,-86.361409,-46.064807,-83.01907,-37.026362,-68.984485,100.74916,268.921751,95.468971,-26.455917
55,0.110962,0.373343,-15.383835,-5.998231,0.0,-61.973854,-27.125541,-98.247413,-21.827705,-101.792495,-17.406349,-89.837574,-13.098884,-67.994751,0.0,25.145286,31.048811,47.315623,46.852631,60.011569,56.865559,73.501293,62.071205,80.906909,0.0,61.787064,16.588211,56.57943,6.976822,48.2845,-3.616939,36.39814,-13.276199,17.63308,0.0,-18.919993,-48.347035,-78.005393,-50.628861,-79.472879,-47.568628,-77.028193,-38.95371,-66.771203,101.265272,270.335557,80.490286,-31.413685
56,0.074982,0.234219,-11.014366,-6.668082,0.0,-61.958553,-26.868484,-98.413593,-21.586121,-101.832035,-17.17543,-89.966068,-12.890167,-67.808189,0.0,25.017488,31.051985,47.251082,46.937093,59.975458,56.998656,73.606355,62.260668,80.887309,0.0,57.519012,10.06517,48.645653,0.885841,44.706779,-8.708702,35.664803,-16.726547,21.111694,0.0,-27.051145,-48.804302,-71.860492,-50.328438,-68.761411,-47.225047,-67.356812,-38.985369,-61.925437,101.817375,271.553692,69.953041,-37.097851
57,-0.266029,-0.0772,-6.0802,-5.181199,0.0,-61.841995,-26.598358,-98.387604,-21.281548,-101.910633,-16.815743,-89.924698,-12.495919,-67.580326,0.0,25.374948,31.064656,47.267742,46.994138,59.993143,57.089268,73.837042,62.370262,81.247561,0.0,52.697456,4.175354,40.828331,-4.868157,38.991966,-13.703682,32.292274,-20.403923,21.380974,0.0,-34.392614,-49.842888,-65.896057,-50.699255,-60.429984,-47.46572,-59.299766,-39.508167,-57.317603,102.061661,272.349803,64.383156,-41.405739
58,-0.409516,-0.192242,0.594223,-3.359796,0.0,-61.771179,-26.431617,-98.280212,-21.096176,-101.876438,-16.571388,-89.777641,-12.213707,-67.314457,0.0,25.595373,31.003734,47.375954,47.005958,60.08777,57.163604,74.045055,62.492133,81.562303,0.0,48.292167,-1.238503,36.996437,-10.47876,35.77581,-18.820038,30.578384,-24.480972,21.681015,0.0,-40.088195,-51.538216,-60.835271,-51.643858,-54.623767,-48.063014,-53.108486,-40.046631,-54.320232,101.937658,272.658268,65.262892,-44.264828
59,-0.181297,-0.321559,8.155289,-0.057663,0.0,-61.874565,-26.535484,-98.318561,-21.299423,-102.170746,-16.790794,-89.977112,-12.372024,-67.423931,0.0,25.624976,30.948232,47.589412,46.990162,60.189275,57.235741,74.236716,62.684054,81.973833,0.0,44.19873,-3.330277,37.09568,-11.914101,36.430274,-18.689827,32.000907,-22.299386,23.427749,0.0,-40.662974,-50.49961,-59.300384,-50.253356,-54.056564,-46.178057,-51.31542,-38.272807,-53.333139,101.840795,272.532637,73.502615,-44.126563
60,-0.021492,-0.378616,9.727752,-0.050024,0.0,-62.047096,-26.840881,-98.448578,-21.674789,-102.193863,-17.135971,-89.802555,-12.595665,-67.376667,0.0,25.462276,30.728709,47.812627,46.764612,60.338106,57.105768,74.588446,62.699985,82.365984,0.0,41.377876,1.00248,44.180077,-5.962372,44.24643,-11.725239,38.401314,-15.20169,25.163475,0.0,-37.676304,-47.092846,-60.936258,-45.775883,-56.971585,-40.698919,-52.811768,-32.023646,-50.159798,101.561932,271.621979,82.972996,-44.708629
61,-0.421303,-0.509132,21.205902,9.816556,0.0,-62.11853,-26.851021,-98.209121,-21.740341,-102.015472,-17.252678,-89.667309,-12.700287,-67.392769,0.0,25.308937,30.66392,47.981613,46.771713,60.520183,57.190255,74.980277,62.837367,82.861815,0.0,44.860154,9.490403,55.033127,1.811005,49.136925,-5.418342,38.715226,-11.03833,20.546791,0.0,-23.697956,-45.03163,-64.249526,-44.719352,-65.768648,-39.618849,-60.600644,-30.454248,-51.102369,100.742672,269.560275,103.780941,-36.444645
62,-0.383354,-0.530671,19.476906,11.659225,0.0,-62.106125,-26.607582,-98.228691,-21.43103,-101.998821,-16.890175,-89.467735,-12.33165,-67.23571,0.0,25.173951,30.272497,48.193171,46.504507,60.743003,57.115327,75.194736,62.951062,83.134246,0.0,49.027451,17.487305,67.230492,8.869125,56.182732,-0.180153,40.242142,-8.395088,16.587753,0.0,-10.752945,-42.872268,-68.871291,-43.205411,-74.889072,-37.687808,-68.144217,-27.520733,-50.630948,99.855926,266.894892,122.754455,-26.920132
63,-0.264587,-0.212459,15.516495,11.178856,0.0,-62.133557,-26.255722,-97.902844,-21.043648,-101.808014,-16.536461,-89.137036,-12.115174,-67.078125,0.0,25.023083,29.826857,48.375952,46.166893,60.803322,56.915096,75.334478,62.857214,83.11519,0.0,52.515175,25.811005,77.574509,16.463379,61.247566,5.800186,40.525017,-4.647286,12.557991,0.0,2.083607,-41.272574,-74.492387,-42.314612,-85.417845,-36.284623,-76.468709,-24.885385,-50.469625,99.084263,264.228592,137.763874,-18.195117
64,0.192054,0.375159,12.56012,7.633431,0.0,-62.032676,-26.118988,-97.892589,-20.975509,-101.914718,-16.599311,-89.17852,-12.344719,-67.239944,0.0,24.467526,29.513078,48.175164,45.887225,60.588528,56.671329,75.176372,62.63369,82.695695,0.0,56.640289,32.590713,84.273101,21.982063,62.042083,8.81884,36.356483,-4.976624,4.554885,0.0,11.685179,-38.532399,-77.342829,-40.426741,-91.977189,-34.794467,-82.469379,-23.249703,-50.130454,98.760297,262.060548,149.807974,-13.104889
65,-0.086311,0.43886,12.813903,7.76136,0.0,-62.046455,-25.785873,-97.60342,-20.662743,-101.9473,-16.404854,-89.477074,-12.346573,-67.604416,0.0,24.229763,29.395394,48.021109,45.920188,60.281221,56.763844,74.787814,62.747928,82.312682,0.0,59.052475,33.751305,85.304673,20.736626,56.865715,5.16964,28.122002,-10.546371,-4.398193,0.0,19.829243,-39.297487,-77.402159,-42.868729,-96.017852,-38.087463,-87.208229,-26.736063,-53.40104,98.362999,260.596091,162.31089,-7.246846
66,0.343918,0.596435,-0.000961,-0.64045,0.0,-62.143856,-25.52005,-97.73814,-20.405708,-102.176743,-16.224518,-89.786327,-12.347855,-67.963783,0.0,24.056701,29.10287,47.930484,45.729959,59.975458,56.692127,74.436108,62.822424,81.874945,0.0,58.211288,32.633446,84.925026,19.556946,57.384178,3.937592,28.254639,-11.929779,-5.6063,0.0,18.482787,-39.34183,-78.405431,-43.112199,-97.221232,-38.415006,-88.70272,-27.000726,-55.104401,98.506783,260.279583,162.109795,-8.800239
67,0.241493,0.766014,-0.191322,-2.452961,0.0,-62.125133,-25.340286,-97.585934,-20.375244,-102.085235,-16.407669,-89.939907,-12.69976,-68.193683,0.0,23.725447,29.134832,47.621596,45.794476,59.519641,56.749888,74.001681,62.903119,81.51205,0.0,57.931411,32.693504,85.121521,19.870216,58.189567,4.412361,29.326126,-11.421295,-5.105873,0.0,18.183149,-39.846794,-78.445371,-43.997033,-97.693746,-39.540105,-89.671473,-28.254229,-56.464034,98.708793,260.641607,161.87899,-11.65719
68,0.064728,0.579429,0.074546,-2.5909,0.0,-62.081131,-25.244957,-97.550228,-20.410194,-101.916321,-16.574593,-90.012108,-12.863319,-68.26545,0.0,23.375939,29.220529,47.343793,45.892535,59.237565,56.875871,73.685741,63.129545,81.363343,0.0,58.344224,32.797394,85.305222,20.057694,58.84639,4.654725,30.45337,-11.291816,-4.535247,0.0,17.719448,-39.846602,-78.444314,-44.162048,-97.5914,-39.9327,-89.902647,-28.949939,-57.095196,98.811934,261.125947,161.991949,-14.343179
69,-0.370445,0.188548,0.653138,-1.466325,0.0,-61.986409,-25.064255,-97.224942,-20.236748,-101.421421,-16.363518,-89.730046,-12.533203,-67.942395,0.0,23.455277,29.198547,47.321354,45.981864,59.17663,57.063198,73.618347,63.42664,81.591573,0.0,58.310943,32.989677,85.486427,20.374557,59.352058,5.008117,31.202224,-11.104386,-4.379219,0.0,17.354182,-39.616532,-77.897959,-44.277318,-97.149836,-40.414638,-89.975383,-29.744642,-57.794335,98.543993,261.314309,162.747591,-15.80969
70,-0.201073,0.245532,0.532791,-1.257609,0.0,-61.868752,-25.020195,-97.078377,-20.181839,-101.011803,-16.251663,-89.329319,-12.301483,-67.508652,0.0,23.389154,29.13955,47.242931,45.953817,59.229402,57.092233,73.668723,63.520488,81.594463,0.0,58.777977,33.405922,86.115463,20.944061,60.505188,5.614265,32.431,-10.681069,-3.425789,0.0,16.901212,-39.386179,-77.421493,-44.254859,-96.891843,-40.701648,-89.891032,-30.400215,-57.898773,98.404346,261.546494,163.341808,-17.080646
71,0.175026,0.253696,0.387817,-0.893652,0.0,-61.662289,-25.106117,-96.998509,-20.290627,-100.901367,-16.30378,-89.120636,-12.259461,-67.27969,0.0,23.322562,29.048394,46.959187,45.918495,59.146323,57.11014,73.598364,63.556315,81.4729,0.0,59.222466,33.786553,86.790528,21.45781,61.518128,6.190796,33.830109,-10.223282,-1.937782,0.0,16.371584,-39.239904,-77.180382,-44.117619,-96.507594,-40.706693,-89.516701,-30.603911,-57.990466,98.537098,261.762133,163.687351,-18.012355
72,0.288711,0.287584,-0.140144,-0.060194,0.0,-61.642181,-25.397506,-96.980358,-20.469772,-100.727943,-16.316894,-88.907444,-12.140464,-67.112869,0.0,23.255192,28.927116,46.822435,45.761106,59.110125,56.945686,73.535811,63.33636,81.13662,0.0,59.840103,34.074417,87.473923,21.739654,62.45343,6.458519,35.303924,-10.097878,-0.5728,0.0,15.861711,-38.96782,-77.057592,-43.7922,-95.875888,-40.536663,-88.888761,-30.681946,-58.279026,98.544096,261.992132,163.265494,-18.130134
73,0.595482,0.353965,-0.703011,0.960003,0.0,-61.686813,-25.598556,-97.21297,-20.620742,-100.985778,-16.378624,-89.082481,-12.204872,-67.235469,0.0,23.273175,28.697862,46.784681,45.564888,58.996233,56.757126,73.446484,63.100659,80.802415,0.0,60.581635,34.172882,88.171028,22.039444,63.717682,6.988221,37.044983,-9.45964,1.891251,0.0,14.913255,-38.686627,-76.694456,-43.454191,-95.13413,-40.428612,-87.792944,-30.947207,-58.098721,98.541292,262.26526,161.964197,-17.250968
74,0.560944,0.303133,-1.479881,2.654218,0.0,-61.752548,-25.930527,-97.507427,-20.859856,-101.223381,-16.519386,-89.157658,-12.33989,-67.374332,0.0,23.276954,28.656749,46.729921,45.494258,58.903508,56.65047,73.47605,62.916482,80.501851,0.0,61.444267,33.880714,88.292152,22.589767,66.095467,8.297813,41.395157,-7.671181,7.499794,0.0,12.756943,-39.085158,-76.564138,-43.586584,-93.66095,-40.981686,-86.876593,-32.283752,-59.605543,98.083603,262.395065,159.465683,-14.770078
75,0.431168,0.35509,-2.505661,5.074371,0.0,-61.895062,-26.033707,-97.678219,-20.912041,-101.452149,-16.562508,-89.361248,-12.493103,-67.695958,0.0,23.175349,28.675286,46.687757,45.571841,58.88187,56.723286,73.497328,62.913851,80.219849,0.0,61.758225,31.515221,85.59137,21.374062,67.570541,8.596527,46.562096,-5.619438,15.702301,0.0,8.624031,-39.735699,-75.397241,-44.228331,-89.996137,-42.455644,-84.476719,-34.980244,-62.018804,96.910109,262.497713,155.35536,-9.948149
76,0.262527,0.416667,-3.459755,6.338525,0.0,-61.943504,-26.381699,-98.0075,-21.248314,-101.534191,-16.835197,-89.228806,-12.67733,-67.631,0.0,23.213647,28.59543,46.385613,45.471459,58.776055,56.591634,73.40453,62.746804,80.104796,0.0,61.966438,28.928764,82.602402,19.275696,68.204567,7.124863,49.48233,-6.387314,20.069939,0.0,3.580252,-40.337783,-74.403843,-44.46042,-85.945094,-42.829425,-80.11541,-35.826014,-60.31101,95.307363,262.540608,150.030332,-3.983396
77,0.440483,0.217596,-4.297462,8.292401,0.0,-62.206867,-26.701492,-98.312336,-21.632721,-101.848675,-17.224594,-89.435829,-13.05162,-68.024414,0.0,23.414941,28.63621,46.319614,45.633456,58.863654,56.817357,73.563068,62.989261,80.210611,0.0,59.67025,25.840026,78.279213,16.673973,67.550834,5.425277,50.909477,-6.643845,25.646873,0.0,-1.69847,-40.756723,-70.550679,-44.594826,-78.7925,-42.923989,-72.126111,-35.818845,-54.355324,93.662847,262.496166,143.647871,4.046967
78,0.326592,0.207148,-4.436875,6.912595,0.0,-62.393612,-27.01371,-98.442181,-22.00708,-102.153855,-17.6036,-89.76622,-13.431359,-68.55708,0.0,23.472801,28.772703,45.953965,45.867403,58.770003,57.110634,73.485497,63.314859,80.063843,0.0,55.077118,23.925316,68.588333,15.513588,60.305397,5.276207,46.076729,-5.583183,25.563606,0.0,-5.896621,-38.020439,-56.659826,-40.538788,-60.288663,-38.133214,-54.748397,-31.246932,-41.478938,91.799578,262.479102,137.021135,10.73535
79,0.307663,0.39172,-8.249965,11.641382,0.0,-62.574635,-27.005379,-98.38892,-22.064347,-102.337075,-17.71756,-90.111615,-13.621651,-69.034138,0.0,23.437776,28.784991,45.422985,45.98857,58.588383,57.329823,73.445088,63.637134,80.103943,0.0,52.709323,21.966064,62.248294,13.594997,55.325866,4.270694,42.488056,-5.049328,26.253147,0.0,-6.436011,-34.620572,-41.458649,-35.026458,-40.898052,-30.601812,-35.160265,-22.384253,-24.698887,89.9599,262.316816,126.623829,21.822726
80,0.553688,0.33996,-11.790253,15.498828,0.0,-62.531445,-27.076676,-98.625664,-22.259697,-102.836907,-17.897393,-90.516564,-13.663582,-69.119259,0.0,23.558684,28.861167,44.628802,46.102092,58.067482,57.52666,73.300815,63.935772,80.825448,0.0,53.212452,21.479187,61.311298,12.689037,53.998649,3.886722,41.174068,-4.442333,27.533672,0.0,-2.628832,-30.946892,-25.979117,-28.01534,-21.878053,-20.038249,-14.859292,-8.859727,-4.961862,88.387059,261.76694,112.707047,36.431718
81,0.62519,0.379469,-13.52195,25.918297,0.0,-62.892299,-26.998787,-98.927513,-22.259605,-103.320121,-17.948318,-91.192291,-13.714393,-69.467319,0.0,23.355673,29.103686,44.374525,46.416093,57.779194,57.947377,73.221428,64.473914,81.586534,0.0,54.590893,21.581612,60.109554,13.147465,52.778618,5.676647,41.113163,-0.828106,31.375042,0.0,3.821097,-25.346525,-7.370341,-19.091295,-0.422879,-8.163306,6.234093,5.154109,13.90652,86.716249,261.547235,96.889097,61.750841
82,0.415306,0.760778,-14.116035,26.686651,0.0,-63.178413,-26.96434,-99.101772,-22.3404,-103.526802,-18.092216,-91.699871,-13.78775,-69.49942,0.0,22.66823,29.054952,43.808372,46.372484,57.159775,57.967482,72.852234,64.614507,82.077844,0.0,57.984203,21.887306,59.26482,14.113208,52.574089,7.740497,43.763843,2.354885,36.082843,0.0,8.962541,-19.996939,8.028211,-9.809831,17.594798,4.567394,24.309507,20.173606,29.320299,84.960926,261.647753,80.602433,87.777232
83,-0.098785,1.521678,-16.66539,36.278984,0.0,-63.130428,-26.495499,-98.797039,-21.987465,-103.154262,-17.829346,-91.613972,-13.542114,-69.212391,0.0,21.50426,28.454664,42.511824,45.69449,55.870056,57.284066,71.536617,63.858312,81.630389,0.0,62.398761,25.746437,63.523441,17.449344,57.6026,10.760845,49.748966,5.044933,41.77557,0.0,13.521296,-14.659844,14.494949,-2.81094,23.86848,12.817509,31.916232,29.614281,37.126713,82.826328,262.569245,61.90123,123.45603
84,-0.072922,10.367116,-14.454895,35.199764,0.0,-62.592464,-25.30989,-99.555072,-20.104042,-100.883514,-15.196357,-84.356403,-10.378601,-61.987861,0.0,20.050643,24.9053,34.14221,35.987239,41.57717,41.817885,49.072793,43.303366,55.409904,0.0,65.470813,30.554477,73.180091,22.081993,65.421558,14.311946,51.65348,7.017408,41.503109,0.0,13.883863,-8.926955,18.355186,3.993473,28.459499,20.209069,39.691176,37.376425,45.820158,80.80501,272.713992,45.497939,158.433425
85,-0.77742,9.713525,-12.2444,34.120542,0.0,-62.108848,-23.882721,-100.074348,-18.678154,-95.962326,-13.806152,-75.425171,-9.184822,-54.984031,0.0,19.914434,22.466381,26.950091,27.152237,26.907248,26.904914,27.556047,23.254032,29.165411,0.0,67.200359,36.311428,88.234771,28.011154,76.030963,18.393802,49.477386,8.27231,35.265461,0.0,10.050244,-2.79827,19.608923,10.60341,31.367857,26.742078,47.634342,43.460038,55.400635,78.238363,282.69104,31.464312,192.81749
86,-2.712204,7.701647,-10.01112,23.415497,0.0,-61.514202,-23.808517,-85.582203,-18.045273,-78.44712,-12.763023,-59.821312,-7.94902,-45.638031,0.0,23.394119,21.006737,21.902402,20.729626,16.870979,15.823457,12.377401,7.982772,9.906322,0.0,69.94471,38.04689,93.157116,28.251239,77.053962,16.880768,48.838817,5.170481,32.299026,0.0,9.10976,2.954905,21.227537,17.755256,33.086408,34.072,50.230082,50.334107,58.934611,73.943784,290.470563,19.870817,216.310863
87,-0.886734,1.157944,-12.042927,21.355021,0.0,-58.412098,-22.055397,-73.790519,-18.264541,-64.405472,-14.728111,-48.623508,-11.490623,-40.289886,0.0,20.149678,19.751771,20.007343,20.091756,16.177077,15.729263,10.982496,8.40927,7.630202,0.0,71.317989,41.159718,97.724853,30.56892,81.811672,17.846958,51.216179,4.568945,32.0854,0.0,7.090485,11.002602,27.897509,26.148731,40.120212,41.073398,56.878539,54.836404,66.00969,71.554178,291.681841,6.325018,237.719218
88,-1.109779,1.893181,-9.860847,13.139623,0.0,-52.564247,-25.222206,-55.974083,-23.6204,-44.520104,-21.177887,-32.868439,-18.321373,-32.185295,0.0,16.80787,17.217324,19.758909,17.365883,16.427055,13.609816,10.35799,7.595906,5.885346,0.0,73.916965,39.395725,103.160613,28.915992,88.325031,16.087772,57.039802,2.781217,35.90752,0.0,4.466043,15.142807,33.166684,31.564168,47.624814,46.726068,64.510322,59.877288,73.709324,69.137827,293.575179,-4.842401,250.858998
89,-2.51017,-6.477235,-8.557469,8.55095,0.0,-45.794094,-28.76786,-35.403568,-30.090431,-25.528175,-29.33757,-22.29261,-27.220505,-28.148369,0.0,13.283353,17.522655,26.99539,23.0888,29.620487,25.211544,29.930795,24.958664,28.441746,0.0,75.698021,36.606674,101.192665,26.133774,89.492134,13.951149,63.8489,1.753704,42.743385,0.0,3.313503,18.951943,39.926211,36.564939,55.107007,51.614218,69.679252,63.770021,77.959648,65.455587,287.192222,-14.57194,259.504226
90,-2.176666,-5.968338,-6.715622,3.543288,0.0,-41.155146,-33.584874,-14.714619,-37.394989,-8.725514,-37.785336,-13.791539,-36.04834,-25.331646,0.0,7.653093,16.432266,33.327395,28.373789,43.829282,37.132313,49.007227,43.066411,50.734861,0.0,75.847252,33.228161,91.012962,22.527741,84.857323,11.326676,71.076988,0.753193,51.479073,0.0,4.419477,22.879961,48.243325,41.341852,62.391443,55.777604,72.466579,66.492054,78.830836,62.353575,281.257334,-22.212908,263.080964
91,-0.730179,-4.249515,-6.507202,2.735655,0.0,-38.4434,-38.026508,-8.478733,-45.12394,-4.019062,-47.214169,-12.165608,-46.391533,-25.760708,0.0,-2.114884,14.234557,37.535883,31.766851,53.839826,46.116097,62.349156,57.58145,66.297027,0.0,74.171219,33.14938,91.256378,23.798103,90.279121,13.632305,77.286072,3.779274,57.857872,0.0,0.864098,25.178409,53.299646,43.055598,67.859627,56.41094,77.259695,65.633932,82.265183,60.72599,277.063172,-29.617516,265.871972
92,-4.290207,2.884411,-3.419724,1.684674,0.0,-33.815546,-42.146748,1.178776,-50.090172,4.524845,-51.838783,-4.944981,-50.366364,-20.920521,0.0,-4.814414,11.554836,36.765288,28.552829,52.788068,42.929677,60.44922,54.862357,63.574698,0.0,73.860077,31.834717,92.992928,22.871178,92.1568,13.315854,78.987397,4.186329,59.004799,0.0,0.072137,25.812562,53.736197,43.538487,67.950104,56.57143,77.071826,65.462724,81.367864,55.51644,279.982833,-33.956583,267.591896
93,-7.428635,2.139269,-3.214164,1.144828,0.0,-26.281763,-37.706405,6.917874,-46.288341,9.000904,-48.612934,-0.216419,-47.890194,-15.674022,0.0,-6.245962,10.367487,34.636961,27.118552,50.513072,41.135864,57.564216,52.610073,60.412818,0.0,73.329918,30.808056,94.256721,22.035152,93.364288,12.984638,79.795898,4.600147,59.499756,0.0,0.157637,27.555924,54.24996,45.355616,67.657284,57.915366,76.361251,66.046191,80.146342,47.036339,282.111438,-38.222213,268.72606
94,-7.544609,3.594504,-2.642155,0.634893,0.0,-18.066736,-34.31092,10.756199,-42.723129,12.356541,-44.934894,3.231411,-44.13295,-15.521793,0.0,-4.829778,9.622048,31.337846,25.463282,46.614324,38.538605,53.250789,49.266485,55.919536,0.0,72.144985,30.091621,94.766407,21.393734,94.033596,12.547142,80.113758,4.431622,59.351154,0.0,1.397388,29.023719,54.258074,46.69276,67.447308,58.774178,75.934408,66.265121,79.310612,38.496214,285.686827,-41.859884,269.341838
95,-1.624351,-1.005952,-2.475391,0.44017,0.0,-20.705395,-34.196606,8.105209,-42.215321,10.593841,-44.463307,1.923454,-43.751999,-16.835289,0.0,-2.773223,11.276947,30.877281,27.713499,46.254295,41.08087,53.00443,51.893207,56.11591,0.0,71.268585,29.297081,95.051994,20.632084,94.379631,12.008136,80.360984,4.222904,59.559036,0.0,2.321445,30.080527,54.046072,47.635947,67.44028,59.379776,75.720973,66.381334,78.775778,35.950339,284.64946,-45.256799,269.750593
96,-2.343178,0.65931,-2.581868,0.256202,0.0,-19.622475,-29.043652,5.457275,-36.422344,7.197143,-38.784451,0.215561,-38.414108,-19.278912,0.0,-2.019486,11.104922,28.072997,27.191707,43.14353,40.331985,51.103727,50.636955,55.366123,0.0,70.225605,28.868889,95.515469,20.183819,94.768834,11.698677,80.687634,4.157673,59.54567,0.0,3.090905,31.231395,53.48591,48.743305,67.567153,60.133527,75.813859,66.62993,78.540448,32.807734,285.254689,-48.638094,269.952714
97,-2.164982,-0.473922,-2.767364,0.173593,0.0,-21.323461,-26.814085,3.269463,-33.457741,5.369133,-35.859861,-0.675453,-35.715099,-20.2288,0.0,-1.384482,11.306846,27.55396,27.734042,42.761654,41.193922,51.196896,51.602546,56.29522,0.0,69.722958,28.378418,95.909878,19.60247,94.841503,11.363285,81.110081,4.25362,60.068687,0.0,4.605852,31.609196,52.878533,49.313583,67.656789,60.692936,76.218385,66.962455,78.838579,29.862453,284.709213,-52.185757,270.054753
98,0.056374,-1.534918,-2.003929,0.293351,0.0,-27.516146,-29.62155,-0.26928,-35.524807,3.338562,-37.73818,-2.171929,-37.578118,-21.850291,0.0,-1.529632,11.759748,28.071181,29.288918,44.305809,43.633607,52.969405,54.681101,58.389633,0.0,69.340999,27.82489,95.797016,18.969337,94.56744,10.781902,80.934963,3.81982,60.088062,0.0,5.648768,31.57164,52.130378,49.398119,67.917216,60.838198,76.52305,67.04803,78.859414,29.196705,283.101041,-54.911808,270.27485
99,1.071121,-3.007529,-1.926167,0.055885,0.0,-35.353197,-32.880839,-3.212219,-39.334225,1.511787,-41.839823,-4.167046,-42.008755,-20.428454,0.0,-2.293769,11.010901,29.626662,30.445528,47.256812,46.551561,56.684494,58.850514,62.169067,0.0,69.141083,27.340531,95.629303,18.368557,94.219506,10.205521,80.728363,3.377106,59.868656,0.0,6.168829,31.755445,52.181321,49.700498,68.257596,61.207107,76.911237,67.318631,79.049543,29.589209,280.00046,-57.516592,270.237683
100,-6.810562,3.127794,-1.799171,0.201553,0.0,-28.184069,-30.413229,2.203468,-37.071923,6.26065,-39.377054,0.944664,-39.495999,-14.5721,0.0,-5.602837,7.781861,26.948695,26.530342,44.561777,42.229884,54.22032,54.214392,59.319953,0.0,69.103226,26.651321,95.568855,17.598942,93.878105,9.600563,80.529007,3.103946,59.646194,0.0,6.803203,31.817221,52.306946,49.895753,68.570313,61.452244,77.153805,67.436044,79.043775,22.120039,283.006942,-59.974371,270.317924
101,-4.05407,-1.202095,-1.619362,0.225228,0.0,-26.039789,-35.240873,5.1782,-42.098648,10.909607,-44.115812,5.605248,-43.781971,-9.021475,0.0,-4.567419,8.609662,29.120654,27.662746,46.887656,43.647908,56.054381,56.115168,60.478687,0.0,69.150856,25.910282,95.267418,16.894157,93.524597,9.152195,80.563087,3.052414,59.984493,0.0,7.513667,31.702032,52.590665,49.890406,68.524593,61.576832,77.06901,67.56556,78.891203,17.444217,281.676817,-62.215485,270.415122
102,-5.851055,1.47623,-0.589565,0.145571,0.0,-20.229046,-35.676636,10.10099,-42.753651,16.275696,-44.116115,11.063027,-42.949379,-2.461189,0.0,-5.48461,7.846341,28.421924,26.653071,46.066869,42.258301,55.095718,54.606433,58.287412,0.0,68.701206,25.243732,94.565586,16.243686,93.043636,8.540062,80.022846,2.535804,59.578582,0.0,7.558028,31.718519,52.8946,49.944239,68.711178,61.701518,76.918968,67.727592,78.526751,11.008467,283.029253,-63.389745,270.436899
103,-1.594299,-0.918142,-0.801773,-0.107619,0.0,-19.822895,-38.41277,10.813202,-45.606537,17.303009,-46.56839,12.384018,-44.810486,-1.728241,0.0,-4.058522,8.728322,30.114688,27.613635,46.899166,43.158005,56.235025,55.476508,59.298661,0.0,68.394756,24.607658,94.222812,15.635284,92.908687,8.133773,80.260997,2.46429,59.924652,0.0,7.84539,31.808465,53.19467,50.166677,68.701014,62.049272,76.931257,68.085399,78.570348,8.924286,281.96036,-64.6814,270.178529
104,-5.414463,1.11783,-0.249012,0.162021,0.0,-13.059666,-35.906891,15.326053,-42.888382,22.008533,-43.542446,17.358043,-41.423756,2.748516,0.0,-6.116255,8.697941,28.96907,27.566422,46.00118,42.840287,55.566343,55.003587,58.053131,0.0,68.053619,23.735378,93.64952,14.802703,92.530174,7.516113,80.3451,2.20198,60.289432,0.0,7.976041,31.693868,52.97043,50.156327,68.343034,62.172254,76.761678,68.245654,78.397088,3.04913,282.919528,-65.391105,270.181888
105,2.172729,-1.459199,0.145179,0.130577,0.0,-16.943023,-40.574764,12.151142,-47.139118,20.08318,-47.380668,15.755322,-44.559494,0.324703,0.0,-2.766023,11.414527,32.229849,29.919211,48.138287,44.502756,56.296788,55.999608,58.525731,0.0,67.719429,23.145172,93.034241,14.300663,92.281952,7.128308,80.496804,1.990414,60.647004,0.0,8.239457,31.589597,52.711301,50.061973,67.802891,62.158793,76.480998,68.290608,78.462284,4.797987,281.313786,-65.669798,270.165922
106,-1.937462,2.092474,0.37928,0.063307,0.0,-13.671386,-37.708774,14.554608,-44.157085,22.070675,-44.245433,17.149601,-41.265976,2.183545,0.0,-3.956818,10.960662,31.377435,28.995067,47.298754,42.866852,54.761031,53.813274,56.238595,0.0,67.415772,22.605915,92.654709,13.7123,91.986603,6.532746,80.460938,1.420853,60.597508,0.0,8.602759,31.448435,52.574708,49.913352,67.58033,62.063153,76.601225,68.197167,78.851892,2.497135,283.278946,-65.653908,270.101915
107,5.21386,-1.621145,0.40741,0.155883,0.0,-20.032642,-42.963478,9.523075,-49.229496,17.52103,-49.263096,12.831699,-46.094135,-2.965519,0.0,-1.421693,12.658068,34.456766,30.510248,49.554693,44.239736,55.853679,54.931598,57.848897,0.0,67.269333,22.168762,92.413948,13.255737,91.839066,6.081917,80.461395,0.999092,60.59206,0.0,9.054537,31.206966,52.375032,49.650097,67.357028,61.868071,76.642536,68.036406,79.288171,7.453829,281.53502,-65.503664,270.135017
108,-0.46843,2.469226,0.577515,0.178495,0.0,-18.616882,-40.407508,10.906048,-46.828651,18.214749,-46.800075,13.09702,-43.547126,-2.301944,0.0,-2.465386,11.70647,32.9269,29.007688,48.349189,42.1194,53.961239,52.293509,55.215057,0.0,67.061233,21.796016,92.052429,12.880119,91.602287,5.683376,80.280349,0.555885,60.403324,0.0,9.614824,30.936759,52.27102,49.361761,67.333193,61.599667,76.802014,67.782378,79.713879,6.760437,283.905609,-65.151111,270.214875
109,6.641064,2.511586,0.397533,0.091453,0.0,-29.518249,-45.814808,3.218285,-51.547256,11.567802,-51.242535,7.015183,-47.697475,-9.176491,0.0,1.491248,13.48303,34.69873,27.223324,46.557675,36.868022,48.812565,43.904543,48.064261,0.0,66.941036,21.819981,91.744824,12.925358,91.491429,5.693001,80.165852,0.504982,60.247513,0.0,10.156226,30.844145,52.365633,49.220105,67.438341,61.441153,76.956241,67.63262,80.004525,13.220564,286.303228,-64.934515,270.192361
110,1.129829,-0.432944,0.343689,0.049252,0.0,-30.357421,-43.097007,1.703843,-48.083026,9.45028,-47.490188,5.32045,-43.808464,-10.256927,0.0,2.62785,12.98978,33.745686,27.110333,46.440546,37.499741,49.842994,45.321369,49.956207,0.0,66.855686,21.841152,91.51569,12.893177,91.214893,5.582451,79.824497,0.27721,59.852818,0.0,10.563803,30.784198,52.552762,49.141336,67.712278,61.332695,77.215593,67.497041,80.134856,14.215747,285.758636,-64.725472,270.129965
111,3.619011,1.797925,0.371098,0.159353,0.0,-36.569435,-46.804939,-3.571998,-51.087043,5.30555,-49.987587,2.326493,-45.764728,-13.747329,0.0,5.911713,13.912615,34.7928,25.229329,44.73495,33.085821,45.755351,38.540964,44.281554,0.0,66.910377,21.987659,91.291969,13.032131,91.004631,5.684463,79.517189,0.343769,59.546379,0.0,10.716265,30.726548,52.677609,49.102038,67.930319,61.285715,77.2098,67.445529,79.963511,17.739715,287.442499,-64.449417,270.175256
112,0.508599,-0.41001,0.341125,0.137111,0.0,-38.891545,-43.485752,-5.310562,-46.390103,3.871994,-44.574818,2.148399,-39.8386,-12.265984,0.0,6.995605,15.017342,35.450257,26.064305,45.513696,33.763186,46.636109,39.147575,45.201276,0.0,67.116394,21.999046,91.158806,13.069679,90.974693,5.769173,79.518128,0.473774,59.554985,0.0,10.802975,30.846232,52.814201,49.223785,68.024599,61.352652,77.161993,67.453284,79.830586,18.189331,286.917482,-64.167275,270.19736
113,2.509346,0.495621,0.230953,0.098393,0.0,-42.828896,-46.970455,-8.946694,-49.358105,1.266243,-47.195721,0.311325,-42.005951,-14.579018,0.0,9.61118,16.232738,37.018655,25.51674,45.055225,31.583928,44.589787,35.56263,42.37165,0.0,67.326039,22.137726,91.164906,13.187107,90.873059,5.899189,79.431897,0.647152,59.434891,0.0,10.841964,30.950578,52.914409,49.315447,68.037937,61.402757,77.114322,67.430178,79.703072,20.676544,287.30596,-63.958455,270.18861
114,-1.421196,-3.358111,0.353142,0.173531,0.0,-39.849644,-43.049767,-6.700722,-45.13591,2.531593,-42.886826,1.68061,-37.786446,-11.631089,0.0,6.736587,16.055416,36.141923,28.645559,47.580384,37.900217,50.096343,44.850534,50.90846,0.0,67.597675,22.340882,91.410839,13.325054,90.795902,5.943512,79.315556,0.586235,59.281037,0.0,10.789168,30.934004,52.8472,49.299874,68.054993,61.359248,77.036331,67.366315,79.570506,19.276451,283.886701,-63.58421,270.300993
115,-0.386891,1.860953,0.415318,0.274863,0.0,-39.033525,-43.250198,-5.910679,-45.82113,3.679322,-43.895794,2.671749,-39.100668,-11.00996,0.0,5.241678,15.661362,35.448751,27.192949,46.383316,35.244196,47.824589,41.11692,47.439304,0.0,67.883125,22.453239,91.533142,13.447323,90.853042,6.074238,79.384575,0.721676,59.369075,0.0,10.611932,30.882036,52.865837,49.257439,67.994009,61.311997,76.909373,67.337157,79.323851,18.946775,285.709149,-63.111677,270.537351
116,0.345291,-0.024589,0.395588,0.187511,0.0,-37.291322,-43.026191,-5.600772,-45.946168,3.913537,-44.263481,2.599423,-39.606817,-11.290134,0.0,5.161921,14.972326,34.832593,26.833339,46.361111,35.274503,47.980941,41.526955,48.050806,0.0,68.292606,22.51324,91.768306,13.485351,90.911762,6.110698,79.461238,0.781196,59.425747,0.0,10.545106,31.030212,52.905469,49.393624,67.995738,61.367263,76.820847,67.306665,79.19394,19.408218,285.662216,-62.599937,270.702518
117,-1.597526,2.548576,0.456161,0.232614,0.0,-33.905211,-41.601906,-3.225781,-45.112684,5.55526,-43.838608,3.51273,-39.485293,-10.384747,0.0,2.200149,12.570618,30.068992,24.554366,42.167331,33.1411,44.72562,39.566737,45.473775,0.0,68.569759,22.728859,91.79092,13.631813,90.659809,6.166855,79.153828,0.746521,59.106857,0.0,10.472808,31.1105,52.914188,49.427784,68.077434,61.314825,76.80336,67.199812,78.985631,17.98415,288.199973,-61.970318,270.924313
118,1.005546,0.919167,0.47723,0.253943,0.0,-32.307638,-41.277225,-3.45203,-44.918363,5.336014,-43.86248,2.924046,-39.671522,-11.179355,0.0,1.713518,12.396753,28.728786,23.935738,40.802746,32.11403,43.101041,38.079775,43.811392,0.0,68.840492,22.92112,91.901413,13.770813,90.644509,6.202309,79.036171,0.648491,58.9468,0.0,10.261189,31.195752,52.890858,49.468156,68.114952,61.282245,76.709091,67.160056,78.756154,19.201486,289.115469,-61.281298,271.174585
119,-1.37899,1.673103,0.517559,0.30149,0.0,-29.042524,-39.514492,-1.450023,-43.344503,6.590996,-42.523967,4.09084,-38.532766,-9.523647,0.0,0.738393,11.385467,26.973864,22.544958,38.62876,30.502826,41.197361,36.268314,41.949469,0.0,69.248738,22.90194,91.662518,13.790463,90.518612,6.248932,78.806134,0.733532,58.761738,0.0,10.025303,31.294195,52.819487,49.539046,67.983288,61.293039,76.395152,67.156475,78.364842,18.055332,290.785031,-60.530903,271.472534
120,1.350437,-0.805652,0.552292,0.193328,0.0,-29.663051,-41.703243,-2.40081,-45.710701,5.993729,-44.984161,3.586464,-40.981475,-10.162788,0.0,0.811425,12.693044,28.007653,23.977278,39.189961,31.987356,41.665202,37.756993,42.977879,0.0,69.499317,22.979496,91.4305,13.834259,90.356587,6.202274,78.545117,0.608975,58.43676,0.0,9.799445,31.450979,52.69548,49.694669,67.928961,61.406191,76.380925,67.21893,78.20975,19.680822,289.94277,-59.703558,271.629253
