takenoko1/special-research/HandMotion_SimilarSearch_自分用/NewProject/handData/test_key/d4_feature_d3/29.csv
frame,vel_0x_L,vel_0y_L,vel_0x_R,vel_0y_R,posFromWrist_0x_L,posFromWrist_1x_L,posFromWrist_2x_L,posFromWrist_3x_L,posFromWrist_4x_L,posFromWrist_5x_L,posFromWrist_6x_L,posFromWrist_7x_L,posFromWrist_8x_L,posFromWrist_9x_L,posFromWrist_0y_L,posFromWrist_1y_L,posFromWrist_2y_L,posFromWrist_3y_L,posFromWrist_4y_L,posFromWrist_5y_L,posFromWrist_6y_L,posFromWrist_7y_L,posFromWrist_8y_L,posFromWrist_9y_L,posFromWrist_0x_R,posFromWrist_1x_R,posFromWrist_2x_R,posFromWrist_3x_R,posFromWrist_4x_R,posFromWrist_5x_R,posFromWrist_6x_R,posFromWrist_7x_R,posFromWrist_8x_R,posFromWrist_9x_R,posFromWrist_0y_R,posFromWrist_1y_R,posFromWrist_2y_R,posFromWrist_3y_R,posFromWrist_4y_R,posFromWrist_5y_R,posFromWrist_6y_R,posFromWrist_7y_R,posFromWrist_8y_R,posFromWrist_9y_R,posFromBody_0x_L,posFromBody_0y_L,posFromBody_0x_R,posFromBody_0y_R
6,-0.718414,0.239283,-0.003914,0.359412,0.0,-31.004231,-36.220917,14.329456,-42.41565,17.886531,-43.366951,8.995433,-41.629406,-66.157448,0.0,5.063286,10.566039,38.152282,24.604871,45.70143,34.670942,50.471798,43.290249,65.949761,0.0,68.058586,28.619717,91.476517,20.549069,92.117157,11.10339,78.35788,1.502255,56.804604,0.0,8.220844,25.652504,53.709619,42.969407,69.244923,55.828448,78.615944,64.863892,82.811279,12.979872,300.901925,-55.367758,276.15667
7,-2.171723,2.630147,0.04216,0.137617,0.0,-31.828594,-35.472233,15.315411,-40.924358,19.338352,-41.274627,11.42712,-38.980865,-61.271724,0.0,8.013178,9.784662,36.093413,22.215748,43.166428,31.080378,47.464269,38.667775,62.680287,0.0,67.873833,28.336407,91.348068,20.284973,91.789147,10.8746,78.065346,1.258324,56.58268,0.0,7.919996,25.567437,53.679485,42.846832,69.211973,55.730562,78.613597,64.847504,82.826469,11.192339,303.431879,-54.941408,276.194094
8,4.284336,-2.590998,-0.049793,0.190747,0.0,-42.916225,-39.731964,10.352349,-44.281059,15.398072,-44.02684,7.49556,-41.699718,-64.834705,0.0,18.392287,13.261926,38.471223,25.370898,44.8936,33.62741,48.514483,40.624621,63.776678,0.0,67.731411,28.226314,91.438396,20.19548,91.658855,10.797809,77.978634,1.141342,56.546642,0.0,7.587211,25.362499,53.425851,42.572833,68.909903,55.456661,78.293236,64.621398,82.594115,15.78091,300.755412,-54.686966,276.299372
9,-3.563095,0.944461,-0.11586,0.176174,0.0,-35.729679,-36.3418,14.637223,-41.52721,19.852959,-41.900871,11.439469,-39.932705,-58.993091,0.0,17.450333,11.777903,37.621154,23.884009,44.461111,32.43365,48.553163,39.65294,63.425379,0.0,67.594059,28.269768,91.595226,20.328335,91.700992,10.985287,78.164806,1.307419,56.751331,0.0,7.354992,25.234058,53.25232,42.333624,68.515441,55.17256,77.969182,64.372853,82.454757,12.511591,301.604151,-54.50905,276.379824
10,1.92984,0.444281,-0.186928,0.069197,0.0,-40.575519,-37.985103,12.078438,-42.412994,17.244301,-42.437679,9.630913,-40.516491,-59.817535,0.0,21.269498,12.423134,37.745878,23.862274,43.627963,31.762276,47.546138,38.357825,61.982582,0.0,67.554485,28.490708,91.718548,20.638126,91.892979,11.325668,78.481144,1.607655,57.165791,0.0,7.227157,25.256314,53.227237,42.309135,68.216545,55.115627,77.709312,64.296777,82.421881,14.736219,301.962487,-54.40119,276.363076
11,-2.058151,0.101975,-0.207928,0.127614,0.0,-34.069015,-35.699593,15.204712,-41.111366,20.568558,-41.727631,12.378662,-39.922932,-57.167564,0.0,15.932619,11.208219,37.647707,22.970943,43.683007,31.444977,48.500095,38.592427,62.940108,0.0,67.583908,28.715733,91.887543,20.944909,92.143525,11.677105,78.879731,1.950165,57.575249,0.0,6.98801,25.094984,53.007331,42.116139,67.824071,54.935994,77.330362,64.168175,82.243336,12.996843,301.96392,-54.290343,276.390148
12,2.779129,-3.127424,-0.095283,0.044102,0.0,-36.518566,-37.438282,12.345657,-43.002388,17.169365,-43.946949,8.947357,-42.810596,-60.435802,0.0,16.461907,13.764093,39.558055,26.722429,46.319059,35.84483,51.301946,43.419728,66.621544,0.0,67.621673,28.885036,91.904549,21.143864,92.215347,11.887836,78.999275,2.168827,57.687652,0.0,6.933966,25.014449,53.006417,42.061762,67.710475,54.90155,77.111432,64.1136,82.179078,16.072477,298.748425,-54.089121,276.346179
13,-3.150238,-0.886711,-0.164211,0.014807,0.0,-28.039032,-34.298641,17.041466,-41.027252,21.512764,-42.608528,12.591087,-41.464119,-60.582424,0.0,9.496435,12.48271,40.095049,26.79222,47.454006,37.26404,53.173206,45.995029,68.777486,0.0,67.817997,28.985183,92.079792,21.290039,92.52824,12.086494,79.301136,2.423561,58.084179,0.0,6.907994,24.951724,52.973752,42.034025,67.672833,54.934822,77.029045,64.203942,82.071609,13.174896,297.756361,-54.000675,276.255633
14,1.457977,-0.862999,-0.259678,-0.00226,0.0,-34.665035,-36.501308,13.795304,-42.664936,18.911271,-43.904571,10.834031,-42.746772,-61.992313,0.0,15.393205,13.947084,40.938078,27.784808,47.973265,37.600443,52.954177,45.688846,68.63252,0.0,68.203628,29.215027,92.186805,21.540172,92.845184,12.322998,79.546394,2.63911,58.367866,0.0,6.834277,24.877253,53.189891,42.014203,67.775808,54.989718,77.0801,64.313067,82.173571,14.837442,296.777769,-54.055784,276.13778
15,-2.857338,-0.587703,-0.063893,0.019304,0.0,-28.022243,-33.653915,18.246827,-40.822609,23.256432,-42.692253,14.502182,-41.641021,-61.377182,0.0,8.678761,12.685078,41.091219,27.775681,48.898731,38.865178,54.591069,48.008092,70.130708,0.0,68.538655,29.112236,92.00607,21.463475,92.874356,12.29282,79.54533,2.661782,58.338032,0.0,6.808798,24.754208,53.425764,41.908078,67.953685,54.956767,77.159066,64.364146,82.253808,12.124054,296.072119,-53.975727,276.039137
16,-0.502006,2.061031,0.025166,-0.028023,0.0,-33.809807,-34.302864,15.582527,-40.241032,22.464935,-41.567986,15.266144,-40.359421,-54.374771,0.0,16.527275,13.711321,41.196219,25.3676,46.90975,32.989355,49.55725,39.097841,61.618711,0.0,68.653267,28.968532,91.672577,21.350658,92.860474,12.20842,79.4916,2.585106,58.245781,0.0,6.938721,24.759124,53.76496,41.945054,68.179383,55.038982,77.400857,64.467566,82.490906,11.709881,298.035576,-53.862728,275.91354
17,-1.400963,4.176106,-0.079319,0.03605,0.0,-34.429413,-34.078114,15.219498,-39.633442,23.973999,-40.556374,17.927445,-38.787609,-46.548889,0.0,19.216852,12.039157,40.035015,19.865985,43.189041,24.034261,43.362634,27.192189,51.176049,0.0,68.739841,28.914551,91.537502,21.313637,92.933681,12.160068,79.469021,2.506451,58.238674,0.0,6.876847,24.610849,53.883879,41.811414,68.2933,54.960139,77.578586,64.460946,82.616815,10.356502,302.115101,-53.894463,275.853009
18,2.137917,3.199919,-0.122955,-0.342776,0.0,-44.726097,-36.87521,9.920883,-40.777439,19.817161,-40.50713,15.254493,-38.208584,-44.593163,0.0,27.544475,11.809779,39.033991,16.335281,40.140855,17.470599,38.24613,18.083781,43.580736,0.0,68.737873,29.011058,91.276622,21.378067,92.746845,12.103225,79.216358,2.332317,58.003406,0.0,7.09758,24.668832,54.457737,41.906867,68.837259,55.069029,77.983953,64.579124,82.9846,12.509188,305.254785,-54.002649,275.449998
19,-0.994927,6.178894,-0.097184,-1.078274,0.0,-43.892269,-37.306618,9.164292,-39.630386,20.289528,-37.694618,18.363877,-33.651523,-30.730041,0.0,29.528726,8.990292,37.361778,9.169615,35.475686,6.733623,31.26889,4.299039,30.301076,0.0,68.359417,29.072617,90.591832,21.374817,91.925457,11.911698,78.412136,1.87579,57.063973,0.0,7.868028,25.037927,55.720077,42.273616,70.55155,55.3969,79.334003,64.928422,84.135468,11.487728,311.421379,-54.126366,274.359424
20,3.247284,5.107649,-0.349331,-2.669594,0.0,-53.178726,-41.334766,-2.3256,-40.348331,11.79332,-35.46468,13.362946,-28.835907,-21.610336,0.0,37.227841,7.163974,36.495839,2.042728,32.516976,-4.91989,24.496833,-11.353369,16.549641,0.0,67.623322,29.267567,88.401627,21.044999,89.008919,10.843049,75.106041,-0.071125,53.198571,0.0,9.839385,25.903508,59.539402,42.815847,75.149535,55.620795,83.259588,64.918925,86.767209,14.572987,316.581735,-54.637722,271.742537
21,1.083778,-5.493033,1.521904,-2.89707,0.0,-56.168323,-39.252651,-20.161937,-36.059589,-7.49921,-29.29906,-2.749008,-21.041622,-26.116973,0.0,34.97836,14.168113,39.483226,10.947261,32.503552,5.39107,25.217806,-0.813414,20.850422,0.0,65.453133,26.933922,82.426301,17.164639,80.097817,5.808552,65.268048,-5.765316,43.277047,0.0,14.340138,24.078808,62.443203,39.947021,78.680091,52.358286,86.478587,61.628863,87.987755,15.074769,311.341706,-53.697814,269.098471
22,2.402298,-2.083508,-3.026676,-9.945447,0.0,-58.072917,-38.860576,-41.048824,-34.794857,-31.498706,-26.835559,-22.758373,-17.013221,-31.724304,0.0,28.688796,16.172025,38.79824,13.6708,27.706767,8.878968,21.075526,3.038713,18.929218,0.0,60.323925,27.78051,73.76413,16.587113,67.858773,3.662121,53.162876,-9.906063,33.708092,0.0,26.359189,26.445886,74.202852,40.243793,90.507875,51.29771,96.073378,60.014596,93.595495,16.48265,309.725003,-57.718907,259.619829
23,0.574128,-7.662214,-7.056907,-19.846977,0.0,-58.599278,-37.723435,-60.64531,-32.209145,-53.116139,-23.049752,-41.129082,-11.964066,-33.400875,0.0,26.179038,20.139835,43.447096,20.945345,36.089275,19.119731,32.177498,15.356426,30.417129,0.0,53.689132,27.216293,68.419349,14.46833,59.068439,-0.074318,44.31538,-15.08939,25.504589,0.0,36.165252,27.563185,81.700895,39.970955,97.787619,50.116202,101.297339,58.243618,96.467716,15.672959,302.90839,-66.159633,240.618453
24,0.283355,-10.20139,-9.611573,-29.246972,0.0,-62.237526,-36.024971,-79.639297,-29.69078,-74.832801,-20.079368,-61.126121,-8.65377,-45.954357,0.0,23.53118,25.15198,48.326144,31.193999,46.076873,33.79689,45.582734,33.378852,47.403111,0.0,46.966484,26.208367,63.729973,11.948445,49.330811,-4.051895,33.87933,-20.135032,15.963971,0.0,44.977185,28.24601,88.460281,39.645086,102.895996,49.019429,104.261668,56.446842,96.422083,14.247739,293.722726,-77.479781,212.387207
25,-0.949653,-9.573735,-11.476261,-38.111959,0.0,-61.409809,-33.537758,-92.718716,-27.638649,-92.328896,-18.707531,-77.581444,-8.06147,-55.552883,0.0,20.351244,30.72708,52.339267,42.255634,54.165622,49.382459,58.109892,52.585984,64.959618,0.0,40.864598,25.77784,61.503971,10.656212,38.538117,-6.267082,22.657952,-23.059856,6.820976,0.0,52.00642,26.949486,90.78721,37.319992,98.681419,46.259827,98.576296,53.628319,90.766462,11.172638,285.251045,-91.08149,175.377302
26,-0.53595,-1.314851,-16.182266,-48.103824,0.0,-61.378796,-35.435451,-94.95425,-29.987961,-96.115665,-21.114761,-81.26786,-10.255371,-57.976536,0.0,20.205883,26.221164,52.775372,39.761844,61.768468,49.144868,68.344738,54.851656,72.50232,0.0,39.311142,28.823536,65.767696,14.420597,34.436188,-2.507172,18.75285,-19.810902,4.867092,0.0,56.812602,26.32249,91.360192,36.732727,92.130602,45.977813,90.878755,54.015648,84.751514,8.543804,285.081639,-109.35664,128.418923
27,-2.160393,-6.041302,-11.615559,-48.919843,0.0,-60.975254,-34.77618,-93.981239,-28.630714,-95.059204,-19.664749,-81.415844,-9.145981,-59.256889,0.0,23.684963,27.487689,57.333652,44.932403,75.131973,57.799126,84.718539,66.413926,88.441546,0.0,43.303631,29.17154,72.79691,15.587071,34.976452,-0.503151,18.298199,-16.66143,3.652863,0.0,52.441222,21.018901,80.521926,33.063054,75.046634,44.020992,75.544676,53.591639,73.721316,4.121069,280.062041,-123.234541,80.520784
28,-1.276382,0.185535,-7.463756,-42.118826,0.0,-60.81126,-34.598202,-93.680432,-28.648052,-94.892658,-19.828468,-81.6698,-9.359253,-59.475849,0.0,23.512346,27.114272,56.508839,44.621206,74.533204,57.525869,83.983549,66.246348,87.808654,0.0,47.275028,30.547211,75.864738,18.378891,31.213428,3.505966,13.821453,-11.674004,0.573749,0.0,48.688261,17.287651,71.529429,30.012262,60.482373,41.864927,62.597368,52.668927,64.145229,0.431626,280.846508,-133.111358,39.00089
29,-0.979935,-0.077707,-4.324162,-34.459095,0.0,-60.428318,-34.572143,-93.59927,-28.667644,-94.73592,-19.895977,-81.809246,-9.406814,-59.662777,0.0,23.233618,26.866888,55.94806,44.426272,73.964706,57.384102,83.460931,66.189761,87.55975,0.0,50.376663,32.137608,77.185353,21.194023,28.425854,7.272343,11.183132,-7.373645,-0.779995,0.0,46.438014,14.567953,64.321069,27.926556,47.636528,40.679374,51.615879,52.618971,57.46857,-3.134337,281.122211,-140.021548,4.895205
30,-0.403015,-0.340454,-2.268676,-24.345119,0.0,-60.797791,-34.891319,-93.990578,-29.008358,-94.968693,-20.204968,-82.075344,-9.649429,-59.974548,0.0,23.243163,26.80988,55.911787,44.418726,73.766115,57.431365,83.266849,66.293254,87.701541,0.0,50.718109,33.26762,76.598419,22.985801,28.235424,9.642505,11.110565,-4.611706,-0.797528,0.0,45.877438,14.96588,62.528708,29.042127,43.239831,42.160996,48.172003,54.38194,55.505995,-6.417818,281.035783,-145.17069,-19.195888
31,-0.282898,-0.292796,1.348377,-12.844147,0.0,-60.872875,-35.06155,-94.259251,-29.224022,-95.15609,-20.456818,-82.339291,-9.933632,-60.255615,0.0,23.112068,26.567423,55.50374,44.275329,73.442791,57.419337,82.941844,66.426301,87.807455,0.0,45.891506,31.596187,69.681072,20.543758,25.089008,6.657566,8.026302,-8.136257,-4.523621,0.0,47.699106,19.204792,67.951296,32.841006,43.86614,44.834696,48.674219,55.455908,55.596057,-9.816999,280.91177,-146.938596,-31.871252
32,-0.021057,-0.438836,0.737022,-3.839122,0.0,-60.962505,-35.504414,-94.542194,-29.803906,-95.719402,-21.103191,-83.066357,-10.535214,-60.844139,0.0,22.875996,26.360992,55.153962,44.070318,73.017936,57.324822,82.579172,66.546987,87.855152,0.0,34.87611,26.817501,57.079434,13.871269,18.270561,-1.2281,1.727108,-16.575622,-10.113132,0.0,52.794546,24.675304,79.669931,36.578604,48.694776,46.195415,51.506815,53.929691,56.360781,-12.680958,281.177169,-149.044476,-35.006139
33,-0.036827,-0.503303,-1.892251,-0.414087,0.0,-61.160076,-35.92638,-94.589894,-30.320423,-96.097996,-21.654225,-83.44019,-11.068325,-61.296238,0.0,22.769045,26.267724,55.029609,44.01956,72.727252,57.308273,82.313374,66.564796,87.727292,0.0,23.962457,21.564684,43.021219,7.257772,11.240355,-8.417392,-4.019014,-23.846196,-14.8708,0.0,57.17958,28.158979,89.237472,37.982389,52.848298,45.178458,53.691577,50.129399,55.743376,-15.261864,281.298623,-153.480806,-34.795469
34,-0.056214,-0.523581,-5.062783,2.044924,0.0,-61.345413,-35.991794,-94.666889,-30.556423,-96.492588,-22.014724,-83.92979,-11.504756,-61.847236,0.0,22.673775,26.103023,54.808332,43.897046,72.489809,57.234308,82.030964,66.549234,87.511152,0.0,12.820978,15.69038,28.420237,1.17601,3.69456,-13.973317,-9.688104,-28.456561,-18.914054,0.0,58.419815,29.242541,92.64762,36.068586,53.841397,40.31428,52.767985,42.447861,51.702524,-17.843474,281.349,-161.068985,-32.176587
35,-0.210571,-0.492077,-7.791736,2.351032,0.0,-61.458755,-36.076515,-94.537662,-30.78772,-96.661571,-22.37582,-84.191437,-11.984505,-62.18264,0.0,22.571962,25.999048,54.89624,43.792046,72.418747,57.171742,81.974376,66.563968,87.361531,0.0,2.780747,9.050753,12.95181,-4.333124,-4.204213,-17.734703,-14.6988,-30.175259,-21.247528,0.0,56.373422,27.21124,88.247082,30.663015,50.431036,31.97559,47.994089,31.504166,44.535831,-20.261421,281.338465,-171.068097,-29.344013
36,-0.023552,-0.432068,-11.223273,1.039798,0.0,-61.694687,-36.339672,-94.507416,-31.165203,-96.835235,-22.860019,-84.42453,-12.569401,-62.549949,0.0,22.617744,26.058143,55.227741,43.79233,72.456785,57.123108,81.965052,66.482383,87.381773,0.0,-6.559193,3.605381,-0.925381,-6.823906,-11.01852,-17.003689,-17.828671,-26.143787,-20.691822,0.0,49.535761,21.867562,75.12305,22.111785,43.116719,20.876369,39.571282,18.51859,34.515899,-21.930617,281.159549,-183.937014,-28.051063
37,0.095421,-0.12124,-13.282036,-0.166176,0.0,-61.923969,-36.484772,-94.307751,-31.325054,-96.792583,-23.026623,-84.329887,-12.736931,-62.572151,0.0,22.829769,26.146433,55.469493,43.819475,72.628624,57.030383,82.090726,66.219647,87.309809,0.0,-13.729523,0.108685,-11.257942,-5.452572,-16.476539,-11.258468,-19.003624,-16.663982,-18.88591,0.0,39.079106,14.357143,54.071439,11.476703,31.465089,8.047276,27.713819,4.513479,21.988012,-23.131216,280.526472,-198.51507,-28.729076
38,0.398987,-0.047968,-7.641971,2.229888,0.0,-62.07494,-36.522663,-94.409111,-31.366985,-96.860207,-23.06591,-84.358017,-12.791073,-62.72493,0.0,23.212647,26.182496,55.696167,43.751019,72.886815,57.036916,82.452065,66.389152,87.634505,0.0,-17.04424,2.157466,-16.777031,-3.239373,-20.737028,-9.521267,-22.392943,-15.776877,-22.561942,0.0,30.623597,5.17937,38.440447,-1.597089,21.205593,-6.860925,16.363976,-10.516572,9.605745,-23.61379,279.826469,-207.038602,-27.151223
39,0.595413,0.184473,-5.392847,3.09841,0.0,-62.324798,-36.381626,-94.358471,-31.141045,-96.64928,-22.813202,-83.956455,-12.566631,-62.528606,0.0,23.478828,26.153263,55.823731,43.620689,73.248265,56.979662,82.991467,66.466168,88.119172,0.0,-17.746687,5.817279,-18.402377,-0.571282,-21.949889,-8.337811,-24.058372,-16.279459,-25.70352,0.0,23.41566,-3.429344,25.203665,-13.509678,11.488705,-20.133171,6.032598,-23.730181,-1.7612,-23.290632,279.394472,-212.703704,-24.669283
40,0.702576,0.434797,-0.765642,2.420595,0.0,-62.152371,-36.348027,-94.236099,-31.061314,-96.426899,-22.673527,-83.520264,-12.346802,-62.054741,0.0,23.563933,26.195426,55.933091,43.577031,73.597031,56.925778,83.445962,66.462055,88.412042,0.0,-18.912442,8.00281,-20.335686,-0.444189,-24.14683,-10.43502,-27.146441,-20.513839,-30.474765,0.0,19.30842,-9.511293,17.300212,-22.301965,5.132362,-29.971251,-1.152745,-33.415248,-10.032646,-22.103336,279.167864,-212.984626,-22.910093
41,0.519287,0.338479,0.98175,3.096313,0.0,-61.889855,-36.124855,-94.060833,-30.761192,-96.150982,-22.261814,-82.980011,-11.807453,-61.439633,0.0,23.683555,26.258226,56.164297,43.580254,74.071521,56.93635,84.054451,66.499611,88.760771,0.0,-17.95649,12.078586,-19.433327,0.983047,-24.533009,-11.910668,-29.560375,-24.795422,-35.584614,0.0,17.148176,-14.411527,12.359851,-29.198769,0.638567,-37.429401,-6.428836,-40.583989,-15.6984,-20.664019,278.893281,-211.082846,-20.426842
42,0.44181,0.09843,4.011337,3.22912,0.0,-61.912525,-35.855266,-94.196182,-30.390529,-95.966846,-21.82212,-82.509395,-11.428218,-61.076339,0.0,23.967323,26.547441,56.793237,43.981607,74.760779,57.419646,84.812153,66.998147,89.384771,0.0,-15.324486,17.242962,-17.276321,2.278221,-24.714352,-14.640198,-32.385818,-31.383465,-41.362381,0.0,17.604382,-17.814432,13.475089,-33.925843,-0.357812,-42.329833,-8.186054,-44.867787,-18.353716,-19.141892,278.513843,-205.991192,-17.67559
43,0.262047,0.074866,1.877758,0.99869,0.0,-61.976738,-35.567733,-94.326461,-30.012989,-95.808208,-21.399353,-82.13237,-11.052383,-60.667923,0.0,24.085711,26.763147,57.155786,44.382726,75.162552,57.829669,85.280876,67.280557,89.777319,0.0,-15.716251,16.459477,-17.987892,1.398548,-24.948841,-15.456905,-33.100536,-32.104946,-42.628887,0.0,18.402969,-17.433377,12.902335,-33.592478,-0.875714,-42.174605,-8.404058,-44.989584,-18.748382,-17.946659,278.411226,-203.180248,-16.854383
44,0.11213,0.07536,-3.04763,-2.213302,0.0,-61.842007,-35.547947,-94.527981,-29.968575,-96.003571,-21.269589,-82.24363,-10.849137,-60.445931,0.0,24.134519,26.987734,57.467354,44.706718,75.344234,58.091849,85.485517,67.385508,89.976242,0.0,-13.759026,12.454307,-17.90276,-0.225907,-25.113373,-14.26268,-30.770691,-28.275948,-37.797295,0.0,20.719289,-13.847301,14.100935,-28.555582,1.654874,-36.978098,-5.635836,-40.564957,-15.618951,-16.964275,278.412029,-205.357624,-19.142242
45,-0.045159,-0.168134,-5.865418,-3.321221,0.0,-62.130787,-35.401291,-94.68473,-29.742428,-96.232979,-20.95713,-82.550331,-10.470772,-60.618839,0.0,24.292168,27.243541,57.758421,45.013544,75.448321,58.386941,85.600644,67.616516,90.34252,0.0,-11.855724,8.649147,-17.290249,0.901783,-21.773563,-7.950107,-24.533672,-17.262096,-27.743831,0.0,21.090773,-12.551333,13.90786,-24.296261,5.083942,-30.730086,-0.799921,-33.239623,-8.946789,-16.284702,278.261624,-210.49831,-22.445734
46,0.047539,0.018797,-1.868889,-2.747517,0.0,-62.468788,-35.299313,-94.735302,-29.574303,-96.464356,-20.767239,-82.917938,-10.312889,-60.892273,0.0,24.344915,27.355112,57.827544,45.177553,75.388756,58.545146,85.499584,67.724011,90.388191,0.0,-11.499618,4.257626,-18.543056,-0.535995,-21.179237,-5.706974,-21.719673,-11.412002,-22.078079,0.0,23.793533,-10.804475,16.349601,-19.825852,9.534542,-24.124187,5.484715,-25.070574,-0.221912,-15.765152,278.299742,-211.895188,-25.17393
47,-0.062302,0.100987,1.067379,-0.641043,0.0,-62.524658,-35.067684,-94.566971,-29.311226,-96.558803,-20.46167,-83.209945,-9.90422,-60.946071,0.0,24.232381,27.273292,57.614233,45.031562,75.132232,58.358684,85.23644,67.542749,90.361366,0.0,-13.476963,0.778862,-20.395374,-3.215171,-23.48529,-7.09917,-23.82645,-11.416522,-22.819484,0.0,25.682941,-9.123457,18.22727,-17.586678,11.75161,-21.613614,7.493536,-22.60275,3.024381,-15.396446,278.326919,-210.396801,-25.888783
48,-0.03051,0.150992,-0.307376,-0.281242,0.0,-62.537349,-34.968052,-94.436348,-29.148342,-96.652874,-20.231598,-83.482818,-9.571815,-60.982349,0.0,24.159095,27.329114,57.682406,44.99566,75.077102,58.208248,85.242702,67.299946,90.305247,0.0,-13.334175,-0.146428,-20.759812,-3.879284,-24.97712,-7.177483,-25.036927,-10.871796,-22.77919,0.0,27.210325,-8.475998,20.935464,-16.540348,14.755292,-20.450088,9.669694,-21.469143,5.437852,-14.881005,278.301326,-210.158226,-26.34661
49,-0.006729,0.281236,4.638633,3.382687,0.0,-62.59259,-35.035286,-94.218189,-29.13937,-96.673027,-20.221721,-83.534511,-9.560806,-60.972496,0.0,24.250066,27.538152,57.729472,45.165054,75.097195,58.288881,85.328683,67.284175,90.457524,0.0,-15.593937,2.818852,-22.102558,-3.159038,-25.811782,-9.031311,-28.248172,-15.132969,-28.050819,0.0,27.079983,-10.885301,21.135215,-20.206223,13.436859,-24.40354,8.086204,-24.898748,3.336776,-14.247122,278.350183,-204.878981,-23.196302
50,-0.007049,0.276148,4.375271,5.513855,0.0,-62.412415,-34.804345,-94.05621,-28.924965,-96.546021,-20.111527,-83.344609,-9.575295,-60.746899,0.0,24.514753,27.578339,57.674613,45.250591,75.15135,58.330205,85.446527,67.219782,90.559721,0.0,-14.744327,9.4697,-20.246887,-1.259239,-27.060253,-12.420112,-32.428013,-23.485554,-36.066341,0.0,26.955716,-12.521705,21.648744,-24.496611,10.269254,-30.523315,3.551013,-31.950793,-2.792187,-13.474954,278.297547,-199.724493,-18.011231
51,0.11499,0.285929,1.473232,4.88883,0.0,-62.303936,-34.822083,-93.977509,-28.956288,-96.511574,-20.177605,-83.052178,-9.637962,-60.325493,0.0,24.851947,27.800394,57.718863,45.466174,75.222549,58.429796,85.615761,67.14021,90.793743,0.0,-11.80038,16.001633,-16.311012,2.254315,-25.271461,-12.775943,-32.825546,-27.903133,-38.95182,0.0,25.169165,-13.772645,20.383959,-28.357586,5.823156,-36.653921,-2.533194,-39.709591,-11.67499,-12.343157,278.124214,-197.234454,-13.581663
52,0.020691,0.474515,-0.105228,2.563093,0.0,-62.19643,-34.839501,-93.656216,-28.984051,-96.19122,-20.284573,-82.513836,-9.847435,-59.860256,0.0,25.060268,27.930897,57.84807,45.60263,75.287275,58.498277,85.763369,67.063393,90.948637,0.0,-8.842998,19.842945,-11.596424,5.078236,-19.856266,-11.394196,-28.651909,-28.119999,-36.334476,0.0,24.23758,-15.260713,18.321501,-30.184343,3.038138,-38.340016,-4.63795,-40.935108,-14.463225,-11.315964,278.23262,-196.33318,-11.384679
53,0.15374,0.692704,-0.131584,4.307362,0.0,-62.07518,-34.97699,-93.44244,-29.163266,-95.798001,-20.551415,-81.740113,-10.214196,-59.263813,0.0,25.026898,28.011555,57.712676,45.669369,75.216756,58.49199,85.802518,66.911017,91.064802,0.0,-5.564541,23.883201,-7.472397,8.993465,-15.00285,-8.335121,-24.086552,-26.308239,-32.955162,0.0,22.584201,-16.308154,15.05945,-31.779077,-1.164618,-40.147474,-7.274674,-42.711413,-17.303336,-10.089826,278.648015,-195.392366,-7.354626
54,0.563987,0.606537,0.101681,3.984199,0.0,-62.298294,-34.931957,-93.73954,-29.13628,-95.693458,-20.590942,-81.39323,-10.39318,-59.169147,0.0,24.913932,27.820623,57.291513,45.53673,74.815342,58.397587,85.556406,66.821467,91.052489,0.0,-2.864045,26.689052,-4.250142,12.078552,-12.071057,-5.148251,-21.051281,-23.329319,-29.997517,0.0,22.555523,-16.989002,14.89549,-32.347231,-0.444585,-40.123028,-5.639165,-42.089507,-15.577801,-8.11876,279.050245,-193.883606,-3.574734
55,1.083092,0.747908,0.307514,5.048979,0.0,-62.72192,-34.946102,-94.121475,-29.086956,-95.759697,-20.53696,-81.355202,-10.440719,-59.195766,0.0,24.618791,27.773693,56.807502,45.459851,74.272902,58.319448,85.222856,66.70881,91.043523,0.0,3.633705,27.91951,2.678913,13.265281,-7.43565,-3.886242,-17.657181,-21.929295,-26.411865,0.0,21.975953,-17.494287,17.381136,-31.460723,2.447786,-37.936285,-2.602872,-38.91217,-11.489998,-5.527765,279.756848,-192.068189,1.43294
56,1.462876,0.433192,0.850101,3.641681,0.0,-63.44212,-35.029816,-94.766945,-29.101216,-96.138371,-20.5299,-81.845376,-10.511422,-59.671349,0.0,24.171149,27.643202,56.350178,45.394901,73.652433,58.409356,84.764371,66.970631,91.119933,0.0,10.588074,27.06538,10.3942,12.299652,-2.488426,-4.729442,-13.957351,-22.244579,-23.223655,0.0,21.691135,-16.411104,21.464573,-28.080691,11.223576,-32.574602,7.647072,-31.95774,-0.308394,-2.714424,280.559314,-189.867623,5.443895
57,2.03627,0.227081,-0.894699,4.420539,0.0,-64.253323,-35.174538,-95.786671,-29.174961,-97.059208,-20.559815,-82.812081,-10.608925,-60.550724,0.0,23.376273,27.485133,55.432912,45.364063,72.604418,58.536352,84.025243,67.230872,90.874771,0.0,19.263394,26.505284,20.328198,12.655358,5.08556,-3.315342,-7.216163,-19.424618,-17.598701,0.0,20.351195,-13.274461,24.895216,-21.901864,19.592103,-24.815934,17.637017,-23.546241,10.987412,0.797974,281.36243,-189.286194,10.440469
58,2.668922,-0.23191,2.747807,9.655424,0.0,-65.47467,-35.29089,-97.083527,-29.216114,-98.340969,-20.594089,-84.377129,-10.81192,-61.841766,0.0,22.692819,27.228079,54.223494,45.311958,71.367952,58.732781,83.0814,67.641636,90.690163,0.0,28.769314,26.426983,31.734031,12.022934,10.169643,-4.198757,-2.834175,-20.155621,-13.683071,0.0,29.011863,-10.149328,37.105916,-16.201282,30.83358,-16.97428,28.678108,-14.033207,23.802802,5.162493,281.862405,-184.84279,20.827778
59,2.852738,-0.781563,5.406337,11.687735,0.0,-66.337407,-35.420483,-98.056481,-29.374547,-99.489853,-20.80037,-85.823845,-11.134736,-62.950734,0.0,21.786163,27.171861,53.206835,45.42679,69.981298,59.026725,82.197703,68.033813,90.343051,0.0,36.027009,25.365544,43.126603,10.101574,16.54699,-6.645629,1.402325,-22.459751,-10.288387,0.0,37.274834,-3.237889,50.592551,-5.297277,45.770974,-3.631319,41.517495,0.714576,38.42572,9.793637,281.605664,-177.658047,33.040335
60,2.950836,-1.153263,6.009018,13.279667,0.0,-67.037499,-35.875866,-99.13535,-30.001087,-100.574467,-21.575959,-87.245373,-12.01458,-64.282597,0.0,20.142034,26.956698,51.905581,45.405202,68.230229,59.195378,81.286921,68.283001,89.692573,0.0,37.636666,24.614045,49.77705,9.566632,23.049946,-6.784732,6.738522,-22.518871,-6.574081,0.0,44.552583,5.571197,60.862929,6.820235,61.236766,10.384975,57.257724,15.51289,53.919855,14.310288,280.916345,-170.083214,46.783946
61,2.93209,-1.372279,7.985436,21.66236,0.0,-67.679843,-36.126651,-100.233181,-30.551319,-101.690219,-22.454223,-88.719451,-13.164413,-65.791236,0.0,18.281049,26.855538,50.215546,45.360173,66.213769,59.212285,80.209339,68.285186,88.973686,0.0,38.127239,25.665481,57.267528,10.271702,29.200321,-6.395359,12.456596,-22.399246,-2.354817,0.0,50.798482,12.15949,71.07368,16.290833,70.624533,21.467234,65.869658,27.079692,62.061924,18.720251,279.933127,-160.619905,68.835367
62,2.398659,-1.751847,8.030113,24.565042,0.0,-68.148742,-36.380779,-100.963108,-31.142864,-102.347236,-23.37886,-90.010528,-14.283256,-67.206573,0.0,16.931444,27.094117,49.118847,45.612312,64.732599,59.422125,79.486464,68.386667,88.555797,0.0,39.349743,28.273945,64.454739,12.372162,35.438393,-4.85495,18.31311,-21.668632,2.97805,0.0,57.684963,17.876664,80.982899,24.573089,81.00852,31.710757,75.594361,38.571284,71.260223,22.480556,278.407318,-151.228146,93.626447
63,1.71476,-1.687021,5.255024,21.769342,0.0,-68.387764,-36.704269,-101.517918,-31.807056,-102.94606,-24.338013,-91.052422,-15.342476,-68.407516,0.0,15.563759,27.322062,48.209065,45.762761,63.370669,59.437686,78.872838,68.219793,88.073069,0.0,44.241806,28.409992,69.037342,13.722336,47.059662,-2.261764,29.157761,-18.371567,10.816658,0.0,52.798949,23.015892,80.016827,33.118136,87.835083,42.233392,84.615071,49.882416,79.373313,25.315161,276.74588,-144.853277,115.421372
64,0.941231,-1.405551,7.060673,25.814025,0.0,-68.351978,-36.977463,-101.708416,-32.331574,-103.23721,-25.101334,-91.485569,-16.227768,-68.961823,0.0,14.988344,27.382529,47.472062,45.710348,62.625218,59.240937,78.532322,67.831198,87.844136,0.0,49.979256,29.187343,73.816864,15.45694,55.944168,0.36961,37.667118,-15.235428,17.655121,0.0,45.363168,25.155809,77.92342,37.511146,87.037089,47.89349,85.701242,55.996947,81.073432,27.080893,275.373785,-136.968103,141.268853
65,0.697357,-1.1615,10.80019,27.372742,0.0,-65.102531,-37.239155,-101.972134,-32.919502,-104.096832,-25.918076,-92.320072,-17.165909,-69.884308,0.0,14.570664,27.85692,47.328529,45.849187,62.457269,59.05797,78.040751,67.472081,87.865822,0.0,55.94228,31.381885,75.127704,17.931701,58.764713,2.983051,41.681637,-12.147995,22.238651,0.0,40.844155,27.823587,78.751288,41.981709,89.447336,53.248084,89.407816,61.608188,83.540181,28.774086,274.173599,-125.172077,168.602909
66,0.14994,-0.847228,6.928745,22.102201,0.0,-62.356109,-37.697307,-101.893112,-33.826149,-104.667228,-27.094184,-93.056591,-18.310615,-70.339382,0.0,14.760608,28.02808,42.84272,45.591589,60.354766,58.431426,77.653823,66.617962,88.274227,0.0,63.882431,32.458191,79.653259,20.177181,68.303272,6.524975,51.393654,-7.591667,30.368683,0.0,35.060785,30.213143,75.807832,45.773777,88.253775,57.539454,90.25029,65.7581,85.217236,30.185777,273.047398,-116.981581,190.426137
67,0.359826,-0.047375,7.534149,21.522007,0.0,-63.827694,-36.784012,-101.602982,-33.562203,-105.606743,-27.439454,-94.814656,-19.112595,-71.560765,0.0,11.142491,28.742754,35.257349,45.867341,54.686634,58.198281,75.050191,65.831509,88.454056,0.0,72.526932,33.467995,83.855576,21.827763,76.007756,9.072121,59.12225,-4.069439,36.199883,0.0,27.872926,32.064593,72.918579,48.476025,86.354777,60.235143,90.102706,67.796506,85.494619,32.134346,272.599244,-107.858689,211.547365
68,-1.129464,-0.092934,10.71983,19.882867,0.0,-64.579593,-35.806537,-99.835819,-32.193237,-103.219654,-25.714874,-92.908149,-17.040206,-69.130199,0.0,8.429931,31.04329,34.905976,46.800711,53.04164,57.886812,72.391687,64.23347,86.998661,0.0,74.704456,34.870262,88.195839,22.9193,79.401661,10.535705,62.503361,-1.300186,41.624588,0.0,23.110734,35.625714,70.571187,53.424851,82.798781,65.18513,87.37256,71.663168,84.709758,32.608743,272.080201,-95.534998,231.004123
69,-0.668037,0.594656,6.123756,13.659389,0.0,-64.65469,-36.618793,-90.506344,-32.588882,-91.434002,-25.819199,-82.020596,-16.86763,-62.474316,0.0,6.300036,31.744195,39.010045,45.753684,55.510138,55.415054,72.180625,60.788859,84.314667,0.0,77.478985,36.318718,91.993492,24.731873,84.856339,12.981365,68.691857,1.931935,47.620011,0.0,19.965056,38.425219,69.798442,56.338383,84.411294,67.441947,91.596843,73.04965,88.738466,33.534605,272.418994,-87.817343,244.407649
70,-0.091667,0.879672,5.370564,10.536905,0.0,-66.941448,-37.286396,-76.598236,-33.153019,-74.945767,-26.507904,-67.990688,-17.755188,-55.004139,0.0,5.437099,31.579506,41.916179,44.231906,57.72221,52.853165,71.794907,57.584877,81.303519,0.0,78.890465,35.919845,97.470337,24.491169,91.679798,13.200016,74.953525,2.621704,52.947681,0.0,15.624385,39.267865,65.595919,57.226391,79.008997,67.867877,87.414093,72.731636,87.446499,34.913515,273.205831,-80.976202,254.851719
71,0.856224,1.424853,5.672287,9.365154,0.0,-68.522221,-37.853314,-60.784184,-33.775532,-55.890793,-27.383904,-51.43626,-19.167023,-45.284786,0.0,3.682622,30.649422,48.59324,42.793085,61.538954,51.208382,71.575471,55.923359,78.292088,0.0,78.485218,36.341285,98.64656,25.314022,93.512924,14.502628,76.904285,4.607311,56.298145,0.0,10.954029,38.940662,63.124124,57.001126,77.189052,67.61018,86.323284,72.571233,88.098905,36.971558,274.674502,-74.102096,264.260691
72,0.372322,0.813167,6.104885,6.462674,0.0,-64.425694,-37.799091,-46.067265,-33.413441,-37.634079,-26.932457,-33.610279,-18.868469,-32.932423,0.0,5.577519,29.100783,56.502207,40.872042,67.471723,49.291068,72.493242,54.213848,75.37301,0.0,76.898426,35.955116,98.668957,25.460438,94.548763,15.127224,78.51487,5.788559,59.513614,0.0,7.652753,38.76061,61.337598,56.732833,74.878192,67.324943,84.126921,72.484882,87.277798,38.173983,275.595862,-67.167108,270.831558
73,-3.228024,1.736372,3.48991,3.652537,0.0,-53.458849,-34.085495,-24.883014,-31.287408,-15.894504,-26.951562,-14.05204,-21.253675,-20.825798,0.0,4.77524,25.092428,55.438112,38.085845,68.187306,47.77956,72.520061,54.287955,73.353994,0.0,74.796226,35.612045,99.090958,25.917675,96.864555,16.008327,81.005745,6.788715,60.965023,0.0,4.648559,37.154321,60.676659,54.680953,75.032308,65.250697,83.861431,70.83559,86.564445,35.639219,277.436709,-62.983938,274.58857
74,-8.437523,1.971382,4.042087,2.998205,0.0,-36.12993,-25.048335,-3.908946,-24.74703,2.847428,-23.786619,1.438111,-21.828775,-10.078147,0.0,0.912134,21.769478,47.866141,37.0258,63.282384,48.683648,69.020751,57.102971,71.607272,0.0,73.207043,35.275956,99.398884,26.121483,97.477719,16.604325,82.118191,7.756371,62.094704,0.0,2.648537,35.997044,57.489127,53.60862,71.642025,64.441334,80.366407,70.247479,83.355424,27.738773,279.419926,-58.404774,277.59861
75,-9.690479,1.702397,1.47892,1.937444,0.0,-18.622232,-16.250667,13.384896,-18.093034,18.358074,-19.999677,15.313328,-21.373941,2.075878,0.0,-2.766548,18.683773,41.806474,36.01113,59.10897,49.471954,66.317429,59.482017,70.483946,0.0,73.506855,34.749104,100.902684,26.419499,100.085164,17.66438,85.177998,9.615384,64.607186,0.0,1.772002,34.424718,55.267619,51.998848,69.103577,63.074637,78.218913,69.301931,81.044056,18.472778,280.972587,-56.50137,279.386318
76,-9.009624,1.472414,2.243397,0.850402,0.0,-4.115771,-8.600006,25.965786,-11.701006,28.707504,-15.727404,24.498161,-19.750082,9.675361,0.0,-4.504378,17.189079,37.321739,35.606541,55.398153,49.720079,62.998406,60.238052,68.133725,0.0,72.87545,34.364571,100.947212,26.186966,99.767098,17.493782,85.080528,9.426281,64.350998,0.0,2.834554,34.297426,53.621538,51.792096,67.197181,62.883519,76.217842,69.066749,78.526727,9.826487,282.211548,-53.89464,280.003267
77,-6.268067,2.648981,1.507347,0.780587,0.0,4.676371,-6.560852,36.172337,-11.121935,37.818306,-16.842538,31.603684,-22.658861,13.591279,0.0,-3.205396,15.911106,35.059316,34.192408,52.75489,47.962033,59.359998,58.381884,64.286872,0.0,72.463967,34.244717,100.624512,26.135994,99.051728,17.395283,84.73082,9.178517,63.873024,0.0,3.934847,33.905385,51.742745,51.488889,65.31672,62.65014,74.514419,68.805705,76.352457,3.841409,284.638487,-52.104304,280.561812
78,-0.655231,0.879771,0.619847,0.577514,0.0,7.181099,-8.32465,37.885345,-13.534412,39.626953,-19.638657,32.505318,-25.816956,13.504898,0.0,-3.229818,15.973115,34.317409,34.642463,51.769545,48.542616,58.074299,58.934828,63.156284,0.0,72.372219,33.931469,100.082645,25.929863,97.938709,17.276813,84.116855,9.091449,63.642666,0.0,5.056655,33.86153,51.123524,51.48653,64.412769,62.652919,73.906253,68.797937,75.805386,3.442978,285.324,-51.227657,280.945068
79,2.477829,3.421133,0.508701,0.581245,0.0,4.565918,-12.356129,33.604339,-17.632713,36.568336,-22.45182,29.672081,-26.835972,10.238731,0.0,-3.040948,14.432183,32.43822,32.351585,49.050576,45.850459,55.256084,55.795215,59.915375,0.0,72.193153,33.35701,99.056236,25.440628,96.994423,16.914711,83.478699,8.888466,63.45536,0.0,6.009809,33.587876,50.578317,51.283223,63.697118,62.506681,73.249314,68.690355,75.138852,6.100817,288.605972,-50.538946,281.387152
80,-0.335175,5.036203,0.453907,0.243222,0.0,4.757424,-12.344169,32.116951,-17.208801,36.614022,-20.983223,29.852509,-24.039917,10.858795,0.0,-5.505037,12.757018,28.808309,29.616437,44.303488,42.311667,50.261637,51.499943,55.07113,0.0,71.913242,32.848846,98.281345,24.932888,95.944164,16.429722,82.639607,8.39819,62.633411,0.0,6.62635,33.459201,50.066221,51.148039,63.214662,62.313181,72.959001,68.394979,75.013437,5.902565,293.554919,-49.948116,281.543118
81,6.827237,0.931135,0.622524,0.237628,0.0,-2.394368,-19.750592,24.205455,-24.899426,29.493656,-27.696465,22.652744,-29.011551,2.959911,0.0,-5.020963,12.35664,28.329891,28.895352,43.623084,41.339529,49.123873,50.329475,54.288924,0.0,71.715592,32.242985,97.442276,24.394821,95.312416,16.022473,82.171166,8.16441,62.18779,0.0,7.105706,33.307518,49.887787,51.065565,62.963005,62.294507,72.632971,68.360559,74.808216,12.816205,294.348221,-49.239189,281.642913
82,-0.066697,3.480216,0.421944,0.287127,0.0,2.707203,-18.525238,24.073048,-24.082546,28.938023,-26.585884,22.12666,-27.203006,2.404415,0.0,-9.398462,9.557581,24.521718,25.964023,39.97198,38.767921,46.658648,48.243485,51.612526,0.0,71.201408,31.751942,97.000465,23.997459,95.138718,15.805859,82.035782,8.163654,61.937622,0.0,7.376173,32.825766,49.59041,50.676414,62.520193,62.025979,72.160939,68.159722,74.672822,12.795295,297.663995,-48.771458,281.765598
83,3.227097,0.253769,0.4216,0.331365,0.0,-1.497471,-21.975552,20.513889,-27.712601,25.440639,-29.662777,18.67963,-29.353867,-1.361515,0.0,-8.78854,9.080411,24.919379,25.520482,40.584594,38.36363,47.077724,47.915578,52.044544,0.0,70.996628,31.346077,96.614571,23.665856,95.200218,15.582047,81.915139,8.067559,61.687592,0.0,7.562375,32.221242,49.145387,50.146658,62.018174,61.706532,71.548325,68.051276,74.529351,16.045647,297.714136,-48.326603,281.893335
84,1.80883,0.224933,0.334145,0.226402,0.0,-0.218983,-23.394848,18.987202,-29.25967,23.169697,-31.132313,16.590717,-30.474712,-2.046123,0.0,-6.521548,9.366154,25.242938,25.185646,40.702574,37.485007,46.501345,46.625093,51.908606,0.0,70.609566,30.973595,96.439293,23.374821,95.473411,15.392944,81.941048,7.959869,61.496384,0.0,7.584914,31.866337,48.736537,49.831804,61.651018,61.528147,71.105253,68.013447,74.586458,17.857921,297.705813,-47.989014,281.886481
85,7.337048,-3.538435,0.131138,0.208482,0.0,-10.842121,-32.122856,11.255928,-38.019104,15.063972,-39.281891,8.696045,-37.532879,-9.968743,0.0,0.028714,11.70463,29.101055,27.801468,44.360743,40.087528,49.382311,49.144609,54.579226,0.0,70.064449,30.906429,96.700412,23.28297,95.949589,15.296287,82.091251,7.841514,61.267193,0.0,7.400898,31.490907,48.275829,49.475418,61.419195,61.288012,70.732404,67.909756,74.550321,25.176401,293.929837,-47.876444,281.857422
86,-4.081307,3.55097,-0.027615,0.195168,0.0,-4.207935,-27.992168,16.847489,-34.382663,20.314957,-35.883991,14.007042,-34.31409,-4.575874,0.0,-3.118235,9.144075,25.761914,24.701782,40.8312,37.019137,47.022939,46.361234,51.488555,0.0,69.800766,30.791279,96.947045,23.1465,96.341629,15.153958,82.15892,7.677864,60.984055,0.0,7.334146,31.188231,47.761869,49.208817,61.131759,61.106701,70.379266,67.811128,74.486089,21.062256,297.282177,-47.936897,281.85396
87,-2.063026,0.299872,-0.393654,0.209334,0.0,-4.820469,-26.844784,19.592972,-33.187477,23.385612,-34.729225,16.747055,-33.329338,-1.716545,0.0,-4.485574,8.976287,25.271764,24.714849,40.354957,37.185061,46.677519,46.611805,51.865703,0.0,69.672135,30.829273,97.489243,23.179596,96.841645,15.203808,82.418679,7.744446,61.099617,0.0,7.231516,31.256292,47.365777,49.235542,61.119619,61.073775,70.3353,67.703423,74.544356,18.93417,297.392868,-48.395611,281.874113
88,-6.974602,5.819717,-0.473797,0.042398,0.0,4.372044,-20.011047,27.785431,-26.549515,31.043038,-28.475143,23.712982,-27.608539,5.108208,0.0,-9.191351,5.410571,20.158793,20.146986,34.701459,32.248078,41.463327,41.615727,46.719522,0.0,69.519597,30.918538,98.060498,23.237984,97.326886,15.27253,82.83585,7.877736,61.406765,0.0,7.072719,31.43953,47.345918,49.381359,61.245923,61.153767,70.464778,67.691419,74.63687,11.867237,303.054195,-48.961739,281.758121
89,3.189057,-1.150657,-0.573955,0.006644,0.0,-5.793561,-24.410534,23.266548,-29.981987,27.892181,-31.087224,20.958549,-29.570778,2.366203,0.0,-5.886691,6.330714,22.700575,20.922657,36.185087,32.767053,42.077484,41.827975,46.87848,0.0,69.352707,31.046551,98.616279,23.287754,97.715698,15.285965,83.179687,7.917641,61.619133,0.0,7.018404,31.425279,47.47941,49.369701,61.513253,61.14611,70.806616,67.663125,74.924974,14.918604,301.748115,-49.673384,281.609342
90,-0.915825,2.811163,-0.31778,-0.040866,0.0,-0.474175,-21.593331,25.08451,-27.374428,28.977974,-28.577053,21.901908,-27.004349,2.247779,0.0,-8.577169,4.416426,19.950385,18.285495,33.120056,29.816026,40.063013,38.838872,44.904035,0.0,69.381272,30.765324,98.615754,22.981316,97.716339,15.048912,83.242333,7.85146,61.838219,0.0,7.272457,31.667303,47.777911,49.682652,61.761564,61.452441,71.090594,67.875731,75.168875,13.828131,304.401083,-50.165812,281.410281
91,2.742187,0.64355,-0.303726,-0.124514,0.0,-12.109062,-26.897632,19.432732,-30.87236,25.020172,-30.667522,19.199776,-27.766125,0.323639,0.0,-0.249941,6.059482,22.974488,17.43103,33.331452,26.285039,37.10686,32.760446,40.544419,0.0,69.19455,30.600483,98.647087,22.7276,97.510529,14.834152,83.152886,7.769623,61.854744,0.0,7.377124,31.816196,48.128802,49.884786,62.212182,61.679745,71.422095,68.09497,75.322967,16.335565,304.872519,-50.704291,281.113653
92,4.32058,-0.808819,-0.003525,-0.123501,0.0,-14.965851,-31.040474,14.827995,-34.838757,20.04982,-34.052662,14.401542,-30.270241,-3.70768,0.0,5.086493,7.186389,24.034199,18.067677,33.966061,26.310961,37.442226,32.288105,40.404542,0.0,69.060563,30.30851,98.443657,22.319344,97.200508,14.384915,82.892739,7.324997,61.486679,0.0,7.640786,31.719507,48.43685,49.827902,62.568593,61.68077,71.661193,68.128526,75.530523,20.374421,303.890561,-50.98954,280.817013
93,5.761139,-1.896133,0.067234,-0.053105,0.0,-28.337334,-39.253441,6.869155,-41.935284,13.67736,-39.867405,9.512283,-34.627293,-8.084908,0.0,15.330145,8.886168,28.198647,18.291682,36.172675,25.058873,37.484649,29.761686,39.278005,0.0,68.92091,29.95031,98.214878,21.877076,96.900135,13.91351,82.546154,6.839219,60.976719,0.0,7.829359,31.580655,48.564377,49.700165,62.874553,61.605854,71.749841,68.084621,75.629039,25.826792,301.81739,-51.231074,280.58687
94,-2.302002,1.960687,0.151555,-0.106458,0.0,-20.183373,-36.230118,10.555252,-39.676941,16.2621,-38.148274,11.370391,-33.308613,-7.304421,0.0,14.401542,7.969199,25.265292,17.030628,33.679477,23.592412,36.025203,28.257742,38.425577,0.0,68.832664,29.700622,97.964996,21.556949,96.575592,13.549186,82.11557,6.426464,60.38974,0.0,7.988972,31.624473,48.716963,49.709341,63.140327,61.60725,71.811555,68.079372,75.684343,23.239535,303.630234,-51.364774,280.332569
95,-0.33799,-2.943815,0.031974,-0.110286,0.0,-25.352738,-39.022625,9.432609,-42.248692,16.304947,-40.612908,11.798515,-35.909088,-5.897003,0.0,17.45631,9.571425,28.194979,19.68119,37.060016,26.885129,38.424922,31.848466,40.810205,0.0,68.770821,29.652661,97.841675,21.469792,96.388802,13.385971,81.779549,6.153363,59.838181,0.0,8.121019,31.630944,48.881342,49.654408,63.325159,61.544091,71.859498,68.04163,75.74881,22.643624,300.550454,-51.590721,280.086318
96,-4.055283,-0.619629,0.194207,-0.090625,0.0,-12.690376,-33.379646,15.918434,-38.177078,20.887894,-37.785118,15.153923,-34.258415,-3.611023,0.0,9.81487,8.69063,26.465461,20.811767,37.483007,30.279982,41.708822,37.488466,45.705247,0.0,68.889793,29.48648,97.602745,21.232532,96.12648,13.075676,81.427688,5.768554,59.29383,0.0,8.269949,31.773576,49.01865,49.726125,63.466468,61.546376,72.063842,67.970235,75.949413,18.361084,299.821168,-51.623771,279.886036
97,0.423935,-0.563373,0.069133,-0.1699,0.0,-21.828804,-36.536602,13.720848,-40.750339,19.998024,-39.941769,14.884712,-36.233059,-4.40522,0.0,12.661687,9.191388,28.437905,21.19405,38.676444,30.439112,41.480456,37.365545,44.984286,0.0,69.08511,29.331036,97.525784,21.022293,95.808346,12.824158,81.02853,5.483345,58.881192,0.0,8.342209,31.943451,49.155921,49.833768,63.622104,61.565531,72.296802,67.896677,76.206183,18.596477,299.14013,-51.74318,279.598471
98,-0.851944,-0.275765,0.188198,-0.057626,0.0,-11.554092,-33.399364,16.667702,-38.761425,21.150971,-38.817444,14.554001,-35.696651,-7.680656,0.0,7.015452,9.443231,26.355681,22.722583,37.99756,33.079127,43.124919,40.967137,48.215932,0.0,69.35582,29.188923,97.336441,20.828167,95.239151,12.638752,80.488015,5.348626,58.587799,0.0,8.42062,32.0888,49.140583,49.997074,63.77937,61.666074,72.462503,67.91177,76.146805,17.564255,298.737107,-51.73526,279.413587
99,0.507546,-2.894501,0.190808,-0.082498,0.0,-18.185006,-35.586377,15.044059,-40.825402,19.966667,-40.910179,14.284675,-37.970101,-6.652954,0.0,7.574639,10.839902,29.086951,25.212866,41.109497,36.277539,45.596257,44.573929,50.311,0.0,69.617992,29.020855,97.186512,20.60527,94.794147,12.420387,80.115246,5.18882,58.350666,0.0,8.325005,32.216042,49.111029,50.147769,63.878949,61.762169,72.546953,67.927219,76.137801,17.866139,295.705767,-51.750114,279.19425
100,-3.283436,3.666183,0.07489,-0.092107,0.0,-9.108845,-30.381878,19.861988,-35.980683,23.716656,-36.430939,17.526134,-33.826515,-3.972119,0.0,2.651761,8.228465,26.100776,21.439867,37.619907,32.07761,43.068665,40.355451,47.268619,0.0,69.815426,29.030708,97.144718,20.591286,94.483417,12.424198,79.844776,5.237411,58.273785,0.0,8.179237,32.333071,49.057108,50.293413,63.965239,61.864638,72.597008,67.986784,76.024118,14.354456,299.236463,-51.903471,278.966656
101,2.499779,-2.996105,0.115688,-0.010312,0.0,-16.981099,-34.49619,15.840282,-39.498024,20.331745,-39.571759,14.960186,-36.667752,-5.070752,0.0,8.758963,10.321211,28.237377,24.157132,40.12995,34.835087,44.218519,42.81145,48.493191,0.0,69.906555,29.116368,97.198174,20.730458,94.395241,12.570076,79.761589,5.388497,58.378967,0.0,8.067839,32.459462,48.989356,50.428622,64.024161,61.948223,72.458785,68.036875,75.787095,16.614155,296.102179,-52.027863,278.818165
102,-2.596779,-2.605324,0.34005,-0.065024,0.0,-10.38992,-30.936058,19.422466,-36.360581,22.858143,-37.16898,17.273403,-35.198227,-2.428265,0.0,5.681433,11.128314,28.308772,26.451641,42.185696,38.432641,47.482238,47.387773,52.558258,0.0,69.910789,29.196487,97.030655,20.819229,94.209434,12.612614,79.564156,5.377064,58.162216,0.0,8.017106,32.514915,48.94476,50.522372,63.994027,62.056657,72.349624,68.172603,75.691791,13.764038,293.379844,-51.941151,278.63613
103,-5.259133,0.638277,0.332485,-0.125266,0.0,-6.901966,-25.741504,25.264721,-31.421528,28.852948,-32.842712,22.986546,-31.979107,4.884465,0.0,2.156967,9.764383,27.934232,25.607143,41.938706,38.194433,47.30704,47.561192,52.053683,0.0,69.868435,29.263779,96.914921,20.963551,94.379505,12.739449,79.646221,5.436699,58.084202,0.0,7.852627,32.6211,48.93362,50.627273,63.830684,62.166276,72.105066,68.319482,75.651751,8.206186,293.923304,-51.907385,278.416047
104,-3.567249,-0.645613,0.239411,-0.188957,0.0,0.822144,-20.847485,30.133896,-26.68523,32.977249,-28.899101,26.476501,-29.152565,8.203812,0.0,-0.617949,9.78297,27.174702,25.935482,42.003816,39.003524,48.164889,48.83151,53.039343,0.0,69.682628,29.376285,96.906543,21.161945,94.724292,12.933631,79.880756,5.56335,58.203655,0.0,7.909895,32.649197,49.041819,50.676983,63.840528,62.253085,72.020963,68.433252,75.635252,4.27803,293.203426,-52.028881,278.152825
105,-3.535515,0.083474,0.421211,-0.021588,0.0,2.280304,-16.917515,34.648956,-22.959308,37.25116,-26.019092,29.212692,-27.462513,8.550224,0.0,-2.895625,9.460756,27.01383,26.318026,42.200985,39.878663,48.164346,49.993257,53.510907,0.0,69.698147,29.403671,96.797687,21.247982,94.886181,13.015331,80.018108,5.609424,58.286464,0.0,7.928679,32.612381,49.048661,50.644453,63.700836,62.250307,71.790251,68.467202,75.5427,0.348455,293.231291,-52.00173,278.075628
106,-1.79187,-0.488149,0.267231,-0.126958,0.0,7.283226,-13.912102,36.974785,-20.266136,39.122612,-24.033531,30.562569,-26.405285,9.837044,0.0,-5.42696,9.408095,26.882647,26.504104,42.715316,40.463291,49.261564,51.066776,54.833514,0.0,69.702163,29.522655,96.733085,21.355774,94.993103,13.0536,80.065361,5.534271,58.195198,0.0,7.936212,32.6386,49.160083,50.604981,63.668083,62.192779,71.801884,68.400264,75.751675,-1.862623,292.705416,-52.153707,277.910944
107,-3.135715,0.021736,0.125759,-0.055329,0.0,14.890903,-9.242775,41.510318,-16.218098,42.717693,-21.183712,33.152629,-24.959244,11.570446,0.0,-8.136988,8.567042,25.619196,25.96695,42.106149,40.488362,49.466514,51.742683,55.318242,0.0,69.766811,29.598484,96.818378,21.454708,95.244701,13.175388,80.332386,5.677986,58.485569,0.0,7.816059,32.705525,49.194219,50.655567,63.640506,62.253839,71.681953,68.463522,75.679984,-5.417272,292.701056,-52.446882,277.829519
108,0.953876,-4.09115,-0.014855,-0.110249,0.0,13.866509,-10.368839,40.212914,-17.551392,40.553078,-23.254658,31.189179,-27.787605,9.891724,0.0,-4.087272,10.645734,27.319494,28.868207,45.304116,44.074073,52.942519,55.921815,58.563066,0.0,69.922841,29.791352,96.930485,21.573819,95.337811,13.206471,80.529912,5.621441,58.620221,0.0,7.933742,32.702709,49.364774,50.604203,63.681817,62.203327,71.899771,68.408304,75.985722,-4.83811,288.605611,-52.836451,277.714975
109,-1.856449,1.384222,0.008618,0.191204,0.0,14.556324,-9.162941,42.422436,-16.639332,44.421902,-22.018822,33.662189,-25.962971,10.142315,0.0,-0.311271,9.908743,27.214592,27.882905,44.634655,43.017856,51.831023,55.08511,56.995778,0.0,70.346832,29.802727,96.782822,21.561218,95.122604,13.197338,80.318275,5.630974,58.585098,0.0,7.695941,32.442604,49.21724,50.336737,63.468494,61.951397,71.815988,68.201836,75.930826,-6.981554,289.98787,-53.114828,277.904216
110,4.088848,-4.189975,-0.102333,0.105272,0.0,9.227051,-14.242905,37.300003,-21.626507,39.040352,-26.674473,29.805565,-30.257217,9.023003,0.0,4.075169,12.762945,29.391677,31.589275,47.849431,47.09242,55.148799,59.27632,60.202835,0.0,70.601143,29.716541,96.715072,21.471977,95.056663,13.133022,80.219032,5.588253,58.555939,0.0,7.490461,32.185821,49.008462,50.097862,63.301743,61.743039,71.791103,68.004901,75.981943,-3.118286,285.793973,-53.442741,278.005566
111,-3.779709,3.689574,-0.065941,0.173173,0.0,14.396851,-10.425899,42.134354,-18.254345,44.417748,-23.465698,34.382309,-27.188896,12.338562,0.0,-1.530348,9.673622,26.063837,28.563876,44.665642,44.359767,52.525123,56.806143,57.5377,0.0,70.80201,29.465744,96.597267,21.271065,94.985184,13.035988,80.199875,5.575355,58.631721,0.0,7.362366,31.771019,48.635081,49.729928,62.937181,61.435682,71.665577,67.74177,75.975891,-7.057434,289.477987,-53.668121,278.173179
112,2.526753,-0.278333,-0.0065,0.176112,0.0,10.628116,-13.55365,39.543193,-21.49054,41.946041,-26.287285,31.914356,-29.429455,10.048679,0.0,-1.246605,10.257237,26.926081,29.288504,45.264682,45.043022,53.091979,57.337369,57.912018,0.0,70.937782,29.215313,96.435264,21.066318,94.887748,12.904358,80.086555,5.492683,58.58226,0.0,7.320017,31.390093,48.465157,49.412013,62.770208,61.157238,71.707468,67.45221,75.974496,-4.653431,289.194661,-53.797371,278.344298
113,-1.914379,3.783596,0.05064,0.282002,0.0,13.060981,-11.924756,40.763053,-19.604691,44.833076,-23.739487,35.207199,-26.172009,13.758247,0.0,-4.853212,7.959751,23.870782,26.417011,41.926195,41.857146,49.616616,53.927239,54.511892,0.0,70.945164,28.942394,96.167713,20.89896,94.801243,12.882397,79.909778,5.597626,58.530063,0.0,7.182264,31.169175,48.181611,49.239828,62.621352,60.968454,71.430468,67.248088,75.587172,-6.662435,292.97286,-53.841356,278.620903
114,3.151039,-1.675314,0.078163,0.124526,0.0,10.457908,-14.818772,37.362144,-22.597195,39.802917,-27.091198,31.106712,-29.997437,11.471786,0.0,-8.695643,8.94682,24.7292,27.924549,43.220978,43.605646,51.527817,55.558562,56.921728,0.0,70.873455,28.775791,96.128368,20.744957,94.749653,12.774799,79.880619,5.538734,58.449474,0.0,7.274828,31.19469,47.935523,49.276297,62.500247,60.976852,71.281773,67.199527,75.499524,-3.593021,291.299161,-53.844818,278.747044
115,-2.745232,3.578091,0.228275,0.159279,0.0,15.453049,-11.910175,40.169632,-19.886318,43.436829,-24.373329,34.420372,-27.150169,13.978867,0.0,-12.1911,6.538282,22.334407,24.939781,40.434219,40.377828,48.67349,52.278405,54.341412,0.0,70.660561,28.63678,95.929459,20.623261,94.50602,12.69912,79.676949,5.535061,58.248963,0.0,7.409382,31.23237,47.889247,49.352621,62.395382,61.043715,70.998623,67.251657,75.223339,-6.403822,294.881078,-53.682112,278.910149
116,1.743004,-4.029968,0.107163,0.140877,0.0,12.303497,-13.552929,38.313927,-21.339272,41.132378,-26.102165,32.130066,-29.384239,12.069168,0.0,-7.802696,9.27716,25.338763,28.161893,43.627123,43.894082,52.079458,56.009822,58.029579,0.0,70.405082,28.720619,95.975853,20.665306,94.430465,12.742687,79.580337,5.63895,58.235252,0.0,7.442864,31.334777,47.951949,49.49361,62.486181,61.173182,70.786844,67.37275,74.94009,-4.71944,290.857201,-53.633571,279.057117
117,-4.301937,4.583795,0.06562,0.095442,0.0,18.332371,-8.879059,43.511364,-16.876797,46.192371,-21.93631,35.642933,-25.475018,14.907245,0.0,-9.255732,6.607516,23.870511,24.28388,40.531204,39.409459,48.603576,51.281296,54.263891,0.0,70.389816,28.661465,95.983956,20.579899,94.351387,12.676712,79.545525,5.631935,58.251,0.0,7.625472,31.320241,47.92137,49.461055,62.365903,61.138626,70.572001,67.352026,74.8249,-9.066404,295.450691,-53.612978,279.162254
118,3.557121,-3.593417,0.035843,0.080189,0.0,13.307842,-13.343674,39.671139,-20.943134,41.963001,-25.697239,31.810902,-28.961609,11.724438,0.0,-5.907057,9.1832,27.456357,27.123868,44.050113,42.248187,51.66773,54.119839,57.428698,0.0,70.451683,28.511261,96.07711,20.408775,94.27343,12.547829,79.529823,5.601379,58.370888,0.0,7.776353,31.253452,47.847677,49.407949,62.241599,61.132241,70.477116,67.369403,74.744242,-5.5387,291.86545,-53.606552,279.250619
119,-4.703453,3.85467,0.00816,0.032542,0.0,19.080814,-8.584259,44.937756,-16.037796,47.604458,-20.800735,37.428234,-24.128609,16.971462,0.0,-9.328486,6.608307,24.794606,24.076548,40.862582,38.892645,48.576098,50.599906,54.25758,0.0,70.25719,28.574146,96.109714,20.441906,94.036228,12.559112,79.347438,5.626888,58.360691,0.0,7.798398,31.268309,47.980638,49.405344,62.442264,61.143196,70.553044,67.408923,74.659459,-10.260464,295.725412,-53.616703,279.288453
120,-0.621426,-3.976133,-0.18964,-0.063998,0.0,18.053124,-7.398834,46.299454,-15.011993,48.243393,-20.762008,37.245186,-25.327755,16.709267,0.0,-6.318315,8.751639,28.101612,26.692937,44.08352,41.805374,52.278602,53.903392,58.038434,0.0,70.165672,28.590706,96.238151,20.426857,94.291626,12.52985,79.585144,5.591972,58.621261,0.0,7.917959,31.467652,48.136916,49.597227,62.656389,61.284567,70.839406,67.475638,74.837411,-10.898209,291.752811,-53.822662,279.227987
