takenoko1/special-research/HandMotion_SimilarSearch_自分用/NewProject/handData/test_key/d4_feature_d3/32.csv
frame,vel_0x_L,vel_0y_L,vel_0x_R,vel_0y_R,posFromWrist_0x_L,posFromWrist_1x_L,posFromWrist_2x_L,posFromWrist_3x_L,posFromWrist_4x_L,posFromWrist_5x_L,posFromWrist_6x_L,posFromWrist_7x_L,posFromWrist_8x_L,posFromWrist_9x_L,posFromWrist_0y_L,posFromWrist_1y_L,posFromWrist_2y_L,posFromWrist_3y_L,posFromWrist_4y_L,posFromWrist_5y_L,posFromWrist_6y_L,posFromWrist_7y_L,posFromWrist_8y_L,posFromWrist_9y_L,posFromWrist_0x_R,posFromWrist_1x_R,posFromWrist_2x_R,posFromWrist_3x_R,posFromWrist_4x_R,posFromWrist_5x_R,posFromWrist_6x_R,posFromWrist_7x_R,posFromWrist_8x_R,posFromWrist_9x_R,posFromWrist_0y_R,posFromWrist_1y_R,posFromWrist_2y_R,posFromWrist_3y_R,posFromWrist_4y_R,posFromWrist_5y_R,posFromWrist_6y_R,posFromWrist_7y_R,posFromWrist_8y_R,posFromWrist_9y_R,posFromBody_0x_L,posFromBody_0y_L,posFromBody_0x_R,posFromBody_0y_R
6,-0.866752,-0.132788,-0.074592,0.105297,0.0,22.819656,1.397713,52.295219,-3.393116,58.934372,-9.541191,53.965851,-16.922299,34.922928,0.0,-13.957742,10.040432,26.106012,31.461501,46.904155,49.149993,57.475196,63.6286,65.45966,0.0,69.058067,30.858055,94.789764,22.082508,93.699257,13.031822,79.401901,4.785621,57.943565,0.0,10.065403,33.421768,50.170493,51.637152,60.212283,62.532654,68.264401,67.752132,68.715883,-22.168768,278.860995,-53.794241,277.933578
7,-0.309792,0.213817,-0.253555,0.01913,0.0,23.347321,1.453057,52.44825,-3.554329,58.914894,-9.848213,53.731568,-17.381607,34.463631,0.0,-14.440544,9.919697,25.525669,31.581038,46.909762,49.420411,57.549963,63.957952,65.488572,0.0,69.201599,30.772235,94.91455,22.000076,93.979019,12.995212,79.797729,4.831947,58.227241,0.0,10.303488,33.361018,50.122599,51.583441,60.235267,62.527454,68.279456,67.766199,68.821093,-21.473053,278.715045,-53.042289,277.592941
8,-0.531967,-0.439824,-0.328812,-0.064492,0.0,24.360489,1.858429,52.910042,-3.334385,58.974381,-9.74509,54.005242,-17.303387,34.927368,0.0,-13.89882,9.903754,25.256203,31.642418,47.007551,49.639946,57.796743,64.273744,65.933607,0.0,69.587311,30.669445,94.906265,21.876984,94.105865,12.919704,80.035927,4.851551,58.436119,0.0,10.56158,33.430351,50.239098,51.652034,60.298437,62.626317,68.323336,67.882475,68.949213,-21.329315,278.022801,-52.695396,277.276029
9,-0.132694,-0.153005,-0.341171,-0.013931,0.0,23.80537,1.546062,52.905247,-3.776344,58.769222,-10.305359,53.595966,-17.958138,34.322582,0.0,-13.510879,10.037517,26.017289,31.661289,47.205609,49.636389,57.851726,64.264074,65.702117,0.0,69.825645,30.704898,94.875984,21.916156,94.149719,12.983379,80.23059,4.963382,58.658935,0.0,10.781054,33.397488,50.238851,51.649329,60.25005,62.672803,68.203219,67.983671,68.922488,-20.944261,277.689985,-52.518819,277.082287
10,-0.411198,0.069741,-0.419793,0.025602,0.0,23.482018,1.732853,53.218804,-3.750492,58.808647,-10.444599,53.321366,-18.256164,33.735535,0.0,-13.30031,9.945966,26.028651,31.456944,47.041587,49.387646,57.685802,63.979392,65.547519,0.0,69.984993,30.904347,95.066437,22.075116,94.116761,13.109883,80.282639,5.071221,58.754059,0.0,10.870073,33.419533,50.234207,51.686194,60.155152,62.702591,68.09949,68.006049,68.79128,-20.969044,277.650446,-52.552197,276.998609
11,-0.52018,-0.182695,-0.263935,0.017018,0.0,22.978707,1.964413,53.41951,-3.593067,58.888848,-10.30474,53.328187,-18.122612,33.817887,0.0,-12.232818,10.078594,26.795752,31.546396,47.321515,49.42871,57.726113,63.982751,65.404505,0.0,69.912747,30.959851,94.999501,22.080826,93.827099,13.065331,80.081852,4.950005,58.574536,0.0,10.968405,33.467661,50.133789,51.715143,59.937889,62.678249,68.060637,67.936321,68.698433,-21.185194,277.425823,-52.512102,276.973699
12,-1.088172,-0.439107,-0.379657,-0.123513,0.0,23.865142,2.110336,53.932434,-3.447888,59.419921,-10.055718,53.994529,-17.684533,34.707,0.0,-10.98898,10.608869,28.081012,32.069224,48.066817,49.778539,58.161416,64.107685,65.653853,0.0,69.789596,30.948852,94.851539,22.053371,93.639061,13.040519,80.021827,4.916072,58.558136,0.0,10.988671,33.480159,50.174754,51.743424,59.968134,62.726081,68.226659,68.009693,68.855772,-22.039049,276.989562,-52.657442,276.853032
13,-1.803509,-0.560175,-0.38712,0.071593,0.0,25.553821,2.717972,55.203838,-2.571705,61.32423,-8.842266,56.406177,-16.15876,37.245334,0.0,-10.264882,11.39221,29.321714,32.934854,49.002953,50.436897,58.872608,64.503455,65.927037,0.0,69.809132,31.065892,94.963475,22.254353,93.830258,13.294213,80.126782,5.194908,58.83862,0.0,11.147407,33.602314,50.143286,51.831999,59.993045,62.758673,68.008915,67.992712,68.741226,-23.656437,276.452843,-52.858441,276.948081
14,-1.570999,-0.572019,-0.288986,-0.127354,0.0,27.323307,4.131019,56.202724,-1.014038,62.420208,-7.162423,57.84486,-14.415825,39.023426,0.0,-10.042049,11.800529,28.955028,33.621939,49.246991,51.22382,59.168269,65.237112,66.425561,0.0,69.85722,31.025929,94.874462,22.296078,93.865826,13.408585,80.257862,5.33828,59.1003,0.0,11.327681,33.770819,50.260884,51.992538,59.921624,62.924683,67.950697,68.149657,68.868703,-25.087566,275.928147,-53.007557,276.86805
15,-1.066613,-0.771979,-0.318329,0.044769,0.0,28.571721,5.1171,56.480565,0.016571,62.882298,-6.191665,58.542859,-13.5363,39.772923,0.0,-9.884722,12.221642,29.252134,34.261265,49.802337,51.955031,59.662828,65.961704,66.941522,0.0,70.172322,31.075882,94.873455,22.501786,94.172734,13.7398,80.503681,5.766529,59.488758,0.0,11.333029,33.985463,50.182732,52.135453,59.8897,63.05489,67.679366,68.295585,68.815018,-26.028586,275.216751,-53.200293,276.973402
16,-0.470214,-0.274925,-0.233265,-0.043731,0.0,29.374477,5.756607,56.812831,0.489818,62.72224,-5.898629,58.371173,-13.432263,39.77029,0.0,-10.111926,12.121964,29.027905,34.235392,49.815441,51.99749,59.705016,66.004904,66.989132,0.0,70.457589,31.056759,94.800728,22.611523,94.353562,13.981179,80.643814,6.125473,59.77533,0.0,11.357123,34.229192,50.272653,52.337043,59.944681,63.252935,67.498276,68.513082,68.82297,-26.365539,274.984075,-53.300297,276.97192
17,-0.248829,-0.213693,-0.023368,0.064998,0.0,29.169593,6.413578,57.112793,1.071384,62.774574,-5.518399,58.115089,-13.381634,39.426109,0.0,-10.607449,12.017729,28.788239,34.067023,49.799496,51.917745,59.750019,66.049228,67.019204,0.0,70.722976,30.898944,94.734741,22.518894,94.436691,13.980262,80.67295,6.222324,59.882583,0.0,11.365732,34.375701,50.223179,52.457049,59.845079,63.353663,67.194724,68.597273,68.659443,-26.435388,274.817436,-53.144685,277.083972
18,0.684276,-0.146843,0.004646,-0.099183,0.0,27.701397,6.425205,56.557743,0.574299,61.635853,-6.597885,56.197369,-15.037239,37.214619,0.0,-10.315974,11.576498,29.015407,33.45215,49.890159,51.458039,59.713834,65.883417,67.172568,0.0,70.711784,30.677387,94.451843,22.30228,94.178695,13.829223,80.586456,6.15081,59.742851,0.0,11.229028,34.402031,50.162354,52.491221,59.767359,63.434432,67.276592,68.716043,68.851894,-25.536696,274.718731,-52.925623,277.032927
19,0.373856,0.050944,-0.058857,0.061305,0.0,26.878544,5.64537,56.340855,-0.423649,61.341236,-7.786595,55.506603,-16.380375,36.278149,0.0,-10.2438,11.285901,29.817755,32.881576,50.047783,50.817057,59.698347,65.340433,67.032999,0.0,70.802502,30.651432,94.369709,22.276657,94.035999,13.842178,80.503269,6.232681,59.687359,0.0,11.050718,34.364611,50.006546,52.472413,59.717725,63.429493,67.161935,68.714365,68.785044,-24.911774,274.819032,-52.733414,277.143589
20,0.181251,0.346778,-0.010357,-0.05907,0.0,26.013096,4.86763,56.433255,-1.244224,61.440022,-8.593425,55.391133,-17.15055,36.400166,0.0,-9.883017,10.99597,30.440273,32.277459,50.074385,50.048586,59.62768,64.590536,66.687839,0.0,70.700798,30.603493,94.301628,22.198402,93.793602,13.754883,80.340843,6.139263,59.496254,0.0,10.961229,34.245445,49.97609,52.435906,59.637918,63.433098,67.149905,68.727171,68.768322,-24.448729,275.228774,-52.461977,277.147483
21,-0.129959,0.079918,-0.05286,0.007225,0.0,25.448262,4.311299,56.653004,-1.697204,61.930424,-9.003044,55.603054,-17.53664,36.56844,0.0,-9.772559,11.194411,31.288229,32.168704,50.320793,49.727841,59.810597,64.210153,66.680564,0.0,70.559887,30.63414,94.349338,22.198986,93.770267,13.709942,80.264454,6.054062,59.271206,0.0,10.856253,34.014819,49.908115,52.295967,59.677352,63.366939,67.133171,68.708004,68.678783,-24.276278,275.372798,-52.212427,277.218814
22,-0.438022,0.101134,-0.087147,-0.030974,0.0,25.831054,4.319229,57.014579,-1.599736,62.499916,-8.793057,56.113014,-17.227387,37.331657,0.0,-9.618145,11.059413,31.316833,31.904042,50.300737,49.358229,59.797074,63.815247,66.586742,0.0,70.661682,30.761936,94.392792,22.340343,93.825416,13.823021,80.343132,6.113193,59.326355,0.0,10.816647,33.832174,49.810278,52.181346,59.535684,63.320527,67.05392,68.720477,68.683291,-24.453123,275.533311,-52.038397,277.247219
23,-1.074635,0.309938,-0.135624,-0.032419,0.0,27.495632,5.381012,58.351765,-0.492622,63.789562,-7.607139,57.231182,-16.028469,38.861149,0.0,-10.093055,10.484726,29.936921,31.450349,49.616728,49.027888,59.482369,63.579854,66.314385,0.0,70.778744,30.907585,94.589161,22.474537,93.829754,13.904926,80.346188,6.139561,59.420391,0.0,10.750796,33.722888,49.724371,52.119595,59.500783,63.260901,67.028516,68.65643,68.636633,-25.29059,275.909455,-51.936853,277.281006
24,-1.102352,-0.046547,-0.108959,-0.110558,0.0,29.360367,6.67424,59.172981,0.858982,64.781593,-6.133312,58.43026,-14.512791,40.583748,0.0,-10.523271,9.942261,28.362668,31.122578,48.922727,48.901991,59.342652,63.562255,66.301923,0.0,70.764061,30.894413,94.812813,22.471596,93.974235,13.879074,80.431068,6.094356,59.44107,0.0,10.590541,33.610724,49.560065,52.029625,59.609945,63.192185,67.082696,68.610352,68.663704,-26.177679,275.94457,-51.830549,277.25211
25,-0.367344,-0.229168,0.159176,-0.238246,0.0,29.650395,7.482708,58.044308,2.159832,63.787136,-4.184177,58.203999,-11.8354,41.257725,0.0,-10.739867,10.99492,26.869357,32.595337,47.521091,50.42115,58.292845,64.751,65.746676,0.0,70.418735,30.586475,94.880687,22.237941,93.888874,13.763031,80.418193,6.047813,59.475849,0.0,10.032553,33.684677,49.339098,51.996256,59.6827,63.001797,67.302849,68.243579,68.737854,-26.360676,275.788869,-51.487026,277.087331
26,-0.435986,-0.833717,0.195156,-0.735015,0.0,30.268273,8.216675,58.650582,2.961709,64.392403,-3.115756,58.600686,-10.306148,41.811585,0.0,-10.395201,12.106192,27.132266,34.070728,47.273558,51.846893,57.99669,65.797212,65.432601,0.0,69.982704,30.201347,94.8517,22.072426,94.280342,13.814655,81.001602,6.312584,60.120003,0.0,9.399586,33.500698,48.958728,51.794863,59.706992,62.816928,67.521272,68.016029,69.118187,-26.647889,275.016986,-51.143097,276.41415
27,0.361222,-0.914401,0.098728,-1.680537,0.0,30.365066,10.025791,59.938064,3.995933,64.995621,-2.920006,58.365486,-10.797249,40.938377,0.0,-10.65202,11.766455,26.515763,33.790221,46.145293,51.653504,57.446075,65.523906,65.219155,0.0,69.412823,29.999325,95.230167,22.051243,95.12669,13.983799,81.763172,6.704109,60.862553,0.0,8.538995,33.23669,49.130752,51.408725,60.37875,62.371275,67.962824,67.541415,69.439264,-26.098263,274.172218,-50.855965,274.803246
28,2.71265,-2.739038,0.0657,-3.494172,0.0,27.315319,8.495796,57.589474,2.552685,62.912602,-4.513218,56.064434,-12.467731,38.347813,0.0,-9.307602,13.542631,29.015432,34.86679,46.897314,51.783463,57.582766,64.682309,64.99857,0.0,68.925087,29.417599,95.367463,21.687104,95.784554,13.973958,82.525063,7.048943,61.791047,0.0,7.575269,33.3244,50.5046,51.297068,61.848855,62.150592,69.367362,67.231947,70.535396,-23.167671,271.486424,-50.572323,271.362318
29,4.262535,2.52043,0.143761,-5.921951,0.0,20.334892,5.817158,52.865925,0.020691,58.030552,-7.266163,50.71938,-15.143532,31.607289,0.0,0.065517,13.55692,29.606284,28.48896,42.346246,39.222145,47.417437,46.495627,49.375308,0.0,67.693291,29.703438,95.151009,22.135941,95.163872,14.237503,80.192825,6.845078,58.07452,0.0,6.703575,33.128108,53.137107,50.62216,64.800104,61.355864,71.241747,66.594312,71.080257,-18.651507,274.032428,-50.174933,265.465941
30,10.177374,-6.314999,-0.680523,-9.336823,0.0,9.567833,0.425554,37.432629,-4.241472,41.611656,-10.398662,35.859284,-16.929268,19.555166,0.0,9.36495,14.898683,31.541864,25.203758,41.68288,31.732475,44.254001,35.270205,43.490451,0.0,65.91148,29.977844,94.357693,22.895039,93.122143,15.096485,75.998348,7.414032,54.039082,0.0,5.316723,32.443519,56.609703,49.396946,68.265711,60.180914,73.695165,66.076745,73.327812,-8.128636,267.726905,-50.509959,256.138594
31,17.51659,-14.360824,-1.411834,-11.137724,0.0,-8.076839,-8.812551,6.795216,-10.447294,9.38649,-13.196708,8.684784,-16.137188,0.61841,0.0,18.369198,18.99744,33.550777,26.613285,43.082268,30.724103,46.435532,31.948898,46.26465,0.0,62.662456,29.768486,92.465457,23.248146,89.398876,15.768379,71.882137,8.020099,50.868404,0.0,2.544599,29.648114,57.265282,45.989373,69.025327,56.766561,73.882491,63.473088,72.889766,9.76514,253.386928,-51.544607,245.021717
32,17.033741,-17.289955,-4.865994,-16.620735,0.0,-22.046287,-19.456037,-18.172371,-17.532354,-14.784153,-16.187072,-11.793857,-14.664036,-14.274301,0.0,28.967903,24.182079,39.543408,29.323721,47.135973,31.207485,48.961136,30.325282,47.556308,0.0,57.455618,30.371716,91.51284,25.786188,88.484631,19.847614,72.310009,13.165787,53.213757,0.0,-2.916101,27.115594,55.598423,42.747137,66.851527,53.263627,71.623852,60.361602,70.433799,27.094442,236.292048,-56.11504,228.596057
33,15.899231,-18.301266,-8.31704,-21.245575,0.0,-33.766411,-27.78071,-38.713829,-23.037718,-34.302006,-17.798607,-27.517605,-11.764938,-23.686884,0.0,35.691312,25.784774,39.375805,28.941511,46.071655,29.328297,46.435223,27.238712,44.089455,0.0,50.166522,32.3252,92.006196,30.960589,91.069714,27.582596,77.587819,22.957318,61.062184,0.0,-11.204501,24.261231,50.843703,39.104356,61.323717,49.160485,66.09829,56.366869,65.1748,43.120514,218.629702,-64.305239,207.989402
34,22.328762,-35.807452,-10.492361,-24.210471,0.0,-47.110038,-36.293363,-60.969623,-28.983095,-54.926262,-19.858909,-44.611702,-9.431396,-33.930822,0.0,32.710082,28.305494,45.936459,36.106726,54.617202,41.261162,58.964153,43.523796,61.457233,0.0,40.016928,32.346823,86.722493,34.921956,89.69133,35.296555,81.972062,34.178044,71.462952,0.0,-20.747268,19.085397,41.701844,33.081816,50.46854,42.648836,56.070856,49.815348,56.644236,65.467621,183.722737,-74.779255,184.679418
35,16.450808,-29.109249,-12.020096,-26.153054,0.0,-51.796967,-40.663811,-66.830464,-32.180741,-58.768925,-21.210182,-46.080494,-8.712845,-32.842255,0.0,31.675868,26.730858,44.8333,36.248375,53.990849,43.801846,58.768404,48.81756,62.847772,0.0,27.091857,31.457469,76.044755,38.278027,84.819088,42.689576,84.55164,45.525788,80.278908,0.0,-30.496262,11.57267,28.559862,24.599108,35.33751,33.706735,41.283732,40.675522,42.628221,81.843813,156.035517,-86.873967,159.948393
36,11.215084,-25.252501,-13.28108,-27.016089,0.0,-52.705788,-39.615475,-60.787708,-31.262444,-50.648884,-20.409611,-38.650521,-7.849228,-26.786625,0.0,28.288941,20.849002,39.488947,30.209923,47.589477,38.535879,50.44376,45.125086,54.318012,0.0,13.936919,30.569825,66.354773,41.587447,80.09198,49.822255,85.665139,56.260581,87.166358,0.0,-39.380068,5.65137,17.522803,17.428646,22.401849,25.786633,28.047155,32.124272,29.542447,92.974291,133.187481,-100.239653,135.336769
37,12.734115,-27.124912,-11.637657,-23.709373,0.0,-59.188499,-36.562007,-62.131336,-27.969429,-52.469318,-16.992565,-39.787651,-4.234954,-25.218326,0.0,21.464823,13.613261,28.38203,22.921281,36.628896,31.881883,39.989298,39.842036,46.243003,0.0,0.884136,28.141342,55.099566,42.190899,71.010212,53.123051,81.093258,61.98234,87.678847,0.0,-45.903166,-1.185531,7.463111,9.269632,11.368488,17.000605,16.350039,22.943949,16.969341,105.693403,109.369992,-111.892313,114.934819
38,13.214425,-25.853477,-8.857544,-19.499453,0.0,-65.429558,-34.399556,-67.2029,-26.182984,-59.867581,-15.730076,-46.851082,-3.43055,-30.218502,0.0,16.406538,9.159025,20.038926,17.90979,27.1529,26.71966,30.974028,34.98602,39.112325,0.0,-10.332653,23.068909,45.253699,38.075249,61.889088,49.976784,73.243721,59.854574,82.398463,0.0,-49.122752,-7.149299,-2.637224,3.048044,0.746023,10.86112,6.04649,16.786693,7.937127,119.055554,86.360137,-120.602131,98.278988
39,5.558029,-16.535593,-5.40228,-18.021363,0.0,-65.002762,-31.226475,-68.050656,-23.46048,-64.259022,-13.610539,-50.308342,-1.769326,-30.735638,0.0,13.353356,5.698587,8.05966,13.118168,15.190289,21.04752,18.671487,29.00222,27.917543,0.0,-18.509972,20.085771,40.988565,36.054159,58.272136,48.551113,69.684665,58.4876,79.426042,0.0,-49.185145,-10.590008,-9.040291,-1.518853,-6.058741,5.776726,-1.685083,11.431017,0.70108,124.798725,72.427985,-125.819269,82.861066
40,4.809837,-16.733893,-2.649514,-12.762563,0.0,-66.235176,-29.681156,-73.247669,-22.747261,-72.61417,-13.646221,-59.338211,-1.969963,-37.570576,0.0,7.512336,3.509801,2.172408,11.010898,10.225674,19.002032,13.542054,27.003063,24.100973,0.0,-22.443798,18.554346,46.202025,33.8785,62.319237,45.702645,72.648228,54.833651,79.907622,0.0,-49.593149,-12.195611,-14.80129,-2.774054,-10.466331,4.755232,-6.036467,10.36292,-2.630089,129.813686,57.816228,-128.263659,72.220639
41,2.647923,-13.2689,1.283289,-9.394702,0.0,-66.003502,-29.741639,-76.93174,-23.798561,-78.502533,-15.390541,-65.266159,-3.949105,-42.499741,0.0,2.822487,2.682382,-1.170831,10.567632,7.948253,18.740595,10.925216,26.808756,22.310078,0.0,-24.613014,18.816124,53.835743,32.541847,67.952442,42.733372,74.971298,50.226265,78.730877,0.0,-50.779457,-14.579791,-21.271516,-4.165361,-15.774136,4.433353,-10.154521,10.883338,-4.14444,132.900044,45.807333,-126.541935,64.085942
42,0.528396,-8.929727,7.770882,-9.546792,0.0,-63.721275,-31.078995,-79.715881,-26.243591,-82.340263,-18.471771,-69.085739,-7.306846,-45.718826,0.0,0.333896,3.08045,-1.674122,11.414606,7.890585,19.82295,10.243195,27.971405,21.44672,0.0,-23.855805,19.971016,63.549442,33.360798,77.788662,43.062893,82.358734,49.856712,82.426414,0.0,-48.440469,-13.63509,-25.157779,-3.034984,-19.630216,5.451369,-14.009082,11.548012,-6.445712,134.016666,37.254259,-118.182827,54.915803
43,-0.739197,-7.444673,10.936111,-7.874672,0.0,-61.5233,-31.331634,-80.186851,-26.817329,-82.804115,-19.24752,-69.434188,-8.162086,-46.419891,0.0,-0.784515,2.526759,-1.198656,11.757278,9.632243,21.185399,12.353213,30.361646,24.909369,0.0,-21.739208,23.358422,72.986115,35.503063,85.852215,43.870056,88.131832,49.081444,83.801846,0.0,-46.317311,-13.56446,-25.618764,-3.147388,-20.150142,5.657924,-14.961736,12.218745,-6.728171,133.834739,30.538151,-106.689446,47.769696
44,-0.806922,-4.146942,11.391266,-3.132185,0.0,-60.700287,-30.942513,-80.665398,-26.465905,-82.336647,-18.923447,-69.460167,-7.973969,-46.846322,0.0,-1.616774,1.652398,-1.204016,11.380416,9.384729,21.389731,12.751781,31.271131,26.62043,0.0,-17.329845,26.19809,83.157955,36.24559,93.452168,42.790112,93.870667,46.588028,85.163178,0.0,-44.958567,-13.06262,-26.109284,-1.972685,-20.167808,7.432619,-13.94517,14.270489,-5.002938,133.574627,27.239292,-94.75137,45.485594
45,0.030326,-1.946626,11.272465,-1.705034,0.0,-60.915641,-29.149223,-79.43795,-24.671562,-79.88301,-17.285019,-68.049224,-6.927658,-46.60057,0.0,-2.957437,0.870471,-1.798228,10.84822,7.606385,21.314853,13.126075,31.909618,28.038096,0.0,-11.942631,29.08715,89.02597,38.0667,97.991501,43.544826,95.917763,46.333809,84.891117,0.0,-41.612034,-11.242749,-23.268753,-1.06404,-18.452369,7.682425,-12.064814,14.049528,-3.951402,134.064794,26.467252,-83.019064,44.955146
46,1.036126,-0.325622,6.682408,-0.235507,0.0,-60.936448,-27.676094,-78.476143,-23.104523,-77.974663,-15.672249,-66.886254,-5.467209,-45.681588,0.0,-3.317665,0.354182,-1.938759,10.318321,6.298406,20.983524,13.158599,32.016254,28.729941,0.0,-5.766068,31.637292,94.267127,40.422149,103.384504,45.689504,100.758645,48.251813,88.102704,0.0,-36.675862,-7.90048,-18.58158,0.974374,-14.971311,8.280005,-9.527469,13.277838,-3.147793,135.150393,27.497443,-76.287183,46.075452
47,2.542144,0.259364,-0.462438,4.753973,0.0,-60.397476,-26.569267,-76.999466,-22.037475,-75.726928,-14.7071,-65.381836,-4.817207,-45.184639,0.0,-3.332756,0.326493,-2.26114,10.136497,5.210141,20.767719,13.373836,31.950762,29.330075,0.0,0.038025,34.748602,99.221703,41.995339,107.014266,45.804545,102.688456,47.150771,88.267333,0.0,-34.453653,-7.143272,-15.340959,1.484763,-12.076579,8.585077,-6.363301,13.399674,0.011626,137.141206,29.042269,-77.300952,52.114887
48,3.438561,1.020808,-5.421613,7.016036,0.0,-60.327187,-24.799576,-75.531189,-20.195732,-73.463631,-12.896301,-63.899872,-3.30146,-44.028923,0.0,-4.13435,-0.065233,-2.868109,9.460917,4.013518,19.949564,13.24723,31.09689,28.935156,0.0,5.302854,38.184797,103.272142,45.631696,110.541166,49.326284,105.978178,50.510725,91.995306,0.0,-32.147083,-6.556906,-13.37019,1.305616,-10.161188,7.23653,-5.064822,10.901099,-0.307101,139.801775,31.014036,-83.500557,60.081882
49,4.553284,0.282064,-9.78471,7.957788,0.0,-59.587418,-23.782975,-74.028878,-19.375145,-71.635895,-12.475068,-62.817788,-3.415444,-43.94497,0.0,-4.881994,0.193334,-3.260663,9.754817,4.002995,20.310136,14.12976,31.563328,29.42346,0.0,9.636526,42.067823,108.607664,49.972944,115.555315,53.72529,110.157022,54.812994,96.659861,0.0,-30.715103,-6.309719,-11.601498,1.10933,-8.385506,6.051046,-4.092555,8.705588,-0.558209,143.463336,32.403677,-94.17699,69.147247
50,4.034477,0.431388,-13.511257,7.022839,0.0,-59.47863,-22.832154,-73.316986,-18.249916,-70.720619,-11.238053,-61.751885,-2.155403,-42.750389,0.0,-4.828802,0.271165,-3.179819,9.873329,4.521909,20.419892,14.635385,31.616415,29.878863,0.0,9.905527,44.409483,111.209917,52.206613,116.181471,55.498491,110.807791,56.100706,97.514707,0.0,-30.221877,-6.961233,-10.453074,0.27365,-6.948598,4.57134,-3.563125,6.509515,-0.514689,146.532074,33.650575,-108.653986,76.985596
51,4.767128,0.394042,-14.151159,5.611514,0.0,-57.742676,-21.956887,-73.509064,-17.587212,-71.045082,-10.991387,-62.404793,-2.492707,-43.762757,0.0,-3.99821,-0.000673,-3.781917,9.628698,4.210316,20.211496,14.576444,31.349177,29.430487,0.0,6.930122,44.72249,108.652683,51.857005,110.495245,54.346994,105.616022,54.341123,93.150007,0.0,-30.543416,-7.973402,-9.417455,-1.080445,-5.900442,2.549128,-3.447542,3.842097,-0.816839,150.001889,34.572926,-124.102458,83.125419
52,4.646873,0.296729,-14.791059,4.200189,0.0,-55.750396,-21.580536,-74.413467,-17.680046,-72.777351,-11.653518,-63.940109,-3.752105,-45.520431,0.0,-2.571441,-0.545886,-4.445573,9.171332,3.84568,19.904498,14.155461,31.113297,28.786461,0.0,0.710309,43.006843,100.93596,48.924119,98.496635,50.270797,94.581714,49.534244,83.565757,0.0,-31.67972,-9.346224,-8.494641,-2.952956,-5.241037,-0.015589,-3.745806,0.703333,-1.464659,153.453026,35.312208,-140.089253,87.768161
53,4.191078,-0.675117,-14.099994,0.27863,0.0,-53.37458,-22.270935,-76.346603,-19.036262,-75.508506,-13.793243,-66.788086,-6.573715,-48.783371,0.0,-1.066498,-0.654518,-4.642952,9.60527,3.873813,20.790351,14.416282,32.274625,28.726026,0.0,-7.090393,38.820294,90.3834,44.193913,85.601229,45.274847,83.641886,44.677225,74.987103,0.0,-32.715346,-9.685703,-7.21736,-3.461348,-3.628145,-0.750063,-2.577981,-0.289118,-1.005865,156.479038,35.083463,-155.354313,88.493163
54,2.500718,-0.417248,-13.408928,-3.642928,0.0,-52.009873,-22.399544,-78.551766,-19.521744,-78.172463,-14.661255,-69.329499,-7.810318,-50.827927,0.0,0.280112,-0.86884,-5.18378,9.629804,3.212337,21.010572,14.109179,32.520737,28.360507,0.0,-16.471984,32.162842,76.995003,37.666386,71.809027,39.359145,72.796538,39.770068,67.414044,0.0,-33.650297,-8.991839,-5.585612,-2.605624,-1.061768,0.345703,0.055933,0.864743,0.559545,157.688765,34.795829,-170.054232,84.979849
55,1.695739,-0.714576,-9.98193,-3.673331,0.0,-49.408584,-23.24739,-81.086311,-21.088371,-81.84114,-17.003975,-73.203758,-10.827438,-54.389419,0.0,2.653163,-0.923977,-5.59316,9.741801,2.412787,21.276049,13.432969,32.916391,27.712709,0.0,-22.623271,25.997231,68.486741,32.328324,64.557475,35.369818,67.975016,37.262553,64.622731,0.0,-35.084215,-9.123962,-6.594652,-1.687493,-2.08738,2.309268,-0.70012,3.836217,0.689458,157.888755,33.603629,-181.531911,80.828894
56,-0.343414,-1.023537,-5.018871,-4.733729,0.0,-47.926163,-24.16864,-83.144165,-22.430077,-84.787811,-18.764397,-76.412247,-12.884674,-57.094734,0.0,4.393949,-0.594533,-5.479368,10.188929,2.035139,21.8495,13.087098,33.631861,27.550082,0.0,-26.742244,19.25853,61.689251,26.31379,61.499457,30.833571,66.581846,34.307768,64.422215,0.0,-36.558062,-8.615352,-8.122059,0.745436,-3.487965,6.38235,-0.882401,9.068682,1.418766,156.435139,31.950062,-187.660984,75.465135
57,-2.187744,0.018611,0.608208,-5.335532,0.0,-47.76741,-24.373444,-85.13578,-22.542046,-87.021378,-18.91388,-78.793511,-13.085518,-58.703591,0.0,4.49104,-0.500888,-5.666959,9.868537,1.318532,21.159483,12.122742,32.583865,26.646692,0.0,-27.564148,14.228073,59.178154,21.87505,62.298277,27.225557,64.186918,31.517721,61.827724,0.0,-39.030783,-8.787142,-11.090722,2.699713,-6.110907,10.630575,-0.373083,15.465543,3.514618,153.363522,30.667944,-187.936649,68.828874
58,-3.088165,-0.598843,4.730644,-3.743282,0.0,-47.360207,-24.723679,-86.498978,-23.006012,-89.035286,-19.521767,-81.180954,-13.756257,-60.451264,0.0,5.326794,0.181917,-5.599509,10.398683,1.372347,21.530862,12.226236,32.809013,26.86603,0.0,-27.050491,13.037516,60.75717,21.068636,66.137638,26.751944,65.320565,31.140845,62.372229,0.0,-41.151499,-10.105779,-14.791246,2.486983,-10.094753,11.856428,-2.075119,18.251573,3.794733,149.498795,28.455087,-183.982567,63.471578
59,-3.305558,0.176285,8.853081,-2.151032,0.0,-47.064903,-25.528038,-87.506721,-24.004921,-90.627777,-20.677299,-82.957351,-14.989288,-62.288543,0.0,5.45518,0.437378,-5.525365,10.513273,1.222158,21.506502,12.082351,32.666518,26.880368,0.0,-25.201275,15.686857,66.426298,23.894548,73.01754,29.412729,69.982784,33.177137,66.055727,0.0,-42.920211,-12.571263,-19.223629,0.107245,-15.439505,10.059911,-5.988509,17.426772,2.259111,145.565014,26.876339,-175.757709,59.565513
60,-3.537895,0.569697,10.566547,-2.724428,0.0,-47.658783,-25.715378,-88.470978,-24.146278,-91.610618,-20.722275,-83.823807,-14.953033,-62.866928,0.0,5.443194,0.42383,-5.646982,10.250532,1.158568,21.065289,11.95391,32.133408,26.844417,0.0,-23.719162,16.972521,71.318762,25.269007,77.403626,30.838457,72.380494,34.570227,67.712397,0.0,-43.0797,-12.589004,-19.664972,0.06581,-16.023059,10.095355,-6.517346,17.266956,1.421312,141.676409,26.120415,-165.541872,55.515464
61,-4.287758,0.486278,9.024033,-1.361282,0.0,-49.411422,-26.190674,-88.555,-24.228447,-91.279564,-20.329056,-83.194839,-14.043297,-62.051445,0.0,5.159365,0.657117,-5.222436,10.467955,2.090715,21.186635,12.739425,32.086212,27.250704,0.0,-21.352512,20.348333,77.727808,29.420488,84.137031,35.271589,77.585346,39.005442,71.906965,0.0,-43.326053,-13.136001,-20.777726,-1.343964,-17.153993,8.308496,-8.410397,15.372324,-0.362898,137.122038,25.317604,-156.784452,52.865093
62,-3.725784,-0.298865,6.474941,-0.79461,0.0,-50.230568,-27.082146,-88.269333,-24.915985,-90.576416,-20.58696,-82.157593,-13.742958,-60.991379,0.0,5.16226,0.769212,-4.627768,11.05446,3.526263,22.158369,14.330294,33.439373,28.647621,0.0,-19.612404,23.571631,82.925394,34.116789,91.640053,41.318899,88.583874,46.003206,82.933554,0.0,-41.759779,-12.603732,-20.743418,-1.840073,-17.270769,6.817508,-10.864291,12.88569,-3.286268,133.183216,24.27339,-150.522549,51.325134
63,-3.363304,0.463054,4.05558,-0.046881,0.0,-51.866249,-27.18203,-87.204552,-24.471977,-88.904274,-19.473931,-79.757218,-11.994118,-58.58622,0.0,4.138846,0.271368,-3.888066,10.541826,5.086573,21.678007,15.281214,33.081214,29.169283,0.0,-18.38443,24.338528,84.820908,36.100766,95.215805,44.479683,94.40086,50.155506,88.720608,0.0,-40.812225,-12.015797,-20.558793,-1.734582,-17.541119,6.416207,-13.042756,12.003415,-5.75709,129.672066,24.30165,-146.614815,50.843459
64,-2.615433,-0.161052,1.686276,0.49333,0.0,-53.322349,-27.128288,-85.917183,-23.867134,-86.900459,-18.259804,-77.246246,-10.174553,-56.051445,0.0,4.271344,-0.07071,-3.114314,10.337359,7.009234,21.646397,16.685048,33.326025,29.925609,0.0,-17.908447,22.532135,84.034996,35.098263,94.850784,44.426571,95.003826,51.139847,88.906643,0.0,-40.486707,-10.960457,-20.115407,-0.419372,-17.555432,7.695546,-14.58499,13.139537,-7.874221,127.013477,23.859723,-144.971695,51.055914
65,-1.867607,-0.054544,-0.535332,0.764927,0.0,-54.306839,-27.321281,-84.516884,-23.543633,-84.922165,-17.392868,-74.881416,-8.738503,-53.934265,0.0,3.797607,-0.243445,-2.386493,10.295375,8.644027,21.688363,17.872076,33.486045,30.587814,0.0,-17.818108,22.695419,82.313965,35.899967,95.373791,45.641544,96.56432,52.591026,90.583191,0.0,-40.839092,-11.203383,-21.362289,-1.096947,-18.990376,6.862181,-16.051211,12.586846,-9.054247,125.150711,23.578721,-145.502186,51.594383
66,-0.085625,0.178996,-1.020321,0.133974,0.0,-54.231811,-27.024536,-83.729187,-23.160896,-83.928589,-16.911186,-73.627212,-8.223037,-53.027801,0.0,3.611424,-0.738745,-2.378712,9.639332,9.194186,20.997678,18.238787,32.986607,30.980892,0.0,-18.128448,22.333134,81.292946,36.01006,94.336922,46.11446,96.31976,53.287583,90.874317,0.0,-40.345706,-10.858353,-21.434359,-0.868816,-19.222484,6.977457,-16.178645,12.719152,-9.413313,125.071506,23.624682,-146.516087,51.595322
67,0.550141,-0.039199,-1.392036,0.04312,0.0,-54.418282,-26.519142,-83.551117,-22.653489,-84.278733,-16.420784,-73.872139,-7.851792,-53.029129,0.0,4.423478,-0.803009,-1.840576,9.442941,10.239373,20.746521,18.883325,32.840388,31.422907,0.0,-18.145214,21.898361,80.952862,35.562206,93.973663,45.725292,96.104702,53.020351,90.719272,0.0,-40.408037,-11.015465,-21.507039,-0.868192,-19.166383,7.235617,-15.972775,13.259592,-9.21883,125.660683,23.532443,-147.869087,51.585402
68,0.390014,-0.09554,-1.354901,-0.061615,0.0,-54.654442,-26.228439,-83.831863,-22.436691,-85.16613,-16.261894,-74.875786,-7.762001,-53.55059,0.0,4.780371,-0.767329,-1.355669,9.553332,10.767073,20.942393,19.309045,33.147084,31.729584,0.0,-17.845825,21.671608,80.538998,34.915741,92.985432,44.988224,95.545544,52.388398,90.630284,0.0,-40.190731,-10.920523,-21.2435,-0.45447,-18.594759,7.873092,-15.323204,14.022296,-8.814253,126.125713,23.392159,-149.148972,51.479043
69,0.567581,0.276697,-1.304992,0.184227,0.0,-54.175231,-26.033203,-84.298988,-22.423416,-86.381835,-16.402702,-76.200073,-8.066528,-54.372344,0.0,4.712044,-0.61333,-1.013386,9.731575,10.913817,21.111879,19.197759,33.314761,31.746529,0.0,-17.399506,21.608333,79.994407,34.245941,92.558876,44.093204,95.28146,51.470455,90.593307,0.0,-40.208491,-11.169625,-21.29253,-0.342456,-18.43135,8.302966,-14.855754,14.681364,-8.171605,126.828472,23.677294,-150.318786,51.671708
70,0.088212,0.115572,-1.007675,0.731736,0.0,-54.060448,-25.709839,-84.683785,-22.195336,-86.976128,-16.152535,-76.718766,-7.782097,-54.293221,0.0,4.914666,-0.497702,-0.629687,9.733143,11.264585,21.055236,19.422246,33.240673,32.27326,0.0,-16.921166,21.670131,79.397655,33.981033,91.898174,43.712196,95.084964,51.070907,90.869705,0.0,-40.408148,-11.446199,-21.497029,-0.43552,-18.399289,8.296495,-14.78605,14.616995,-7.962543,127.096385,23.85989,-151.14676,52.470468
71,-0.171525,-0.082838,-0.671643,0.719306,0.0,-54.144515,-25.523574,-85.285537,-21.963111,-87.842765,-15.7844,-77.29763,-7.287391,-54.170997,0.0,5.430696,-0.261964,0.24618,9.984251,12.215115,21.316551,20.10013,33.506663,32.802245,0.0,-16.299762,21.813515,78.648422,33.954895,91.394669,43.723824,95.193501,51.221867,91.596028,0.0,-40.656885,-11.907017,-21.844857,-0.88221,-18.721009,7.849372,-15.076894,14.139029,-8.055817,127.172464,23.842424,-151.570799,53.255146
72,-0.269416,-0.087247,-0.093395,0.615157,0.0,-53.624451,-25.391556,-85.099755,-21.766411,-87.478043,-15.526703,-76.823113,-6.960572,-53.68467,0.0,5.622894,0.062615,0.832118,10.450671,12.733534,21.857262,20.893023,33.976102,33.397599,0.0,-16.131443,21.711113,77.931679,34.047306,90.611401,44.043697,95.09412,51.707451,92.293465,0.0,-40.716295,-11.808599,-22.181279,-0.847092,-19.130426,7.67268,-15.592633,13.669745,-8.62878,127.169037,23.823114,-151.398205,53.93824
73,0.093109,0.226068,0.221054,0.674099,0.0,-53.244873,-25.444473,-85.257363,-21.84446,-87.08226,-15.588753,-76.12912,-7.005615,-53.124504,0.0,5.0941,0.192884,0.703801,10.53814,12.671901,21.869415,21.2528,33.851477,33.888188,0.0,-16.261253,21.411221,77.530747,34.013077,90.705963,44.193546,95.45937,51.919327,92.568821,0.0,-41.374931,-11.993079,-23.071486,-0.983061,-19.974622,7.509974,-16.280546,13.359238,-9.083832,127.500212,24.099185,-150.939085,54.662342
74,-0.229981,-0.022847,0.34568,0.52686,0.0,-53.443496,-25.576881,-85.133102,-21.887878,-86.518432,-15.559616,-75.480766,-6.902755,-52.672966,0.0,5.327461,0.163416,0.882073,10.502516,13.036487,21.82425,21.940755,33.780816,34.233316,0.0,-16.276107,21.283745,77.425747,34.154297,90.737377,44.46571,95.67968,52.192177,92.731522,0.0,-41.812025,-12.099876,-23.566415,-1.203083,-20.665034,7.147308,-16.91965,12.80054,-9.520468,127.461067,24.090686,-150.402569,55.20355
75,0.083634,-0.100845,0.450646,0.027918,0.0,-53.222672,-25.57283,-84.766777,-21.877739,-86.182663,-15.608093,-75.162667,-6.994629,-52.651177,0.0,5.617738,0.327469,1.168392,10.797973,13.384581,22.163927,22.663692,34.055272,34.472285,0.0,-16.024052,21.153682,78.113388,34.018146,91.251137,44.294552,95.708954,51.957046,92.494674,0.0,-42.039205,-12.095702,-23.757477,-1.007736,-21.013449,7.420497,-16.927931,13.011997,-9.37509,127.709782,24.014741,-149.786842,55.256368
76,0.259712,0.390831,0.664192,-0.18351,0.0,-52.762505,-25.549805,-84.592552,-21.973824,-85.832771,-15.896553,-75.007187,-7.477547,-52.85804,0.0,5.381721,0.243648,1.070733,10.823254,13.182904,22.234224,22.895008,34.038951,34.386501,0.0,-15.908432,21.052528,78.482529,33.729218,91.621696,43.817963,95.369396,51.252502,91.660034,0.0,-42.237727,-11.888628,-23.996544,-0.572581,-21.278093,8.032438,-16.798144,13.659284,-8.793179,128.079323,24.439304,-149.012821,55.10659
77,-0.180244,0.731717,0.673416,0.080948,0.0,-53.280648,-25.544312,-84.564606,-21.962517,-85.891022,-15.853707,-74.909935,-7.375374,-52.698029,0.0,4.387571,0.096257,1.029522,10.769908,13.162891,22.177747,23.095605,33.87958,34.525996,0.0,-15.370582,20.761402,78.737755,33.511208,92.373631,43.623745,95.325623,50.989048,91.068226,0.0,-43.175709,-11.761026,-24.842752,-0.304516,-22.248086,8.381236,-17.49236,13.998708,-9.283803,128.035195,25.19716,-148.203289,55.213677
78,-0.758584,1.140271,0.672878,-0.043509,0.0,-53.56295,-25.464088,-84.471496,-21.650482,-85.550331,-15.294136,-74.370414,-6.567741,-52.121933,0.0,4.314643,-0.006731,1.415313,10.727782,13.342381,22.195766,23.64335,33.906429,35.35108,0.0,-13.287746,21.324486,79.177128,34.244728,93.97823,44.245823,96.240864,51.225575,90.972496,0.0,-45.030543,-10.887894,-26.212883,0.627946,-23.500095,9.230637,-18.130971,14.661629,-9.568961,127.479927,26.353791,-147.327095,55.186528
79,-1.325798,2.303605,1.221829,0.277371,0.0,-53.211387,-25.695053,-84.224121,-21.537048,-84.998977,-14.818267,-73.119804,-5.911125,-51.040809,0.0,4.450093,-0.157346,2.376718,10.769624,14.987696,22.474365,25.926275,34.268762,37.73435,0.0,-9.398129,21.587425,79.354717,34.751324,95.370014,44.89872,97.468929,51.833771,91.839718,0.0,-47.599614,-9.642117,-28.241459,2.06531,-25.168141,10.668853,-19.14398,16.066166,-9.903593,126.395038,28.668119,-145.864357,55.474622
80,-2.045402,3.850324,1.785038,1.05645,0.0,-52.912994,-26.382683,-84.777031,-21.806625,-85.252945,-14.725754,-72.525879,-5.716919,-50.43441,0.0,5.867413,-0.52223,4.430394,10.741151,18.406853,22.944736,30.32278,35.078995,42.397697,0.0,-4.314823,21.989788,79.736366,35.441883,96.84708,45.768081,99.274532,52.628116,92.85403,0.0,-50.322084,-7.94729,-31.126332,4.15174,-27.4219,12.785361,-20.688814,18.098262,-10.607683,124.772175,32.776545,-143.65678,56.789174
81,-2.912041,5.632693,1.679832,2.988368,0.0,-52.428657,-27.784035,-85.558502,-22.847854,-85.878479,-15.25859,-72.140053,-5.922111,-50.044693,0.0,8.713212,-0.571784,7.807383,11.220699,23.741348,24.065902,36.932162,36.586051,48.988195,0.0,2.195275,22.271267,80.602558,35.692257,98.450924,46.092476,101.384972,53.067444,94.671925,0.0,-53.348904,-6.998489,-34.937673,5.785125,-30.257448,14.736983,-22.562692,20.279632,-11.630295,122.441871,38.734977,-141.395211,60.103281
82,-3.65673,7.853393,2.360173,4.218152,0.0,-51.88971,-29.552674,-86.945275,-23.950493,-86.791947,-15.727662,-72.544831,-6.038063,-50.556427,0.0,12.915352,-0.039076,12.984309,12.140174,30.967949,25.598528,45.099537,38.601905,56.087652,0.0,9.419654,21.985656,81.674354,34.670459,99.518943,44.803928,103.063762,51.787113,95.935958,0.0,-55.536412,-6.109456,-37.524669,7.700549,-31.799689,17.426874,-22.857643,23.613247,-10.660023,119.439881,46.825723,-138.380298,64.558786
83,-4.145806,10.341002,2.975555,6.29635,0.0,-53.076713,-31.401787,-88.404991,-25.35823,-89.144874,-16.794708,-74.73294,-7.011932,-52.702881,0.0,16.2086,1.161253,19.543054,13.863554,39.99639,27.964995,54.941719,41.424319,63.527762,0.0,16.489231,21.261543,83.49836,32.40707,100.465496,41.972603,103.903313,48.999744,96.781609,0.0,-56.499255,-5.71416,-38.373039,9.280532,-31.144598,20.091361,-21.334705,27.305495,-8.209982,116.004089,57.297917,-134.694729,70.986328
84,-4.938698,12.97835,2.692818,8.554977,0.0,-55.495903,-32.346885,-89.3348,-26.14888,-90.992843,-17.639808,-77.03215,-7.973236,-55.355941,0.0,18.323934,2.558492,25.994854,15.644398,47.409341,30.268458,62.687221,44.11437,69.418102,0.0,23.257564,21.700275,86.542877,30.984638,102.783016,39.291641,105.103077,45.534176,96.684597,0.0,-56.111068,-5.511848,-37.258044,10.479545,-28.109949,22.306632,-17.627465,30.333043,-4.258642,111.759967,70.320761,-131.307335,79.585799
85,-5.946991,15.551507,2.833236,10.177906,0.0,-57.762725,-33.250213,-88.226486,-27.07711,-90.085579,-18.565635,-77.200973,-8.731361,-55.877037,0.0,18.537653,4.690438,31.898386,17.778623,52.961328,32.309452,67.128706,45.767115,71.986482,0.0,29.559826,22.141972,89.663979,28.957695,105.340908,35.44875,105.006855,40.478783,94.40522,0.0,-53.998611,-5.160692,-32.897729,11.418028,-21.835767,24.278317,-11.457245,33.268245,1.629149,106.232826,85.271199,-128.054249,89.162636
86,-6.805927,18.622174,4.04686,10.070294,0.0,-60.251312,-34.256092,-88.023245,-27.903442,-90.329252,-19.218945,-78.502367,-9.113788,-57.236252,0.0,18.503205,6.93417,37.735686,20.171189,58.257627,34.590027,71.078037,47.729965,74.432455,0.0,34.908966,22.394898,91.33548,26.959774,105.713917,31.579205,102.090592,35.113003,88.656052,0.0,-49.344655,-3.235622,-24.280996,13.213971,-12.156408,26.225734,-2.8415,35.404877,8.796377,99.595093,102.608514,-123.839195,97.948071
87,-7.382767,21.235448,4.410919,13.343372,0.0,-62.56295,-35.997265,-88.839769,-29.722847,-91.879686,-20.796352,-80.689848,-10.247692,-59.22995,0.0,18.670431,8.941157,43.040225,22.750473,63.236081,37.205651,74.877639,50.07251,77.675451,0.0,40.455357,23.872919,93.871554,26.985735,106.391865,30.238781,100.431713,32.626786,85.400711,0.0,-43.829837,-0.611795,-12.734821,16.432029,0.854527,29.94058,9.098043,39.270851,18.080703,92.183109,122.096555,-119.457493,109.544036
88,-7.410186,21.10387,4.748589,16.142867,0.0,-60.481041,-37.200497,-88.007304,-31.172768,-92.588374,-22.397587,-82.388026,-11.909375,-60.574471,0.0,21.084181,12.062178,45.066343,26.348774,65.686263,40.67403,76.401071,53.074803,80.584847,0.0,45.951382,25.688947,96.862169,28.424898,106.727692,31.077072,99.983505,32.920315,84.444889,0.0,-37.543892,2.503748,1.191731,20.988369,15.953485,35.473744,23.266441,45.025396,28.60138,84.620139,141.266874,-114.861688,123.753352
89,-6.775475,20.858122,5.444401,16.109892,0.0,-56.7071,-38.963917,-82.574495,-33.129318,-94.148935,-24.234318,-84.543085,-13.486324,-61.758476,0.0,23.241771,15.118341,44.163731,30.164839,68.052224,44.480085,78.877442,56.279384,84.348985,0.0,51.216934,27.037187,98.991491,27.937654,106.594494,29.038948,98.706447,29.659893,81.453438,0.0,-30.714581,6.869841,13.340081,25.569916,28.674144,40.126298,36.390052,49.668601,39.889281,77.710264,159.963732,-109.551687,137.70198
90,-12.815346,23.162191,8.222568,19.389833,0.0,-58.978637,-39.135189,-79.913332,-32.658966,-89.766843,-23.478046,-80.451982,-12.866489,-59.465973,0.0,28.070314,13.221442,34.468811,31.286516,61.833222,47.864445,75.852307,60.93174,84.639897,0.0,52.684742,28.542441,94.617525,30.839453,98.164433,32.701287,92.58561,33.709923,78.571358,0.0,-23.920751,10.859919,27.860628,30.578949,45.895512,45.999485,54.091549,56.487137,56.78223,64.883382,181.132678,-101.340655,155.098568
91,-6.118297,28.764969,6.40987,20.007424,0.0,-63.359608,-41.487854,-79.430844,-37.626709,-88.710091,-31.083069,-81.048157,-22.940563,-65.274662,0.0,32.330947,10.7268,24.374061,24.096826,45.237932,36.128289,54.667565,45.07086,60.633211,0.0,56.070626,28.975634,95.414767,30.113966,96.335884,30.872738,91.067677,31.052239,77.24057,0.0,-18.353235,15.015925,38.907264,35.839312,58.928085,51.934211,67.678263,62.713808,68.19039,58.846962,208.244799,-94.848908,173.453144
92,-4.838288,26.756984,5.875981,18.399168,0.0,-67.517143,-40.932449,-81.454284,-39.646774,-91.041835,-36.017807,-84.432918,-30.762004,-71.888923,0.0,35.531484,10.041704,12.953928,17.218263,24.442468,23.18581,28.501224,26.503462,32.445902,0.0,58.895553,28.958107,93.664844,27.932178,93.141529,26.884838,86.700142,25.551521,71.982914,0.0,-12.993855,19.251704,46.623488,39.351463,66.437133,54.703369,75.903718,64.849702,76.551825,54.148784,233.772841,-88.832817,190.62337
93,-7.360061,16.692174,5.137996,16.387164,0.0,-71.105931,-38.919319,-80.264488,-37.882302,-89.683457,-34.726181,-84.074948,-29.688298,-71.503865,0.0,33.024059,10.653873,4.236684,18.119992,16.088428,24.079042,24.298046,26.943273,32.051193,0.0,61.232037,28.39222,91.88839,25.038311,90.668427,21.93441,82.631344,18.864979,65.804089,0.0,-8.564004,23.466231,51.789515,41.873918,70.840048,55.668984,80.501233,64.679827,82.02506,46.918722,249.462266,-83.564822,206.007785
94,-6.917519,15.086861,5.068268,16.196058,0.0,-76.158989,-36.208557,-85.518906,-35.129654,-88.211323,-32.378265,-83.561085,-27.701305,-70.575165,0.0,30.567009,12.376375,2.074406,19.147172,9.884042,24.169432,20.096548,25.982548,30.543618,0.0,62.57658,27.23972,89.568764,23.055325,87.213753,19.090794,78.65498,15.394821,61.416035,0.0,-4.897301,25.776216,57.875932,44.123622,76.775893,57.573059,85.437105,65.997495,85.820748,40.10325,263.805281,-78.394507,221.459997
95,1.000694,9.136949,2.348419,12.149295,0.0,-74.446495,-34.270958,-90.634952,-33.827476,-95.173301,-31.807296,-91.203838,-27.862964,-75.876537,0.0,22.086467,21.732279,10.76159,25.008633,11.906541,25.830358,20.142626,23.725064,31.784901,0.0,67.097821,25.936879,92.647431,18.09018,91.061142,11.277878,79.622177,5.534912,58.283627,0.0,-2.007185,28.066822,59.069567,45.68934,76.008558,57.909117,83.87125,64.725992,82.879143,41.199543,272.38317,-75.950489,233.050232
96,-3.686119,-0.477096,3.780487,11.248443,0.0,-69.850399,-34.147144,-77.441791,-31.6963,-80.322921,-27.771743,-77.663829,-22.228981,-69.390907,0.0,12.952729,25.816785,21.682261,33.569599,27.690922,38.337064,39.428873,39.798931,56.107894,0.0,68.827664,26.357392,91.439438,17.470059,90.228219,9.69278,78.090386,3.032731,56.296177,0.0,-0.059503,28.890375,60.156745,45.931377,76.389829,57.658286,84.476712,64.17892,84.494373,37.627865,271.59978,-72.055561,243.992381
97,-3.224304,-2.703705,3.915928,8.687332,0.0,-65.720936,-35.424511,-60.247066,-31.593567,-59.519874,-26.349918,-58.363346,-19.48756,-58.6875,0.0,4.56506,27.77925,33.875375,40.164642,46.923694,49.318807,62.540052,55.133164,80.421464,0.0,69.602074,27.19447,91.817677,18.180577,90.865139,9.844918,78.666493,2.448109,56.604332,0.0,0.753948,29.51109,60.932367,46.511732,77.750796,58.268615,86.057807,65.179474,86.174688,34.562668,268.699066,-67.980526,252.482704
98,0.669914,4.622167,4.010365,6.642492,0.0,-63.044036,-39.293701,-46.173328,-36.906223,-41.713817,-32.504814,-42.434486,-26.376434,-52.130115,0.0,-0.026195,26.222794,43.760899,37.818274,53.435929,46.487957,64.237978,52.229659,77.179666,0.0,69.761387,28.295391,91.374389,19.1422,90.907585,10.261791,78.295074,2.102577,56.301384,0.0,1.452752,29.177168,60.477365,46.160063,77.787475,58.139705,86.611251,65.6984,87.330952,35.470584,273.176067,-63.732159,258.98003
99,0.21167,2.601285,3.121227,4.964548,0.0,-58.22343,-41.684772,-30.568165,-40.778652,-23.294769,-37.183662,-25.025825,-31.759895,-42.425331,0.0,-3.226348,24.438677,49.032828,35.715623,57.850503,44.284333,64.682248,50.206691,73.507542,0.0,69.759419,29.720398,91.194294,20.760029,91.346272,11.620594,78.316097,2.92075,56.849167,0.0,2.007073,29.483586,59.383605,46.208969,76.445824,58.102049,85.624739,65.864471,87.336287,35.953462,275.662654,-60.339724,263.82988
100,-5.483185,2.581624,2.120167,4.274203,0.0,-49.356433,-41.784873,-7.538063,-43.918739,0.650322,-42.991516,-3.529586,-39.761169,-30.669628,0.0,-2.376118,19.80169,51.67088,32.117921,62.410734,41.881637,66.97078,49.575281,70.857697,0.0,69.323959,30.805172,91.897888,22.11066,92.229263,12.910629,78.841553,4.048073,58.026958,0.0,2.478785,29.894745,58.717417,46.527317,74.508096,58.330587,84.064343,66.150091,86.287123,30.760946,278.101017,-57.928888,267.960822
101,-8.049259,3.797441,1.039169,3.293631,0.0,-36.553001,-34.678013,4.227391,-39.080028,10.700558,-40.078628,3.971936,-38.489662,-19.760193,0.0,-3.058115,18.752031,49.217202,32.080895,60.179247,42.39929,64.965496,50.511973,66.313817,0.0,69.032433,31.262558,92.781235,23.014858,93.247307,14.017044,80.034233,5.28669,59.612641,0.0,2.988349,30.356972,57.943524,46.965548,72.413683,58.659211,81.838031,66.394475,84.59473,23.004638,281.698439,-56.596768,271.054434
102,-2.517036,1.316617,0.305718,2.56962,0.0,-31.483566,-34.134579,9.893474,-41.033867,13.483051,-43.706967,5.234905,-43.386978,-16.976818,0.0,-4.001624,18.742522,45.609682,34.155326,57.224292,45.804146,63.083641,54.590131,65.693065,0.0,69.02346,31.112331,93.623703,23.039577,93.887352,14.262542,80.658806,5.946029,60.647278,0.0,3.957361,30.615249,57.370121,47.463503,71.099967,59.091859,80.057322,66.454336,82.879464,20.778534,282.75295,-56.000118,273.361948
103,-5.4413,2.863713,-0.139962,1.763023,0.0,-24.677879,-30.618152,16.492665,-38.412437,19.415097,-41.754867,9.888531,-42.143714,-16.350654,0.0,-5.367544,18.690034,42.828789,35.082397,54.169128,46.825473,60.019535,55.644247,63.035277,0.0,68.723259,30.399239,94.001244,22.392952,94.169426,13.863728,81.077546,5.97012,61.355141,0.0,5.427763,31.16116,56.713184,48.218575,70.088509,59.73578,78.806654,66.693693,81.563032,15.599401,285.344721,-55.877913,274.853029
104,-1.506225,1.372884,-0.122612,1.266995,0.0,-23.240536,-31.50166,19.07008,-41.143753,20.591411,-46.106392,9.640606,-47.960118,-18.763504,0.0,-6.27972,17.860825,40.812947,35.381974,52.247802,47.806848,58.217819,57.228899,61.954139,0.0,68.415894,29.493519,94.245026,21.455601,94.170777,13.132073,81.171547,5.576878,61.712998,0.0,6.312881,31.484955,55.934129,48.765474,69.352654,60.244283,78.001713,67.003236,80.754768,14.336712,286.403968,-55.756989,275.806387
105,1.109207,2.536769,0.084126,0.516999,0.0,-24.202194,-33.093121,18.482586,-42.217312,20.273815,-45.846165,8.538677,-46.22905,-20.692978,0.0,-8.972125,16.70608,38.352353,34.761715,49.672081,47.578198,56.331505,57.21561,60.294275,0.0,68.45113,28.626434,94.006794,20.748218,94.121281,12.742115,81.452099,5.541481,62.262966,0.0,6.773033,31.403074,54.793722,48.802919,68.662889,60.313937,77.506055,67.037532,80.392281,15.662642,288.633038,-55.45614,276.015687
106,3.829685,-1.921401,0.128632,0.213089,0.0,-30.789573,-37.196193,14.015557,-46.715217,16.377777,-50.854362,6.123047,-51.556045,-26.950744,0.0,-6.680888,18.065021,39.607455,35.760911,50.674277,47.938129,57.004411,56.975919,62.091323,0.0,68.774677,28.300231,93.807025,20.447822,94.019474,12.580776,81.482196,5.539043,62.478435,0.0,7.07241,31.417288,54.025744,48.948094,68.325398,60.470005,77.352617,67.10027,80.295061,19.715841,286.428647,-55.103994,275.945786
107,-5.097175,1.892922,0.225482,0.233836,0.0,-23.285626,-32.911755,18.691475,-41.553303,22.70343,-44.917008,11.817009,-45.164647,-20.96362,0.0,-8.225958,17.510601,38.262407,34.927218,49.302986,46.993545,55.910947,55.968313,60.395496,0.0,69.024628,28.104619,93.505143,20.272648,93.787285,12.424428,81.392258,5.361088,62.412529,0.0,7.436182,31.062989,53.491097,48.662239,67.889823,60.296536,77.068232,67.033246,80.196804,14.842638,288.092117,-54.65454,275.95017
108,1.445617,-1.460212,0.265378,0.330822,0.0,-25.999431,-33.847023,16.357773,-42.483375,20.162911,-46.26709,10.416207,-47.030777,-18.895591,0.0,-4.467766,17.875175,39.009785,34.697927,50.404823,46.44509,56.419634,55.150861,60.774249,0.0,69.399158,28.158657,93.321109,20.3516,93.541271,12.471004,80.938671,5.379764,62.070453,0.0,7.526881,30.797302,53.473621,48.370073,67.60566,60.025044,76.66016,66.79589,79.998807,16.498129,286.448225,-54.179288,276.097312
109,-4.051574,2.804123,-0.115368,0.119363,0.0,-21.293381,-30.363327,20.794303,-38.030205,25.414489,-40.900864,15.030418,-40.88411,-16.073845,0.0,-8.163145,16.361019,36.510042,32.904979,48.094827,44.538077,54.787917,53.159942,58.380902,0.0,69.876411,28.657642,93.472297,20.92218,93.620041,12.966453,80.874321,5.753002,62.104271,0.0,7.925863,30.64116,53.391074,48.146611,67.217954,59.808436,76.260487,66.646924,80.003908,12.647604,289.141247,-54.093607,276.105574
110,-2.591996,2.383949,-0.184971,0.032728,0.0,-17.187172,-27.745239,23.21315,-35.409095,27.68882,-38.573078,18.040238,-38.817478,-15.697483,0.0,-10.898627,13.88763,33.502006,30.003549,46.081096,41.800879,52.778423,50.664607,57.179646,0.0,70.023525,29.361751,93.748638,21.617592,93.757061,13.440227,80.56232,5.94144,61.757114,0.0,8.218585,30.724523,53.503225,48.08822,67.09806,59.669374,76.073902,66.529882,80.012368,10.255411,291.461868,-54.078775,276.074974
111,-5.766529,4.431913,-0.035317,0.168813,0.0,-8.866985,-22.029842,29.024128,-28.677589,33.560429,-31.07238,24.746098,-30.829365,-5.10403,0.0,-16.133209,10.861626,28.560208,26.899789,42.220486,39.031213,49.75705,48.148303,53.928562,0.0,70.140553,29.749741,93.962666,22.016796,93.794506,13.725872,80.324261,6.103981,61.531826,0.0,8.354695,30.710506,53.451527,48.048564,66.958454,59.633151,75.866396,66.517804,79.99325,4.670894,295.876432,-53.93208,276.226438
112,3.990349,-1.919721,-0.174705,0.230836,0.0,-13.506592,-24.137798,25.147831,-31.196423,28.037212,-34.509155,19.730633,-35.234516,-10.263931,0.0,-15.202359,10.607769,29.304139,27.170885,43.558827,39.728757,51.055154,49.130035,55.932448,0.0,70.364101,30.010162,94.123592,22.314285,93.994503,13.998459,80.360996,6.35384,61.657574,0.0,8.480394,30.603096,53.12772,48.014737,66.769856,59.653602,75.579095,66.588791,79.890719,8.815121,293.960944,-53.952907,276.461507
113,-3.165161,2.217531,-0.29052,0.177804,0.0,-7.149696,-21.671505,29.042324,-28.69479,32.519978,-31.663113,23.37759,-31.936329,-7.718227,0.0,-19.247159,9.281334,27.618872,26.090759,42.713303,39.029323,50.965369,48.660387,55.287503,0.0,70.408367,30.43626,94.528828,22.735989,94.459843,14.310734,80.529774,6.541283,61.813488,0.0,8.526386,30.47573,52.850411,47.947614,66.774178,59.646316,75.545726,66.646948,79.903193,5.7768,296.175162,-54.116587,276.635998
114,2.314773,-2.792292,-0.000355,0.216818,0.0,-8.622905,-22.82793,26.39423,-30.723747,28.838025,-34.952911,19.529583,-36.444053,-12.795398,0.0,-14.910637,10.611055,30.209438,27.63489,45.293705,40.525017,53.085076,50.139927,58.187944,0.0,70.403092,30.516083,94.610619,22.794102,94.686219,14.295342,80.435738,6.473832,61.625725,0.0,8.571365,30.326109,52.876013,47.842404,66.984278,59.580663,75.618949,66.615603,79.818113,8.192779,293.370878,-54.015736,276.840824
115,0.414048,-2.161585,0.007256,0.110718,0.0,-7.713158,-24.001351,25.876682,-31.827885,28.853016,-35.848526,19.571262,-37.119507,-9.216522,0.0,-11.468978,12.303325,32.782231,29.662823,47.84559,42.700039,55.624388,52.378021,59.733828,0.0,70.55706,30.501388,94.709633,22.710674,94.771934,14.160873,80.282432,6.310638,61.337173,0.0,8.578405,30.142871,53.081124,47.716507,67.184165,59.489866,75.695743,66.525312,79.867057,8.678604,291.196782,-53.936703,276.939031
116,6.377849,-4.017408,-0.09676,-0.031739,0.0,-14.55075,-29.919342,19.662209,-39.185142,22.128388,-44.306911,11.52681,-46.455825,-20.362255,0.0,-7.09385,14.135447,37.027585,31.854901,51.559519,45.068242,59.052018,54.919334,62.751645,0.0,70.783642,30.563622,94.85487,22.74741,94.917996,14.181713,80.269444,6.36311,61.315991,0.0,8.702745,30.215526,53.559602,47.816493,67.551604,59.581181,75.947659,66.572007,80.010206,15.108461,287.151877,-53.981455,276.879795
117,-4.771866,2.181988,-0.109348,-0.00909,0.0,-7.999546,-27.906463,23.562699,-36.444992,28.199158,-40.458744,18.535378,-41.383426,-11.509311,0.0,-7.378174,12.885619,35.569225,30.417265,50.324745,43.684131,57.884861,53.696553,60.800406,0.0,70.940597,30.706249,95.09333,22.884189,95.108757,14.32426,80.29525,6.550506,61.345001,0.0,8.778389,30.393763,54.021977,47.974352,67.961293,59.679698,76.257696,66.594868,80.297914,10.380334,289.30031,-54.047064,276.83715
118,-1.195781,1.625407,-0.111901,0.067814,0.0,-7.110295,-26.622322,24.114567,-35.131531,28.659725,-39.308453,20.227306,-40.482594,-8.21648,0.0,-9.253658,11.50956,34.094193,28.883557,48.756062,42.221239,56.16484,52.547575,59.409206,0.0,71.166001,30.735993,95.124024,22.849652,94.932015,14.287869,80.164719,6.57613,61.231682,0.0,8.856084,30.664786,54.479857,48.239607,68.262944,59.862542,76.525248,66.666326,80.46569,9.221146,290.897519,-54.122372,276.876766
119,-5.515778,3.142997,-0.186161,0.144743,0.0,-1.536037,-22.751713,30.178723,-30.086849,35.404484,-33.12315,28.381268,-33.170128,3.855641,0.0,-11.846101,9.831962,31.310917,27.080334,46.639468,40.432292,54.286121,50.881215,57.424425,0.0,71.361363,30.92981,95.337468,22.921692,94.846219,14.280453,80.032025,6.542736,61.135746,0.0,8.799348,30.876133,54.978504,48.432281,68.648958,59.985968,76.759146,66.718554,80.596972,3.73312,294.005877,-54.280781,276.98687
120,-1.192074,-2.113952,-0.248828,0.133258,0.0,-2.261593,-19.780574,32.199784,-28.071533,36.300705,-32.993179,28.375626,-35.327236,3.322014,0.0,-10.811336,10.149743,32.658978,27.634174,47.990926,41.263701,55.320774,52.041222,58.792691,0.0,71.417793,31.023296,95.208229,22.97644,94.665298,14.320518,79.933822,6.530021,61.044616,0.0,8.667485,30.919839,55.08443,48.467626,68.807656,60.016065,76.913349,66.803065,80.761832,2.564123,291.85481,-54.506532,277.083013
