takenoko1/special-research/HandMotion_SimilarSearch_自分用/NewProject/handData/test_key/d4_feature_d3/34.csv
frame,vel_0x_L,vel_0y_L,vel_0x_R,vel_0y_R,posFromWrist_0x_L,posFromWrist_1x_L,posFromWrist_2x_L,posFromWrist_3x_L,posFromWrist_4x_L,posFromWrist_5x_L,posFromWrist_6x_L,posFromWrist_7x_L,posFromWrist_8x_L,posFromWrist_9x_L,posFromWrist_0y_L,posFromWrist_1y_L,posFromWrist_2y_L,posFromWrist_3y_L,posFromWrist_4y_L,posFromWrist_5y_L,posFromWrist_6y_L,posFromWrist_7y_L,posFromWrist_8y_L,posFromWrist_9y_L,posFromWrist_0x_R,posFromWrist_1x_R,posFromWrist_2x_R,posFromWrist_3x_R,posFromWrist_4x_R,posFromWrist_5x_R,posFromWrist_6x_R,posFromWrist_7x_R,posFromWrist_8x_R,posFromWrist_9x_R,posFromWrist_0y_R,posFromWrist_1y_R,posFromWrist_2y_R,posFromWrist_3y_R,posFromWrist_4y_R,posFromWrist_5y_R,posFromWrist_6y_R,posFromWrist_7y_R,posFromWrist_8y_R,posFromWrist_9y_R,posFromBody_0x_L,posFromBody_0y_L,posFromBody_0x_R,posFromBody_0y_R
6,-1.381966,-4.315465,-0.160205,-0.035495,0.0,0.399937,-12.334613,36.194733,-21.579563,39.716996,-28.58028,27.395073,-33.658996,1.45427,0.0,13.699341,11.983581,39.103757,28.778384,51.505932,41.96868,56.696944,52.673991,60.236835,0.0,67.786136,25.959011,89.999645,15.74073,87.828975,6.374439,74.709102,-1.491692,54.677272,0.0,17.3635,30.970141,57.471665,49.361118,71.089026,61.442611,79.481463,67.874818,82.663832,-5.579236,287.641922,-52.063591,273.005061
7,-1.25101,2.914373,-0.054394,0.122773,0.0,4.046413,-11.307782,38.17979,-20.282124,42.002117,-26.675332,27.942981,-31.027153,1.343925,0.0,7.181795,10.467547,36.130511,27.713498,48.413261,41.339356,53.988829,52.405079,57.03557,0.0,67.768844,25.848507,90.009819,15.686805,87.930839,6.399021,74.884735,-1.36932,54.967071,0.0,17.331253,31.125962,57.232443,49.443814,70.878283,61.473424,79.382427,67.885191,82.614801,-7.168413,290.604618,-52.456152,273.176157
8,4.455448,-0.347433,-0.127247,0.047313,0.0,-1.578541,-16.377789,33.499717,-25.364102,37.63227,-31.070996,23.611541,-34.320225,-3.370331,0.0,7.42981,12.032006,36.989435,29.171129,49.048834,42.488075,54.418539,53.088953,57.325797,0.0,67.786754,25.643555,90.210628,15.476898,88.187107,6.282966,75.152424,-1.343342,55.120434,0.0,17.385211,31.182846,57.227453,49.513938,70.771702,61.534742,79.312933,67.897715,82.557164,-2.945125,290.326963,-52.815559,273.293248
9,-0.992352,3.906615,-0.132431,-0.032444,0.0,1.141926,-15.540264,34.666065,-23.773979,38.475369,-28.502689,23.252506,-30.534382,-5.135742,0.0,2.097588,10.571844,34.055217,27.595308,45.60121,40.759903,51.138184,51.3418,53.569866,0.0,67.699665,25.490513,90.382244,15.325836,88.424824,6.225757,75.27689,-1.266461,55.105076,0.0,17.504056,31.291774,57.170927,49.578356,70.891758,61.555886,79.348168,67.879252,82.685284,-4.094902,294.305199,-53.105415,273.332425
10,5.692692,-0.056119,-0.075806,0.09391,0.0,-10.987587,-20.995983,29.599937,-29.186165,32.352745,-33.848236,19.148277,-35.914455,-7.376289,0.0,3.589762,11.564729,36.070367,27.264203,46.135598,39.239361,50.74066,48.711899,52.554566,0.0,67.708225,25.247555,90.457432,15.201027,88.605526,6.319004,75.457592,-0.930095,55.469387,0.0,17.501784,31.254131,57.040733,49.535143,70.758414,61.561629,79.198707,67.920526,82.718925,1.499949,294.294726,-53.279062,273.471981
11,0.027901,3.252938,-0.075611,-0.015252,0.0,-9.164749,-21.025406,29.295982,-28.10812,32.147964,-31.604702,18.402191,-32.538048,-12.927624,0.0,-3.158904,10.188793,32.055442,25.752972,42.341788,37.650609,47.900684,47.065806,50.029937,0.0,67.568092,25.158176,90.304413,15.159977,88.518082,6.320549,75.336113,-0.912735,55.357452,0.0,17.659086,31.264159,56.915268,49.527473,70.807765,61.58434,79.150418,67.995095,82.684789,1.465491,297.581478,-53.417032,273.490543
12,2.903663,-2.2459,-0.214771,0.038495,0.0,-15.572101,-24.51709,25.628792,-31.803589,28.670243,-35.429661,16.999947,-36.415683,-13.238571,0.0,3.437609,11.668951,35.314159,26.064528,45.053311,36.889042,49.733511,45.436287,51.880029,0.0,67.484905,25.106701,90.359104,15.241367,88.70898,6.552257,75.621128,-0.545197,55.80637,0.0,17.616689,31.120861,56.841859,49.423523,70.667764,61.571706,79.066635,68.041359,82.645479,4.329889,295.362804,-53.671068,273.556264
13,1.032051,-0.218707,0.095936,0.170468,0.0,-16.724601,-26.089542,24.140648,-33.343586,27.456505,-36.584404,16.379563,-37.213565,-13.237186,0.0,1.367401,11.304006,35.275367,26.208431,45.56474,37.524675,50.409541,46.492577,52.520392,0.0,67.277343,25.048427,90.262825,15.206256,88.657356,6.504261,75.560783,-0.605175,55.886695,0.0,17.393547,30.753558,56.867869,49.070768,70.688895,61.296571,78.966847,67.877757,82.518459,5.32901,295.17743,-53.608062,273.760065
14,-0.416805,-0.427313,-0.141541,0.047449,0.0,-14.74641,-27.408222,23.782711,-34.733345,28.907169,-37.69091,18.883816,-37.8941,-10.060913,0.0,2.079297,10.565458,34.000641,25.653134,45.623501,37.287566,50.752404,46.542459,53.06329,0.0,67.313828,25.152157,90.425972,15.294434,88.736733,6.530983,75.662338,-0.663654,55.972778,0.0,17.25656,30.409361,56.952936,48.807662,70.746089,61.116742,78.935194,67.769484,82.404109,4.894421,294.77629,-53.767387,273.833687
15,-7.27026,0.953673,-0.101051,0.016068,0.0,-2.027664,-21.293644,31.699036,-28.510437,37.325157,-31.626228,26.853264,-31.871956,-2.205665,0.0,-4.209278,9.849957,31.545705,26.064034,45.321197,38.574396,51.126637,48.36149,54.169154,0.0,67.203369,25.220409,90.568451,15.305568,88.851768,6.470237,75.71331,-0.818241,55.901298,0.0,17.162514,30.10361,56.993567,48.626436,70.860376,61.019003,78.957893,67.735916,82.297404,-2.380995,295.756793,-53.873594,273.876585
16,-4.730392,-1.276109,-0.071182,0.121599,0.0,4.914482,-18.891426,35.441963,-26.585987,42.701752,-29.700497,32.648849,-29.698975,7.607494,0.0,1.026317,8.675612,33.520038,25.635943,47.382647,38.950431,52.694035,49.335961,55.005921,0.0,67.127906,25.090438,90.596534,15.177635,88.931259,6.370491,75.774833,-0.911957,55.898803,0.0,16.916772,29.703714,56.907549,48.321018,70.784546,60.783783,78.873134,67.558137,82.193849,-7.115621,294.50251,-53.94901,274.02001
17,-0.464241,-1.752835,0.089607,0.057958,0.0,7.736526,-18.287201,36.309494,-26.256397,43.84362,-29.555672,33.305855,-29.922638,7.952213,0.0,-2.46788,9.562286,33.819058,27.775051,48.891371,42.164799,54.727192,53.41544,57.596079,0.0,67.036674,24.983196,90.571014,15.003822,88.886123,6.134445,75.551697,-1.205223,55.635177,0.0,16.787875,29.282614,57.006869,47.931337,70.896315,60.439822,78.792242,67.300157,82.07603,-7.57675,292.774045,-53.856291,274.102338
18,-4.571881,2.981619,-0.132443,-0.055204,0.0,16.417798,-14.922363,40.482937,-22.18547,49.42606,-24.915973,37.943654,-24.620956,12.65062,0.0,-4.982431,7.469404,30.289565,25.661322,45.418613,40.193639,51.715031,51.709807,54.396839,0.0,67.024647,24.993107,90.665257,15.019444,88.942875,6.157254,75.478283,-1.168007,55.585499,0.0,16.742228,29.312278,57.022627,47.964484,70.989162,60.455765,78.820016,67.296377,82.089577,-12.128993,295.777483,-53.969096,274.068953
19,-0.057323,0.674018,-0.141655,-0.03174,0.0,14.552067,-15.246037,40.546989,-22.431484,48.688019,-25.230858,38.067581,-24.944973,13.235962,0.0,-6.370938,7.385102,30.983405,25.253424,45.900489,39.408298,51.481392,50.472008,54.101129,0.0,66.972164,24.94019,90.654293,15.03233,88.94299,6.224591,75.262677,-1.066189,55.452748,0.0,16.58206,29.272079,56.81128,47.865387,70.961264,60.343787,78.773136,67.222857,82.010463,-12.157677,296.472926,-54.082112,274.058638
20,-0.070587,0.180805,-0.140236,-0.043547,0.0,14.21196,-15.006592,40.708465,-22.237187,48.280746,-25.180298,37.424652,-25.109951,12.874512,0.0,-7.125121,7.029655,30.690869,24.814687,45.577337,38.924693,51.080558,49.927851,53.607163,0.0,67.122677,24.862061,90.811787,15.059704,89.125363,6.349457,75.399136,-0.832798,55.762814,0.0,16.363156,29.282108,56.695709,47.772676,70.828464,60.198489,78.656514,67.061195,82.027272,-12.171884,296.6648,-54.165968,274.02616
21,8.042427,-2.178246,0.007805,-0.184991,0.0,1.784992,-21.108273,33.678543,-29.248009,39.726036,-33.016949,28.932243,-33.878838,4.561306,0.0,-8.087649,9.126872,32.229059,26.825565,47.383796,40.694411,52.593345,51.545379,55.732378,0.0,67.295986,24.875141,90.947697,15.083039,89.146054,6.365204,75.30138,-0.818104,55.749745,0.0,16.341357,29.398642,56.816801,47.797943,70.997684,60.178987,78.673124,67.038433,82.079858,-4.039993,294.490221,-54.068699,273.844836
22,-2.781967,3.29189,-0.10223,-0.122773,0.0,6.189548,-19.172653,36.285484,-26.93581,43.01889,-30.161007,32.192711,-30.374337,8.412494,0.0,-12.01621,6.553361,27.983471,24.055145,43.814968,37.863191,49.557065,48.688841,52.235896,0.0,67.516251,24.846474,91.022484,15.066204,89.076805,6.383126,75.180817,-0.7626,55.668183,0.0,16.303492,29.52265,56.839711,47.883728,70.993473,60.2315,78.676558,67.06075,82.070608,-6.720737,297.765757,-54.069706,273.705709
23,-1.632305,0.498894,-0.11689,-0.19024,0.0,6.510154,-17.398682,38.684429,-25.22152,44.459896,-28.727189,34.150806,-29.210873,10.372924,0.0,-14.077155,5.974315,27.320741,23.210609,44.109221,36.769369,49.766658,47.250687,52.53609,0.0,67.814942,24.851166,91.099434,15.110333,89.096352,6.470604,75.281937,-0.661754,55.804253,0.0,16.333045,29.605741,56.849195,47.917369,70.935452,60.250173,78.738728,67.096219,82.176546,-8.227323,298.237089,-54.060877,273.487907
24,-2.626431,-1.642573,0.083714,-0.005101,0.0,10.118271,-14.472965,41.912979,-22.462486,46.717461,-26.308742,35.866837,-27.256107,12.308132,0.0,-11.932835,7.092973,28.502039,24.491535,45.632097,38.050752,51.219743,48.411705,54.360209,0.0,68.012592,24.709224,91.06818,14.981426,89.080387,6.401779,75.436901,-0.623657,56.087368,0.0,16.260625,29.642989,56.905969,47.973488,70.792315,60.328485,78.636902,67.174247,82.134964,-10.706749,296.565959,-53.830158,273.454249
25,5.142483,-3.938244,-0.19075,0.0227,0.0,2.339172,-18.546627,36.663654,-27.137066,41.454105,-31.516892,30.758503,-33.117806,6.595962,0.0,-6.512989,9.461608,32.734536,27.033491,48.642195,40.774958,54.304893,51.409095,57.312126,0.0,68.293567,24.88005,91.066532,15.224899,89.210346,6.718803,75.624859,-0.286778,56.302013,0.0,16.192341,29.534493,56.74128,47.979934,70.661095,60.425692,78.493863,67.331031,81.986083,-5.390482,292.603898,-53.847124,273.453132
26,-6.578613,2.473055,-0.150112,0.105161,0.0,11.706996,-13.703866,41.980213,-21.524071,48.968456,-25.19703,38.032573,-26.094304,15.388149,0.0,-6.661968,7.199949,29.245612,24.759037,45.778705,38.85783,51.823984,49.921836,54.196459,0.0,68.447937,25.064117,91.064941,15.548355,89.547363,7.132335,75.986366,0.166797,56.742713,0.0,15.993591,29.42748,56.511198,47.947601,70.437027,60.431657,78.261644,67.362351,81.838636,-11.789068,295.060555,-53.817209,273.541895
27,-4.168934,0.526595,-0.044552,0.059552,0.0,15.798271,-8.214375,47.442627,-15.937214,52.662437,-20.553372,41.244529,-22.497082,18.074958,0.0,-6.691707,7.026283,30.435086,24.511554,46.952667,38.493638,52.348665,49.380606,55.150799,0.0,68.570263,25.227413,91.14339,15.855308,89.9183,7.533771,76.411434,0.622879,57.229396,0.0,15.741761,29.454847,56.320834,48.044834,70.308105,60.555121,78.114728,67.483542,81.765091,-15.758022,295.577378,-53.661781,273.591675
28,4.339233,-3.957584,0.184181,0.109323,0.0,10.434013,-10.488968,43.725792,-19.080254,48.007439,-24.856155,36.490013,-28.288044,12.921341,0.0,-2.504461,9.400006,34.509724,27.189818,50.180719,41.50901,55.751125,52.805025,58.75916,0.0,68.627483,25.394829,91.015171,16.203232,90.092342,8.009422,76.54517,1.146343,57.499935,0.0,15.532105,29.469606,56.120491,48.131099,70.221605,60.669965,77.839654,67.608945,81.468788,-11.222345,291.611588,-53.281156,273.692792
29,1.645248,-0.843745,0.421486,-0.009745,0.0,7.247727,-12.06657,40.292931,-20.708358,47.523789,-26.193546,35.378724,-29.379741,12.071229,0.0,2.550897,8.167307,33.979905,26.615872,50.056724,41.868656,55.595093,54.186542,58.010399,0.0,68.505443,25.551716,91.020458,16.492813,90.242969,8.372829,76.655376,1.484562,57.478718,0.0,15.35182,29.32784,55.858793,48.044822,70.207687,60.6146,77.737816,67.590729,81.368889,-9.391943,290.764351,-52.674516,273.679555
30,2.571076,1.5827,0.956188,0.123773,0.0,3.411163,-15.018952,37.535065,-23.25491,45.154999,-27.884159,33.795868,-30.127304,11.25499,0.0,4.022644,7.28067,32.986415,25.347457,48.762485,40.267839,53.974405,52.281332,56.086738,0.0,68.275452,25.409283,90.74572,16.363998,89.98233,8.226459,76.438362,1.346775,57.256119,0.0,15.082118,29.17129,55.849456,47.826781,70.221296,60.373514,77.603361,67.356361,81.1774,-6.662195,292.349632,-51.559656,273.805909
31,3.551216,0.539847,1.170147,0.034753,0.0,0.638512,-16.755924,35.972534,-25.072105,41.861092,-29.673855,30.686279,-31.871853,6.531876,0.0,0.933542,7.765274,33.239493,25.535969,48.413582,39.869301,53.554897,51.204429,55.713568,0.0,68.116779,25.30117,90.489361,16.23048,89.601345,8.061527,76.192532,1.160374,56.960781,0.0,14.935029,28.951903,55.68972,47.636009,70.142849,60.217013,77.583687,67.22093,81.080502,-2.942802,292.901548,-50.221332,273.852731
32,5.233864,-0.065567,1.510425,0.063467,0.0,-3.569161,-21.857689,30.406975,-30.175083,37.375419,-33.915825,27.246139,-34.958096,4.0765,0.0,1.35762,7.57354,32.248362,25.403539,47.397109,39.799721,53.139342,51.268378,55.330814,0.0,67.942086,25.538876,90.326363,16.384861,89.274148,8.010876,75.801339,0.883965,56.477051,0.0,14.929027,28.6412,55.466616,47.33384,70.060857,59.957514,77.470326,67.045485,80.910577,2.489061,292.853799,-48.512908,273.934016
33,-1.265305,3.591453,1.618584,0.072507,0.0,0.079811,-20.137607,32.574074,-27.813148,39.804955,-30.610405,30.196724,-30.338287,7.708306,0.0,-2.034219,5.509187,29.260594,23.137151,44.6629,37.149999,50.020415,48.104954,52.263264,0.0,67.60936,25.804161,90.38047,16.6329,89.306214,8.112946,75.731095,0.812485,56.310425,0.0,14.737922,28.298028,55.200472,47.04391,69.886424,59.758826,77.29141,66.972472,80.721226,1.440662,296.474228,-46.677418,274.035499
34,6.233975,-2.558159,2.029106,0.132961,0.0,-5.661038,-22.624512,29.754101,-30.72979,34.100452,-34.289704,25.075481,-34.893849,1.599621,0.0,-3.504126,8.989811,32.687457,26.265624,46.821262,39.578248,52.681203,49.704648,55.426725,0.0,67.683014,26.353146,90.327439,17.112591,89.260002,8.407769,75.638329,0.907574,56.335419,0.0,14.574481,28.084051,54.999388,46.924003,69.49016,59.733953,76.974828,67.070149,80.45455,7.942629,293.941412,-44.38032,274.193803
35,-3.255295,0.467649,2.367874,0.114263,0.0,5.420528,-17.383884,36.02496,-25.682613,40.629948,-29.375748,30.219006,-30.034882,7.200794,0.0,-7.08649,8.305467,31.155429,26.151632,45.554464,40.059468,51.939728,50.734262,54.799736,0.0,67.648842,27.318593,90.296174,18.020085,89.177491,9.032238,75.429932,1.142006,56.098023,0.0,14.338088,27.785142,54.59375,46.712149,69.104726,59.614564,76.655739,67.144891,80.253071,5.033169,294.411667,-41.666611,274.310672
36,-0.292168,-3.496815,2.771004,0.235751,0.0,7.655285,-12.349502,39.498082,-21.11895,42.560269,-26.537155,31.82095,-29.438186,9.265927,0.0,-3.782769,9.693518,33.68007,27.911618,48.135224,42.303614,54.860066,53.473189,58.52583,0.0,67.582489,28.502323,90.353897,19.15115,89.021828,9.797493,75.158638,1.430844,55.834969,0.0,14.066411,27.473709,54.287961,46.398494,68.579921,59.344925,76.097404,67.095293,79.868761,5.12998,290.897713,-38.506628,274.529284
37,7.487034,-3.155459,3.179077,0.248793,0.0,-0.855537,-15.154724,34.406181,-23.938476,36.539566,-29.659504,25.467613,-33.170734,1.947739,0.0,1.930578,12.531617,36.838925,30.755052,50.810981,45.069675,57.285327,56.065707,61.05509,0.0,67.353058,29.435681,89.998719,20.08041,88.649849,10.465199,74.755257,1.702263,55.340424,0.0,13.684163,27.331979,53.900218,46.185739,67.945435,59.125451,75.580787,67.043039,79.541928,13.042116,287.719962,-34.902449,274.755785
38,3.902504,0.180398,3.640148,0.374825,0.0,-0.361633,-14.249233,34.014404,-23.279411,36.223709,-29.466717,24.095307,-33.698696,-0.454101,0.0,2.631753,12.312242,36.33288,30.142426,49.820171,44.492358,56.472493,55.522624,60.316543,0.0,67.433407,30.50655,89.48528,21.140282,88.10368,11.253251,74.249325,2.04237,54.732365,0.0,13.3073,26.917473,53.162448,45.709087,66.917291,58.720726,74.933124,66.888009,79.32101,17.450941,287.87431,-30.75598,275.10456
39,-1.593521,4.70611,3.732731,0.394091,0.0,6.566872,-8.360024,40.503342,-16.939819,41.586021,-23.156124,29.32045,-27.4617,4.150864,0.0,-3.531234,9.09428,32.478136,26.137011,45.65676,40.083959,51.983448,50.782847,56.926112,0.0,67.267502,31.530236,88.839615,22.291798,87.524758,12.171444,73.826409,2.498326,54.297432,0.0,12.932722,26.480528,52.371228,45.173316,66.052452,58.25372,74.181264,66.697694,78.9274,16.459494,292.588676,-26.421175,275.506907
40,5.480232,0.075373,3.616368,0.324004,0.0,-0.520088,-10.028732,37.409203,-17.632095,38.009743,-23.446941,27.175507,-27.468956,2.195641,0.0,1.481874,10.246567,32.810859,25.960305,45.445042,38.637603,51.163341,48.163506,56.950565,0.0,67.336544,32.1996,88.25552,23.202495,87.152309,13.04187,73.713054,3.155708,54.313945,0.0,12.452156,26.282149,51.544613,44.893933,65.056826,58.025677,73.36401,66.690507,78.279824,22.612776,292.745316,-22.131757,275.912178
41,3.918434,5.46806,3.542759,0.309592,0.0,-9.162471,-13.784271,33.249573,-18.960422,36.873619,-22.056644,29.169365,-23.228073,6.881607,0.0,9.069839,9.466104,31.290564,20.667159,40.873722,29.21349,43.483628,35.025995,46.811308,0.0,67.313987,32.612526,87.510658,23.779655,86.437339,13.575325,73.418907,3.487644,54.058273,0.0,11.950594,26.125772,50.615071,44.670409,64.196123,57.838005,72.731562,66.608255,77.744979,27.308223,298.346041,-17.811985,276.354435
42,0.543068,0.765224,3.018734,0.276061,0.0,-5.266468,-11.971481,35.398339,-16.866199,38.878441,-19.663742,31.477593,-20.407688,10.023972,0.0,10.380812,8.351805,30.101572,19.128487,39.606652,27.511908,42.224067,33.219227,46.242426,0.0,67.651828,33.084903,87.150501,24.451606,86.13882,14.248237,73.497768,4.026077,54.185405,0.0,11.35248,25.73709,49.714318,44.244912,63.470248,57.52109,72.072228,66.44106,77.370117,28.800876,299.290912,-13.843666,276.810143
43,0.259346,-1.726072,2.775215,0.278915,0.0,-3.594715,-9.755104,37.340035,-14.172409,39.523407,-16.997692,33.281067,-17.872455,13.428772,0.0,13.506309,8.472156,29.996547,19.479995,40.066952,28.077863,43.053894,34.170096,47.701538,0.0,67.734112,33.427402,86.749912,24.903339,85.520633,14.615227,73.186924,4.243927,53.921299,0.0,10.817412,25.432734,49.119105,43.829676,62.964585,57.118563,71.433765,66.120859,76.769322,30.161825,297.719114,-9.966848,277.243332
44,6.843544,-1.806682,2.815075,0.289683,0.0,-13.198711,-16.024704,29.127983,-19.346283,33.101693,-20.648117,28.425751,-20.003242,11.491791,0.0,23.035708,9.769237,31.593154,20.21117,41.133296,28.309452,43.764777,34.027639,47.792386,0.0,67.91098,33.551696,86.221527,25.102958,84.662338,14.81266,72.594841,4.366172,53.352241,0.0,10.290756,25.171963,48.682592,43.376318,62.440065,56.636379,70.836874,65.718543,76.313308,38.178377,295.959999,-5.978765,277.580582
45,4.461411,5.255874,3.405189,-0.051389,0.0,-21.182934,-19.860466,23.436607,-21.403244,29.671692,-20.829666,27.808296,-18.536202,13.110191,0.0,25.687357,7.327168,31.988529,12.687944,37.626663,16.327699,36.990177,18.369587,36.781819,0.0,67.478302,33.606835,84.908295,25.090279,82.807732,14.654354,70.911736,3.917679,51.938645,0.0,10.215803,24.738907,49.020664,42.71444,63.023768,55.911528,71.116085,65.063408,77.132576,43.880882,301.178819,-1.332482,277.492139
46,4.478279,1.72611,5.665444,-1.887067,0.0,-25.309811,-21.765289,11.638161,-22.387116,25.597183,-20.286736,25.850143,-16.504555,13.050407,0.0,25.808905,6.629969,31.937424,9.534683,37.902563,10.868492,35.409514,10.983694,32.413371,0.0,66.783073,32.929802,82.021133,23.634658,78.018425,12.153831,63.65158,0.01102,42.580833,0.0,10.613105,24.837855,51.885141,41.746069,66.710328,54.166547,74.74917,62.592724,78.545177,49.660166,302.831835,5.633967,275.531978
47,2.024918,-4.670727,6.477539,-1.416345,0.0,-35.08667,-24.763047,-5.515549,-23.137368,8.54766,-19.379517,12.3693,-14.320084,4.991432,0.0,25.893553,13.06015,34.716526,15.893753,40.30479,16.716515,37.360049,16.246533,34.737064,0.0,56.474395,32.526031,70.484115,23.38005,58.537445,11.395591,42.145294,-1.759358,24.547474,0.0,20.530925,24.524683,55.447053,37.109145,68.645735,46.310129,73.266049,52.317518,73.799498,52.76171,298.059986,13.188132,274.014511
48,8.701561,-5.40778,10.955932,-13.972315,0.0,-52.405255,-32.342423,-33.797734,-27.665795,-18.934147,-20.558899,-11.52855,-12.449341,-11.272408,0.0,32.271543,19.088867,42.502796,21.881876,47.847479,21.900463,45.217282,20.214837,41.813735,0.0,55.979531,34.773445,66.964783,25.991272,53.911858,14.539238,37.78949,1.62608,22.521962,0.0,19.441882,20.497185,49.719999,31.371593,60.670508,39.664401,64.62724,45.416353,64.216353,62.45794,292.572955,25.138733,259.962945
49,4.677429,-5.581632,9.883564,-26.707658,0.0,-59.542923,-34.07769,-55.865078,-27.424645,-41.864079,-18.943726,-31.713787,-9.908341,-23.389,0.0,34.021537,23.571367,48.049354,27.273563,54.210946,27.619341,53.050532,25.870026,49.60229,0.0,53.8904,35.570423,64.943013,29.090824,52.17191,19.807492,37.673115,8.33741,25.509178,0.0,9.638134,16.746032,38.050011,27.795713,48.679665,36.716634,54.084888,43.334253,54.481091,67.961214,287.12459,35.848142,233.388554
50,2.379684,-10.544303,7.921818,-35.122894,0.0,-61.680782,-32.268997,-74.588333,-25.001404,-63.835064,-16.580475,-52.755867,-7.98809,-38.16259,0.0,33.099777,29.752028,53.069304,39.398677,63.638431,44.608485,67.424064,46.534345,67.905224,0.0,47.536102,40.061531,60.61116,37.217743,49.771202,30.633614,38.119812,21.035076,29.34264,0.0,-3.340617,11.654162,22.151009,22.670429,32.06397,31.855951,39.874261,39.11754,42.272739,71.087396,276.739282,44.516458,198.424655
51,3.247948,-10.503572,5.091431,-40.909487,0.0,-65.139038,-32.838593,-87.064018,-25.368462,-86.868679,-17.617607,-75.799141,-9.986183,-55.974289,0.0,32.399811,35.584477,59.40623,51.712203,72.282858,62.307623,81.710232,68.440439,87.316577,0.0,37.853737,42.703171,54.750778,45.489738,48.270767,43.921303,42.88401,38.796455,40.592182,0.0,-17.474965,4.569308,2.809063,15.496642,10.955338,25.044232,19.762626,33.30288,26.194963,75.027918,266.343665,50.300463,157.623123
52,2.132126,-0.2966,10.58155,-38.483481,0.0,-65.595749,-31.653443,-92.73951,-23.587601,-92.619496,-15.340142,-81.37444,-7.526779,-58.584503,0.0,35.656911,33.751577,62.61456,50.295884,75.268689,61.146703,86.411859,67.193303,91.185018,0.0,40.68306,40.33239,55.958176,42.068825,56.337548,39.761902,52.377228,34.097924,43.03386,0.0,-38.032171,-3.377309,-24.184443,6.535664,-19.844242,15.056029,-10.079217,22.649687,-2.93609,77.929854,266.191848,61.651823,119.284425
53,-0.481705,0.082733,-0.758743,-39.830683,0.0,-65.967716,-31.165352,-92.530529,-23.191681,-92.657948,-15.373375,-81.348335,-8.139175,-58.374916,0.0,35.307416,33.733336,62.161732,50.314298,74.151081,61.214974,85.856995,67.257882,90.911773,0.0,27.334602,38.327843,49.862068,44.97464,53.237572,46.632683,54.09549,44.283531,48.215149,0.0,-49.361556,-6.618168,-35.403999,2.567021,-31.775656,10.259004,-21.590587,17.101011,-12.711192,78.041765,266.609577,61.486696,79.788738
54,-1.386154,-0.279704,-1.230949,-29.048536,0.0,-65.730332,-30.489235,-92.334973,-22.45221,-92.535633,-14.562905,-80.769631,-7.337608,-58.004677,0.0,35.277652,34.090722,62.657599,50.696359,74.272222,61.484453,86.182221,67.353261,90.848552,0.0,16.608352,36.205009,43.455551,45.848831,48.705619,49.837921,52.830162,49.476242,49.002868,0.0,-51.677907,-8.397234,-42.906607,-1.303909,-41.367329,3.846643,-32.888714,7.901577,-23.776415,77.201002,266.896634,60.801138,51.306963
55,-0.851212,-0.008584,-0.248841,-22.475334,0.0,-64.576561,-29.931358,-92.204292,-21.833656,-92.387169,-13.912903,-80.506748,-6.694931,-57.762726,0.0,35.269427,34.539488,62.705271,51.145866,74.304357,61.816856,86.25489,67.523038,90.712677,0.0,10.777497,30.744324,40.52369,41.751526,45.822876,47.319809,51.486145,48.513886,49.060479,0.0,-50.990798,-8.94133,-47.119714,-3.572484,-47.082732,-0.425893,-40.738433,1.216267,-33.00759,76.821109,267.71653,61.023616,29.660109
56,-0.061386,0.105322,-0.499923,-16.834669,0.0,-63.653354,-29.698128,-92.283062,-21.469391,-92.470894,-13.456672,-80.383472,-6.184913,-57.653183,0.0,35.306094,34.856205,62.639494,51.427089,74.418842,62.051025,86.420467,67.717799,90.6242,0.0,8.675422,28.304741,41.242378,39.235176,45.937065,44.922134,52.174347,46.233741,50.386482,0.0,-49.113592,-8.034081,-49.893432,-3.459295,-50.985284,-1.637084,-45.66887,-1.891162,-38.728284,77.183252,269.139196,60.947222,14.142784
57,0.928322,0.383038,-7.606224,-21.246755,0.0,-63.055859,-29.24826,-92.944897,-21.088394,-93.30479,-13.191536,-80.881863,-6.054314,-57.902344,0.0,35.023746,35.092969,62.268905,51.601188,74.213855,62.12394,86.205748,67.731322,90.272025,0.0,3.553916,31.057273,43.371597,47.365837,50.911102,58.114585,62.098342,63.982063,69.002494,0.0,-49.997054,-6.120651,-45.968742,1.988728,-43.753137,6.418727,-35.788427,7.776322,-25.234207,78.543491,271.332641,53.772915,-5.293564
58,1.181969,0.228686,-1.866486,-8.735176,0.0,-62.440007,-28.502495,-93.518887,-20.488426,-94.040291,-12.796715,-81.304951,-5.850334,-57.866799,0.0,34.884487,35.318679,62.157792,51.759665,74.16343,62.185011,86.049421,67.714897,90.097766,0.0,4.959961,31.009232,44.962555,46.506958,52.361778,56.564758,62.681282,61.90004,68.979217,0.0,-48.97038,-5.340756,-48.755945,3.371492,-45.695188,7.790037,-37.484896,8.516895,-26.891156,80.140497,273.550515,52.321466,-12.039552
59,1.325477,0.462968,-1.497871,-8.220357,0.0,-61.746151,-27.812736,-92.891727,-19.941742,-93.361816,-12.50061,-80.988887,-5.814972,-57.571472,0.0,34.501708,35.529853,61.379946,51.820723,73.454325,62.113862,85.570361,67.585541,90.041486,0.0,4.851425,32.703666,45.16706,47.233795,52.360519,56.390121,61.977195,61.205841,68.205665,0.0,-48.831682,-6.708688,-49.985402,1.926199,-46.513331,6.450535,-37.899223,7.441141,-27.685334,81.823545,275.792809,51.181166,-18.480583
60,1.258644,0.367612,-2.487442,-7.412766,0.0,-61.337081,-27.265663,-91.141285,-19.586196,-91.649585,-12.385414,-80.024791,-5.876518,-57.069648,0.0,34.161736,35.460928,60.574511,51.476798,72.656251,61.635025,85.154498,67.166825,90.28198,0.0,4.098014,34.750694,44.947814,48.50315,52.07254,56.770683,61.19767,60.905983,67.225868,0.0,-48.01052,-8.72542,-51.574531,-0.433735,-48.411274,4.028115,-39.899714,5.202466,-30.035036,83.297407,277.944474,48.908942,-24.109296
61,0.981835,0.246384,-5.467526,-9.603826,0.0,-61.418255,-26.559609,-88.569237,-18.946472,-88.979679,-11.871826,-78.187512,-5.531571,-56.009445,0.0,33.864704,35.129896,59.388385,50.927035,71.482944,60.991574,84.614614,66.52719,90.448299,0.0,4.713524,35.798595,43.416927,49.594982,50.545925,57.931103,58.967503,62.354885,65.631,0.0,-48.361892,-13.209527,-56.287574,-5.005502,-51.241323,0.207572,-40.423258,2.892847,-30.557393,84.282131,279.752272,43.444305,-32.151708
62,0.680191,0.123439,-8.150818,-12.189111,0.0,-61.346626,-26.267326,-85.718525,-18.605896,-85.820641,-11.475792,-75.842537,-5.102623,-54.932831,0.0,33.727816,34.573426,58.158255,50.175038,70.41465,60.241084,84.193093,65.878131,90.601637,0.0,6.583878,35.723911,41.050587,50.422108,48.321202,59.910748,55.975216,65.745175,64.047764,0.0,-49.620349,-19.875781,-63.469139,-11.565506,-54.42506,-4.884544,-39.059007,0.432067,-29.198942,84.775,280.905875,35.106165,-43.310655
63,0.195671,0.468908,-10.737751,-15.029069,0.0,-61.506523,-26.129906,-81.70879,-18.211716,-81.773438,-10.870697,-73.097878,-4.437904,-53.954773,0.0,33.703783,34.075248,55.925175,49.551816,69.008445,59.624173,83.550889,65.292157,90.736624,0.0,9.728279,34.786766,37.695305,50.992928,45.462181,62.499871,52.324311,70.710251,62.44725,0.0,-51.636213,-28.737116,-73.097229,-19.974584,-57.795983,-10.901306,-35.292021,-1.550015,-24.955836,84.613403,282.073165,24.011146,-57.641342
64,0.073448,0.492559,-6.330826,-10.507338,0.0,-61.896812,-26.015991,-76.750614,-17.886429,-77.073028,-10.315292,-69.626163,-3.826378,-52.86113,0.0,33.967802,33.3048,52.399423,48.89037,66.442628,59.214038,81.48903,65.021207,90.206002,0.0,9.488457,35.062203,34.13562,51.714844,42.712807,63.276146,49.86921,71.422875,59.933075,0.0,-51.958866,-31.453981,-74.736929,-24.424616,-60.050874,-16.127745,-38.853292,-6.528365,-29.155056,84.170614,283.089528,17.164083,-67.624876
65,0.179398,0.179953,-4.799068,-7.476222,0.0,-61.829888,-25.562805,-71.141339,-17.35904,-71.164582,-9.687218,-65.051205,-3.282212,-51.314575,0.0,34.957464,33.006002,47.826077,48.927086,61.981148,59.491051,77.514044,65.301357,88.56044,0.0,10.382389,34.956425,35.196728,52.260898,43.669407,64.270786,51.668758,72.624218,61.374355,0.0,-53.812316,-32.585519,-75.706474,-25.885112,-60.514403,-17.685324,-39.659912,-7.947858,-30.270916,83.773756,283.516526,11.788759,-74.854053
66,0.236709,0.07678,-0.670422,-2.077765,0.0,-60.986435,-25.072128,-65.783832,-16.872047,-65.39566,-9.194206,-60.493709,-2.866127,-49.466354,0.0,35.678499,33.040694,43.576624,49.198888,57.548939,59.900802,73.148167,65.718012,86.270365,0.0,9.951748,35.480164,36.93132,52.555771,45.315522,64.040474,54.293679,71.580094,63.104996,0.0,-54.881882,-31.743815,-74.069929,-25.455235,-60.921878,-17.908834,-42.429085,-9.221202,-33.542172,83.426473,283.616647,10.534345,-76.908477
67,0.424164,0.145855,2.416779,2.135625,0.0,-60.351196,-24.543732,-60.371246,-16.533005,-60.095329,-9.043716,-56.115475,-2.92543,-47.645645,0.0,36.047692,33.307616,38.800006,49.717084,52.774162,60.512056,68.527544,66.245125,83.934902,0.0,8.54005,36.098923,38.743858,52.525062,47.026039,62.934631,57.049644,69.058205,64.475418,0.0,-54.823278,-27.825572,-69.631484,-22.097286,-60.19248,-16.077973,-46.475577,-9.833852,-38.311697,83.239574,283.784371,12.340061,-74.750983
68,0.815071,-0.100826,5.55962,6.797671,0.0,-59.867981,-24.098533,-56.130501,-16.542206,-55.661865,-9.459434,-51.832718,-3.621986,-45.622902,0.0,35.967453,33.677501,34.995502,50.223499,48.257564,61.085187,64.08848,66.826888,81.015095,0.0,5.732197,37.329403,41.72414,52.542583,49.425327,61.049137,60.710163,64.785106,66.071171,0.0,-54.567975,-21.474743,-63.375207,-16.612596,-59.423496,-13.0226,-52.837271,-10.594358,-45.600425,83.598112,283.663448,17.443148,-67.973409
69,0.621918,-0.404688,1.66674,3.599469,0.0,-59.045425,-23.83168,-53.137642,-16.688805,-52.153336,-9.8993,-48.329865,-4.188217,-43.416939,0.0,35.923031,34.257066,32.721198,50.804979,45.260792,61.588688,61.366077,67.315952,78.955238,0.0,7.227093,37.109883,45.668118,52.261608,52.63139,60.985943,64.151699,64.843998,69.552006,0.0,-55.17182,-20.674693,-64.427901,-14.252934,-59.31744,-9.786971,-51.559835,-7.369628,-43.878905,83.953486,283.237855,18.843344,-64.394845
70,0.291389,0.007336,1.125859,1.852253,0.0,-58.220626,-23.875717,-50.958755,-17.008712,-50.013313,-10.408035,-45.790809,-4.752822,-41.150367,0.0,35.15856,34.521271,31.739205,50.913573,44.25925,61.621267,60.212407,67.354324,77.150026,0.0,8.073303,36.787055,45.703605,51.757804,53.049385,60.475708,64.202201,64.379745,69.867485,0.0,-54.865075,-20.598919,-65.282203,-13.839108,-59.893287,-9.097102,-51.669923,-6.62159,-43.713518,84.072853,283.205918,19.797181,-62.581865
71,0.171364,0.14578,0.058891,0.714137,0.0,-57.73233,-24.428261,-48.829078,-17.759308,-48.044105,-11.245582,-43.734718,-5.574348,-39.843452,0.0,34.060009,34.814129,30.811035,51.016598,43.511317,61.679177,59.61906,67.457472,76.838669,0.0,8.228645,36.559891,45.574585,51.657326,53.362953,60.480263,64.237839,64.475555,70.068397,0.0,-54.922922,-20.117759,-66.116135,-13.229371,-60.17017,-8.478844,-51.789231,-6.02789,-43.451011,84.135114,283.284285,19.746969,-61.935141
72,-0.034057,0.114745,0.2108,0.753522,0.0,-57.010369,-24.57589,-47.414063,-18.106591,-46.589058,-11.680001,-42.359642,-6.026894,-38.714768,0.0,33.721949,35.06901,30.283057,51.12634,42.960404,61.718586,59.14883,67.473786,76.242604,0.0,7.959091,36.584015,46.591392,51.620316,54.598526,60.341354,65.31134,64.179771,71.029472,0.0,-55.547435,-20.495092,-67.065036,-13.566868,-61.136132,-8.678298,-52.650334,-6.051436,-43.934844,84.068253,283.302464,19.924965,-61.278185
73,-0.121697,0.113361,0.134422,0.340319,0.0,-56.554664,-24.831184,-46.757263,-18.446937,-45.882431,-11.970955,-41.67849,-6.238815,-37.937553,0.0,33.232071,35.199155,30.152196,51.185596,42.978448,61.757267,59.09596,67.527435,76.087401,0.0,7.778504,36.464562,47.80307,51.401528,56.389847,60.056946,66.977211,63.846108,72.200249,0.0,-55.803304,-20.513592,-67.479721,-13.61362,-61.778262,-8.68916,-53.400651,-5.987851,-44.411199,83.922598,283.318967,20.035429,-61.034724
74,-0.181137,0.361129,0.089562,0.030986,0.0,-56.363571,-24.892754,-46.53582,-18.538147,-45.747093,-12.071136,-41.553451,-6.348907,-38.017319,0.0,32.474258,35.206466,30.171523,51.158142,42.993663,61.73411,59.068147,67.509268,76.166478,0.0,6.982979,36.586464,47.97084,51.494522,56.625023,60.089287,66.89946,63.823585,72.053604,0.0,-56.028323,-20.454719,-67.380228,-13.584269,-61.595283,-8.679027,-53.218117,-6.012088,-44.356408,83.720444,283.59505,20.103974,-61.088784
75,-0.00872,0.194835,-0.040009,-0.038909,0.0,-56.591217,-25.026169,-46.902008,-18.64048,-46.041687,-12.158158,-41.995835,-6.438423,-38.748345,0.0,31.836635,35.314431,30.182033,51.260339,43.064676,61.85745,59.330253,67.660272,76.923452,0.0,6.073906,36.487404,47.866928,51.387039,56.811699,59.97567,66.826172,63.755356,71.985741,0.0,-56.300018,-20.465494,-67.473341,-13.643612,-61.711201,-8.749823,-53.410914,-6.063032,-44.638502,83.714379,283.735474,20.06662,-61.182104
76,-0.093361,0.149028,-0.198692,-0.122254,0.0,-56.782562,-24.852379,-47.550087,-18.50647,-46.532204,-12.076767,-42.50322,-6.415055,-39.18322,0.0,31.525438,35.34086,30.341288,51.304478,43.141901,61.919201,59.524755,67.756097,76.994774,0.0,6.008514,36.359367,47.77169,51.1707,56.83818,59.76931,66.914772,63.660416,72.081207,0.0,-56.331208,-20.339906,-67.445973,-13.592025,-61.440999,-8.76531,-53.293569,-6.113358,-44.874407,83.614912,283.857572,19.861822,-61.331288
77,-0.138748,0.18435,-0.260971,-0.276907,0.0,-57.146141,-24.926262,-48.07251,-18.450875,-47.091065,-12.000916,-43.028778,-6.36287,-39.984948,0.0,31.084713,35.121436,30.600281,51.079212,43.509946,61.776866,60.023451,67.789158,77.717142,0.0,5.827331,36.516037,46.991913,51.231766,56.169479,59.745987,66.457008,63.619125,71.667572,0.0,-56.326497,-19.928593,-67.197366,-13.235034,-60.772193,-8.509991,-52.759978,-5.969406,-44.710472,83.463101,284.037263,19.587788,-61.612854
78,-0.196679,0.222524,-0.092995,-0.452877,0.0,-57.206817,-24.665473,-48.056007,-18.124786,-47.080329,-11.74324,-43.138618,-6.221145,-40.399383,0.0,31.324169,34.878065,30.523858,50.87877,43.411935,61.657231,60.053399,67.784576,78.281923,0.0,5.696961,36.483582,45.832214,51.215103,54.812325,59.72049,65.210426,63.622765,71.04316,0.0,-56.243937,-19.809057,-66.759266,-13.039637,-60.140073,-8.271715,-52.183662,-5.731538,-44.358242,83.23011,284.24995,19.458481,-62.075568
79,-0.116088,0.143533,-0.172783,0.000358,0.0,-57.367928,-24.562935,-48.204621,-17.987709,-47.292229,-11.622094,-43.323876,-6.142228,-40.701577,0.0,31.547507,34.680735,30.631946,50.725283,43.462817,61.554231,60.122523,67.746241,78.488515,0.0,5.521157,36.318901,45.331055,50.982788,54.845032,59.45826,65.387329,63.400063,71.307587,0.0,-56.402382,-20.168302,-66.900921,-13.404242,-60.366481,-8.53907,-52.414343,-5.806391,-44.530989,83.061202,284.37305,19.232878,-62.095643
80,-0.188828,0.16496,-0.252411,0.030412,0.0,-57.736931,-24.445587,-48.577698,-17.850059,-47.786339,-11.503693,-43.835449,-6.086861,-41.280968,0.0,31.696165,34.296821,30.891323,50.513541,43.661728,61.472708,60.376922,67.761678,78.929105,0.0,5.40905,36.564057,44.527336,51.060608,54.315605,59.397881,65.08516,63.24186,71.166344,0.0,-56.548051,-20.428957,-66.823326,-13.667207,-60.306589,-8.736387,-52.36753,-5.897115,-44.625158,82.794153,284.517543,18.902246,-62.085698
81,-0.152618,0.094799,0.007073,-0.015012,0.0,-58.263863,-24.19352,-49.014382,-17.595131,-48.309586,-11.304108,-44.418709,-5.982262,-41.761505,0.0,31.998063,33.952525,31.292355,50.37075,44.008493,61.464001,60.650933,67.819514,79.086235,0.0,5.179046,36.725624,44.431251,51.146301,54.323272,59.383255,65.034233,63.134697,71.116035,0.0,-56.705841,-20.698367,-66.757907,-13.877343,-60.43025,-8.816458,-52.428001,-5.820038,-44.653859,82.570153,284.578213,18.837937,-62.134839
82,-0.054062,0.054637,-0.174454,0.085512,0.0,-58.929932,-24.138062,-49.577683,-17.52253,-48.816033,-11.179116,-45.030373,-5.813141,-42.247444,0.0,32.111881,33.795296,31.622287,50.405577,44.307365,61.55985,60.960599,67.868445,79.454885,0.0,4.926292,36.877167,44.868988,51.28006,54.767441,59.457985,65.249725,63.145752,71.387581,0.0,-56.92035,-20.950556,-67.101906,-14.077717,-60.859032,-8.918457,-52.703322,-5.789336,-44.759347,82.44631,284.590489,18.593702,-62.091688
83,-0.12545,0.065665,-0.073471,0.128682,0.0,-59.55217,-24.16507,-50.192299,-17.448349,-49.54644,-10.998688,-45.945237,-5.568947,-43.213784,0.0,32.11529,33.573946,32.083365,50.307777,44.925808,61.510154,61.643028,67.805546,80.13451,0.0,4.650902,37.239532,45.023209,51.552429,55.039513,59.601997,65.402779,63.133347,71.38607,0.0,-57.109622,-21.240703,-66.993936,-14.351487,-60.838278,-9.071722,-52.498187,-5.755966,-44.486182,82.274346,284.620206,18.473717,-61.998954
84,-0.280106,0.069914,-0.275116,-0.031153,0.0,-60.135429,-24.018127,-50.67041,-17.109764,-49.900269,-10.583267,-46.561043,-5.170921,-43.934166,0.0,32.251215,33.098949,32.600055,50.012054,45.693366,61.373413,62.48618,67.788515,80.862695,0.0,4.655113,37.673058,45.268112,51.926331,55.226921,59.880272,65.556038,63.296104,71.37735,0.0,-57.354419,-21.073736,-66.828643,-14.102417,-60.582749,-8.780057,-52.114211,-5.435648,-44.04923,81.966299,284.663172,18.17066,-62.057055
85,-0.197067,0.0669,-0.203201,0.472594,0.0,-60.718918,-24.066399,-51.969887,-17.099579,-50.769699,-10.49913,-47.537613,-5.007866,-44.527657,0.0,32.529734,32.732066,33.474503,49.701289,46.512683,61.135267,63.308844,67.599189,80.866067,0.0,4.738838,37.643898,46.06105,51.965332,55.670219,60.008926,66.017555,63.497085,71.92408,0.0,-57.796947,-21.504173,-67.09378,-14.471462,-60.761324,-9.02804,-52.139213,-5.516998,-43.968207,81.769638,284.702182,17.967865,-61.612351
86,-0.283081,0.173099,-0.163811,0.750749,0.0,-61.274277,-24.2715,-53.470299,-17.111847,-52.026535,-10.324883,-48.780327,-4.707642,-45.330643,0.0,32.900088,32.413545,34.642278,49.304579,47.948429,60.748944,64.573023,67.219522,81.547199,0.0,4.728081,37.547745,46.188515,51.937912,55.596565,60.06871,66.417503,63.539841,72.138084,0.0,-58.155667,-21.766705,-67.564509,-14.677393,-61.242329,-9.167027,-52.742441,-5.617546,-44.331077,81.526526,284.867769,17.844023,-60.869114
87,-0.44101,0.065777,0.048798,0.721807,0.0,-61.750168,-24.635444,-55.081535,-17.250068,-53.714973,-10.250587,-50.431251,-4.482445,-46.07595,0.0,32.882946,32.363205,36.060536,49.061468,50.019772,60.436844,66.499352,66.867915,82.526251,0.0,5.038421,37.388488,45.328559,51.80754,54.695228,60.034309,65.927101,63.572937,71.721633,0.0,-58.21714,-21.855453,-66.751516,-14.627567,-60.581989,-8.928208,-52.215395,-5.248686,-43.956604,81.129461,284.931289,17.936766,-60.149564
88,-0.252411,0.063405,0.234306,1.505716,0.0,-62.358169,-25.296432,-57.896621,-17.742279,-56.70607,-10.525589,-53.053848,-4.528404,-47.135238,0.0,32.535329,32.301566,38.131386,48.787877,53.166129,60.089696,69.409068,66.447111,83.779464,0.0,5.504654,36.812256,44.500259,51.412834,53.930626,59.94722,65.629486,63.802849,71.589546,0.0,-58.402768,-21.756195,-65.789327,-14.353198,-60.140776,-8.483025,-51.802488,-4.742036,-43.570652,80.939781,284.995241,18.233803,-58.643301
89,-0.445335,-0.014845,0.930427,2.729998,0.0,-62.921185,-25.932518,-61.518345,-18.182121,-60.370709,-10.702583,-56.24287,-4.446922,-48.239021,0.0,32.489621,32.541393,40.687692,48.704205,56.389217,59.786885,72.32911,65.990677,85.471611,0.0,5.878304,36.793648,44.336838,51.353669,53.300057,59.887688,65.166527,63.749382,71.129426,0.0,-58.377215,-21.224969,-64.749543,-13.589049,-60.06047,-7.57617,-51.527921,-3.858332,-43.16355,80.476152,285.083473,19.145936,-55.810226
90,-0.697792,0.061664,1.898392,4.213712,0.0,-63.271786,-26.409737,-65.389012,-18.273949,-64.382733,-10.420738,-59.703564,-3.862221,-49.647904,0.0,32.020516,32.710268,44.127227,48.692151,60.186978,59.606018,75.754862,65.71532,87.679324,0.0,6.044838,36.882202,43.79789,51.286423,52.056198,59.833237,63.799851,63.826973,69.673187,0.0,-58.646743,-19.623978,-63.132046,-11.796502,-58.934642,-5.907174,-50.034913,-2.482267,-41.758845,79.571989,285.37277,20.837957,-51.368881
91,-0.578774,0.054291,2.495568,6.422772,0.0,-63.33015,-26.771415,-69.885646,-18.461082,-69.020874,-10.441612,-63.386318,-3.708641,-51.159301,0.0,31.433948,32.898681,47.528452,48.792755,63.531862,59.543218,79.007046,65.56597,89.342546,0.0,6.394729,37.465827,42.8134,51.623542,50.806297,60.16143,62.273597,64.430969,68.475196,0.0,-59.946312,-17.9592,-60.986269,-9.99796,-56.713221,-4.162182,-47.086634,-0.803163,-39.007217,78.728038,285.689649,23.068348,-44.683521
92,-0.43563,0.166035,3.877281,9.719669,0.0,-63.342522,-26.777733,-74.922718,-18.483284,-73.914162,-10.485695,-67.005948,-3.725419,-52.592057,0.0,31.19406,32.940534,50.84109,48.910636,65.990973,59.609636,81.20252,65.618692,90.069015,0.0,6.537735,36.441536,41.660316,50.719619,49.833435,59.715751,60.982338,64.841629,67.214744,0.0,-62.288122,-16.620259,-58.961288,-8.322788,-54.305622,-2.586465,-44.164858,0.534166,-36.244719,77.96073,286.093954,26.613951,-34.725582
93,-0.500863,0.219226,4.017769,12.317058,0.0,-63.146873,-26.496734,-79.635555,-18.224304,-78.503391,-10.302475,-70.272457,-3.556983,-53.908538,0.0,31.038215,32.871436,53.617302,49.030432,67.453606,59.756553,82.446655,65.785665,90.380546,0.0,7.622131,36.001648,40.083618,50.102462,48.417366,59.158607,59.225669,64.596908,65.128395,0.0,-63.750779,-14.869524,-54.32624,-5.994557,-48.879014,-0.20301,-38.467159,2.877773,-30.966831,76.976697,286.193786,30.14855,-22.527918
94,-0.030487,0.335366,5.813003,12.892381,0.0,-63.102161,-26.336563,-84.494373,-18.24607,-83.857395,-10.479538,-73.837589,-3.734413,-55.530075,0.0,30.489958,32.616284,55.88379,49.054342,68.597174,59.925243,83.227119,65.981637,90.048366,0.0,8.50573,31.826614,35.496666,45.872727,44.803825,55.44294,55.076203,61.80883,61.126076,0.0,-62.083605,-12.152845,-46.245025,-2.965428,-40.472276,2.686983,-30.897807,5.537536,-24.711836,76.445457,285.435536,35.4608,-10.729153
95,-0.075233,0.285448,3.779732,18.49163,0.0,-63.069271,-26.185501,-88.155556,-18.355362,-88.306721,-10.850029,-76.502873,-4.194328,-56.723076,0.0,30.280376,32.574404,57.056652,49.244731,69.486429,60.237897,83.781897,66.261835,89.818654,0.0,13.680816,30.056408,32.81702,43.787201,43.073147,53.334148,52.873455,59.875293,58.729031,0.0,-59.488448,-9.754388,-38.824222,0.587132,-31.933617,7.338567,-22.541629,11.32966,-16.224433,75.803312,283.790274,38.67362,5.831767
96,0.005791,0.183855,2.073807,23.458321,0.0,-63.053456,-26.201821,-91.085244,-18.606354,-91.966244,-11.216858,-78.837536,-4.494828,-57.764855,0.0,30.080405,32.30731,57.529809,49.285277,70.023535,60.533052,83.884082,66.720555,89.479595,0.0,22.879898,30.157321,33.112667,43.257797,43.239704,52.34,51.888645,58.444049,57.226055,0.0,-55.419423,-7.393615,-32.038056,4.941975,-23.299588,13.826658,-13.375337,20.071913,-5.78166,74.983784,281.368506,39.922108,26.684465
97,0.055435,0.066827,0.814213,26.142,0.0,-63.013367,-25.876969,-93.158856,-18.464768,-94.764015,-11.225601,-80.666325,-4.544037,-58.588051,0.0,29.843739,31.789445,58.045189,49.093837,70.846531,60.652588,84.248532,67.041335,89.437469,0.0,33.439899,32.188499,34.8693,43.272102,43.731491,50.509071,50.308444,54.745364,54.29528,0.0,-46.905514,-4.029147,-24.124506,10.443313,-13.479038,21.793814,-2.554074,30.752523,6.677047,73.892653,278.832383,39.589755,50.223515
98,0.025863,-0.019427,0.482826,28.79494,0.0,-63.032993,-25.775093,-94.544448,-18.52423,-96.561698,-11.390785,-81.821136,-4.701393,-59.111206,0.0,29.533296,31.40379,58.038224,48.944303,71.146762,60.715759,84.336737,67.259586,89.303162,0.0,44.11227,34.442642,37.696747,42.599716,44.648094,47.248901,47.993419,49.104938,50.046821,0.0,-35.574456,-0.353528,-17.174664,16.459439,-4.179315,30.575204,8.227665,42.510548,19.396248,72.423334,276.578335,38.577399,76.783834
99,-0.202102,0.052624,-3.058331,34.447708,0.0,-62.764515,-25.854675,-94.884613,-18.77298,-97.030987,-11.767113,-82.117687,-5.066826,-59.300377,0.0,28.925696,31.293133,57.544505,48.902819,71.120407,60.716895,84.315815,67.31153,89.002091,0.0,54.124123,39.144791,42.733418,44.07621,46.288113,45.669342,46.690762,44.592338,46.418461,0.0,-23.706132,1.736471,-11.213532,20.810738,4.564272,37.74736,19.247711,52.596064,32.932754,70.591381,275.257358,33.889217,109.857941
100,-0.267792,1.798777,-3.249527,34.38529,0.0,-62.331711,-25.405632,-95.081921,-18.771767,-97.119598,-12.080154,-82.358448,-5.513031,-59.418068,0.0,26.748389,29.654351,54.623315,46.870415,68.596742,58.61932,81.55882,65.311015,86.65171,0.0,59.159546,40.796963,45.487312,42.487267,45.292351,41.210598,42.959107,37.547482,40.39991,0.0,-8.530649,3.634028,-2.40172,23.911792,14.496206,42.423238,30.48265,58.569618,45.357747,68.715563,276.419226,29.031664,143.606322
101,-1.326187,3.316948,-0.031448,33.05993,0.0,-57.776894,-25.04718,-94.090862,-18.918961,-96.753159,-12.523727,-82.581802,-5.73317,-58.972115,0.0,25.386274,28.295311,50.381729,43.89507,64.363393,54.722412,76.800902,61.118656,82.94965,0.0,60.114406,37.294121,42.862987,34.968406,37.702892,30.72726,31.815159,24.986675,26.976236,0.0,4.008302,5.781354,6.467787,26.151979,23.603447,44.917497,39.985371,60.978612,55.194117,65.989609,279.753137,27.600449,176.683215
102,0.398529,10.346331,1.949718,33.169765,0.0,-58.271015,-24.427071,-94.610195,-19.318405,-96.278366,-13.642525,-76.674614,-7.380226,-56.12851,0.0,27.080754,25.177508,43.203305,33.658519,50.485791,37.959164,55.680495,38.725252,56.237545,0.0,59.881279,30.667843,36.571976,24.201782,25.353653,17.342034,15.84113,10.287243,9.30411,0.0,10.845459,7.506065,13.028744,27.177844,30.276795,45.513518,46.733101,60.959908,62.511066,65.236118,290.147186,28.398147,209.900698
103,-0.470879,10.36099,-3.730327,27.457604,0.0,-59.549835,-23.634933,-93.619194,-19.404762,-88.929336,-14.495361,-68.84737,-9.154518,-51.330665,0.0,28.78766,22.626883,32.767832,24.013451,33.166801,21.67169,32.735685,16.712577,29.943911,0.0,59.143661,25.386486,35.704124,15.869035,20.552764,7.121687,8.328129,-0.820639,0.158672,0.0,15.822697,10.428762,19.323594,29.13516,35.024655,46.281601,50.508225,60.163946,65.663413,63.916082,300.560901,23.818663,237.411027
104,-1.968269,0.14772,-7.982266,20.372665,0.0,-55.708374,-20.502342,-89.637039,-16.847786,-85.860638,-12.858902,-67.271393,-8.726486,-51.220859,0.0,27.33855,26.415406,32.162504,26.165872,31.708071,21.945022,29.157173,15.10814,25.960774,0.0,59.985409,22.468449,40.830677,10.353453,24.102093,-0.177297,9.122944,-9.182035,-1.226555,0.0,18.698124,15.414274,24.867904,33.627626,38.267879,49.434645,52.118626,61.565828,65.693473,61.044565,300.784744,14.933149,257.859815
105,-1.441841,-1.239887,-10.135688,13.666565,0.0,-53.166699,-19.988342,-84.101715,-16.572304,-80.98756,-13.040886,-63.403256,-9.419998,-49.601383,0.0,26.565793,30.325578,29.610792,29.695366,28.362866,24.489164,25.541502,16.584864,22.205238,0.0,62.562412,20.786247,48.892238,6.995172,32.648998,-4.57009,16.403102,-13.931929,3.627273,0.0,18.415343,20.932476,30.476434,38.707362,43.35883,52.996865,55.471809,63.25396,66.77051,58.789095,299.608296,3.983832,271.589819
106,-1.219826,-3.291531,-13.469124,7.578745,0.0,-54.758755,-19.181373,-80.179367,-15.485229,-75.563427,-12.020393,-58.357475,-8.959236,-46.655765,0.0,25.759468,32.801991,31.580951,32.994739,30.140166,27.873012,26.381529,19.512389,21.584881,0.0,65.449264,21.97895,60.74295,7.920152,47.12471,-3.96488,30.723358,-13.671496,15.640485,0.0,19.60575,25.697446,38.350365,43.359126,50.435446,56.394237,61.192028,64.988949,69.450565,56.780548,296.347604,-10.274013,279.199403
107,-3.26548,-10.400425,-16.248642,1.392064,0.0,-51.423431,-19.913086,-72.481636,-15.621231,-67.854561,-11.602112,-57.348541,-7.823227,-44.956844,0.0,21.484006,35.824465,32.589398,42.562806,37.636271,43.560556,41.262589,40.654891,42.839769,0.0,68.083442,25.529434,75.818115,12.576536,66.991218,1.170942,51.663459,-8.546637,34.695093,0.0,23.609955,29.675976,46.17376,47.6049,57.182061,59.767613,66.891887,67.052933,72.29679,52.864414,285.975605,-27.173309,280.619893
108,-2.643791,-10.456185,-11.568066,1.033171,0.0,-47.355835,-21.182098,-64.216129,-16.44587,-63.441868,-11.560272,-54.009338,-6.328034,-41.779759,0.0,17.078139,37.257902,38.333569,50.415149,50.911721,57.806241,60.1327,60.802556,65.895075,0.0,69.391914,27.407238,85.315613,15.596683,80.063141,4.904526,65.632439,-4.371117,47.408707,0.0,25.853527,32.0208,52.231018,49.864718,63.416599,61.277737,72.755274,67.646156,76.547416,49.698504,275.550799,-39.263494,281.684443
109,-1.586975,-0.432734,-6.671333,0.685603,0.0,-47.949864,-24.148224,-59.569061,-18.968102,-55.593865,-12.986115,-44.957348,-6.105377,-34.372605,0.0,16.059565,32.465748,31.25176,46.845875,44.409142,55.915578,56.270594,60.835481,64.135694,0.0,69.435585,27.859554,89.01139,17.042713,85.604507,7.137714,72.123733,-1.43018,53.380806,0.0,26.250828,32.483396,56.775539,50.019538,69.297856,60.966453,78.857968,66.889083,81.759817,47.821707,275.144497,-46.224649,282.396478
110,-1.979027,-0.623037,-3.811444,-0.229885,0.0,-47.732632,-24.671196,-57.236835,-19.128227,-48.175381,-12.369347,-37.238502,-4.583336,-28.204514,0.0,15.615209,28.317146,27.998044,43.378281,40.529142,53.42269,52.97779,59.38694,62.127238,0.0,68.444126,27.608815,89.883946,17.247734,86.98827,7.695076,73.19537,-0.600494,54.404915,0.0,25.92575,32.469565,58.811871,49.901595,71.275845,60.691096,81.258182,66.552384,84.071383,45.612802,274.543761,-50.265971,282.188894
111,-2.312714,0.682225,-3.260994,-0.590605,0.0,-47.94053,-28.177001,-50.986433,-23.628479,-39.296482,-17.186142,-29.900779,-9.316698,-25.093792,0.0,14.85466,25.205956,25.280291,41.188617,37.510158,52.451998,50.844937,59.805996,61.057479,0.0,66.837307,26.787243,90.193714,16.670529,87.595311,7.491738,73.620472,-0.259586,54.88892,0.0,26.696234,32.757741,59.113311,50.084746,71.585227,60.736544,81.531168,66.445048,84.491075,43.108394,275.235555,-53.718659,281.607858
112,-3.07537,1.544069,-2.901947,-0.623433,0.0,-48.332915,-33.578408,-43.67589,-30.773735,-30.525158,-25.424767,-24.006272,-18.349051,-24.436901,0.0,15.067218,23.22194,29.742709,40.104416,42.511793,52.618328,54.473107,61.45551,63.523247,0.0,65.104924,26.206124,90.136631,16.070286,87.517102,7.003109,73.309605,-0.520935,54.192765,0.0,26.974754,33.253956,59.566115,50.43108,72.258838,60.886549,81.91128,66.258563,84.544416,39.805813,276.731887,-56.847817,280.936688
113,-2.953309,1.538104,-2.507469,-0.71707,0.0,-48.28898,-37.670997,-38.939054,-36.052745,-25.093219,-31.714176,-21.872085,-25.43371,-26.694385,0.0,15.436781,22.555813,34.059335,39.754946,46.082288,52.836666,55.992031,62.315385,63.552233,0.0,63.738705,25.141915,89.518719,14.986828,86.83778,6.143486,72.830784,-1.017895,53.589695,0.0,27.537905,33.462672,60.156844,50.585221,72.948923,60.999934,82.405776,66.139644,84.570264,36.642162,278.188848,-59.565628,280.138475
114,-3.302879,0.41127,-2.36,-0.746118,0.0,-48.190092,-39.479118,-37.35557,-38.471512,-22.025047,-34.624111,-20.064697,-28.661928,-26.980762,0.0,16.066833,22.960279,39.218816,40.033341,53.000483,53.345687,61.06957,63.316816,67.038575,0.0,62.766071,23.665214,88.6012,13.568962,86.20293,5.093135,72.717807,-1.542469,53.451633,0.0,28.320505,33.538773,60.664729,50.589692,73.419597,60.990894,82.871572,65.960098,84.787663,33.170523,278.491777,-62.094388,279.284016
115,-3.36953,0.385162,-2.105175,-0.563349,0.0,-47.62766,-40.618137,-36.342756,-40.107616,-21.94075,-36.572147,-19.786468,-30.656679,-26.784084,0.0,16.537544,23.265548,43.558178,39.69984,59.908378,53.046098,66.968093,63.532671,71.659568,0.0,61.60279,21.980552,87.455863,11.962909,85.587661,3.904609,72.628372,-2.14547,53.331115,0.0,29.223667,33.44306,60.958117,50.460424,73.725719,60.937962,83.276322,65.895853,85.043779,29.677454,278.747232,-64.323102,278.59096
116,-2.380073,-0.011418,-1.848038,-0.36676,0.0,-46.802662,-38.283543,-38.915463,-37.174107,-23.971275,-33.129696,-19.882645,-26.630676,-25.1857,0.0,15.628029,23.125245,42.384421,38.550659,59.917092,51.322163,67.081869,61.661899,71.92646,0.0,60.518715,20.616817,86.174148,10.61515,84.742035,2.808815,72.259117,-2.831211,52.809631,0.0,29.829277,33.34889,60.93007,50.34884,73.644492,60.891105,83.426795,65.864767,85.284531,27.175924,278.58896,-66.292597,278.077346
117,-1.53653,-0.533264,-1.830483,-0.330007,0.0,-45.775154,-33.134376,-44.606598,-30.246997,-26.75663,-24.740604,-19.461067,-16.963085,-21.259666,0.0,13.496009,22.36143,35.438722,36.740346,52.242985,48.470838,60.38511,57.937694,66.815749,0.0,59.419693,19.104527,84.837937,9.192101,83.85894,1.742318,71.920258,-3.359939,52.623631,0.0,30.310585,33.186153,61.052077,50.140272,73.441519,60.746227,83.479752,65.81128,85.408502,25.56039,277.93163,-68.202084,277.623273
118,-2.080947,0.057286,-1.826923,-0.272937,0.0,-46.025099,-31.819834,-47.168833,-28.588257,-28.636654,-22.674832,-19.752366,-14.655396,-19.787859,0.0,12.924244,21.767026,31.390229,35.95874,47.565311,47.42841,56.667173,56.734389,64.027971,0.0,58.419491,18.157974,83.792553,8.281174,83.126278,0.99955,71.577919,-3.831974,52.354603,0.0,30.540346,33.027603,61.074962,49.957034,73.120046,60.625826,83.372455,65.798621,85.519764,23.434113,277.868929,-70.074337,277.230349
119,-1.952912,1.792355,-1.678356,-0.21704,0.0,-47.764978,-36.204065,-43.281057,-34.340275,-25.861748,-29.298008,-19.130791,-22.101196,-21.4298,0.0,13.667484,20.323931,33.749107,34.762042,47.496249,46.572278,55.993402,56.27583,62.451051,0.0,57.24694,17.232834,82.972915,7.475452,82.605034,0.398929,71.209705,-4.15004,51.959392,0.0,30.709739,32.853491,60.913867,49.744168,72.776825,60.480045,83.22849,65.793569,85.826897,21.459909,279.537665,-71.773985,276.88969
120,-1.650581,1.291683,-1.639549,-0.127206,0.0,-48.520438,-39.782805,-38.922381,-38.936909,-21.615853,-34.680634,-18.018883,-28.069222,-24.028433,0.0,14.108258,19.525412,36.652994,34.50001,49.099747,46.931146,56.684155,57.294638,62.459683,0.0,56.336208,16.531448,82.327354,6.892684,82.207649,-0.009934,70.932746,-4.330491,51.734024,0.0,30.937475,32.663387,60.781844,49.533031,72.578754,60.37607,83.180176,65.870301,86.230128,19.857136,280.687613,-73.365726,276.620749
121,-2.472267,1.062162,-1.672966,0.044559,0.0,-49.488825,-44.456646,-33.674721,-45.026396,-17.345353,-41.856223,-16.79254,-36.178734,-26.292864,0.0,16.110677,19.539615,41.786807,35.136541,53.126603,48.18271,59.311042,59.019012,63.761401,0.0,55.71643,15.986389,81.923011,6.567192,82.16613,-0.084698,70.995574,-4.138379,52.049331,0.0,30.850592,32.562116,60.665964,49.384695,72.465208,60.323965,83.162824,65.991986,86.716437,17.480175,281.591076,-74.943386,276.506609
122,-3.148041,0.95791,-1.434609,0.211792,0.0,-50.610083,-49.566548,-28.005169,-52.032721,-14.41024,-50.380926,-16.34392,-46.050568,-29.149035,0.0,19.517014,20.544479,49.409364,36.517082,60.360453,50.030011,64.899849,61.215758,67.379703,0.0,55.191891,15.77235,81.685799,6.489338,82.128159,-0.084778,70.880814,-4.091881,52.098484,0.0,30.77086,32.684641,60.522813,49.414384,72.325985,60.316567,83.015376,66.012512,86.939763,14.456206,282.393641,-76.253923,276.563056
123,-1.825585,0.414586,-1.235493,0.294129,0.0,-50.429283,-51.630495,-25.040914,-54.877859,-12.277301,-53.823835,-16.173998,-49.873191,-30.475582,0.0,21.404372,20.701739,53.532599,37.066173,64.525784,51.099299,68.370859,62.782428,69.944129,0.0,54.776986,15.360535,81.568783,6.195145,82.164517,-0.214199,70.952065,-3.998508,52.302876,0.0,30.515498,32.653297,60.332907,49.347422,72.331543,60.307527,82.972436,66.114721,87.049457,12.788864,282.629033,-77.331173,276.677991
124,-1.350917,-0.303639,-1.065056,0.228748,0.0,-49.552369,-50.969485,-24.514241,-54.338007,-11.785796,-53.292635,-16.233004,-49.246148,-30.242689,0.0,21.81663,20.690741,53.444487,37.434767,64.670731,51.791855,68.730098,63.687312,70.522014,0.0,54.6988,15.037594,81.31992,5.894864,82.030827,-0.44831,70.947854,-4.06866,52.414307,0.0,30.24119,32.58142,60.223251,49.256983,72.343387,60.28962,82.963186,66.195108,87.161497,11.638024,282.153064,-78.196152,276.734409
125,-1.665024,-0.135913,-0.968399,0.138927,0.0,-49.999832,-52.332682,-23.082596,-56.464835,-11.744929,-55.758265,-16.602076,-52.121864,-30.14514,0.0,22.824336,21.01913,53.650289,38.169609,64.112668,52.71038,68.533176,64.533083,70.254574,0.0,54.772271,14.645863,81.144162,5.576088,82.070286,-0.621517,71.046307,-3.965572,52.542939,0.0,29.808801,32.577961,60.136046,49.232578,72.295739,60.300154,82.762422,66.242433,87.112393,10.204519,281.871769,-78.933032,276.727954
126,-0.755951,0.316922,-0.695949,0.0175,0.0,-49.606487,-53.13279,-22.305857,-57.451035,-10.916685,-56.708153,-16.541966,-52.917057,-29.902651,0.0,22.932522,20.304826,53.636821,37.673438,64.016114,52.540276,68.794948,64.752365,70.523663,0.0,54.869259,14.386379,81.001671,5.287502,81.939308,-0.871925,70.873993,-4.071327,52.258026,0.0,29.657092,32.523571,60.164612,49.162874,72.282846,60.252939,82.661682,66.217239,87.058225,9.716377,282.091218,-79.361172,276.647981
127,-0.499329,-0.244557,-0.454285,-0.09559,0.0,-48.299698,-50.458408,-22.253614,-53.733146,-10.856111,-52.3503,-15.986709,-48.033474,-28.601263,0.0,22.56428,21.25766,53.395316,38.352125,64.248247,52.984719,69.112272,65.027822,71.4392,0.0,54.987557,14.186749,81.00325,5.065087,82.040268,-1.042156,70.989395,-4.073375,52.330662,0.0,29.522131,32.510098,60.298302,49.217808,72.446744,60.392767,82.73398,66.424684,87.128967,9.542438,281.77508,-79.490067,276.48081
128,-0.717304,-0.225605,-0.133701,0.001803,0.0,-48.000612,-49.277544,-22.275146,-52.124743,-11.359646,-50.523811,-15.412033,-46.159298,-27.616711,0.0,22.387204,22.284106,52.908043,39.108944,63.786836,53.358667,68.595939,64.970869,71.174717,0.0,55.121075,14.213711,80.967167,5.037414,82.035747,-1.125446,70.973923,-4.154617,52.245884,0.0,29.550697,32.49051,60.334648,49.209015,72.349117,60.398127,82.667117,66.434601,87.103859,9.187397,281.512804,-79.261505,276.445942
129,-0.08749,-0.031752,0.231159,0.158427,0.0,-48.103289,-49.269201,-22.63817,-51.849627,-11.58803,-50.121002,-14.867706,-45.694988,-26.978811,0.0,22.357416,22.704818,52.88703,39.292942,63.583745,53.260842,68.239924,64.613217,70.66288,0.0,55.167492,14.22535,81.067955,5.026028,82.151367,-1.167652,71.011425,-4.213348,52.264,0.0,29.512239,32.451435,60.174801,49.172186,72.201459,60.348986,82.472467,66.375913,86.931946,9.53211,281.462314,-78.598143,276.585631
130,0.817451,0.376097,0.681736,0.235491,0.0,-47.928274,-49.08138,-22.871274,-51.164549,-10.676519,-49.159469,-13.938949,-44.373275,-26.307134,0.0,22.474458,22.224857,53.354048,38.466796,63.864932,52.370475,68.276492,63.905792,70.633289,0.0,55.058762,14.485016,81.132031,5.151077,82.006771,-1.263966,70.779945,-4.565918,52.028801,0.0,29.698256,32.444889,59.975174,49.086934,72.070648,60.179383,82.392093,66.158293,86.724403,10.831197,281.822094,-77.434771,276.804805
131,0.314003,-0.659679,1.049252,0.383582,0.0,-47.011659,-46.094209,-23.690408,-47.231466,-11.713628,-44.878967,-13.482193,-39.951988,-25.082559,0.0,22.488067,23.972565,52.401881,39.937035,63.557488,53.340005,67.877819,64.353309,70.740907,0.0,54.778118,14.570045,81.086013,5.151638,81.844642,-1.427365,70.664154,-4.926499,52.065548,0.0,29.777728,32.426314,59.563397,49.0114,71.689202,60.030403,81.976598,65.952379,86.174824,11.661724,281.147703,-75.868995,277.173675
132,0.863205,-0.69678,1.013305,0.349075,0.0,-46.890455,-44.183607,-26.343458,-45.100759,-13.656274,-42.731472,-14.057018,-37.880962,-24.654012,0.0,22.100028,23.803259,50.899482,40.034219,63.108872,53.61135,67.891676,64.868827,71.30627,0.0,54.78574,14.719883,81.070336,5.173806,81.611893,-1.577694,70.511341,-5.275749,52.055409,0.0,29.607358,32.282633,59.275443,48.829348,71.223604,59.825565,81.61174,65.724026,85.774471,13.067533,280.425401,-74.313086,277.497228
133,0.629105,-0.183429,0.873654,0.166923,0.0,-46.797941,-43.457199,-27.249996,-44.238979,-14.297321,-41.745964,-13.8729,-36.801956,-23.818766,0.0,21.723084,23.594789,49.905281,40.100606,62.775468,53.849533,67.851513,65.2628,71.640506,0.0,55.054161,14.827812,81.304012,5.280956,81.690021,-1.516835,70.66349,-5.32338,52.273922,0.0,29.742716,32.242435,58.995899,48.810651,70.968724,59.801853,81.384561,65.647296,85.504141,14.329325,280.186363,-72.806745,277.608542
134,0.395004,0.32992,0.710655,0.242729,0.0,-46.734117,-43.914985,-26.410022,-44.646126,-13.636768,-41.922443,-12.929838,-36.714969,-22.576818,0.0,21.357238,23.347157,49.419281,40.136199,62.55728,54.054557,67.757331,65.53523,71.743617,0.0,55.407841,15.149425,81.658688,5.601997,81.877407,-1.247635,70.893791,-5.157772,52.58107,0.0,29.90859,32.094282,58.672463,48.727657,70.691624,59.753527,81.191887,65.57464,85.210653,15.337938,280.433028,-71.482481,277.768016
135,0.617203,0.135369,0.521713,0.189635,0.0,-46.006056,-43.46204,-25.842556,-44.483288,-13.484951,-41.921745,-13.098272,-36.853763,-22.886907,0.0,19.765547,22.848041,48.215222,40.145042,62.445191,54.37719,68.163847,66.121119,72.236855,0.0,55.864861,15.460488,81.819454,5.992802,82.144489,-0.836757,71.266365,-4.828846,53.075855,0.0,29.849124,32.009883,58.414593,48.783666,70.44366,59.881425,80.979231,65.704995,84.90384,16.556728,280.454165,-70.359181,277.843419
136,0.998074,0.590791,0.481373,0.120241,0.0,-47.094727,-46.300953,-24.468052,-48.415066,-12.468258,-46.322365,-13.271285,-41.616606,-23.944331,0.0,18.705299,21.397561,48.522899,39.267149,62.580393,54.097183,68.629451,66.355813,72.347215,0.0,56.319672,15.819283,81.936585,6.365891,82.357018,-0.49403,71.468605,-4.597355,53.285545,0.0,29.799699,31.921233,58.318213,48.825347,70.35895,59.98761,81.055554,65.815614,84.861356,18.160412,280.925194,-69.272198,277.843898
137,0.978744,1.061848,0.35923,0.171765,0.0,-48.535755,-51.467205,-20.969032,-54.95454,-10.074726,-53.464325,-12.955256,-49.151911,-25.314119,0.0,18.051621,20.430574,49.48213,38.766093,62.648256,54.069445,68.709516,66.643595,71.644248,0.0,56.725868,16.1082,82.233193,6.799484,82.815788,0.035477,71.973667,-4.05027,53.824093,0.0,29.920186,31.911118,57.918095,48.908549,70.14538,60.101033,80.872353,65.912809,84.64702,19.738094,281.866656,-68.31403,277.895277
138,1.188664,0.594273,0.523579,0.343542,0.0,-47.9108,-53.202748,-18.877179,-57.705174,-8.678147,-56.812809,-13.625039,-52.776999,-27.342602,0.0,17.372299,19.518602,50.171086,38.037402,63.344641,53.713763,69.45025,66.754314,71.936056,0.0,56.781017,16.468403,82.253025,7.142589,82.823284,0.301311,71.912143,-3.938198,53.831932,0.0,29.717275,31.72835,57.487818,48.775662,69.790464,59.986882,80.629168,65.846873,84.403439,21.440627,282.363771,-67.276582,278.141661
139,1.214653,0.283496,0.522949,0.205444,0.0,-45.912798,-50.96299,-18.59618,-55.514672,-9.288277,-54.847447,-14.737976,-50.971945,-28.746151,0.0,16.891325,18.70914,48.958197,37.062326,63.192636,52.756508,69.491314,66.033044,72.695537,0.0,56.827206,16.797615,82.352131,7.465977,82.847729,0.56163,71.881702,-3.816181,53.856148,0.0,29.46963,31.609196,57.106818,48.697239,69.428198,59.906964,80.381894,65.794718,84.211939,23.135622,282.571274,-66.273291,278.271112
140,0.229099,-0.097849,0.555416,0.174704,0.0,-45.40242,-50.794756,-18.311165,-55.282339,-10.064907,-54.54792,-14.749306,-50.630705,-28.351221,0.0,17.652991,19.469318,48.743163,37.495171,62.996374,52.791736,68.893922,65.643448,72.436808,0.0,56.740551,17.032597,82.669029,7.660629,82.976555,0.64389,71.818085,-3.928459,53.648037,0.0,29.263446,31.493574,56.772686,48.562907,69.104552,59.733717,80.116787,65.604008,84.123932,23.776211,282.422898,-65.306385,278.395289
141,0.231228,-0.4222,0.33609,0.194094,0.0,-45.145289,-51.449553,-18.230702,-56.058718,-10.647297,-55.334942,-15.036324,-51.401654,-28.374544,0.0,18.336217,20.561226,49.098252,38.416919,63.263871,53.384608,68.734204,65.844538,72.233402,0.0,56.848412,17.219845,83.072823,7.865891,83.232376,0.838268,72.040856,-3.779892,53.644444,0.0,28.991905,31.216846,56.452634,48.317499,68.770804,59.535214,79.764267,65.44153,83.985969,24.369959,281.97275,-64.607775,278.561435
142,0.367721,-0.226167,0.360123,0.177359,0.0,-43.426134,-50.267584,-18.088646,-54.931051,-10.487812,-54.25914,-15.554649,-50.119468,-28.957495,0.0,19.167451,20.364131,49.403361,38.158815,64.135095,53.192836,69.592807,65.849552,73.026821,0.0,56.78619,17.499939,83.425438,8.09729,83.273529,0.949699,71.795082,-3.866284,53.210678,0.0,28.79486,30.902549,56.189331,48.006574,68.533942,59.219213,79.564776,65.131914,83.910634,25.041618,281.730472,-63.943714,278.722683
143,0.189766,0.093823,0.310009,0.139803,0.0,-42.785391,-48.369112,-18.840408,-52.452741,-11.381756,-51.528099,-15.413841,-47.26981,-28.667341,0.0,18.635991,20.19165,47.922488,37.910307,63.249583,52.770439,68.969709,65.319315,73.23045,0.0,56.838867,17.442375,83.575321,8.091327,83.403545,0.97427,71.841327,-3.846462,53.219353,0.0,28.641928,30.659747,55.939081,47.817025,68.338625,59.075125,79.408301,64.985874,83.888849,25.518911,281.812173,-63.346178,278.850364
144,-0.360008,-0.387922,0.2826,0.04619,0.0,-43.58717,-48.713511,-19.654524,-52.682293,-11.791746,-51.686445,-15.405893,-47.401714,-28.509785,0.0,18.788514,21.615861,48.549625,39.143852,63.403051,53.67155,68.891446,65.828088,72.924272,0.0,56.800404,17.205219,83.476513,7.869393,83.428929,0.776619,71.804959,-4.032303,53.052899,0.0,28.622069,30.462873,55.930892,47.65998,68.28773,58.958675,79.408053,64.862929,84.006606,25.403137,281.409817,-62.819344,278.88212
145,-0.629665,-0.305195,0.282017,0.08419,0.0,-44.343184,-48.700882,-20.798258,-52.302561,-12.612402,-51.076064,-15.61991,-46.654736,-28.080065,0.0,19.818128,23.676899,49.589557,40.638421,63.574525,54.472113,68.509822,65.826285,72.24332,0.0,56.714035,17.344414,83.337913,7.998528,83.342949,0.857094,71.612411,-4.031593,52.83482,0.0,28.818115,30.25785,55.806354,47.51404,68.33387,58.91135,79.595738,64.927817,84.149275,24.986098,281.095909,-62.324701,278.957597
146,0.118675,-0.25104,0.245316,0.004557,0.0,-44.043223,-47.29921,-20.492998,-50.668047,-11.692183,-49.367655,-15.565527,-44.874344,-28.296644,0.0,20.645287,23.078463,49.967013,40.300708,64.024142,54.602839,69.477574,66.451199,73.289656,0.0,56.502079,17.40818,83.300468,8.065326,83.241645,0.859256,71.359909,-4.174691,52.654541,0.0,29.157742,30.25065,55.639258,47.505654,68.355224,58.89511,79.755202,64.918455,84.235022,25.268515,280.819604,-61.915643,278.936889
147,-0.287613,-0.45896,0.10865,0.041484,0.0,-44.750771,-47.586708,-20.912996,-50.607943,-12.054434,-49.035153,-15.439047,-44.455256,-27.754967,0.0,21.172969,24.134432,50.182645,41.439244,63.865944,55.62976,69.24383,67.164058,73.122256,0.0,56.401554,17.306659,83.086693,8.03825,83.300743,0.879501,71.504883,-4.154412,52.765136,0.0,29.457231,30.139808,55.515967,47.438223,68.338662,58.902187,79.853669,65.000497,84.38037,25.119032,280.321365,-61.668863,278.939094
148,-0.845627,-0.874164,0.097721,-0.044176,0.0,-45.853374,-49.675392,-21.034716,-52.724985,-12.213232,-50.922169,-15.223463,-46.140146,-26.590645,0.0,23.021208,26.206826,51.46598,43.577957,64.540703,57.591645,69.358798,68.608018,72.610284,0.0,56.219032,17.421238,83.107166,8.142448,83.350399,0.916214,71.452549,-4.253437,52.563984,0.0,29.790733,30.136078,55.465072,47.466838,68.447083,58.952649,80.024792,65.080896,84.499239,24.367327,279.411163,-61.47722,278.85888
149,0.109429,-0.071167,0.104599,0.031344,0.0,-46.437281,-50.749066,-19.622098,-54.198704,-10.214184,-52.505167,-14.134449,-47.668642,-26.1421,0.0,23.614741,25.145645,52.263881,42.833019,65.259225,57.444185,70.31688,69.084311,73.209578,0.0,55.979107,17.536045,83.059582,8.307781,83.393612,1.051197,71.325794,-4.24712,52.334965,0.0,30.163298,30.209438,55.382043,47.527736,68.572376,59.009324,80.092174,65.180598,84.529287,24.553294,279.313508,-61.296083,278.863736
