takenoko1/special-research/HandMotion_SimilarSearch_自分用/NewProject/handData/test_key/d4_feature_d3/35.csv
frame,vel_0x_L,vel_0y_L,vel_0x_R,vel_0y_R,posFromWrist_0x_L,posFromWrist_1x_L,posFromWrist_2x_L,posFromWrist_3x_L,posFromWrist_4x_L,posFromWrist_5x_L,posFromWrist_6x_L,posFromWrist_7x_L,posFromWrist_8x_L,posFromWrist_9x_L,posFromWrist_0y_L,posFromWrist_1y_L,posFromWrist_2y_L,posFromWrist_3y_L,posFromWrist_4y_L,posFromWrist_5y_L,posFromWrist_6y_L,posFromWrist_7y_L,posFromWrist_8y_L,posFromWrist_9y_L,posFromWrist_0x_R,posFromWrist_1x_R,posFromWrist_2x_R,posFromWrist_3x_R,posFromWrist_4x_R,posFromWrist_5x_R,posFromWrist_6x_R,posFromWrist_7x_R,posFromWrist_8x_R,posFromWrist_9x_R,posFromWrist_0y_R,posFromWrist_1y_R,posFromWrist_2y_R,posFromWrist_3y_R,posFromWrist_4y_R,posFromWrist_5y_R,posFromWrist_6y_R,posFromWrist_7y_R,posFromWrist_8y_R,posFromWrist_9y_R,posFromBody_0x_L,posFromBody_0y_L,posFromBody_0x_R,posFromBody_0y_R
6,-0.281582,0.39858,-0.222793,-0.206988,0.0,-46.583788,-47.797045,-21.400555,-50.353495,-12.028129,-48.628401,-15.845232,-43.899233,-25.973419,0.0,30.908169,25.988482,53.244669,44.056838,65.303488,58.990607,70.714454,70.700616,74.193596,0.0,57.008285,17.417198,84.347671,8.285568,83.120567,1.359627,71.444961,-3.254402,53.080307,0.0,29.535494,31.608851,56.71111,48.705885,69.455456,59.945843,79.922731,65.856494,83.444135,26.896946,278.032249,-60.381065,278.745188
7,-0.013206,0.597769,-0.190144,0.027257,0.0,-46.809603,-50.320216,-19.979519,-53.315924,-10.846184,-51.700751,-14.3468,-46.984641,-25.587948,0.0,30.473841,25.204017,53.691878,43.092235,65.391099,57.945876,70.992009,69.900021,74.080259,0.0,56.959076,17.263733,84.332394,8.171311,83.369122,1.334427,71.721279,-3.143795,53.419521,0.0,29.650745,31.426674,56.541061,48.560487,69.067552,59.884129,79.668245,65.889221,83.551,26.672356,278.621898,-60.782593,278.764325
8,0.140396,0.183411,-0.001877,-0.061775,0.0,-46.568682,-50.382277,-19.320946,-53.292155,-10.133744,-51.560435,-13.677304,-46.731005,-25.267908,0.0,30.131607,24.721018,54.312087,42.506791,65.654088,57.377433,71.059138,69.394619,74.10415,0.0,56.895756,17.131577,84.202298,8.039303,83.355595,1.215958,71.747876,-3.256805,53.499207,0.0,29.766033,31.343583,56.518917,48.49534,68.970492,59.857898,79.59391,65.922517,83.649455,26.666159,278.793304,-60.931063,278.690545
9,0.124603,-0.213657,-0.040947,-0.113757,0.0,-45.965601,-46.992399,-20.675411,-49.161512,-11.269638,-47.233171,-14.097942,-42.34881,-25.485884,0.0,29.157051,24.479636,53.867904,41.979493,65.456289,56.667637,70.543091,68.650379,74.050008,0.0,56.864766,16.90757,84.022946,7.841893,83.305607,1.091046,71.80576,-3.2952,53.649537,0.0,29.888953,31.35933,56.594265,48.455944,68.860441,59.798198,79.477844,65.851949,83.793432,26.696348,278.56353,-61.066424,278.560671
10,0.104004,-0.745154,-0.017086,-0.010238,0.0,-46.127363,-43.399275,-24.792618,-44.508997,-14.744122,-42.059801,-15.02972,-36.913656,-24.834509,0.0,27.05372,25.338016,51.51982,42.332606,64.47463,56.478396,70.114913,68.196871,74.62357,0.0,56.870854,16.794297,83.818543,7.751084,83.176689,1.048874,71.796639,-3.260215,53.784565,0.0,29.87848,31.299604,56.557943,48.377224,68.642598,59.745586,79.363359,65.838499,83.8733,26.735642,277.79192,-61.14822,278.523977
11,-0.030293,-0.798489,0.010552,0.030196,0.0,-45.276935,-37.981098,-27.824272,-38.077388,-16.791767,-35.249141,-15.33403,-29.954292,-23.08493,0.0,24.98602,25.299947,49.268147,41.884675,63.436643,55.68178,69.539264,67.22061,74.907042,0.0,56.94326,16.720184,83.683845,7.694916,83.203514,1.012172,71.866928,-3.281616,53.898731,0.0,29.807541,31.249315,56.471715,48.31046,68.540722,59.696297,79.245946,65.837647,83.956539,26.653204,276.95768,-61.189813,278.518422
12,0.000435,-0.193513,0.006569,0.094626,0.0,-45.044723,-38.367599,-27.847801,-38.524875,-16.508251,-35.691936,-15.264335,-30.353416,-23.325428,0.0,24.479074,24.704351,49.088095,41.632424,63.62597,55.807552,69.994611,67.763408,75.297662,0.0,56.996441,16.809997,83.587692,7.794983,83.153183,1.086582,71.770157,-3.262734,53.880844,0.0,29.660193,31.182563,56.349203,48.243695,68.542291,59.621098,79.1849,65.770809,83.954959,26.615644,276.702587,-61.221239,278.551468
13,-0.069282,-0.031826,-0.15271,0.070235,0.0,-44.39336,-38.416168,-27.499695,-39.011444,-16.064289,-36.441124,-14.863335,-31.230984,-23.306729,0.0,23.041931,24.217042,48.928643,41.126256,64.327034,55.399456,70.701467,67.569919,75.689913,0.0,57.146564,17.00148,83.606895,8.020546,83.292778,1.28017,71.856079,-3.145352,53.975509,0.0,29.418922,31.245153,56.245697,48.242287,68.408366,59.54659,79.009344,65.643467,83.778019,26.527874,276.610399,-61.392437,278.561341
14,-0.188862,0.581343,-0.126549,0.082524,0.0,-44.599858,-41.499825,-25.644642,-42.814688,-14.292435,-40.366636,-13.916039,-35.114937,-22.778029,0.0,22.892341,23.064847,49.107651,40.306414,64.619855,54.972304,71.490317,67.478392,75.833402,0.0,57.260433,17.177822,83.563591,8.22813,83.385361,1.461159,71.908241,-3.02718,54.031265,0.0,29.199707,31.257354,56.143981,48.23889,68.32052,59.525038,78.913123,65.613666,83.632251,26.331076,277.126074,-61.526922,278.578197
15,-0.640297,1.349469,-0.086884,0.169196,0.0,-44.43496,-46.777176,-21.2295,-49.00355,-10.581516,-46.787745,-12.055275,-41.490349,-22.338209,0.0,24.150975,21.236849,50.223246,39.133984,64.734192,54.447104,71.583486,67.465523,74.800639,0.0,57.325539,17.456646,83.586297,8.517689,83.450318,1.663845,71.81955,-2.987709,53.862397,0.0,28.904108,31.258157,55.971055,48.175139,68.284803,59.384692,78.808074,65.416595,83.407726,25.697153,278.412082,-61.607432,278.683932
16,-0.520546,1.214223,-0.093601,0.114769,0.0,-44.089497,-51.739117,-17.739967,-54.87945,-7.943539,-52.898638,-10.695488,-47.492867,-22.819857,0.0,25.781532,21.348284,52.897706,39.075753,66.008757,54.310562,71.658698,67.123043,73.854635,0.0,57.32729,17.749809,83.680058,8.792954,83.469212,1.806484,71.638012,-3.070164,53.532189,0.0,28.619649,31.230394,55.823348,48.110351,68.256225,59.24773,78.716325,65.220909,83.144546,25.196577,279.562205,-61.681063,278.734601
17,-0.760906,1.308769,-0.146175,0.018105,0.0,-43.592909,-50.516567,-17.277558,-53.323551,-7.306687,-51.145529,-9.571827,-45.497767,-21.256886,0.0,26.156079,22.196352,53.253753,38.522303,65.381768,52.477445,69.743663,64.041198,71.574915,0.0,57.475433,17.916241,83.685242,9.019317,83.629898,2.002247,71.736786,-2.995846,53.560329,0.0,28.369078,31.192715,55.733045,48.063211,68.409095,59.207394,78.783448,65.218587,83.065432,24.48325,280.833825,-61.779659,278.715557
18,-0.950867,2.350369,-0.040157,-0.196317,0.0,-45.011129,-51.423489,-17.373138,-53.609779,-7.105362,-51.035974,-8.700176,-45.038961,-20.13731,0.0,28.143083,22.568176,52.488307,37.311698,62.714978,49.657872,66.435891,59.822286,67.69095,0.0,57.513599,18.177577,83.986003,9.144149,83.646228,1.9258,71.330646,-3.361199,52.924163,0.0,27.976407,30.92746,55.524118,47.893867,68.891032,59.140618,79.303893,65.268457,83.057281,23.596327,283.148478,-61.755872,278.483524
19,-0.298267,2.953522,-0.25224,-0.95802,0.0,-47.003443,-49.487584,-18.399788,-50.965845,-7.496304,-48.079903,-8.46864,-41.921648,-19.716013,0.0,32.888671,21.671048,50.900809,34.135609,58.924935,44.522905,61.411544,52.886752,62.32655,0.0,57.496182,18.164887,83.911446,8.855622,83.43116,1.425579,70.666718,-4.150863,51.010975,0.0,27.479748,29.927041,55.811418,46.913616,69.956572,58.344321,80.132163,64.754001,83.002409,23.363829,286.072029,-61.942343,277.495533
20,3.368339,2.084558,-0.693683,-2.69406,0.0,-49.642027,-47.092947,-26.242773,-48.894957,-16.49101,-46.731742,-17.212566,-41.409874,-26.556564,0.0,37.43113,21.943818,49.458146,29.595941,53.602149,35.48246,52.228258,39.61875,51.37244,0.0,57.003387,17.432968,83.156261,8.148159,82.326107,0.723346,69.28775,-4.943711,48.938976,0.0,26.102035,27.705879,55.536839,44.705915,70.781398,56.547977,80.719682,63.712643,82.99416,26.820711,288.135311,-62.547483,274.780197
21,6.810562,1.530867,-0.361554,-4.594033,0.0,-54.053506,-46.25295,-40.638307,-49.251257,-33.8892,-48.580547,-34.714771,-44.963745,-40.559543,0.0,41.548524,22.165835,46.460213,23.356383,45.452132,22.864701,38.942681,21.091625,34.943978,0.0,56.737736,17.897439,79.748257,8.408638,77.311959,0.436856,64.543213,-5.995273,45.232487,0.0,26.689022,24.703389,56.386994,41.332132,72.996373,53.506325,81.09116,61.77447,81.484473,33.734682,289.655952,-62.805628,270.175938
22,6.207402,-6.092994,-3.470214,-11.050625,0.0,-55.237988,-43.408064,-49.783808,-45.436444,-44.31264,-44.311867,-44.4012,-40.778807,-47.061282,0.0,44.527296,22.04541,44.980865,19.93086,42.546985,15.962482,34.001593,10.385172,27.927865,0.0,56.674776,21.986566,75.487495,13.301347,71.914278,5.068582,59.441145,-2.347813,41.62116,0.0,25.353935,20.25642,53.051551,36.736419,70.075245,49.588298,77.386845,59.2862,77.118669,40.093815,283.494159,-66.124111,259.056514
23,4.196365,-13.441533,-6.663964,-17.35231,0.0,-51.500564,-41.133802,-54.429892,-41.422852,-49.033258,-38.425918,-46.844971,-33.322374,-44.882532,0.0,44.338192,22.805977,43.156474,20.727835,40.73608,16.589372,32.222662,10.569238,26.112452,0.0,56.976008,29.600161,69.93861,22.922076,66.30451,14.934306,54.637053,6.562374,38.950201,0.0,22.466485,14.330517,45.705092,30.893496,61.939961,44.82765,69.449039,56.364813,70.180096,44.463089,269.988727,-72.615166,241.640305
24,11.715981,-30.482387,-8.613807,-25.434785,0.0,-52.023846,-40.283472,-65.771674,-38.609551,-61.643206,-33.853787,-57.407273,-26.956358,-49.600165,0.0,32.167988,22.896824,45.879951,21.663354,46.031573,18.221904,38.783668,12.864748,31.704162,0.0,56.582902,34.688993,66.410648,29.487997,61.166559,21.806574,50.575281,12.970619,37.83867,0.0,17.286416,9.40607,37.012116,25.877622,52.43745,40.252784,60.071214,52.674991,62.063141,56.297574,239.70165,-81.110469,216.40083
25,10.612426,-38.360782,-7.737923,-30.627624,0.0,-48.920917,-44.115852,-66.954368,-41.728386,-63.012153,-35.652546,-56.968483,-27.080566,-47.73048,0.0,15.259447,21.424756,44.737747,24.209823,48.598655,24.770443,44.901435,23.140047,40.454504,0.0,56.99663,32.518255,59.605751,26.789686,53.67592,19.325117,43.569677,11.179081,32.378054,0.0,14.754254,0.152913,25.18091,16.151215,38.619955,31.400727,46.460856,45.593528,50.356621,67.116497,201.63614,-88.641895,186.068478
26,8.987824,-47.013991,-8.391117,-32.887763,0.0,-43.618378,-43.215317,-61.833676,-37.573563,-55.239269,-28.293068,-47.520447,-16.548317,-38.680287,0.0,-2.69364,15.651784,40.900786,24.191489,50.156123,30.813838,51.847578,35.035973,51.517813,0.0,55.488905,29.906965,54.752689,23.856508,48.911093,16.602098,39.047613,9.174248,28.44187,0.0,5.039408,-10.500108,8.221376,2.989831,17.471933,17.072569,26.117034,30.928484,31.813448,76.504732,155.098967,-96.632601,153.657533
27,9.592804,-43.854254,-6.5705,-32.633574,0.0,-44.0308,-36.941689,-58.600949,-29.82779,-52.196892,-20.217728,-43.822815,-8.923142,-35.806572,0.0,-14.775614,1.882246,26.893768,12.359012,38.981547,22.962478,44.335623,32.762385,47.319187,0.0,54.201519,22.739823,49.868386,14.890847,43.406651,7.353287,34.343331,0.965126,25.775608,0.0,-2.095815,-22.005623,-5.998274,-10.696523,1.478169,2.791786,10.581014,17.145657,16.602988,86.665369,111.819066,-102.635268,121.598312
28,10.975021,-45.453737,-4.584182,-30.195037,0.0,-47.541229,-29.481697,-55.408722,-21.010139,-50.07431,-11.843994,-42.441719,-2.071243,-35.100632,0.0,-24.249201,-12.724679,13.336582,-3.278175,26.857743,8.294921,33.827314,20.422893,37.854534,0.0,54.108501,10.78149,48.205753,1.339622,41.680355,-5.960221,33.719272,-10.736744,22.797786,0.0,-9.154906,-30.710394,-22.868265,-22.257961,-17.712223,-10.577494,-10.067114,3.170816,-2.950392,98.417147,67.099084,-106.442693,92.13703
29,4.568779,-36.668407,-4.099274,-25.01734,0.0,-45.520889,-23.597259,-46.845154,-15.15303,-42.194092,-6.749588,-34.589813,1.513229,-29.834541,0.0,-28.800954,-23.735543,-5.254281,-15.501188,7.750337,-4.058929,14.717346,8.914499,19.42319,0.0,54.654717,2.059387,46.532936,-8.69775,42.181812,-15.93623,34.932598,-19.34911,22.270031,0.0,-15.494845,-42.89966,-38.161612,-37.811012,-35.879719,-27.594678,-30.29976,-13.78284,-23.675163,104.411957,31.375141,-109.115936,68.064154
30,3.868813,-30.12027,-4.674122,-22.30901,0.0,-41.823349,-11.859536,-46.293091,-2.359383,-43.425156,5.878898,-34.490479,13.154365,-23.07145,0.0,-32.167519,-33.802256,-20.701585,-27.898929,-10.11,-17.531196,-4.85919,-4.647793,-1.413955,0.0,55.298641,0.649967,48.141163,-9.626621,44.951775,-16.756256,38.877537,-20.276367,24.849758,0.0,-22.895928,-48.08649,-50.926083,-45.878833,-50.071482,-37.867143,-46.065659,-25.469062,-40.692657,109.811606,3.445346,-112.259222,47.945619
31,0.574716,-23.7784,-4.32661,-20.147214,0.0,-39.849981,-4.846098,-44.918472,4.264658,-45.074833,11.335007,-35.065515,16.926888,-18.57879,0.0,-34.878269,-41.419671,-35.554948,-37.056547,-25.884236,-27.160406,-20.734459,-13.936564,-18.05212,0.0,57.393299,-1.300221,49.71389,-10.966542,47.73769,-17.506794,43.09505,-20.686375,28.29816,0.0,-25.354404,-50.546757,-61.352881,-49.128356,-59.509804,-41.735905,-56.679264,-29.532134,-51.801624,111.495483,-17.522851,-115.476671,30.608608
32,-0.708492,-23.067407,-2.644638,-15.747812,0.0,-35.026263,-4.996004,-46.153587,3.342848,-48.625156,10.083618,-38.140715,15.847847,-17.541052,0.0,-43.032497,-41.73656,-43.510859,-37.625932,-34.1439,-28.294335,-29.274945,-15.873526,-26.77987,0.0,59.461761,-2.221699,52.680759,-11.023087,50.90308,-16.880253,47.494365,-19.936627,29.921299,0.0,-28.694194,-50.18272,-70.300183,-50.02417,-68.491618,-44.279269,-68.290726,-33.667443,-63.521204,111.439442,-37.30304,-117.468858,18.148014
33,-1.361063,-17.872512,0.128173,-12.587655,0.0,-31.664051,-5.547009,-51.095284,1.366596,-56.614906,7.042419,-46.576824,12.250763,-25.146183,0.0,-51.338225,-43.135542,-53.325581,-39.024985,-42.521183,-29.825116,-36.760067,-17.632139,-33.381467,0.0,60.07481,-1.989692,53.377842,-11.355125,51.888565,-17.540531,47.939701,-20.952873,30.719662,0.0,-30.129397,-51.705664,-72.294042,-52.241732,-70.235178,-47.187213,-70.629924,-37.396661,-67.136215,110.318384,-51.736218,-117.10068,8.999693
34,-4.379128,-13.400445,3.768872,-9.812548,0.0,-29.168644,-5.473995,-53.471946,1.15202,-61.761245,6.125794,-53.365688,10.535317,-32.068576,0.0,-55.935129,-46.873618,-63.788423,-42.69953,-50.354265,-32.927419,-41.896188,-20.05499,-36.020821,0.0,60.910869,-2.741375,53.277156,-12.171891,51.821445,-18.114029,47.750461,-21.520901,29.65662,0.0,-29.866229,-51.300847,-75.28735,-51.661451,-72.923408,-46.744747,-72.538592,-37.338677,-68.188294,105.354194,-61.686003,-113.91687,2.637805
35,-7.575096,-10.564792,6.264736,-6.223237,0.0,-31.7803,-5.487819,-54.42366,1.734799,-62.410194,6.653893,-55.930767,10.489266,-39.667385,0.0,-56.662959,-50.8808,-69.382123,-46.625244,-54.084805,-36.525865,-43.092811,-23.197357,-35.515548,0.0,60.706959,-2.853195,54.084858,-12.466519,53.380245,-18.22189,49.564201,-21.282852,31.505447,0.0,-29.958694,-53.11245,-76.743777,-53.175985,-74.826661,-48.217501,-74.277305,-39.061187,-69.331782,96.649183,-69.947983,-108.782049,-1.28262
36,-9.825205,-9.180984,8.611896,-4.758178,0.0,-33.71256,-4.374521,-52.69297,3.189589,-61.965408,7.94735,-57.128528,11.168141,-43.860128,0.0,-56.579646,-52.819053,-74.644709,-48.417818,-56.146027,-38.155696,-43.137571,-24.61474,-34.370145,0.0,60.149769,-3.234844,56.116963,-12.904918,56.84943,-18.051361,53.265942,-20.094177,34.111245,0.0,-29.884088,-55.844016,-77.128821,-55.189863,-76.029726,-49.546746,-74.264856,-40.050218,-67.887996,85.866949,-77.624709,-101.127182,-4.53654
37,-12.075313,-7.797178,10.697102,-3.302091,0.0,-34.965425,-2.1341,-48.279877,5.51639,-60.426888,10.006164,-56.958973,12.571941,-44.646807,0.0,-55.685188,-52.688375,-79.576177,-48.077249,-56.537929,-37.816908,-42.030463,-24.307136,-32.584611,0.0,59.11647,-3.891701,58.009735,-13.234623,61.280582,-17.402218,57.574448,-17.952873,37.58004,0.0,-29.884223,-58.875288,-77.529242,-57.572441,-77.925377,-51.139067,-74.121638,-41.144917,-66.437522,72.94158,-84.44418,-91.280136,-6.860924
38,-11.491819,-3.914497,11.34692,-2.620997,0.0,-35.035103,0.209713,-44.441907,7.754756,-58.923295,11.788238,-57.745921,13.407932,-47.132252,0.0,-55.528381,-52.198656,-81.557537,-47.826543,-57.182678,-37.880634,-42.058965,-24.577235,-31.046906,0.0,57.73661,-4.158005,60.35939,-13.085415,64.475647,-16.22208,61.928398,-15.355694,42.070702,0.0,-29.79432,-61.190527,-76.573339,-59.326251,-77.45934,-52.090819,-72.560624,-41.430821,-64.474315,60.746888,-87.727693,-80.636089,-8.850937
39,-10.333283,-1.751464,11.414612,-1.35946,0.0,-33.591625,2.849774,-42.56543,9.271168,-57.771583,11.970749,-59.481966,12.061008,-49.333511,0.0,-56.075255,-49.622839,-78.068484,-45.164149,-54.470551,-35.395186,-40.033276,-22.461357,-29.420387,0.0,56.499962,-3.472561,62.151214,-11.792359,66.952068,-14.157967,65.250686,-12.36335,46.702286,0.0,-30.381616,-62.380476,-74.306234,-60.397145,-74.504768,-52.798905,-69.152575,-41.718448,-61.706921,49.996971,-89.175438,-69.638111,-9.906678
40,-10.22271,-1.046336,10.360828,-1.068072,0.0,-32.382728,4.096974,-37.194774,10.16724,-55.641792,12.138291,-59.715723,11.458706,-51.251415,0.0,-54.68965,-47.639635,-80.279029,-43.096446,-51.620988,-33.451224,-36.710431,-20.630457,-27.004156,0.0,56.240559,-3.837169,62.477612,-11.722126,67.72633,-13.571857,66.270447,-10.977756,49.172413,0.0,-31.440593,-62.62292,-71.786484,-60.763819,-71.136178,-52.862434,-65.432978,-41.42464,-58.58603,39.751236,-90.152403,-59.300308,-10.905379
41,-6.316383,0.820685,8.419922,-1.297499,0.0,-31.756279,4.517349,-35.446106,10.096756,-55.641003,11.261581,-60.8363,9.728508,-54.19566,0.0,-52.837416,-46.346494,-80.435457,-41.874118,-49.516433,-32.496784,-34.912377,-19.92989,-25.559138,0.0,56.601208,-4.780987,61.838253,-12.56488,67.341637,-14.199772,65.627026,-11.159363,49.947704,0.0,-31.671157,-62.107966,-67.832038,-60.2949,-66.197041,-51.935641,-60.508006,-39.916838,-53.828285,33.460464,-89.251718,-50.854775,-12.122878
42,-1.811348,2.833677,6.122852,-0.243908,0.0,-31.816463,3.093727,-36.455452,8.231186,-58.141193,8.710327,-63.910927,6.511917,-58.868385,0.0,-51.939544,-46.123689,-80.023038,-41.872593,-47.923655,-32.739451,-33.881478,-20.430192,-24.78798,0.0,56.535187,-5.499664,61.311402,-13.197487,66.887341,-14.736431,64.678975,-11.546516,50.069378,0.0,-32.104744,-61.671779,-64.035505,-60.086782,-61.533483,-51.528521,-56.249266,-39.176036,-50.325116,31.868214,-86.281353,-44.512825,-12.230098
43,-1.223465,2.275898,4.428566,-0.06101,0.0,-32.821712,2.008759,-37.178375,6.852699,-60.902206,6.906441,-65.045826,4.471161,-59.046467,0.0,-49.423471,-45.572638,-80.072713,-41.130977,-44.280615,-31.974833,-30.885849,-19.847935,-23.514588,0.0,56.275784,-7.098095,59.382031,-14.753162,65.20142,-16.253151,62.596287,-12.763744,49.102375,0.0,-32.751819,-60.626023,-61.794285,-59.192494,-58.27035,-50.467636,-53.270907,-37.969427,-47.250273,30.959564,-83.831905,-39.769444,-12.117558
44,-1.416847,3.272025,2.269169,0.030956,0.0,-35.658417,1.532822,-37.455128,6.886276,-63.03019,7.296638,-65.161114,5.144485,-58.128136,0.0,-45.344653,-46.36526,-82.709441,-42.428353,-43.512218,-33.664164,-31.051584,-21.734985,-23.982403,0.0,55.797638,-8.397732,54.662441,-16.267696,62.129769,-18.133827,60.022522,-14.8587,47.039669,0.0,-32.681992,-59.064424,-63.305146,-57.638736,-57.572318,-48.909562,-52.451529,-36.628863,-45.661095,29.814451,-80.526331,-37.228541,-12.053053
45,1.069244,1.647822,1.104881,0.010806,0.0,-37.28627,0.463738,-39.136711,5.595406,-65.940445,5.831085,-66.468235,3.490608,-58.559211,0.0,-43.611161,-46.156738,-83.102439,-42.062658,-42.440246,-33.262076,-30.376275,-21.33746,-22.40702,0.0,54.483674,-9.053295,48.920563,-16.928272,59.956833,-18.866409,59.062569,-15.571495,46.129864,0.0,-32.249511,-57.83693,-67.084073,-56.059364,-57.000268,-47.034128,-51.146928,-34.666589,-43.473791,31.09346,-78.819985,-35.913895,-11.983723
46,0.606331,1.417067,0.655564,0.940193,0.0,-38.317062,-0.12149,-39.706489,5.035469,-67.341076,5.203583,-67.457565,2.685402,-58.782612,0.0,-42.787904,-46.101737,-83.270474,-41.946771,-41.722667,-32.949594,-29.560145,-20.795656,-20.943431,0.0,53.80767,-8.285843,45.122394,-16.300266,59.132744,-18.82235,58.609039,-16.197613,45.549259,0.0,-32.482532,-57.023251,-71.13908,-55.159444,-56.162642,-46.113009,-49.733701,-33.902446,-42.05308,31.912119,-77.394848,-35.046003,-11.03546
47,0.493401,1.023476,0.447475,0.930647,0.0,-38.387352,-0.361496,-39.87378,4.830963,-68.680218,4.88594,-68.415745,2.195022,-59.420094,0.0,-42.07696,-46.199198,-83.034211,-41.907152,-40.156065,-32.702339,-28.39053,-20.307914,-19.541332,0.0,53.417027,-8.061104,42.071846,-16.262935,58.0024,-19.280925,58.342518,-17.03429,45.198098,0.0,-32.277601,-56.671311,-74.680368,-54.731681,-56.145908,-45.538033,-49.207026,-33.281928,-41.125731,32.54016,-76.444833,-34.463888,-10.178274
48,0.46257,0.702164,0.069077,0.967302,0.0,-38.349117,-0.522743,-40.658535,4.641724,-69.931023,4.561546,-69.886002,1.630417,-60.823174,0.0,-41.7632,-46.201974,-82.62148,-41.991318,-39.362152,-32.779404,-28.230362,-20.255142,-19.332109,0.0,53.474521,-7.914036,42.049621,-16.065685,58.393833,-19.130871,59.534763,-16.979496,45.995041,0.0,-32.328811,-56.966318,-76.011324,-55.049789,-56.501183,-45.800281,-49.12877,-33.496246,-41.216591,33.065174,-75.910164,-34.332367,-9.378467
49,0.899002,0.368322,0.176124,0.374133,0.0,-37.760948,-1.640099,-42.065266,3.508667,-72.056728,3.534805,-71.011746,0.770988,-61.240219,0.0,-41.587908,-45.856374,-81.078797,-41.598887,-37.710735,-32.263744,-26.708066,-19.589287,-17.768199,0.0,53.791317,-8.426548,45.393368,-16.55373,60.279019,-19.357177,61.144856,-16.856701,47.503109,0.0,-32.343612,-57.523288,-73.821327,-55.460404,-56.130291,-45.965407,-48.785048,-33.371442,-41.11519,34.01136,-75.777812,-34.109059,-9.240304
50,0.145134,1.183898,0.07449,0.766137,0.0,-37.075516,-1.939156,-46.219666,3.233322,-73.18095,3.330666,-71.62151,0.722717,-61.439243,0.0,-41.740636,-46.254857,-76.26414,-42.309252,-37.367694,-33.037638,-26.640468,-20.413025,-17.827418,0.0,54.715965,-8.228027,50.911411,-16.356857,62.16346,-19.190975,62.19072,-16.892395,48.161407,0.0,-32.757389,-57.560702,-69.745392,-55.684329,-56.04639,-46.312346,-49.028135,-33.726982,-41.793592,34.204479,-74.863297,-33.986584,-8.74355
51,0.888748,1.530687,0.082157,0.503779,0.0,-36.864876,-3.000572,-53.267074,2.055382,-75.997261,2.065796,-73.630176,-0.608162,-63.653492,0.0,-41.953007,-47.332079,-70.172387,-43.739206,-37.99412,-34.499936,-28.378988,-21.847851,-19.612344,0.0,54.841015,-9.128494,54.571758,-16.956802,62.810955,-19.206322,62.992046,-16.32312,48.789333,0.0,-33.17628,-57.596444,-67.0057,-55.669639,-58.009677,-46.277235,-50.898358,-33.638624,-43.403229,35.11952,-73.622821,-33.878134,-8.529982
52,0.605553,1.625172,0.069889,-0.064153,0.0,-37.211792,-3.690674,-61.569866,1.17659,-78.105458,1.110374,-75.186722,-1.681023,-65.730583,0.0,-41.215639,-48.216586,-62.315882,-45.165572,-39.292571,-36.130258,-30.823885,-23.603249,-22.310535,0.0,55.207924,-9.320537,57.259506,-17.064159,63.553574,-19.126247,63.379212,-16.176601,48.956978,0.0,-33.499432,-57.104823,-64.415263,-55.058334,-58.92102,-45.650955,-51.54523,-32.941504,-43.550534,35.74054,-72.270667,-33.792778,-8.867153
53,0.949356,1.416129,-0.005653,-0.015345,0.0,-36.791519,-4.705628,-68.752819,-0.071892,-79.747135,-0.1623,-76.266655,-2.94912,-66.888989,0.0,-41.953199,-48.388765,-54.065836,-45.539916,-40.031829,-36.586236,-32.734721,-24.26835,-24.025258,0.0,55.69535,-9.05896,58.036468,-16.827656,64.095657,-18.957379,63.676483,-16.160134,48.881058,0.0,-33.528905,-56.744244,-63.843967,-54.61007,-59.415888,-45.25256,-52.101817,-32.544418,-43.78931,36.693346,-71.054319,-33.794981,-9.082279
54,1.136535,1.232415,0.186836,0.128157,0.0,-36.158168,-5.52317,-74.18684,-1.162216,-81.149665,-1.424583,-77.563591,-4.435638,-68.437797,0.0,-43.042137,-48.290848,-47.237673,-45.531389,-40.913353,-36.705971,-35.039364,-24.664813,-26.232761,0.0,55.928787,-8.65876,57.990189,-16.499725,63.826332,-18.844002,63.315651,-16.389805,48.068047,0.0,-33.564795,-56.490746,-63.72837,-54.319441,-59.548226,-45.017582,-52.084601,-32.284326,-43.672769,37.82274,-69.965418,-33.615286,-9.097636
55,0.65474,0.649503,0.410259,-0.236986,0.0,-36.19281,-5.741844,-75.602852,-1.548454,-81.707039,-1.994339,-78.320183,-5.309235,-69.474106,0.0,-43.318346,-47.908693,-44.240595,-45.220988,-41.559071,-36.481915,-36.623064,-24.591318,-27.828033,0.0,55.692799,-8.862899,57.597187,-16.712906,63.379544,-19.013557,63.053822,-16.475063,47.670101,0.0,-33.575631,-56.502757,-64.02337,-54.205092,-59.810825,-44.878279,-52.368548,-32.138082,-43.938308,38.428843,-69.431336,-33.253664,-9.450043
56,0.371979,-0.129911,0.269898,-0.05602,0.0,-35.070671,-6.109887,-74.996624,-2.049042,-81.526863,-2.347641,-78.161671,-5.358834,-68.804478,0.0,-44.282116,-46.733341,-42.342813,-44.047445,-40.320444,-35.606424,-35.868974,-24.189495,-27.46641,0.0,55.812458,-8.632256,58.056553,-16.550995,63.774776,-18.986058,63.284534,-16.593098,47.382786,0.0,-33.835205,-56.415701,-62.534864,-54.1689,-58.885773,-44.924573,-51.945805,-32.223304,-43.921641,38.745284,-69.628659,-33.039304,-9.573475
57,-0.078667,-0.217114,0.636211,-0.231662,0.0,-34.16819,-5.766289,-73.510265,-1.765366,-80.51096,-2.054604,-77.37093,-4.990974,-67.564499,0.0,-44.825112,-45.577763,-41.536149,-42.740418,-39.920085,-34.466746,-35.656689,-23.405728,-27.121176,0.0,55.599106,-8.888935,58.186569,-16.76239,63.804794,-19.086399,63.344101,-16.568241,47.098251,0.0,-34.053618,-56.392051,-61.357482,-54.097202,-58.069075,-44.903153,-51.503852,-32.280522,-43.982003,38.607233,-69.900453,-32.462477,-9.859817
58,-0.190636,-0.096837,0.405396,-0.160064,0.0,-33.567192,-5.322716,-72.745994,-1.276268,-79.960773,-1.541725,-77.060932,-4.474983,-66.957,0.0,-43.860182,-45.079258,-41.278125,-42.370064,-39.716124,-34.353026,-35.838778,-23.577191,-27.362157,0.0,55.392631,-8.894394,58.329826,-16.707287,63.890808,-18.975506,63.340255,-16.452885,46.888755,0.0,-34.446751,-56.255218,-60.071875,-53.944808,-56.908358,-44.769641,-50.707061,-32.205538,-43.719687,38.357071,-70.037434,-32.116607,-10.060025
59,-0.188369,0.364105,0.387794,0.016617,0.0,-33.548138,-4.908898,-72.279385,-0.871125,-79.288788,-1.133057,-76.448479,-4.043015,-66.189389,0.0,-42.757294,-44.890117,-41.381483,-42.274832,-39.718174,-34.459725,-36.003683,-23.973245,-27.911619,0.0,54.94281,-8.909168,58.246079,-16.641987,63.847183,-18.868355,63.274635,-16.333397,46.632843,0.0,-35.12414,-56.050274,-59.785989,-53.687747,-56.502855,-44.529753,-50.433976,-32.057337,-43.64834,38.106131,-69.720223,-31.791384,-10.090302
60,0.363441,-0.21076,0.336411,0.29802,0.0,-33.126297,-5.021668,-72.128643,-0.988815,-79.148094,-1.194489,-76.412888,-4.025505,-65.921345,0.0,-42.536766,-44.479433,-41.223285,-41.776816,-39.754428,-33.923837,-36.014082,-23.405753,-27.823705,0.0,55.111015,-8.82938,58.253563,-16.534596,63.713607,-18.817108,62.867592,-16.438855,46.294326,0.0,-35.48183,-55.887698,-59.275357,-53.514216,-56.227474,-44.400769,-50.309518,-31.961636,-43.507333,38.428356,-69.959811,-31.496189,-9.82111
61,0.573807,0.105482,0.691955,0.435464,0.0,-33.416405,-5.048836,-72.34932,-1.077805,-79.32993,-1.379631,-76.734982,-4.327149,-66.305764,0.0,-41.42934,-44.353098,-41.491269,-41.616388,-40.130043,-33.703585,-36.315313,-23.089801,-27.875921,0.0,55.323555,-8.849109,57.659134,-16.554577,63.217873,-18.895157,62.01352,-16.636734,45.329155,0.0,-35.489962,-55.802118,-58.64604,-53.474924,-55.16867,-44.422024,-49.876067,-32.14422,-43.813072,38.92083,-69.881505,-30.885567,-9.412822
62,0.764328,-0.192977,0.526829,0.486235,0.0,-33.191105,-5.59607,-73.037922,-1.700798,-80.079266,-1.975136,-77.416123,-4.944809,-66.915253,0.0,-41.510306,-44.092721,-41.381143,-41.260526,-40.053737,-33.203418,-36.158521,-22.358688,-27.518787,0.0,55.849537,-8.769333,56.709629,-16.482456,62.474819,-18.955547,61.165226,-16.901859,44.423939,0.0,-35.487344,-55.612063,-59.358954,-53.30164,-54.974243,-44.261695,-49.728897,-32.142182,-44.062642,39.582499,-70.112165,-30.461397,-8.96427
63,0.931617,-0.22763,0.820026,0.351601,0.0,-33.222404,-6.510108,-73.7238,-2.85894,-80.9664,-3.117393,-78.107151,-5.867797,-67.319698,0.0,-42.107198,-43.596223,-41.067056,-40.640947,-39.793361,-32.485379,-35.588207,-21.499129,-26.937111,0.0,56.326699,-9.084766,55.708214,-16.776443,61.520394,-19.286682,60.06482,-17.273071,43.370133,0.0,-35.023864,-55.370292,-59.366852,-53.149506,-54.72981,-44.183396,-49.769887,-32.234814,-44.544308,40.31987,-70.388229,-29.835617,-8.661103
64,0.76204,-0.478992,0.820507,0.040422,0.0,-32.747074,-7.121247,-73.864975,-3.588616,-81.30605,-3.819466,-78.42952,-6.482964,-67.612473,0.0,-42.812734,-43.050423,-40.755704,-39.955746,-39.527896,-31.661962,-35.069788,-20.487879,-26.01848,0.0,56.85545,-9.413486,54.95184,-17.087425,60.630421,-19.66436,58.961209,-17.757087,42.270047,0.0,-34.587518,-54.942559,-59.159865,-52.695554,-54.443597,-43.738107,-49.741217,-31.917442,-44.873166,40.823107,-70.90316,-29.273913,-8.65662
65,0.530502,-0.017278,0.782307,-0.20495,0.0,-32.342033,-7.396454,-73.795784,-4.072357,-81.034081,-4.395653,-77.989815,-7.06485,-67.55127,0.0,-42.418908,-42.522692,-40.867768,-39.454666,-39.375033,-31.336852,-34.887402,-20.419379,-25.806034,0.0,56.94381,-9.742435,54.235794,-17.367611,59.953652,-19.951218,58.250725,-18.056785,41.291634,0.0,-34.382234,-54.533098,-59.16294,-52.271903,-54.202523,-43.323564,-49.572471,-31.589152,-44.886127,41.074036,-70.954327,-28.771179,-8.895459
66,0.496994,-0.37388,0.497543,-0.434007,0.0,-32.666988,-7.723869,-73.617783,-4.493179,-80.595852,-4.849548,-77.520916,-7.538452,-67.385559,0.0,-42.519864,-42.245729,-40.859692,-39.04602,-39.281326,-30.834667,-34.656937,-19.873987,-25.511689,0.0,56.83239,-10.102752,53.784325,-17.635917,59.40976,-20.116584,57.894379,-18.17379,40.880677,0.0,-34.203053,-53.989008,-59.601219,-51.662216,-54.828388,-42.767884,-49.880612,-31.09106,-44.570113,41.340042,-71.349887,-28.504624,-9.351146
67,-0.019226,-0.10697,0.500416,-0.460182,0.0,-33.094631,-7.488304,-73.090897,-4.140152,-79.967068,-4.418358,-76.879109,-7.004677,-66.734402,0.0,-42.61052,-42.376745,-40.880829,-39.285285,-39.182186,-31.141295,-34.663625,-20.261403,-25.584141,0.0,56.681454,-10.469639,53.831532,-17.948089,59.170841,-20.280452,57.778416,-18.256416,40.461949,0.0,-34.061984,-53.481334,-58.399606,-51.086178,-54.30732,-42.222635,-49.505219,-30.567294,-43.96144,41.086699,-71.442164,-28.238325,-9.796635
68,-0.774788,0.206469,0.405842,-0.627922,0.0,-33.988518,-6.347855,-72.019421,-2.726166,-78.432484,-2.941589,-75.581017,-5.637039,-66.086472,0.0,-41.828828,-43.063904,-41.484508,-40.082841,-39.878386,-31.861799,-35.374224,-20.799663,-26.141086,0.0,56.297424,-10.854458,53.530518,-18.260765,58.701897,-20.451588,57.440369,-18.327564,40.379746,0.0,-34.198452,-52.96862,-57.977381,-50.426152,-54.266509,-41.579664,-49.312792,-29.902476,-43.066589,40.122757,-71.201167,-28.021637,-10.390029
69,-0.426819,0.147348,0.284054,-0.593964,0.0,-34.860123,-6.161018,-72.188919,-2.267052,-78.437015,-2.236793,-75.415066,-4.707115,-65.876964,0.0,-41.234899,-43.925643,-42.138351,-40.995369,-40.549556,-32.602402,-35.757953,-21.180292,-26.139431,0.0,55.995197,-11.401211,53.438312,-18.804245,58.594288,-20.806984,57.545093,-18.467114,40.128147,0.0,-34.255992,-52.661048,-56.781789,-50.045776,-53.468824,-41.187735,-48.67136,-29.475609,-42.024422,39.508169,-70.98971,-27.925352,-10.919884
70,-0.06578,-0.184108,0.76387,0.281063,0.0,-36.261075,-6.415261,-72.750847,-2.155655,-79.080494,-1.706864,-75.823838,-3.815712,-65.181279,0.0,-41.344779,-44.469862,-42.264181,-41.417996,-40.43036,-32.719018,-35.41548,-20.893394,-25.601937,0.0,54.438503,-9.550026,50.401348,-17.922363,57.233242,-20.751388,56.96513,-18.791862,41.382626,0.0,-34.728179,-54.910122,-64.57051,-52.080143,-58.202369,-42.63916,-49.934489,-29.783144,-41.79597,39.19106,-71.083733,-27.412811,-10.548736
71,-0.104393,0.448832,-0.286136,0.602122,0.0,-36.968846,-6.273285,-72.689633,-1.760605,-79.219815,-1.058487,-75.671505,-2.977776,-64.285344,0.0,-41.002001,-44.575214,-42.49052,-41.51248,-40.699319,-32.807549,-35.762936,-21.065597,-25.926416,0.0,54.348793,-7.767357,47.366729,-16.574879,57.491294,-19.929051,57.281272,-18.159611,43.27819,0.0,-34.814364,-56.356057,-71.902791,-53.875067,-60.621065,-44.372982,-50.558761,-31.017343,-41.675205,38.756453,-70.525677,-28.029161,-9.83739
72,0.914955,0.372238,-0.091027,0.805491,0.0,-37.162983,-7.22168,-73.346913,-2.841156,-79.946457,-2.027207,-76.133973,-3.726494,-64.483612,0.0,-40.41533,-44.141621,-42.402618,-40.984267,-40.600877,-32.281627,-35.513181,-20.646324,-25.651461,0.0,53.933739,-6.693249,44.90577,-15.910274,58.114334,-19.721226,57.472367,-18.028026,44.995308,0.0,-35.318741,-57.996024,-78.000472,-55.863406,-61.068688,-46.329976,-49.876765,-32.61298,-41.009147,39.303074,-70.023593,-28.488522,-8.902053
73,1.900612,0.1704,0.097492,0.716774,0.0,-36.433457,-8.728913,-74.712605,-4.635315,-81.679986,-3.881745,-77.554688,-5.528847,-65.298146,0.0,-40.77116,-42.890595,-41.777611,-39.625992,-40.153606,-31.091258,-34.871754,-19.774958,-24.736245,0.0,53.121518,-5.821266,41.608624,-15.500988,57.856739,-19.724018,57.661824,-18.067611,46.304341,0.0,-36.399664,-59.496646,-83.961461,-57.574862,-62.158132,-47.766692,-49.818423,-33.61091,-40.909574,40.742152,-69.710192,-28.852564,-8.042278
74,1.868774,1.23528,-0.260124,1.185182,0.0,-35.265175,-9.45591,-75.236881,-5.684189,-82.471447,-5.227478,-78.695332,-7.203209,-66.443687,0.0,-40.270204,-42.175994,-41.131177,-39.022438,-40.309668,-30.814091,-35.142474,-19.956424,-24.972706,0.0,52.358242,-4.0051,38.608669,-14.030983,57.362057,-18.807575,57.259838,-17.458248,47.937618,0.0,-37.230139,-60.801494,-88.189586,-59.287923,-62.984976,-49.419503,-49.859827,-35.018813,-41.578714,42.107838,-68.35067,-29.615776,-6.732854
75,1.998939,0.954069,-1.308769,1.706905,0.0,-33.738361,-9.665519,-75.778919,-6.448883,-83.679817,-6.572685,-80.259441,-9.087615,-68.024208,0.0,-41.130159,-40.972183,-40.212115,-37.689556,-40.344212,-29.633523,-35.232896,-19.06544,-25.025373,0.0,53.63039,-5.076576,41.689762,-14.345787,59.641514,-18.345474,58.540981,-16.376495,48.092869,0.0,-37.111337,-59.917111,-82.460111,-58.962357,-59.702744,-49.496889,-49.604335,-35.801988,-42.439527,43.578849,-67.300181,-31.452473,-4.929529
76,1.697846,0.581825,-0.376202,2.119391,0.0,-32.415825,-9.960274,-76.377983,-6.988152,-84.736919,-7.377319,-81.648686,-10.144295,-69.013023,0.0,-42.203641,-39.752958,-39.088999,-36.131963,-39.548336,-27.873581,-34.133646,-17.124421,-23.901195,0.0,53.245491,-6.345176,45.555725,-15.280666,60.026436,-18.771217,58.466011,-16.425293,46.985482,0.0,-38.035611,-59.715211,-76.8005,-58.540582,-58.069569,-48.929637,-49.247565,-35.33403,-42.911559,44.661272,-66.686755,-32.444098,-2.778537
77,1.849846,-0.261334,-1.163944,2.523597,0.0,-31.910156,-10.229096,-74.557617,-7.837921,-84.082295,-8.493393,-80.945893,-11.230316,-68.314888,0.0,-41.4223,-37.312489,-38.270257,-32.729997,-36.669667,-23.961241,-30.74629,-13.02959,-20.090707,0.0,51.087032,-5.574909,44.714642,-14.547787,54.541271,-18.486877,53.443989,-16.895782,44.077217,0.0,-39.438666,-57.900996,-71.128576,-56.607436,-56.651322,-46.944614,-48.499138,-33.27248,-42.707165,45.905714,-67.102706,-34.213446,-0.409557
78,1.878557,4.982034,-1.634605,4.919439,0.0,-33.071341,-11.570325,-74.009775,-9.513181,-82.181862,-10.042969,-78.609259,-12.243508,-66.316489,0.0,-38.977487,-35.313519,-37.00642,-29.763963,-32.758014,-20.340735,-26.437658,-9.075642,-15.851622,0.0,49.409031,-5.018692,46.455814,-13.924828,52.638073,-18.308018,50.592807,-17.615914,41.148308,0.0,-40.57614,-56.814343,-68.497502,-55.684415,-58.324709,-46.560434,-49.719875,-33.252547,-43.695326,47.306789,-62.548306,-36.325533,4.082248
79,1.939448,9.36023,-1.45356,5.70982,0.0,-35.716637,-13.955145,-74.863087,-11.991453,-79.198743,-12.02195,-74.500687,-13.154274,-62.594371,0.0,-36.006473,-32.811237,-34.828157,-26.209551,-27.106539,-16.09063,-20.388268,-4.458215,-9.989763,0.0,47.496231,-6.496388,48.608951,-15.6339,51.228687,-20.451405,48.147777,-20.282776,38.057808,0.0,-43.38934,-56.302327,-65.810106,-54.577959,-57.89282,-45.096171,-48.646524,-31.302611,-41.750596,48.800439,-54.020598,-38.224891,8.959546
80,1.646237,15.190869,-2.402401,6.422716,0.0,-39.301744,-17.529126,-76.949018,-15.207646,-74.386123,-14.202873,-68.294343,-13.690361,-57.73786,0.0,-30.370505,-31.338447,-32.408534,-24.128879,-20.975233,-13.474447,-13.986428,-1.399985,-3.718568,0.0,46.241764,-6.301266,47.001583,-16.038368,44.318676,-21.87862,40.541942,-23.067204,34.058201,0.0,-45.829427,-54.548276,-61.37253,-52.064458,-51.93172,-42.230366,-42.468704,-28.153624,-38.487741,50.129829,-40.09422,-40.944139,14.117771
81,1.953406,20.618223,-2.300057,6.886011,0.0,-43.963486,-22.117241,-80.581947,-19.407623,-68.792164,-17.210312,-61.020962,-14.742508,-52.20116,0.0,-23.392359,-30.231482,-29.461405,-22.611197,-14.214401,-11.574231,-7.159225,0.879555,2.77536,0.0,44.606461,-6.029251,44.237172,-16.73188,37.342129,-23.790298,32.585507,-26.639305,28.061566,0.0,-46.109897,-51.864523,-54.663953,-48.277009,-43.565817,-37.792092,-34.059551,-23.276589,-30.873761,51.947874,-21.41801,-43.379557,19.061769
82,1.498078,26.794177,-2.673179,8.415562,0.0,-49.564442,-27.192376,-87.690434,-23.340752,-63.343438,-19.574433,-53.778443,-15.064431,-46.286294,0.0,-16.856065,-30.736706,-25.737936,-23.339908,-8.699324,-12.108965,-1.946305,0.893794,7.233548,0.0,42.910171,-6.057301,43.480476,-16.95393,35.986404,-24.033257,30.202583,-27.605026,23.516384,0.0,-40.588404,-47.702878,-45.651666,-44.616303,-35.109574,-34.861652,-26.008193,-21.152295,-22.724732,52.889031,3.00576,-46.609657,25.106924
83,2.680689,27.633011,-0.61322,13.552758,0.0,-54.664029,-31.786602,-93.067574,-26.978549,-63.167266,-21.679379,-52.301734,-15.217358,-44.516703,0.0,-8.391343,-27.677529,-15.444259,-19.886706,2.185065,-8.317899,8.839072,5.034235,16.694426,0.0,41.644088,-4.321621,40.259262,-16.920571,29.683811,-25.76318,21.984935,-31.249123,15.194343,0.0,-36.149111,-44.725675,-35.799986,-41.501939,-24.759797,-32.015872,-17.385908,-18.802,-14.948194,54.73477,28.20766,-48.057827,36.228571
84,3.863301,28.471846,-2.511515,15.288056,0.0,-59.262246,-35.899919,-96.713369,-30.321016,-68.26365,-23.52515,-56.590835,-15.20129,-46.892388,0.0,2.001808,-21.053953,1.419625,-12.251591,18.438763,-0.201034,25.196905,13.300877,31.157992,0.0,42.471193,0.866358,38.745603,-12.070324,26.465017,-21.663048,18.000429,-28.544632,11.855999,0.0,-28.177454,-39.057148,-25.143857,-35.11088,-14.167783,-25.826498,-7.805471,-13.318903,-5.931383,57.541679,54.518495,-51.625734,49.355616
85,3.959903,26.411519,-3.264954,16.295428,0.0,-63.086251,-39.691082,-99.787751,-33.391773,-76.174907,-25.269184,-64.193072,-15.496296,-51.822908,0.0,3.274298,-11.671137,19.785765,-1.296454,37.103712,11.329624,43.924433,24.618317,49.462486,0.0,43.908503,7.402857,40.831782,-4.548248,31.093443,-13.809791,22.635378,-21.067863,14.241062,0.0,-19.011019,-31.884418,-14.032038,-26.228367,-4.578303,-16.472053,1.615819,-4.216596,6.139204,60.411326,78.950043,-55.980944,63.671073
86,0.853715,28.409307,-0.2448,18.522974,0.0,-64.890701,-41.950664,-99.665119,-35.407608,-83.152879,-26.44717,-71.28313,-15.63406,-56.196596,0.0,5.575238,-1.607805,36.740307,10.57875,54.462029,23.69476,61.520555,36.408762,66.437296,0.0,44.927507,9.414453,42.350584,-2.400513,34.732275,-11.840241,27.232595,-19.025597,16.789066,0.0,-10.954023,-24.846433,-5.045574,-18.31717,4.256725,-8.248076,10.894659,4.06377,16.953128,59.972482,105.883209,-57.518303,80.717906
87,-2.252472,30.407095,-2.037907,25.584592,0.0,-64.675598,-42.678668,-96.345474,-36.368522,-89.197568,-27.059108,-77.861011,-15.614582,-60.013452,0.0,8.904628,9.136044,52.283249,23.374022,70.513715,36.894373,77.985271,48.672215,82.082423,0.0,51.943617,14.059096,50.591177,1.881649,43.727148,-8.183041,34.456118,-15.569446,23.225212,0.0,-3.917545,-21.159304,3.188689,-11.614645,12.736575,0.79051,19.737663,14.708361,25.06468,56.812872,135.143485,-60.463348,105.155679
88,-2.676098,26.866236,-0.829502,30.268403,0.0,-65.78861,-41.237926,-94.82147,-34.896125,-93.370811,-25.684844,-82.916107,-14.482406,-62.348138,0.0,7.536181,16.292359,59.653072,31.875983,80.32233,45.867552,88.234657,57.376933,92.936346,0.0,54.882563,25.532095,51.956709,15.730247,44.147478,6.189777,36.310152,-2.22599,28.565426,0.0,8.932691,-13.850111,22.41237,-5.427049,30.228404,5.819365,36.42444,18.271638,39.059423,53.508636,161.044305,-61.920988,134.458666
89,-4.280799,23.83766,0.28763,27.296806,0.0,-64.080889,-40.337712,-94.036635,-34.252991,-93.686314,-25.374573,-83.108116,-14.567231,-61.426546,0.0,2.933342,21.869594,60.197723,37.909615,82.486447,51.543995,91.238407,62.067593,97.821001,0.0,57.044781,28.872116,57.74501,19.677898,50.06488,10.24839,41.129814,1.476952,32.897324,0.0,16.936008,-8.592174,33.4367,-0.371126,42.283039,10.85111,47.479657,23.620904,47.435531,48.897189,183.972431,-61.964006,160.845938
90,-5.719552,23.916083,1.80328,24.780348,0.0,-59.929704,-37.861484,-92.714624,-32.055793,-93.049804,-23.624656,-82.023261,-13.269676,-58.872533,0.0,9.131651,24.770393,57.571687,40.386239,79.413697,53.238797,89.937573,62.621111,97.312832,0.0,58.307579,27.915275,63.200581,17.121139,56.042496,6.474815,45.724754,-3.28252,33.281021,0.0,21.834026,-2.872981,43.242745,5.157191,53.276496,16.258099,58.038638,28.822135,55.86033,42.83488,207.173636,-60.503483,184.911408
91,-3.504112,19.268203,-2.609757,24.861377,0.0,-56.781028,-35.087379,-92.986965,-29.414749,-94.15979,-21.463371,-82.970112,-11.620926,-58.470577,0.0,14.395948,27.831244,52.009803,42.761605,72.422773,54.879629,86.189953,63.260333,96.714409,0.0,61.283753,31.870114,69.406025,21.339009,63.392384,10.690373,51.630845,0.189103,38.563477,0.0,26.002431,1.939407,51.329956,11.011432,61.582117,22.336383,67.434512,34.313419,62.813914,39.080801,225.883828,-63.363207,209.214774
92,-0.448997,13.72624,3.163983,19.928093,0.0,-55.072838,-32.254944,-95.44035,-26.740036,-97.533623,-19.573059,-86.553967,-10.751793,-60.850994,0.0,14.782567,30.749914,47.19626,44.800516,66.17284,56.138176,82.267863,63.843269,96.985963,0.0,59.227466,34.334473,67.378418,23.738834,59.070488,12.640068,47.098411,1.077621,35.461532,0.0,29.92793,10.989548,58.229255,20.814347,68.680846,31.414546,75.726419,41.765681,72.60706,38.46793,239.277144,-60.363098,228.809943
93,-1.766625,12.517228,-1.557186,9.842645,0.0,-51.374141,-30.720382,-94.176155,-25.830665,-96.712726,-19.531654,-85.945644,-11.548713,-61.45198,0.0,15.853715,34.919389,45.78078,48.156578,61.423777,58.291413,78.97233,64.47179,96.400087,0.0,61.730919,29.615204,76.39888,17.783455,70.519455,6.651375,56.520961,-4.046334,39.665897,0.0,26.771236,18.485986,55.333148,32.5037,68.470549,45.242946,78.104304,56.498008,77.34228,36.470724,251.561394,-62.150865,238.41961
94,-1.965339,10.549898,-1.267456,11.160609,0.0,-50.155747,-28.841721,-89.405937,-23.822251,-91.559326,-17.840126,-82.27422,-10.209984,-59.799271,0.0,17.168454,36.961413,47.311584,49.521977,59.706843,58.703609,76.150966,63.653213,93.314851,0.0,64.823478,29.803013,80.42807,17.74213,75.914314,6.401664,61.715904,-4.438351,41.80933,0.0,25.624482,24.87209,59.20485,40.827161,73.248622,53.89671,83.667214,64.093432,84.230229,34.249369,261.936532,-63.674337,249.405459
95,-0.91166,9.360485,-0.397511,12.075033,0.0,-50.353511,-28.39579,-78.346675,-23.035285,-78.225402,-17.058723,-68.858928,-9.630569,-51.393219,0.0,16.983512,38.006675,49.217499,49.038744,59.036531,56.596883,71.17702,60.0668,85.822847,0.0,66.571301,32.153435,82.004505,20.916447,77.756207,9.80373,62.219021,-1.104492,42.278813,0.0,25.506218,28.765108,61.3148,45.472522,76.274122,58.09669,86.659615,67.110595,87.751955,33.069311,271.187873,-64.340246,261.371348
96,0.007531,7.041054,2.097428,10.063181,0.0,-51.139778,-29.38353,-68.353237,-23.563614,-64.610413,-17.221894,-54.662258,-9.754097,-41.564106,0.0,14.377361,37.606408,54.956582,47.61883,63.071056,53.972206,70.032587,56.570034,80.567751,0.0,67.465564,33.785774,83.614185,22.512577,79.358631,11.100952,62.625789,-0.141209,41.446197,0.0,25.663681,32.502762,63.86193,48.938622,78.246541,60.519035,86.998179,68.205763,88.775455,32.9194,278.185094,-62.40026,271.390696
97,0.250328,6.580457,-0.771252,7.071287,0.0,-51.334889,-31.264321,-55.095623,-24.778931,-47.986851,-17.715981,-38.202358,-10.043358,-30.057255,0.0,14.633724,35.598594,60.255904,44.398991,66.710563,49.642515,69.494186,51.372539,74.677923,0.0,69.07711,33.328136,88.936455,22.568996,87.39418,11.465595,70.321266,0.570408,45.3941,0.0,21.774961,32.891258,64.472456,48.845872,80.08364,59.69579,87.864093,66.586704,88.034005,33.091725,284.744207,-63.249515,278.440639
98,-3.856156,14.027261,1.274231,6.553534,0.0,-53.869011,-35.458797,-37.406913,-29.615638,-27.685856,-22.703968,-19.44564,-15.364803,-30.070209,0.0,21.705072,30.090383,57.977857,35.116768,61.21879,37.069501,59.248285,36.89019,60.991228,0.0,69.544441,31.975696,90.68193,21.606193,90.482002,10.876819,73.178833,0.456676,46.937004,0.0,20.608879,32.341148,65.310088,48.109758,81.599007,58.873621,88.480177,65.625398,87.824536,29.290895,298.780045,-61.919958,285.00275
99,-2.424156,14.553967,1.854812,5.184145,0.0,-51.611263,-37.800842,-23.816803,-33.08131,-12.10199,-26.666359,-5.046226,-19.726673,-26.60281,0.0,27.686908,24.108793,51.265229,24.750009,52.600964,22.999151,47.331913,19.926092,44.834232,0.0,68.437821,31.393834,90.416336,21.013653,90.705597,10.384232,72.87996,0.214623,47.032494,0.0,20.770652,32.689667,64.619928,48.612419,80.731895,59.205381,88.037475,65.505578,87.567456,27.027643,313.326747,-59.904242,290.17963
100,-2.83374,10.328398,1.714817,3.589699,0.0,-57.165962,-41.151558,-16.366001,-37.082565,-4.216026,-30.984364,1.047913,-24.416588,-36.116409,0.0,33.379173,19.73337,46.135277,17.858207,45.68419,14.217563,39.992136,10.439537,39.08874,0.0,67.426129,30.629105,90.207104,20.262681,90.487256,9.664227,72.89011,-0.436649,47.584877,0.0,21.11238,32.754802,63.700256,48.805846,80.030473,59.227364,87.547165,65.193887,87.064957,24.456677,323.636941,-57.926651,293.751125
101,-1.344154,10.983707,0.719616,1.883314,0.0,-57.969716,-43.581608,-9.372094,-41.016026,1.953003,-36.068928,3.990943,-30.343495,-45.798912,0.0,39.723163,15.431391,40.309742,10.02161,37.382785,3.525195,30.183416,-2.443526,29.282391,0.0,66.439728,30.000527,90.060517,19.735119,90.34227,9.185933,72.530663,-0.798271,47.119183,0.0,21.613941,32.890097,62.787139,49.28267,80.298939,59.736496,87.931401,65.560153,87.002502,23.383135,334.593697,-56.936423,295.607488
102,-1.458825,11.511635,0.432644,0.80772,0.0,-58.803714,-44.623581,-5.808288,-43.691894,5.227547,-39.9864,5.59076,-35.027423,-48.625763,0.0,44.570422,11.326236,34.255683,1.765494,27.908963,-8.677477,17.728963,-18.263487,12.311871,0.0,65.699581,29.382191,89.627026,19.011841,90.013859,8.319329,71.874836,-1.74139,46.512394,0.0,22.396998,32.443172,61.971342,49.157663,80.248439,59.696309,87.762415,65.500724,86.631209,22.157764,346.080619,-56.270325,296.390495
103,2.607651,1.88508,-0.016227,-0.530955,0.0,-55.631584,-43.409797,-9.177383,-42.709465,2.368263,-39.110939,3.325653,-33.769146,-40.637134,0.0,43.990141,9.89985,33.531721,-0.469514,26.627913,-11.661615,15.532056,-22.593587,5.322329,0.0,65.25587,28.880813,89.52499,18.370193,89.84682,7.590889,71.568203,-2.496186,46.343639,0.0,23.197333,32.410235,61.679214,49.425721,80.583929,60.02907,87.873257,65.7828,86.667963,24.980444,347.946909,-56.071523,295.84075
104,0.933701,1.300142,0.261154,-0.351113,0.0,-56.626419,-43.244717,-10.261231,-42.455384,1.403068,-38.755062,2.834656,-33.312229,-37.844616,0.0,42.758554,8.875226,32.747269,-1.467116,25.294043,-12.477844,14.106622,-23.102496,2.426211,0.0,64.686985,28.188011,89.086178,17.567425,89.266628,6.776504,71.235111,-3.256886,45.988277,0.0,23.622336,32.195257,61.284406,49.345372,80.6018,59.987487,87.902798,65.709676,86.507079,26.09598,349.255378,-55.628534,295.497964
105,-0.280381,1.385457,0.189892,0.021193,0.0,-57.415637,-43.643531,-12.85128,-42.388343,1.239487,-38.235557,3.751259,-32.181655,-28.950828,0.0,42.382012,8.283867,32.473368,-3.385405,24.428784,-15.565414,12.47388,-27.582069,-3.338548,0.0,64.348205,27.480228,88.774772,16.768913,88.999443,6.048557,71.272934,-3.816914,46.145759,0.0,23.841822,31.740675,61.040356,49.033322,80.200793,59.820946,87.530023,65.626757,86.306649,25.971977,350.647238,-55.282264,295.52556
106,-0.393905,-0.266737,0.212825,0.264316,0.0,-57.596958,-43.82555,-13.190552,-42.618439,0.648559,-38.509037,3.043739,-32.612457,-30.373593,0.0,42.583047,8.361611,32.684505,-3.213911,24.795285,-15.173126,12.937786,-26.798716,-2.608436,0.0,64.098439,26.953469,88.288273,16.200703,88.576504,5.544503,71.133007,-4.208072,46.056794,0.0,23.913527,31.223306,60.849536,48.570404,79.812457,59.453865,87.123002,65.33306,86.05966,25.740967,350.394571,-54.906544,295.803946
107,-0.799393,-0.114794,0.238804,0.221462,0.0,-57.595116,-43.57798,-13.489883,-42.110859,1.215706,-37.657299,4.024635,-31.400928,-28.911861,0.0,42.378344,8.564943,31.524721,-2.827428,24.704833,-14.465479,13.332396,-25.776018,-1.229624,0.0,63.919968,26.516602,88.103234,15.774136,88.386566,5.220349,71.305847,-4.382034,46.57465,0.0,23.847552,30.648236,60.542006,48.04045,79.273376,59.04609,86.510648,65.078302,85.682068,25.101116,350.285869,-54.508198,296.0315
108,-0.080429,1.199329,0.337429,0.264242,0.0,-58.759449,-43.739445,-13.544838,-42.185669,1.409638,-37.629742,4.219528,-31.468918,-27.464024,0.0,41.368392,8.528621,30.218737,-3.743063,22.959816,-16.361562,10.81966,-28.670494,-4.104859,0.0,63.786404,26.101078,87.9734,15.419106,88.249958,4.992485,71.581661,-4.454921,47.256272,0.0,23.645765,30.187961,60.029972,47.544656,78.644992,58.570686,85.78781,64.638751,85.242653,25.185837,351.500135,-54.005619,296.310679
109,-0.343529,0.727432,0.057347,0.125008,0.0,-58.907787,-43.647834,-13.575462,-41.885273,1.676834,-37.177814,4.406868,-30.910583,-28.513927,0.0,40.963136,8.332131,29.149776,-4.371645,21.939452,-17.497374,9.466635,-30.332815,-6.797275,0.0,63.790901,25.843231,88.147087,15.320262,88.361251,5.102439,71.894119,-4.106804,48.011089,0.0,23.354314,30.052024,59.642179,47.375966,78.122015,58.430846,85.240207,64.556449,85.051288,24.981285,352.240454,-53.809295,296.448574
110,-0.008011,0.231873,0.0466,0.075014,0.0,-59.27489,-43.475383,-15.357044,-42.131298,1.485993,-37.82151,4.060616,-31.995563,-32.748722,0.0,40.86872,8.463857,28.85803,-4.250861,21.296408,-17.652813,8.573192,-30.894336,-7.554669,0.0,63.629562,25.437412,88.089317,15.0909,88.531128,5.084301,72.254265,-3.918446,48.613014,0.0,23.248401,30.00744,59.326301,47.34209,77.641325,58.438701,84.828381,64.619077,84.827109,25.097814,352.492717,-53.638155,296.543978
111,-0.219085,-1.337773,-0.036667,0.026812,0.0,-59.511612,-42.973618,-13.595913,-42.098854,1.822151,-38.013039,3.302673,-32.322407,-34.748429,0.0,41.260402,9.033628,29.40825,-2.640942,22.163914,-15.232963,10.170033,-27.511921,-4.007899,0.0,63.52002,25.168968,88.16684,14.96616,88.703934,5.124378,72.623978,-3.695972,49.370922,0.0,23.185205,29.964968,59.215385,47.295703,77.254805,58.428191,84.437551,64.649335,84.663261,24.977406,351.172272,-53.576145,296.588118
112,0.031402,-0.310457,-0.049942,-0.027923,0.0,-59.403041,-43.986099,-12.565189,-42.942718,2.27948,-38.549766,3.473946,-32.407035,-39.81023,0.0,41.790481,8.705326,30.158234,-2.450367,22.119628,-14.413892,11.155385,-25.977892,-1.815573,0.0,63.464378,24.884708,88.215981,14.841064,88.838791,5.210598,73.033836,-3.371578,50.136749,0.0,23.320636,30.028052,59.153856,47.349722,77.054869,58.501908,84.333204,64.720693,84.751749,25.089718,350.884026,-53.545177,296.582406
113,-0.605438,0.910621,-0.057346,0.007607,0.0,-59.232273,-43.412945,-11.711185,-42.104713,3.145111,-37.399429,4.168602,-30.969292,-40.524387,0.0,40.984168,8.107298,29.091187,-2.962303,21.265829,-14.791138,10.689157,-26.166082,-3.305969,0.0,63.526165,24.552417,88.256618,14.567871,88.90353,5.083236,73.144924,-3.292591,50.340992,0.0,23.466627,30.134523,59.209148,47.48629,76.967789,58.657618,84.320633,64.855236,84.663755,24.538399,351.807961,-53.548404,296.603327
114,-0.837936,0.643106,0.103981,0.09701,0.0,-59.259213,-42.559891,-11.071141,-41.17202,4.084167,-36.433663,5.483757,-30.139138,-39.254803,0.0,40.5254,7.918799,27.90879,-3.529505,20.363582,-15.671279,9.833494,-27.215951,-4.91642,0.0,63.366199,24.336319,88.124988,14.327797,88.861759,4.82135,73.251789,-3.557556,50.320656,0.0,23.560104,29.990459,59.301416,47.364073,76.9607,58.557422,84.308381,64.745665,84.494139,23.748596,352.461209,-53.39629,296.710479
115,0.005859,0.187474,0.028782,0.101518,0.0,-58.016647,-42.632858,-13.790016,-41.482189,3.843224,-36.881538,5.463982,-30.67503,-37.838722,0.0,40.201791,7.720691,27.963711,-3.662713,20.347539,-15.704278,9.91719,-27.26624,-4.962386,0.0,63.473899,24.21698,88.150451,14.194427,88.777633,4.711235,73.232505,-3.582447,50.43362,0.0,23.605762,29.851829,59.398845,47.25023,76.981756,58.476726,84.265069,64.661512,84.456755,23.795975,352.653904,-53.325988,296.817218
116,-0.58667,1.704719,-0.020531,0.056749,0.0,-56.743194,-43.074188,-14.273826,-41.525036,4.279038,-36.662361,6.062645,-30.094539,-35.863792,0.0,39.799104,7.052317,26.873607,-5.392478,18.89081,-18.419431,7.818986,-31.021011,-9.290868,0.0,63.581245,24.175049,88.1949,14.173279,88.740898,4.726353,73.32621,-3.516495,50.645702,0.0,23.679344,29.728118,59.361004,47.133237,76.945397,58.381173,84.227809,64.55614,84.423249,23.255647,354.361532,-53.300177,296.876876
117,-1.005775,1.633113,0.02203,0.028602,0.0,-54.937466,-41.471146,-13.169518,-40.246319,4.795761,-35.865418,6.418441,-30.014717,-31.886479,0.0,38.347562,7.193158,25.553161,-6.298233,17.186807,-20.625675,4.386046,-34.406267,-16.310198,0.0,63.705242,24.042114,88.129131,14.039257,88.670963,4.652492,73.386005,-3.490837,50.820762,0.0,23.708478,29.67442,59.385668,47.111452,76.925774,58.371788,84.184745,64.51257,84.360993,22.295168,356.004475,-53.232851,296.915308
118,-1.699379,-2.25342,-0.095673,-0.008323,0.0,-60.388962,-43.999501,-11.86702,-42.131687,6.344536,-37.35759,8.774986,-31.355553,-38.043377,0.0,40.24441,8.266737,27.295312,-4.980912,18.780054,-19.057141,6.399849,-32.232505,-10.366388,0.0,63.74374,24.008125,88.133366,14.077114,88.758534,4.778607,73.717243,-3.280369,51.31604,0.0,23.721087,29.642396,59.387643,47.110253,76.839915,58.412579,84.120338,64.56376,84.519962,20.632496,353.760596,-53.291817,296.916526
119,-0.526657,-3.036404,-0.038006,-0.04162,0.0,-61.923924,-46.506935,-10.743027,-44.988774,6.844711,-40.457623,8.549537,-34.531609,-45.361325,0.0,42.606685,9.415443,30.54862,-3.182752,21.686189,-16.7168,9.688232,-29.174353,-1.383827,0.0,63.794861,23.943238,88.021134,14.069195,88.711922,4.857651,73.915856,-3.118057,51.714821,0.0,23.78506,29.490626,59.368353,46.998349,76.751699,58.363994,84.054179,64.550287,84.612143,20.137671,350.736708,-53.297991,296.887422
120,0.138061,1.464374,0.027089,-0.052093,0.0,-55.036388,-44.072124,-3.514686,-43.35862,8.305802,-39.556297,7.785919,-34.26487,-40.613914,0.0,41.185561,9.179594,29.141477,-3.6762,20.583574,-17.699533,7.825889,-30.899486,-4.821806,0.0,63.713985,23.899635,87.779811,14.026359,88.520519,4.822666,73.867595,-3.147801,51.684116,0.0,23.692361,29.436928,59.375355,46.962078,76.604671,58.337109,84.005693,64.526624,84.573401,20.302425,352.210237,-53.244209,296.844484
