takenoko1/special-research/HandMotion_SimilarSearch_自分用/NewProject/handData/test_key/d4_feature_d3/36.csv
frame,vel_0x_L,vel_0y_L,vel_0x_R,vel_0y_R,posFromWrist_0x_L,posFromWrist_1x_L,posFromWrist_2x_L,posFromWrist_3x_L,posFromWrist_4x_L,posFromWrist_5x_L,posFromWrist_6x_L,posFromWrist_7x_L,posFromWrist_8x_L,posFromWrist_9x_L,posFromWrist_0y_L,posFromWrist_1y_L,posFromWrist_2y_L,posFromWrist_3y_L,posFromWrist_4y_L,posFromWrist_5y_L,posFromWrist_6y_L,posFromWrist_7y_L,posFromWrist_8y_L,posFromWrist_9y_L,posFromWrist_0x_R,posFromWrist_1x_R,posFromWrist_2x_R,posFromWrist_3x_R,posFromWrist_4x_R,posFromWrist_5x_R,posFromWrist_6x_R,posFromWrist_7x_R,posFromWrist_8x_R,posFromWrist_9x_R,posFromWrist_0y_R,posFromWrist_1y_R,posFromWrist_2y_R,posFromWrist_3y_R,posFromWrist_4y_R,posFromWrist_5y_R,posFromWrist_6y_R,posFromWrist_7y_R,posFromWrist_8y_R,posFromWrist_9y_R,posFromBody_0x_L,posFromBody_0y_L,posFromBody_0x_R,posFromBody_0y_R
6,-0.613335,-0.343777,0.05698,0.095725,0.0,-55.141056,-44.171905,-7.537353,-44.159958,4.83577,-40.573471,5.359955,-35.175098,-29.53735,0.0,39.372532,6.506827,28.201191,-7.444851,18.506858,-22.900905,3.854325,-38.623709,-16.902149,0.0,61.699013,22.549828,84.017372,12.256714,84.561264,2.796204,71.492569,-5.283817,49.120331,0.0,24.212176,28.954558,59.844683,46.456576,75.873756,57.917033,84.08703,64.081218,84.556926,23.83445,353.615886,-51.208099,296.155399
7,-0.673828,-0.566634,0.144962,0.066826,0.0,-52.993504,-42.995464,-6.572754,-43.134144,5.450455,-39.75119,4.98571,-34.351135,-27.98346,0.0,39.795288,6.863818,28.300165,-6.502207,19.162783,-21.325319,5.268163,-36.377439,-14.766931,0.0,61.577832,22.582157,83.985821,12.250489,84.408291,2.720455,71.175328,-5.431961,48.777226,0.0,24.094653,28.960536,59.83163,46.431963,75.793284,57.828199,84.065344,63.903242,84.46498,22.831169,352.931571,-51.39259,296.104544
8,-1.631493,0.564202,0.023197,0.149017,0.0,-50.537853,-40.947681,-4.131569,-40.589676,7.789353,-36.844997,7.288582,-31.297325,-26.028625,0.0,38.729599,6.991307,26.843706,-5.654424,18.363708,-19.618329,5.211981,-33.592533,-13.733539,0.0,61.566697,22.324517,84.0691,11.968083,84.439019,2.471661,70.992646,-5.60448,48.474701,0.0,23.887973,28.709779,59.742597,46.192803,75.747575,57.61532,84.040235,63.674579,84.393472,20.902856,353.409486,-51.666213,296.167274
9,-1.521446,-1.594396,-0.033519,0.028257,0.0,-54.28426,-42.949333,-3.898888,-42.086597,8.778763,-37.78062,9.547119,-31.831192,-29.627472,0.0,39.797597,7.448273,27.919127,-4.898895,19.749412,-18.432696,7.259662,-31.787445,-9.222955,0.0,61.607197,22.023513,84.167301,11.701,84.562236,2.306225,71.016803,-5.645771,48.376247,0.0,23.710787,28.581684,59.724739,46.118295,75.759715,57.639328,84.09197,63.772206,84.520987,19.12377,351.751086,-51.957372,296.131527
10,1.050682,-1.604239,0.010837,-0.082623,0.0,-56.305893,-45.588375,-5.289688,-45.005585,7.036011,-40.716602,7.621422,-34.447563,-35.976631,0.0,41.560967,8.097418,29.665145,-4.405632,21.429258,-18.193585,9.001024,-31.863953,-6.046489,0.0,61.662621,21.784241,84.189743,11.396038,84.39933,2.001675,70.576012,-5.923908,47.590233,0.0,23.6171,28.492801,59.92486,46.075503,76.067505,57.6613,84.319101,63.801576,84.672042,19.958559,350.110741,-52.162428,296.012798
11,0.436455,2.313615,0.074559,-0.046559,0.0,-52.088104,-43.570713,-4.980492,-43.137451,7.112366,-38.978691,7.152649,-32.719368,-27.84914,0.0,40.020269,7.335986,27.861169,-5.651422,19.326064,-19.950039,6.161679,-34.236293,-11.024128,0.0,61.70454,21.479862,84.203762,11.045001,84.349765,1.666625,70.245769,-6.240338,46.72269,0.0,23.582149,28.317689,60.059512,45.945752,76.270366,57.642898,84.457001,63.890187,84.788255,20.215822,352.407582,-52.267061,295.949465
12,-0.338059,-0.220436,0.074592,-0.127614,0.0,-55.726524,-44.49662,-8.55075,-44.005863,6.762543,-39.834491,8.241303,-33.979534,-29.605934,0.0,40.461883,7.551223,27.981902,-5.838749,19.207329,-20.501705,5.901474,-35.098675,-11.840345,0.0,61.698292,21.168457,84.226536,10.761578,84.382931,1.435249,70.039936,-6.457947,46.014244,0.0,23.597105,28.051397,60.04552,45.797132,76.448282,57.649049,84.693062,64.022222,85.018252,19.732841,352.17516,-52.337391,295.809865
13,0.750367,-0.834668,-0.002094,-0.169023,0.0,-57.408486,-46.049572,-10.168785,-45.861855,4.875801,-41.90918,6.774971,-36.152722,-33.024948,0.0,41.283806,7.827964,28.849977,-6.159579,20.231398,-21.542286,6.249215,-37.075652,-11.100316,0.0,61.399132,21.353473,84.450325,10.966369,84.617386,1.585522,70.079796,-6.414299,45.767624,0.0,23.704526,28.194176,59.954117,45.984976,76.500918,57.83304,84.859849,64.170695,85.189819,20.372406,351.339736,-52.450287,295.640086
14,0.681015,1.881979,-0.044186,-0.137271,0.0,-53.151535,-43.746964,-9.763779,-43.845852,4.822838,-40.25893,5.940078,-34.922997,-27.010849,0.0,39.883949,7.335319,27.517219,-7.098778,18.51328,-23.053232,3.960252,-39.261826,-14.532169,0.0,61.167195,21.7099,84.701008,11.359532,84.850468,1.863991,70.063786,-6.353657,45.546444,0.0,23.690731,28.310983,59.763839,46.077799,76.504734,57.872227,85.04594,64.155306,85.232093,20.951248,353.226787,-52.596646,295.507887
15,-1.399292,1.892231,-0.005848,-0.081585,0.0,-51.627125,-41.125889,-8.303147,-41.041146,6.576782,-37.518654,8.240181,-32.660237,-22.288513,0.0,38.250885,6.833658,25.734669,-8.138063,16.122044,-24.681862,1.068887,-41.33911,-21.169795,0.0,60.87188,21.918286,84.967095,11.670101,85.182541,2.191281,70.35109,-6.063194,45.982476,0.0,23.615729,28.472905,59.269861,46.229434,76.308739,57.959814,85.060217,64.207078,85.160697,19.478743,355.127209,-52.675707,295.434493
16,-0.803856,-2.332227,-0.074581,-0.075224,0.0,-55.92667,-43.399338,-8.245377,-42.886837,6.462868,-38.86916,9.334923,-33.574791,-25.566067,0.0,39.897769,8.052772,27.254075,-6.725052,17.937754,-23.149748,3.235647,-39.587485,-17.316038,0.0,60.626072,22.241158,85.178982,12.085053,85.530659,2.605271,70.657025,-5.703266,46.542904,0.0,23.423882,28.665653,58.804744,46.419118,76.135948,58.074348,85.159882,64.230345,85.222262,18.607739,352.80603,-52.817436,295.370317
17,0.099747,1.475168,-0.084297,-0.094849,0.0,-54.542965,-43.058693,-4.780175,-42.372712,7.413414,-38.058941,9.81871,-32.215565,-18.570225,0.0,39.248673,7.478049,26.403315,-8.030283,16.462005,-25.340825,0.858059,-42.706844,-20.73958,0.0,60.490253,22.731296,85.434551,12.623955,85.812344,3.085751,70.915089,-5.322189,47.052452,0.0,23.35571,28.962475,58.422769,46.690722,75.954859,58.244681,85.215939,64.279363,85.204034,18.65177,354.29901,-52.957449,295.29328
18,-0.856362,1.086585,0.042789,-0.182682,0.0,-54.885086,-42.590401,-5.03096,-41.897152,8.59449,-37.479595,11.235718,-31.649048,-14.679279,0.0,38.578137,6.677801,25.423472,-9.151473,15.042882,-26.7897,-0.507675,-44.179468,-22.725943,0.0,60.566506,22.856038,85.468163,12.788544,85.879578,3.235291,71.054444,-5.229354,47.430863,0.0,23.346559,29.048233,58.279458,46.780383,76.037876,58.298774,85.364708,64.309213,85.151175,17.746525,355.392761,-52.963543,295.117764
19,-1.768249,-0.331254,0.079525,-0.139927,0.0,-53.767136,-41.960106,-3.95224,-41.11314,10.242508,-36.40955,13.147705,-30.200718,-16.151562,0.0,38.656165,6.5749,25.244939,-9.201219,14.829633,-26.779906,-0.404441,-44.027612,-25.964542,0.0,60.634747,22.871132,85.434208,12.798512,85.807217,3.263787,71.034245,-5.173198,47.444539,0.0,23.412718,29.138686,58.113523,46.900105,76.094786,58.40764,85.40492,64.395677,85.187028,15.944493,355.057941,-52.917801,294.974271
20,0.927063,-1.912163,0.002461,-0.170246,0.0,-59.307164,-45.291138,-10.62735,-44.267476,7.621696,-39.157174,12.40908,-32.45287,-16.763707,0.0,40.0805,7.446889,26.918449,-8.268825,16.836892,-25.809709,1.629976,-43.105999,-20.952903,0.0,60.743843,22.95005,85.437332,12.885269,85.91716,3.327129,71.173073,-5.166206,47.484054,0.0,23.50469,29.177922,58.235381,46.947344,76.208444,58.461166,85.4952,64.444163,85.38374,16.836348,353.140841,-52.950548,294.799088
21,0.953544,1.427113,-0.028713,-0.158686,0.0,-56.706756,-44.351635,-11.521751,-43.705421,7.460243,-38.86829,11.669976,-32.238018,-12.617271,0.0,39.336384,6.393873,25.233874,-9.783969,15.700537,-27.700617,0.133073,-45.528689,-22.778146,0.0,60.916797,23.088249,85.534,13.053978,86.000187,3.497005,71.428356,-5.006207,47.88937,0.0,23.584187,29.226322,58.287165,46.977713,76.27464,58.501612,85.447071,64.518757,85.415492,17.756767,354.561884,-53.012386,294.634332
22,-0.299583,0.652813,-0.008561,-0.058391,0.0,-55.305977,-42.524471,-13.476448,-42.059212,7.417648,-37.452324,11.637085,-31.195667,-11.356453,0.0,38.2301,5.916962,24.300628,-10.250247,15.045402,-28.113295,-0.371774,-45.804306,-24.004114,0.0,60.886586,23.117581,85.580693,13.164723,85.998448,3.644097,71.582303,-4.861999,48.228779,0.0,23.4245,29.215787,58.273827,46.910318,76.340972,58.408677,85.301031,64.453363,85.244653,17.419693,355.204323,-53.058438,294.565567
23,-1.351593,-0.24384,-0.064773,-0.126687,0.0,-53.005314,-40.724327,-11.038719,-40.181523,8.918541,-35.622334,12.795318,-29.48616,-12.271019,0.0,37.952804,6.344361,24.144177,-9.656739,14.772947,-27.398373,-0.57024,-44.956263,-26.437191,0.0,60.945957,23.161892,85.717907,13.2518,86.054958,3.774685,71.708164,-4.673641,48.557751,0.0,23.35077,29.31581,58.305455,46.943528,76.472834,58.380914,85.19529,64.388871,85.162438,16.038357,354.952585,-53.152954,294.430982
24,1.713203,-1.382912,-0.089298,-0.158513,0.0,-58.577179,-44.088844,-12.906257,-43.262638,6.472344,-38.380268,11.209419,-31.812572,-14.450237,0.0,38.759683,6.88359,25.430079,-8.843845,16.530535,-26.329203,0.973273,-43.614106,-20.16545,0.0,61.041069,23.185135,85.799308,13.335514,86.24366,3.909324,72.046577,-4.486061,49.116417,0.0,23.334641,29.296667,58.372022,46.911998,76.488555,58.368687,85.138442,64.407038,85.213876,17.742531,353.565072,-53.251281,294.267868
25,1.244751,0.59904,0.076423,-0.124329,0.0,-55.595524,-43.86811,-9.141952,-43.108784,6.387222,-38.163013,9.639908,-31.166839,-15.198772,0.0,38.447968,5.816222,25.012128,-9.939803,16.443604,-27.375168,0.759555,-44.766566,-20.75435,0.0,61.146172,23.073544,85.794731,13.176773,86.205666,3.738499,72.087731,-4.631618,49.367386,0.0,23.349313,29.07039,58.458893,46.689833,76.480998,58.182881,84.939347,64.273015,84.973446,18.982767,354.162701,-53.179373,294.142128
26,0.385781,-0.026775,0.151326,-0.212421,0.0,-54.219281,-43.362168,-9.345955,-42.566906,6.04573,-37.582169,9.180381,-30.499753,-14.882046,0.0,38.149763,5.549992,25.918007,-9.97158,16.799311,-27.134872,1.301687,-44.28868,-20.928202,0.0,61.272983,22.821018,85.72047,12.837879,86.118427,3.387405,72.056522,-4.929921,49.490604,0.0,23.48509,28.885546,58.713934,46.545892,76.717205,58.076732,84.925514,64.206831,84.921562,19.367598,354.159756,-53.028997,293.953537
27,-0.126595,0.418322,0.087329,-0.331748,0.0,-53.011288,-43.196526,-6.819717,-42.254002,6.593147,-37.125607,9.479485,-29.83374,-15.707096,0.0,37.547944,5.39895,25.703881,-9.827096,16.458881,-26.577155,1.058896,-43.239379,-22.193604,0.0,61.399613,22.563733,85.670838,12.512879,86.214615,3.101063,72.213868,-5.133899,49.678757,0.0,23.765819,28.868528,58.902261,46.589278,76.739188,58.161923,84.990167,64.293986,85.100071,19.248848,354.611726,-52.933823,293.655437
28,1.671066,-2.012446,0.115528,-0.255387,0.0,-58.991192,-47.62754,-8.817489,-46.051311,4.765114,-40.169952,8.945526,-31.893974,-18.565235,0.0,38.93944,5.690338,28.156743,-9.174234,18.896516,-25.497881,3.852238,-41.634387,-16.437749,0.0,61.481587,22.329346,85.554852,12.239399,86.132893,2.825181,72.122601,-5.425495,49.414227,0.0,23.909068,28.716251,59.12597,46.474274,76.771693,58.126638,85.040592,64.342484,85.234563,20.92955,352.637679,-52.808659,293.438449
29,0.311211,0.438663,0.16594,-0.308604,0.0,-55.333225,-47.135502,-8.317795,-45.754807,5.639442,-39.822292,8.701149,-31.195015,-17.075272,0.0,39.049232,4.843443,27.589504,-10.084719,18.378331,-26.324398,3.465878,-42.521679,-17.501623,0.0,61.57513,22.250885,85.385158,12.065918,86.028728,2.559208,71.924023,-5.804215,48.898807,0.0,23.951441,28.661873,59.465572,46.39774,76.789107,58.061158,85.049423,64.287823,85.313048,21.240847,353.117415,-52.642633,293.170918
30,-0.485687,0.851723,0.115528,-0.548159,0.0,-55.056038,-45.446251,-7.92627,-44.01241,6.324394,-38.088169,9.3097,-29.71724,-19.286328,0.0,38.402594,4.327963,26.552678,-10.998909,16.704314,-27.586749,1.703694,-43.825539,-24.050834,0.0,61.63456,22.150406,85.209434,11.983852,85.788597,2.487568,71.662308,-5.877411,48.307114,0.0,23.920603,28.893759,59.720392,46.619746,76.992674,58.300923,85.229932,64.540247,85.44549,20.789933,354.008026,-52.492332,292.661647
31,-0.946541,0.31184,0.164154,-0.829913,0.0,-54.250614,-44.327442,-6.892388,-42.42429,7.332825,-36.163273,10.372444,-27.586384,-19.596806,0.0,36.91331,3.731454,24.820949,-10.947113,15.571379,-26.823663,1.405192,-42.229798,-24.62867,0.0,61.718147,22.267158,84.937065,12.100777,85.4282,2.469955,71.061905,-6.133484,47.113735,0.0,23.67848,28.96145,59.876287,46.635789,77.219014,58.355041,85.594383,64.6553,85.753588,19.91137,354.33359,-52.2602,291.845458
32,-0.248589,-3.311835,0.463531,-1.186386,0.0,-58.353023,-47.678741,-6.816742,-45.567512,7.21772,-38.763107,11.293442,-29.340591,-22.523449,0.0,39.015886,4.426492,26.863578,-10.128043,17.432302,-26.087993,3.615573,-41.575416,-20.957411,0.0,61.581757,22.34095,84.480973,12.149689,84.97268,2.403157,70.564431,-6.361415,46.704609,0.0,23.218513,28.06266,60.113569,45.713793,77.574338,57.692138,85.72454,64.445497,85.961378,19.715406,351.019751,-51.744044,290.657068
33,-0.605072,-0.380284,1.254673,-2.118743,0.0,-53.071747,-45.546352,-12.508724,-44.225303,7.571343,-37.860363,10.55848,-28.673675,-20.17979,0.0,39.05516,3.805184,25.827629,-11.066513,16.776723,-27.237748,2.69464,-42.990069,-22.729586,0.0,61.215809,22.025483,82.683552,11.497811,82.78854,1.311345,68.394322,-7.864963,44.371743,0.0,22.635231,26.418024,61.121595,43.758121,78.576029,56.004462,86.283851,63.363135,86.39736,19.124061,350.615992,-50.475644,288.51485
34,-0.213455,-1.664779,1.694001,-3.415168,0.0,-49.58353,-43.28611,-24.839893,-42.362537,4.166382,-36.393116,9.005013,-27.711525,-18.45393,0.0,39.344177,4.74941,27.762208,-10.262214,16.267566,-26.371328,2.147976,-41.797297,-22.923716,0.0,61.328922,21.249138,80.071506,10.178901,79.425991,-0.574826,65.171756,-10.302132,41.952793,0.0,22.27919,23.771142,61.871233,40.45992,79.451266,52.960673,86.465891,61.283974,86.149124,18.915768,348.939941,-48.776481,285.08841
35,-2.823349,-5.348425,0.85905,-5.242178,0.0,-46.527225,-38.968311,-33.078564,-36.542622,-3.349342,-29.76543,4.355186,-20.454094,-13.227356,0.0,36.414428,6.114242,30.985455,-5.54573,21.811876,-18.237256,10.063242,-30.613952,-7.203359,0.0,62.288018,20.346131,77.645508,8.817948,75.781128,-2.326801,61.572899,-12.349868,39.675854,0.0,21.886754,20.206476,61.401053,36.145764,78.77626,48.975141,85.128328,58.478369,84.776486,16.091097,343.58569,-47.918753,279.840406
36,2.643951,-12.75561,2.333954,-7.083661,0.0,-48.025165,-35.653392,-44.741947,-31.609417,-16.934211,-23.986095,-7.889717,-14.126083,-16.798759,0.0,31.301963,12.298929,43.550454,5.301322,38.528923,-3.390369,29.720103,-12.316144,16.08807,0.0,60.847664,27.46859,68.811745,16.793438,64.001793,4.965958,50.429135,-6.804268,33.298691,0.0,21.234682,21.166769,72.575061,35.505671,89.120331,47.877453,94.531482,57.751998,91.355906,18.706134,330.831537,-45.613713,272.758202
37,4.928467,-12.968253,0.211064,-10.435289,0.0,-43.955349,-27.606628,-55.714622,-21.380253,-29.983566,-13.030163,-19.894066,-3.558265,-16.452804,0.0,32.458425,16.940262,54.898438,15.853516,54.760907,12.652499,49.502724,8.231441,38.846888,0.0,58.117,32.761734,61.491291,23.356888,54.724388,11.335705,42.059005,-1.480385,27.768516,0.0,23.074906,19.464817,68.184929,33.122835,82.644393,45.412303,88.197533,55.758288,85.209134,23.706848,317.889364,-45.330402,262.348993
38,7.693886,-15.657953,-1.017437,-11.334745,0.0,-43.220009,-20.716404,-58.840427,-12.745125,-41.398109,-4.187038,-30.141403,4.459488,-19.25695,0.0,32.570477,22.922827,66.975163,27.850448,70.755449,29.928349,69.293521,29.653202,61.834281,0.0,54.648845,36.278858,54.030876,27.890556,45.923687,15.82917,33.60902,2.3386,21.423511,0.0,24.767288,17.154302,60.889377,29.486155,72.950838,41.027628,77.586342,51.311505,74.778514,31.619265,302.292041,-46.129308,251.074878
39,10.814117,-22.132731,-1.064415,-14.067596,0.0,-44.112567,-13.943767,-54.375904,-4.940231,-48.634048,3.114487,-38.190582,10.512681,-22.40673,0.0,33.093589,28.409759,79.056335,39.199112,89.45629,46.240116,91.08534,49.820911,86.496087,0.0,51.739803,34.481746,46.547596,25.451591,36.226616,13.368072,24.289696,0.268421,13.529548,0.0,22.938129,8.958379,50.023959,19.871987,59.48847,31.257318,64.092469,42.262748,62.897512,42.709545,280.229931,-46.91756,237.077903
40,16.323281,-23.312683,-0.580548,-10.40634,0.0,-42.854885,-10.162331,-50.210392,-3.447579,-50.931793,1.771179,-44.247116,6.145225,-30.228493,0.0,34.386952,31.605887,86.048508,45.364632,101.0761,54.57452,104.399409,59.623864,99.918268,0.0,48.303635,33.668416,39.977578,24.352478,28.066052,11.823796,16.497849,-1.833206,5.940445,0.0,16.460857,0.199936,30.431875,8.77051,38.095645,18.833283,42.054278,29.516364,42.143261,59.468771,257.017818,-47.062163,226.772133
41,16.040291,-12.523008,-2.498382,-10.560333,0.0,-44.064148,-9.304253,-43.489483,-3.315239,-46.263543,0.801521,-39.026413,3.811615,-28.585808,0.0,43.995156,20.622192,74.526869,30.053876,87.512894,37.094473,84.77309,41.371936,77.046854,0.0,47.575218,25.405392,40.760856,15.518932,30.623737,3.466804,19.266277,-9.13789,4.853554,0.0,9.207579,-12.810382,-5.793424,-6.214994,-1.344566,2.436918,3.971774,12.947357,9.932282,76.035273,244.778997,-49.034334,216.495987
42,12.506492,-11.138329,-0.080853,-9.022674,0.0,-44.762993,-11.483093,-37.439346,-6.596901,-38.071335,-2.507858,-31.264961,1.34404,-23.212234,0.0,40.224774,10.508858,57.771178,14.159233,65.668339,16.999246,59.298871,18.741225,50.369959,0.0,48.179638,18.345234,39.985932,7.469902,30.53825,-4.398456,18.961316,-16.197841,2.271046,0.0,-0.236986,-22.62582,-27.053535,-19.179196,-24.740488,-12.745087,-19.699604,-3.171205,-12.343351,89.225561,234.08495,-48.431391,207.917595
43,13.157112,-12.597492,1.289475,-9.226413,0.0,-47.981186,-13.602493,-36.143531,-10.866462,-36.589508,-8.171699,-30.974487,-5.01963,-26.579658,0.0,35.277245,-3.037614,40.772587,-4.034587,46.335891,-3.963351,37.598233,-3.129795,28.40293,0.0,49.918922,12.967781,40.36496,1.753704,32.025204,-9.532803,20.698345,-20.212532,3.561699,0.0,-8.938483,-31.147365,-46.205104,-29.768379,-45.932698,-24.852429,-40.137002,-15.982686,-30.896695,103.136192,222.125707,-46.388397,199.329431
44,6.481705,-9.372694,1.40815,-6.094383,0.0,-49.259056,-16.944145,-33.409161,-14.426514,-32.588379,-11.075775,-26.900974,-6.792675,-24.712978,0.0,29.533185,-15.561122,21.813463,-21.368254,24.287351,-24.438726,13.630113,-25.092292,3.329719,0.0,51.450187,13.96471,42.302799,4.401397,36.023895,-6.192742,25.344692,-16.862927,7.002216,0.0,-15.511123,-32.995505,-61.976925,-33.635795,-63.34834,-31.195765,-58.048796,-24.580035,-49.006436,110.375622,213.636853,-44.222522,194.118888
45,0.894699,-8.903927,2.793788,-8.376493,0.0,-50.382133,-21.264175,-31.238674,-16.410965,-25.941948,-10.027359,-17.450878,-2.492626,-14.494205,0.0,26.744869,-24.369733,7.242996,-35.596624,3.405572,-42.612836,-10.274645,-45.623909,-22.215477,0.0,53.160565,14.659356,44.130616,6.171364,40.034398,-3.612785,29.952382,-13.906208,10.839386,0.0,-17.517011,-34.041236,-67.964911,-35.869949,-71.782451,-34.930009,-66.335077,-29.906527,-57.551223,111.945402,205.937828,-40.753653,186.947297
46,-7.409523,-15.363293,4.727898,-6.614667,0.0,-42.59143,-17.16346,-25.218395,-11.592659,-17.517998,-4.461159,-9.338505,3.729939,-4.993297,0.0,20.533914,-20.564449,5.118473,-31.336327,-1.457668,-39.052615,-12.45872,-43.312542,-23.597154,0.0,54.67757,14.500569,45.509033,6.162907,42.322254,-3.172989,32.658886,-12.990223,13.715973,0.0,-18.250482,-36.061524,-69.45598,-38.51761,-73.737494,-38.072229,-70.001903,-33.837793,-63.252849,105.245539,192.031866,-35.316095,181.789961
47,-3.214393,-17.146595,5.641056,-4.87722,0.0,-39.42389,-17.03096,-24.926732,-11.788514,-18.60965,-5.134438,-10.394085,2.547008,-6.116467,0.0,16.488966,-21.969043,6.182124,-30.956451,2.885757,-36.864829,-6.151557,-39.628691,-16.476195,0.0,56.478012,14.904339,47.805634,6.610245,45.264336,-2.560638,35.873028,-12.466541,16.930687,0.0,-19.187632,-38.105562,-71.006404,-40.847305,-75.597275,-40.575801,-72.672535,-36.765738,-66.403386,102.590796,176.589959,-29.115389,178.617429
48,-7.169838,-14.500009,5.671532,-2.969034,0.0,-35.23581,-17.35096,-22.599026,-10.385971,-16.302613,-1.917069,-6.494626,7.533977,0.122486,0.0,15.101705,-20.818343,8.0345,-28.517853,6.648765,-33.475578,-1.268101,-35.722163,-11.660219,0.0,56.378837,16.003109,52.150772,7.764381,50.443954,-1.394371,41.064159,-11.64513,21.428821,0.0,-21.705183,-40.958394,-72.76185,-44.069194,-77.780072,-43.900097,-74.915557,-40.299554,-69.77431,95.888117,163.969957,-22.976698,177.528402
49,-4.749836,-12.546227,6.072235,-2.444761,0.0,-32.994095,-18.127922,-26.255368,-10.44611,-18.4972,-1.098015,-7.599495,9.214542,0.933231,0.0,13.468296,-20.657615,8.373526,-25.850016,12.972274,-28.396763,7.203247,-28.754993,-2.625782,0.0,53.750313,16.436325,56.19928,8.082985,55.582581,-1.063522,45.7229,-11.314304,25.561912,0.0,-23.004436,-43.876156,-74.598326,-46.955464,-80.067739,-46.360004,-76.341003,-42.380728,-71.110175,91.612965,153.179316,-16.429779,176.839227
50,-2.329834,-10.592443,5.677402,-1.673201,0.0,-32.698746,-19.361847,-35.895756,-11.96893,-25.193413,-2.677277,-13.708695,7.588703,-3.684231,0.0,11.588737,-21.486862,7.199199,-22.95294,21.85628,-21.628388,19.262485,-18.727183,10.627116,0.0,48.852459,15.968834,57.972371,7.612782,57.932797,-1.353778,47.99889,-11.232193,28.03188,0.0,-25.050561,-46.345642,-75.224784,-49.218722,-80.353891,-48.110543,-76.318205,-43.553084,-70.945425,89.731116,144.113368,-10.304392,176.692521
51,2.445419,-11.554015,3.797917,-7.947575,0.0,-33.997994,-26.22432,-47.119297,-20.31023,-37.399452,-11.406235,-25.545387,-0.784367,-15.597118,0.0,11.677343,-21.418244,10.993472,-18.326926,33.442998,-12.687527,34.964102,-6.181679,29.278748,0.0,44.589409,21.896347,57.297661,19.54303,58.228065,15.280918,52.082519,9.245842,39.284843,0.0,-26.097249,-45.159613,-56.129068,-47.31109,-58.068722,-45.121334,-54.273752,-39.699765,-51.786025,92.570995,133.759302,-6.112015,169.944895
52,-2.721313,-6.930693,12.130714,-13.439705,0.0,-33.803696,-26.830399,-48.264851,-19.437458,-37.459283,-9.120301,-24.813996,2.732311,-13.739903,0.0,17.158037,-16.324293,18.216801,-12.043204,41.751417,-5.738321,43.903042,1.021259,39.16941,0.0,28.112984,18.335976,43.839112,20.902634,48.311463,21.472103,46.515702,19.932839,40.838768,0.0,-14.474982,-35.628104,-28.922337,-37.999759,-28.710138,-35.851005,-25.849877,-30.413918,-26.019388,90.174305,127.671885,6.343322,157.348466
53,-2.153801,-5.49575,2.902554,-6.839636,0.0,-34.649048,-28.184189,-52.424916,-19.427502,-38.138775,-7.72736,-24.009591,5.326995,-10.954148,0.0,21.260451,-11.861272,22.504571,-6.30476,49.205032,1.019608,52.141387,8.548903,48.242442,0.0,23.59219,23.308376,38.23019,31.455883,43.712505,36.564377,46.408848,38.649914,47.80489,0.0,-10.727473,-34.108606,-8.384996,-35.826539,-4.151931,-32.337153,-1.906328,-25.4459,-4.629336,88.278626,122.68507,9.503998,151.017765
54,-1.846035,-3.633425,13.580601,-12.04803,0.0,-37.243012,-28.76603,-57.844964,-18.709374,-39.934971,-5.86234,-24.083062,8.034496,-8.836979,0.0,24.62901,-8.571899,26.053036,-1.973645,55.724091,6.207386,59.250848,14.618666,55.963645,0.0,5.279136,16.747535,18.425743,29.861915,26.424545,39.932842,34.207099,46.622268,43.135963,0.0,1.419889,-22.280963,19.317399,-22.966164,26.195599,-19.418115,26.51654,-13.09249,21.967307,86.657731,119.475225,23.309739,139.393315
55,-2.40033,-2.798331,1.156654,-6.245499,0.0,-37.01413,-27.82061,-54.70182,-16.667931,-39.066067,-2.775364,-21.338676,11.786396,-3.733875,0.0,29.592199,-3.850783,36.823327,2.917611,62.897055,10.642128,65.292607,18.560985,61.734826,0.0,4.836571,21.993164,14.077469,40.814278,23.341988,55.342987,34.807663,65.49884,50.919571,0.0,4.030999,-18.996989,41.356258,-18.615112,50.746841,-14.058747,49.854115,-6.994228,41.961992,84.416382,116.928669,24.625374,133.399591
56,-2.208984,1.50881,12.371567,-4.451538,0.0,-39.820931,-27.693821,-58.265156,-14.975762,-37.999615,0.316314,-18.784768,15.845718,1.035324,0.0,31.070349,-3.861362,37.448994,2.032206,64.749499,9.134689,66.350929,16.841872,62.764526,0.0,-12.188851,9.686073,-3.194458,27.229637,9.435699,41.869697,22.097809,52.925537,38.035904,0.0,17.20017,-9.848604,48.556233,-9.463602,57.609139,-5.785877,56.550898,0.034506,49.467768,82.306704,118.547293,37.096247,129.057867
57,1.487754,0.672425,-10.433419,8.412728,0.0,-43.256584,-29.234607,-71.536068,-17.194999,-45.741153,-2.664756,-25.898643,11.980088,-4.884246,0.0,29.368656,-4.885523,32.034743,3.310149,66.807801,12.800743,69.864724,22.915056,67.154795,0.0,0.788498,19.701622,8.221344,38.280579,19.215271,52.587296,31.308381,62.733445,47.435189,0.0,5.092828,-18.967448,42.783446,-17.768452,52.918121,-12.88723,52.030694,-5.971802,43.375558,83.884008,119.236767,26.752378,137.487644
58,0.856431,-0.465808,8.679429,-5.006254,0.0,-39.348176,-29.993443,-79.368874,-19.531701,-51.69706,-6.246953,-31.139947,7.468448,-9.332234,0.0,30.583311,-4.1514,30.872927,6.244538,69.975109,17.58937,74.182955,29.241524,71.870643,0.0,-10.30616,8.882606,-3.550004,26.472679,8.628639,41.082504,21.270401,52.15187,37.796402,0.0,15.636341,-9.66623,50.081468,-8.847562,59.180354,-5.097317,57.756624,0.556229,48.839827,84.811747,118.725801,35.503115,132.436232
59,-0.707955,-1.217095,-9.220002,4.411394,0.0,-34.189728,-29.847416,-72.283859,-20.27536,-51.085762,-7.669315,-31.778343,5.609562,-9.74683,0.0,34.061916,-0.594638,38.696414,10.212249,73.161462,21.469383,77.007846,32.710558,74.069854,0.0,3.558724,17.620331,7.793633,34.668,17.827858,48.15033,29.228028,57.958054,45.662957,0.0,9.235657,-16.272209,47.397307,-15.84171,57.323648,-11.550865,56.315326,-4.77921,45.201524,84.133095,117.395573,26.312416,136.734493
60,-0.270744,2.268772,-0.405601,0.634807,0.0,-33.797699,-30.165493,-70.612221,-21.368614,-49.979531,-9.940876,-32.796044,2.411899,-13.061795,0.0,36.21498,0.702812,39.97529,9.500502,70.239741,18.859342,72.947731,28.325698,69.645708,0.0,3.477997,16.979942,8.188247,34.415794,18.498024,48.156051,30.35614,58.173454,46.41996,0.0,9.311925,-16.537773,46.560613,-16.712434,56.674972,-12.742575,55.43763,-5.975958,44.301906,83.882029,119.588556,25.926493,137.293511
61,1.40934,1.48577,0.156303,0.045139,0.0,-35.505387,-31.526848,-74.904923,-23.108071,-52.27604,-11.947014,-35.487053,0.279007,-16.531815,0.0,34.300619,-1.059612,35.790101,7.779132,69.161147,17.472496,71.910955,27.218576,68.343955,0.0,4.028,16.953896,6.593788,34.628563,15.909394,48.5308,28.093094,58.614166,45.042938,0.0,8.735003,-17.473001,44.598,-16.933994,55.910527,-12.297662,54.751818,-4.839972,44.627171,85.293921,121.007225,26.085348,137.271549
62,-0.072304,1.212334,0.104531,-0.835224,0.0,-35.583916,-31.063889,-74.003174,-22.660149,-51.889023,-11.498749,-34.61158,0.71981,-15.887283,0.0,32.595085,-2.173392,34.163866,6.18058,67.720448,15.501311,70.404948,24.804134,66.076306,0.0,3.631599,17.927673,7.07048,34.625129,15.461196,47.771232,26.782836,57.349823,43.526367,0.0,8.836231,-16.617696,43.103616,-14.917263,55.21339,-9.650712,54.43557,-2.00154,45.627466,85.199307,122.164786,26.167569,136.381552
63,-1.21241,5.983393,-0.197113,1.038908,0.0,-40.998184,-30.176399,-71.110474,-20.318894,-47.986908,-7.776375,-31.13253,5.534317,-12.099564,0.0,25.433099,-6.851227,26.86929,-1.463893,60.052183,5.701285,62.140051,13.08293,57.132845,0.0,3.902503,18.300109,6.827957,34.982711,15.524803,47.902587,26.146224,57.084686,42.251838,0.0,6.444767,-17.235652,39.163538,-14.362535,52.175239,-8.128232,52.4647,0.122,45.506812,83.912012,128.0736,25.895571,137.345881
64,4.426163,1.84052,-4.429345,2.74015,0.0,-42.128975,-32.356682,-82.062401,-24.61496,-52.151642,-13.756531,-35.284996,-1.868203,-20.581513,0.0,20.51516,-9.522877,15.839802,-2.868529,55.929676,5.485592,58.31523,13.618356,55.803248,0.0,8.964203,23.406556,13.292107,39.786599,20.066483,51.898613,29.696892,59.778786,45.701523,0.0,2.78829,-19.648889,32.25395,-15.886881,45.975719,-8.999227,47.552973,-0.596478,42.184886,88.179114,129.860724,21.307165,140.032635
65,1.545822,7.142423,3.050881,-0.327376,0.0,-45.304413,-32.733284,-86.604218,-24.883164,-49.080666,-13.406433,-32.00203,-0.769982,-18.904839,0.0,16.303091,-15.781256,-1.909452,-10.642208,43.344831,-3.089713,45.729422,4.750466,43.562106,0.0,6.634025,21.788109,12.015266,34.091652,16.047226,42.770187,22.952316,47.635505,38.072067,0.0,6.107795,-15.422678,27.950898,-11.311144,41.701516,-4.611268,44.422622,3.146461,39.022821,89.441408,136.950712,24.074518,139.652824
66,-2.299988,9.767236,-13.060696,7.554397,0.0,-45.212792,-29.718384,-78.004658,-21.455864,-38.189072,-9.767464,-22.498009,3.066742,-11.514977,0.0,14.144296,-19.693874,-14.253477,-18.563539,27.135274,-14.639504,27.552002,-9.89932,25.097152,0.0,26.598621,28.723995,35.617321,35.48077,35.915302,38.928223,36.957516,39.382897,44.61684,0.0,-7.612801,-27.385338,7.531568,-24.751183,18.794559,-18.023605,22.778443,-8.623217,19.090516,86.819704,146.565264,10.692106,147.054537
67,-0.035843,6.646468,0.49379,-3.009567,0.0,-43.418346,-26.189026,-69.474472,-19.316906,-35.319271,-9.307445,-23.300686,1.977093,-14.401474,0.0,11.176349,-19.153076,-19.343319,-19.604199,17.283138,-17.692169,16.329149,-15.211741,14.352253,0.0,30.688717,18.063915,36.074238,18.932361,35.546779,18.388195,33.873905,16.661258,34.618297,0.0,-7.788938,-30.24613,-6.256187,-28.422893,3.341685,-21.885569,7.318492,-11.403566,7.521768,86.437157,152.890793,10.839192,143.724031
68,3.623474,-0.172197,-15.49355,-6.323897,0.0,-40.176029,-22.629364,-63.220928,-19.593281,-42.368122,-14.206135,-36.090305,-7.408344,-30.461128,0.0,11.182821,-11.8003,-13.869244,-9.483634,17.059972,-6.458139,16.114789,-3.936425,15.869313,0.0,45.622262,19.33516,52.888642,14.301648,49.008179,9.430836,43.614945,5.378415,37.408551,0.0,-22.092148,-41.316533,-19.111505,-37.94414,-9.16888,-29.159378,-4.07591,-16.098536,-2.661467,89.760074,152.432374,-4.954915,137.113912
69,-1.124702,7.251641,-6.242935,-13.807089,0.0,-43.618733,-18.361908,-58.511776,-14.982777,-46.119839,-10.423405,-38.347355,-4.954251,-30.509331,0.0,7.347249,-9.498473,-11.339645,-7.811019,11.340914,-6.233522,7.298096,-5.509819,5.641302,0.0,42.855835,5.40033,49.338913,-4.111393,45.510567,-11.62746,38.406052,-16.222538,25.990414,0.0,-28.427383,-44.612438,-28.712256,-40.574059,-18.364171,-30.639845,-11.994283,-15.702661,-7.921423,88.42408,159.276515,-11.409142,122.899323
70,-0.630616,0.314409,-16.552036,-21.22353,0.0,-44.170726,-16.514167,-63.008628,-15.453357,-60.540515,-14.259693,-56.109088,-12.459468,-47.263733,0.0,3.996968,-0.919192,2.943632,6.241725,21.668312,11.380215,20.070094,14.091416,20.975583,0.0,42.331375,-3.509926,48.847115,-15.35305,45.559925,-23.334869,38.174767,-26.913952,22.775196,0.0,-41.007949,-49.80742,-35.478206,-43.676907,-23.686582,-31.50277,-14.851734,-14.14074,-7.405783,87.621259,158.873795,-28.133383,100.958664
71,0.097985,0.556099,-15.486511,-28.683641,0.0,-46.580761,-16.855683,-71.237812,-17.830708,-78.755184,-19.295391,-74.963711,-20.26276,-64.139695,0.0,3.693613,9.525532,20.627969,22.0174,34.964584,30.514426,36.037775,35.191748,38.451,0.0,32.58617,-10.039376,39.10255,-21.661469,35.265564,-28.748188,29.029999,-31.072621,15.184845,0.0,-47.693517,-45.708612,-29.364717,-36.055633,-14.824366,-21.501895,-4.144354,-3.366997,2.5872,87.324738,158.215772,-44.0144,71.060901
72,-3.594109,7.175627,-19.245507,-25.144805,0.0,-51.862272,-20.060749,-81.110773,-20.839382,-90.624801,-22.226658,-85.207838,-23.194416,-72.072504,0.0,5.00282,16.012863,32.909789,31.448274,44.661479,41.947814,47.542667,48.006826,50.72871,0.0,21.559845,-14.996051,31.398331,-25.402221,27.155102,-30.750549,21.995556,-31.093402,10.936879,0.0,-56.378916,-44.352536,-25.765767,-32.810501,-10.012885,-16.874158,3.334245,1.517831,9.208469,82.888378,164.283356,-64.102158,44.808053
73,-7.286201,13.795153,-16.225971,-23.165729,0.0,-60.015261,-26.129368,-92.627512,-24.479382,-96.149368,-23.053494,-86.841471,-21.254437,-71.062163,0.0,7.92459,18.542802,39.789094,34.53435,50.758999,45.680379,54.58477,52.536651,57.808716,0.0,10.610951,-18.517364,21.655369,-27.689266,17.315838,-32.185718,12.902596,-32.183544,4.854882,0.0,-61.623292,-40.374241,-26.299654,-28.326445,-9.971728,-12.59005,4.185264,4.925355,10.810361,74.462368,177.115805,-81.467938,20.67962
74,-7.612725,13.36001,-17.502285,-22.032133,0.0,-64.963983,-29.974353,-98.026125,-27.089916,-100.611751,-24.025554,-93.25752,-20.204898,-75.08428,0.0,12.03003,22.315061,48.512995,38.988395,59.943644,51.070141,67.965072,59.049171,71.749317,0.0,3.502327,-21.724697,14.252564,-30.071113,10.74305,-32.898948,7.3927,-31.085895,1.820206,0.0,-66.222568,-38.161785,-24.575071,-24.982803,-8.475059,-8.625477,5.925607,8.651961,13.110286,65.260797,189.525701,-100.559069,-2.302627
75,-5.552856,15.35655,-14.349495,-15.113327,0.0,-69.383921,-33.290943,-100.514792,-28.687786,-103.003063,-23.469807,-92.951082,-17.269443,-72.020445,0.0,16.063727,23.713238,54.73541,40.663844,66.809536,53.244385,75.654221,61.671995,78.888541,0.0,0.030716,-24.906326,9.200432,-32.188499,5.836544,-33.45544,3.49767,-29.826255,-2.102874,0.0,-66.78333,-38.14489,-26.622523,-24.770653,-10.709059,-8.362926,3.695571,8.608903,11.842754,57.686577,203.776406,-116.929928,-18.521799
76,-6.459023,15.912587,-12.074306,-11.729077,0.0,-71.123788,-35.834278,-101.671182,-29.970943,-103.511386,-23.216342,-92.729959,-15.207286,-70.134859,0.0,19.273797,24.890658,61.110474,42.14347,73.589373,55.255695,83.387151,64.209047,86.903485,0.0,-1.65358,-28.080723,5.480049,-34.501305,2.530849,-34.084568,1.434345,-28.397667,-3.027661,0.0,-66.796859,-38.607395,-28.784392,-25.493361,-12.922317,-9.29248,1.224437,7.375025,10.827058,49.080116,218.851973,-131.151672,-31.087896
77,-5.458442,14.702717,-10.081833,-12.442529,0.0,-71.619599,-36.538262,-101.140206,-29.753884,-102.571495,-22.037155,-91.042042,-12.894974,-67.176213,0.0,21.714878,26.259388,66.28598,43.749587,79.362753,57.086156,89.902771,66.18713,93.530076,0.0,-3.007164,-29.035355,4.02317,-35.035561,0.680752,-33.599442,0.513393,-26.904007,-3.739266,0.0,-66.129689,-36.706618,-29.912362,-22.956284,-12.632819,-6.553163,1.43035,9.851235,12.109688,41.766667,232.72105,-143.088512,-44.364065
78,-4.237931,13.303682,-8.317818,-7.381761,0.0,-70.929897,-35.591629,-98.995548,-28.311286,-100.531162,-20.232009,-87.918594,-10.637603,-63.197273,0.0,22.721768,27.467818,69.139886,45.056274,82.850787,58.275568,93.987066,67.21851,97.225431,0.0,-1.956928,-30.487976,2.776497,-35.676155,-0.637115,-32.893673,0.240155,-24.558265,-3.39283,0.0,-66.129684,-36.650377,-30.588728,-22.494058,-13.181848,-5.960965,1.408354,10.478007,12.016389,35.852846,244.956095,-153.08222,-52.814463
79,-3.730819,12.154049,-5.663612,-6.936047,0.0,-70.488842,-35.447754,-97.945416,-27.806031,-98.752476,-19.395836,-85.565495,-9.673874,-61.135735,0.0,22.949084,28.671816,70.456084,46.366964,84.531387,59.461436,95.821301,68.022155,99.03804,0.0,-1.991787,-29.912499,3.285553,-34.655628,-0.473145,-31.463848,0.535904,-22.817642,-2.215771,0.0,-65.43514,-35.168713,-30.316507,-20.458017,-12.901267,-3.676391,2.479501,12.872836,13.106457,30.778078,256.126904,-160.089781,-60.73375
80,-3.621392,9.309455,-3.308167,-6.110031,0.0,-69.038372,-35.143569,-96.070518,-27.384613,-96.951725,-18.516998,-83.023235,-8.314224,-58.689926,0.0,22.852827,30.03072,69.846064,47.326121,84.571636,59.951907,95.766022,68.081484,98.567564,0.0,-2.809238,-29.407676,3.498906,-33.999137,-0.71878,-30.88124,0.000183,-22.296672,-1.75201,0.0,-65.11571,-33.123273,-28.781268,-17.452815,-11.226336,-0.050061,4.458306,16.717238,15.23127,26.181741,264.90274,-164.372893,-67.3774
81,-2.474372,5.892941,-1.666603,-4.744636,0.0,-67.925778,-34.525933,-94.617726,-26.811722,-95.76939,-17.65139,-81.149769,-7.299202,-57.174969,0.0,22.690967,31.025259,68.663198,48.101138,84.230328,60.512131,95.070996,68.354594,97.756497,0.0,-3.985656,-29.249038,3.664238,-33.590446,-0.39973,-30.519848,0.049713,-21.995487,-0.668289,0.0,-65.053664,-31.14487,-26.838396,-14.467072,-9.492063,3.555015,6.615958,20.543794,17.322905,22.991375,270.56492,-166.75549,-72.352797
82,-1.767014,3.130968,-0.187156,-3.108744,0.0,-66.788498,-33.983757,-93.663471,-26.395477,-95.102131,-17.013405,-79.918201,-6.547806,-55.981647,0.0,22.568331,31.542555,67.48211,48.386598,83.385422,60.659727,93.901258,68.378887,96.517561,0.0,-5.068715,-28.783894,3.795581,-33.095375,0.298656,-30.406037,0.371658,-22.222767,0.58097,0.0,-65.692731,-29.863339,-24.978005,-12.421404,-8.687752,6.023808,8.132381,23.273001,18.290657,20.587543,273.531764,-167.579464,-75.625665
83,-1.406685,0.695977,0.709739,-1.610803,0.0,-65.763988,-33.271293,-92.892265,-25.795807,-94.317627,-16.282928,-79.089763,-5.778946,-54.988106,0.0,22.798301,31.901127,67.329043,48.645863,83.317595,60.899923,93.520258,68.52353,96.15905,0.0,-6.329406,-28.690647,3.407341,-33.107094,0.364014,-30.753376,0.15683,-22.876865,0.97308,0.0,-65.908206,-29.280335,-24.699899,-11.837949,-9.025613,6.516311,7.870103,23.569311,18.443335,18.601799,274.201748,-167.448784,-77.262461
84,-1.114906,-0.44427,0.58302,-1.182156,0.0,-64.937611,-32.502319,-91.928673,-25.129326,-93.567021,-15.583443,-78.385037,-5.028259,-53.849053,0.0,23.187391,32.026716,66.796619,48.846046,82.946809,61.145406,93.173616,68.74009,96.032981,0.0,-6.714776,-28.55555,3.458725,-33.075257,0.706558,-30.911431,0.219932,-23.198903,1.186855,0.0,-65.763923,-28.596832,-24.483483,-10.945507,-8.854077,7.415138,7.966557,24.331342,18.760263,16.973631,273.821723,-167.379026,-78.380372
85,-0.543938,-0.840991,0.847492,-0.318885,0.0,-64.787304,-32.104957,-91.765537,-24.792549,-93.205673,-15.306015,-78.014099,-4.826042,-53.54409,0.0,23.055183,32.179906,66.810327,49.083698,83.099703,61.401757,93.46898,68.990672,96.517215,0.0,-6.806454,-28.69717,3.0974,-33.203053,0.964268,-31.001209,0.485492,-23.273964,1.722439,0.0,-66.160272,-28.523701,-24.526492,-10.895508,-9.31187,7.244527,7.660342,23.878316,18.390545,16.050339,273.123378,-166.910888,-78.556611
86,-0.561882,-0.533622,0.626964,0.194353,0.0,-64.739925,-31.858875,-91.295048,-24.540504,-92.787163,-15.076973,-77.626064,-4.564979,-53.208984,0.0,22.991543,32.589533,67.004149,49.491399,83.327685,61.70768,93.893156,69.161511,96.971809,0.0,-6.40274,-28.776592,2.852234,-33.191757,0.817006,-30.951313,0.407284,-23.187687,1.580235,0.0,-66.717729,-29.035,-24.856603,-11.379008,-9.682255,6.687174,7.381792,23.253254,17.989235,15.22522,272.804055,-166.547161,-78.147959
87,-0.438171,-0.286078,0.143624,0.46227,0.0,-65.025147,-31.852593,-90.936012,-24.546227,-92.389733,-15.147652,-77.364956,-4.656006,-53.051251,0.0,22.918876,32.905634,67.146237,49.885256,83.563918,62.018508,94.213024,69.325496,97.200373,0.0,-5.889427,-28.802651,3.240829,-32.999451,1.054676,-30.539955,0.536544,-22.595856,1.714073,0.0,-66.932748,-29.273036,-25.285596,-11.646177,-10.019153,6.393996,7.008505,22.916992,17.890169,14.631626,272.757649,-166.55896,-77.446017
88,-0.302353,-0.178903,0.252697,0.197638,0.0,-65.006252,-31.876511,-90.795857,-24.595596,-92.22876,-15.282005,-77.187149,-4.879715,-53.023338,0.0,23.31724,33.2431,67.344011,50.259809,83.78906,62.323851,94.394347,69.538609,97.396146,0.0,-5.784119,-28.774681,3.974636,-32.825775,1.291786,-30.25573,0.706226,-22.239773,1.655559,0.0,-67.415392,-29.212119,-25.135314,-11.452596,-9.609883,6.770241,7.36851,23.478841,18.207807,14.23506,272.774782,-166.400476,-77.052343
89,-0.151016,-0.20038,0.175197,0.162453,0.0,-64.874623,-31.845532,-90.658894,-24.595848,-92.010258,-15.283745,-76.940083,-4.87333,-52.823948,0.0,23.691608,33.444147,67.572093,50.451025,84.155882,62.464951,94.767295,69.646165,97.59413,0.0,-5.792164,-28.669384,4.268189,-32.618557,1.487091,-29.945263,0.999928,-21.853466,1.761338,0.0,-67.621944,-29.122427,-25.185609,-11.368986,-9.544261,6.860854,7.468225,23.557591,18.361948,14.043909,272.713683,-166.265414,-76.750609
90,0.110778,-0.016191,0.350144,-0.032339,0.0,-64.701255,-31.94157,-90.627468,-24.659385,-91.8987,-15.334167,-76.807708,-4.93428,-52.639068,0.0,23.921986,33.5252,67.54901,50.464536,84.151387,62.391035,94.801962,69.486121,97.567084,0.0,-6.032124,-28.700775,4.350975,-32.670433,1.423107,-30.046944,0.856807,-22.005604,1.294532,0.0,-67.847937,-29.236535,-25.0798,-11.500804,-9.48548,6.735285,7.593936,23.472938,18.577143,14.126495,272.791562,-165.943462,-76.688878
91,0.230187,0.004891,0.002346,-0.092545,0.0,-64.54232,-32.094246,-90.679367,-24.820747,-91.948208,-15.474014,-76.801037,-5.002487,-52.494209,0.0,24.09012,33.603117,67.39745,50.390324,84.13485,62.175254,94.854511,69.152841,97.423625,0.0,-5.953423,-28.551556,4.62006,-32.417942,1.762264,-29.731785,1.12484,-21.678875,1.612564,0.0,-67.911596,-29.104871,-25.004452,-11.393754,-9.44052,6.833789,7.693064,23.566001,18.715476,14.345656,272.879159,-165.952142,-76.698717
92,0.100571,0.096478,0.486339,-0.036149,0.0,-64.156678,-32.001389,-90.518898,-24.748742,-91.978581,-15.394822,-76.716774,-4.857651,-52.271428,0.0,24.087527,33.608774,67.037285,50.179608,83.905744,61.822488,94.728813,68.715945,97.157321,0.0,-6.282005,-28.592308,4.129315,-32.483699,1.599404,-29.841613,0.936047,-21.833164,1.33524,0.0,-68.206463,-29.331087,-24.95804,-11.727255,-9.429207,6.391094,7.740359,23.085472,18.672862,14.441912,273.048762,-165.470118,-76.661741
93,0.136894,0.149683,0.412102,-0.125489,0.0,-64.063225,-32.000839,-90.458599,-24.704773,-92.077721,-15.28331,-76.718388,-4.65493,-52.160271,0.0,23.86998,33.584185,66.576392,50.028233,83.616295,61.574757,94.539054,68.401339,96.965882,0.0,-6.205227,-28.748222,3.381386,-32.655441,1.307167,-30.026184,0.462639,-22.040794,0.846657,0.0,-68.185018,-29.437866,-24.657242,-11.701851,-9.207591,6.435875,8.069099,23.135329,18.872667,14.584391,273.280971,-165.052431,-76.704704
94,0.172188,0.125107,0.376339,0.103605,0.0,-64.088734,-31.967572,-90.570008,-24.681107,-92.152474,-15.264885,-76.777977,-4.6428,-52.295941,0.0,23.699499,33.625754,66.350484,50.057749,83.382063,61.595233,94.333239,68.396028,96.825597,0.0,-6.122967,-28.825161,3.159485,-32.640289,1.297451,-29.990101,0.225975,-22.003132,0.725121,0.0,-68.451983,-29.487791,-24.426382,-11.663368,-9.054321,6.469282,8.194243,23.156553,18.676227,14.776726,273.471286,-164.655945,-76.535891
95,-0.014489,0.170814,0.644772,0.091212,0.0,-63.994663,-31.870319,-90.567409,-24.529449,-92.164775,-15.033256,-76.77919,-4.335708,-52.399635,0.0,23.447261,33.615603,66.181856,50.043756,83.181621,61.592442,94.062982,68.403426,96.485043,0.0,-6.256405,-28.948025,2.712535,-32.807488,1.177116,-30.204403,-0.139241,-22.231373,0.515487,0.0,-68.621794,-29.471928,-24.21117,-11.469929,-8.580375,6.75405,8.609193,23.51489,18.828398,14.793462,273.697614,-163.979948,-76.389165
96,0.016457,0.220338,0.661766,0.317267,0.0,-64.052593,-31.748371,-90.665348,-24.361588,-92.159992,-14.826416,-76.795795,-4.133606,-52.559544,0.0,23.169026,33.477566,66.078004,49.976349,82.997358,61.600556,93.769902,68.474957,96.206339,0.0,-6.224579,-28.710938,2.343898,-32.720673,1.177654,-30.274166,-0.399731,-22.371495,0.240795,0.0,-69.025802,-29.928906,-24.214405,-11.89337,-8.655481,6.254675,8.498086,22.974945,18.541537,14.843943,273.9665,-163.284158,-76.02335
97,0.119247,0.212915,0.617683,-0.304862,0.0,-64.276634,-31.915226,-90.954586,-24.525306,-92.265106,-14.953605,-76.95718,-4.208381,-52.825676,0.0,22.960298,33.302763,66.179077,49.936126,82.9424,61.696813,93.590221,68.671979,96.141588,0.0,-5.851948,-28.724316,1.928696,-32.883854,0.975323,-30.451103,-0.637951,-22.48114,0.021687,0.0,-68.362297,-29.173161,-23.737896,-11.032291,-7.932958,7.190397,8.98253,23.980408,18.942131,14.994203,274.20649,-162.635462,-76.301137
98,0.160195,0.120907,0.58429,0.168851,0.0,-64.490582,-32.025273,-91.273922,-24.677994,-92.390362,-15.117554,-77.151741,-4.331726,-53.001675,0.0,22.956926,33.2091,66.429673,49.899236,82.989405,61.744497,93.637226,68.811152,96.234399,0.0,-5.690003,-28.286774,1.878124,-32.47855,1.14553,-30.126446,-0.499421,-22.220261,0.17387,0.0,-68.058121,-28.909962,-23.558727,-10.746709,-7.7514,7.427444,8.971649,24.0871,18.99865,15.177956,274.319974,-162.027614,-76.139709
99,0.199951,0.123761,1.05083,-0.059867,0.0,-64.694103,-32.311398,-91.624512,-25.006279,-92.676579,-15.43721,-77.464554,-4.555,-53.209763,0.0,22.868277,33.022959,66.563844,49.709316,83.091737,61.610226,93.637657,68.800493,96.231977,0.0,-5.560318,-28.341259,1.886994,-32.71693,1.290116,-30.38729,-0.368488,-22.476539,0.194447,0.0,-67.22279,-27.924747,-22.920697,-9.833451,-7.28708,8.255332,9.152572,24.836448,19.346268,15.38788,274.432722,-160.966811,-76.210589
100,0.206818,0.044077,0.620327,0.384309,0.0,-64.835541,-32.465252,-91.824108,-25.19252,-92.767811,-15.643982,-77.708577,-4.733437,-53.391083,0.0,22.983664,32.836411,66.671105,49.568439,83.218659,61.542029,93.788255,68.834481,96.425417,0.0,-5.17155,-27.754886,2.407345,-32.132663,1.686802,-29.849475,0.325482,-22.041183,0.888279,0.0,-66.168042,-27.171712,-22.483491,-9.127513,-6.825921,8.980246,9.301897,25.558409,19.647963,15.575621,274.479272,-160.365561,-75.823807
101,0.00206,0.00352,1.31765,0.748594,0.0,-64.689595,-32.534466,-91.806382,-25.311196,-92.696572,-15.772271,-77.746788,-4.800637,-53.349999,0.0,23.18103,32.714837,66.847204,49.449631,83.358807,61.470954,93.980249,68.840174,96.589019,0.0,-5.096557,-27.667556,2.774002,-32.092209,1.704094,-29.830192,0.596672,-22.072574,0.885945,0.0,-65.04629,-26.02384,-21.543699,-7.778322,-5.684415,10.518788,10.225554,27.210758,20.780953,15.523665,274.494673,-159.101927,-75.063332
102,0.076881,-0.082264,1.949936,1.552492,0.0,-64.564281,-32.475975,-91.853279,-25.240334,-92.559517,-15.695503,-77.626087,-4.725494,-53.187195,0.0,23.517595,32.806759,67.133986,49.517952,83.615763,61.515711,94.247134,68.904876,96.82619,0.0,-5.617985,-27.30178,3.456356,-31.791115,1.752857,-29.777218,0.831654,-22.388763,0.6908,0.0,-64.277482,-25.424089,-20.497351,-7.086971,-5.044891,11.207527,10.685705,27.884029,21.556841,15.529306,274.451624,-157.223231,-73.471625
103,-0.019913,0.084116,1.222687,4.414741,0.0,-64.428795,-32.474235,-91.787269,-25.201309,-92.378128,-15.615371,-77.550876,-4.627258,-53.163036,0.0,23.510222,32.709601,67.199985,49.453744,83.694953,61.473289,94.276738,68.890155,96.746655,0.0,-4.029934,-26.00124,3.555851,-30.694279,1.841251,-28.820892,1.18737,-21.997822,0.974888,0.0,-64.708581,-26.48503,-20.658866,-7.910888,-5.532232,10.792922,10.096001,28.043474,21.689301,15.399101,274.599432,-156.110836,-68.993192
104,-0.089561,0.075348,2.398636,5.354267,0.0,-64.262009,-32.361237,-91.594803,-25.059586,-91.978523,-15.436478,-77.179619,-4.419754,-52.860386,0.0,23.589077,32.610306,67.225895,49.427562,83.777266,61.497915,94.392581,68.942816,96.835527,0.0,-3.495575,-25.94775,3.186584,-30.662808,1.538017,-28.71056,0.679527,-22.047627,0.342018,0.0,-65.099328,-26.742961,-20.634369,-8.263199,-5.189375,10.482034,10.395386,27.9569,22.841897,15.196421,274.74549,-153.825319,-63.568215
105,0.035728,0.180966,2.366226,6.782999,0.0,-64.158725,-32.248581,-91.522876,-24.937362,-91.719566,-15.32183,-76.878387,-4.327995,-52.696884,0.0,23.65121,32.488435,67.285373,49.357401,83.750552,61.468682,94.390543,68.946274,96.748421,0.0,-2.441162,-24.871754,4.393593,-29.412186,2.621418,-27.345726,1.466789,-20.755669,0.918606,0.0,-65.15097,-26.611624,-19.964483,-8.064999,-4.746297,10.80718,10.74945,28.551902,23.723193,15.236337,274.993131,-151.454905,-56.718541
106,0.322655,0.301589,3.397373,7.375543,0.0,-64.236717,-32.205803,-91.487572,-24.889732,-91.576138,-15.279602,-76.730598,-4.30291,-52.617748,0.0,23.711195,32.269617,67.046992,49.158021,83.572884,61.295583,94.2757,68.816561,96.753793,0.0,-1.64138,-22.77071,5.035343,-27.386158,3.342831,-25.759815,2.373413,-20.019333,2.116825,0.0,-63.193402,-25.113503,-18.462354,-7.368899,-3.424906,10.940203,11.950878,28.293261,25.510096,15.72781,275.334864,-147.888714,-49.302854
107,0.219246,0.402538,3.561081,8.988402,0.0,-64.191994,-32.021004,-91.193035,-24.706513,-91.45221,-15.13472,-76.643017,-4.262467,-52.706921,0.0,23.772229,31.955777,66.669426,48.842168,83.173458,61.026994,93.956179,68.632286,96.537902,0.0,0.349743,-19.501579,8.088455,-24.350738,6.752964,-23.662983,5.430851,-19.497471,4.310097,0.0,-59.83069,-24.041979,-16.253264,-7.761174,-1.694635,9.577607,12.396204,26.301582,24.429303,16.464563,275.724169,-143.810126,-40.327685
108,0.292625,0.454348,4.324436,13.413054,0.0,-64.015503,-31.729133,-90.843647,-24.426132,-91.152866,-14.932892,-76.375442,-4.2014,-52.558559,0.0,24.052489,31.59755,66.330958,48.490252,82.836708,60.709065,93.673559,68.380529,96.400309,0.0,2.139359,-17.847118,13.386486,-22.523185,10.39634,-22.107639,8.179184,-18.229614,6.709957,0.0,-58.846364,-23.50585,-15.454621,-7.702116,-0.298767,9.319323,12.912814,25.848723,24.825253,17.862596,275.883218,-138.380282,-27.20993
109,0.464356,0.444603,2.828602,13.678754,0.0,-63.95509,-31.673012,-90.545265,-24.369255,-90.984261,-14.911904,-76.331646,-4.257454,-52.739422,0.0,24.47338,31.554263,66.162775,48.393909,82.535847,60.576647,93.363671,68.249618,96.339436,0.0,5.637119,-12.9627,23.469109,-17.479122,18.631714,-17.668316,15.38142,-14.45731,12.637276,0.0,-54.55949,-21.483672,-11.986731,-6.291817,3.397829,10.35539,15.640107,26.595446,25.706394,20.020077,275.887614,-133.858555,-13.971383
110,0.383972,0.342245,4.976715,13.309634,0.0,-63.884205,-31.581436,-90.041233,-24.290497,-90.665165,-14.843033,-76.116531,-4.22065,-52.550423,0.0,24.996505,31.612802,66.157724,48.338099,82.351449,60.448676,93.066714,68.077211,96.388169,0.0,9.267414,-8.436504,28.034134,-13.299408,24.814843,-14.960987,20.867535,-13.948105,15.607132,0.0,-47.565829,-18.469387,-10.761386,-5.060112,4.974552,9.924496,16.805567,24.482477,25.997585,22.570753,275.808672,-126.715136,-1.082936
111,0.296265,0.187388,4.175755,21.159162,0.0,-63.84763,-31.323395,-89.58704,-23.990662,-90.33046,-14.556931,-75.800423,-4.019738,-52.351605,0.0,25.679823,31.852357,66.450705,48.576851,82.320474,60.655787,92.900321,68.25462,96.485414,0.0,15.771927,-0.345658,36.839241,-5.639019,33.786289,-8.564896,28.434894,-9.217289,20.460903,0.0,-46.701725,-18.278449,-8.745902,-4.521625,6.708978,10.885875,17.872644,26.154282,25.693612,25.012293,275.569331,-120.394106,19.649497
112,0.391433,0.159958,4.349991,22.024575,0.0,-64.008407,-31.366928,-89.445705,-23.905357,-90.099312,-14.388519,-75.552189,-3.858055,-52.288021,0.0,26.503623,32.187748,66.77671,48.927976,82.550557,60.939938,93.088857,68.399017,96.553377,0.0,22.892097,6.518268,46.977676,0.39188,43.447769,-4.018261,36.811947,-6.312413,24.193542,0.0,-45.523484,-14.529038,-7.05956,0.519068,8.624797,16.649399,20.739938,31.930755,30.39887,27.178402,275.293905,-114.269439,41.238688
113,0.321854,0.050154,5.982811,20.698442,0.0,-64.081638,-31.260429,-89.298981,-23.691124,-89.931667,-14.089531,-75.365284,-3.591156,-52.272194,0.0,27.082977,32.349546,66.965419,49.027789,82.537762,60.990524,92.888712,68.403673,96.382167,0.0,28.771499,15.865173,54.261692,9.163742,50.839313,2.68765,42.709242,-2.483506,26.424282,0.0,-39.386485,-7.244546,-2.106937,7.869009,12.676279,23.452491,24.428487,37.515351,33.722437,28.727577,275.161516,-107.059307,61.754587
114,0.069145,-0.063072,7.798313,25.732749,0.0,-63.938633,-30.958168,-89.107784,-23.24414,-89.677379,-13.635773,-75.230175,-3.34909,-52.596405,0.0,27.615328,32.391487,67.125452,49.114228,82.331738,61.072886,92.704313,68.448504,95.944517,0.0,34.384243,25.671844,55.921886,18.762291,51.944755,10.318456,42.077379,1.84235,24.867496,0.0,-35.786973,-1.769372,0.274845,13.886821,13.960292,29.201912,24.809623,42.174358,35.017442,29.573204,274.972655,-98.484512,87.361547
115,-0.224098,-0.13637,7.599523,29.938761,0.0,-63.557945,-30.542679,-89.011505,-22.656441,-89.513672,-13.016258,-75.097355,-2.950745,-52.913006,0.0,27.822488,32.192244,66.982586,49.022751,81.999027,61.060314,92.521285,68.482739,95.355975,0.0,40.75062,32.262246,62.366221,24.891077,55.655915,15.455727,43.832131,5.603657,26.535376,0.0,-31.55991,2.288686,6.90745,19.083767,19.095913,34.966584,28.427567,48.030816,37.888114,29.596315,274.633713,-90.63778,117.097736
116,-0.27063,-0.278531,8.81202,26.635583,0.0,-63.182396,-30.33625,-88.971416,-22.416893,-89.341289,-12.847916,-75.209461,-3.043968,-53.574623,0.0,27.705928,31.945341,66.553692,48.837635,81.265333,60.915744,91.93389,68.33886,94.521244,0.0,45.882654,32.120338,65.971601,24.153974,58.865638,14.166355,45.70063,3.507877,27.745782,0.0,-19.350563,7.450002,14.164421,23.580161,24.983037,38.315915,32.83522,49.657094,40.840352,29.498228,274.12719,-81.653217,143.505327
117,-0.820267,1.178025,6.607773,25.497264,0.0,-60.259346,-29.529602,-88.292106,-22.025505,-88.846424,-12.815231,-75.410328,-3.304481,-54.025978,0.0,23.66776,29.723128,63.971945,46.300175,78.534384,58.491633,88.926805,66.375814,91.943115,0.0,50.288469,32.347286,69.238203,24.675733,62.644237,15.139411,48.655632,4.562999,31.818117,0.0,-9.737833,11.006616,23.360687,26.839001,34.134806,40.904146,40.926648,51.512558,46.521093,28.956298,275.127077,-74.767107,168.824453
118,-1.123924,2.298202,8.486057,25.581442,0.0,-59.045357,-27.8703,-87.040432,-20.854706,-87.482586,-12.273125,-74.39621,-3.280357,-52.985962,0.0,21.376647,28.518156,58.933296,43.851783,73.640157,55.05148,83.313434,62.150876,87.403151,0.0,51.341097,32.154499,65.417398,25.642382,56.991337,17.022989,43.164545,6.812324,29.652689,0.0,-0.775017,14.233229,38.038951,29.806028,50.523007,43.894965,57.51161,54.823393,61.286592,28.171863,277.261733,-65.941561,194.242349
119,0.496513,0.388768,5.22456,21.248094,0.0,-58.140438,-24.783302,-85.734752,-19.033264,-87.762737,-11.898033,-76.149948,-4.267204,-54.410373,0.0,15.519608,29.477794,50.591952,43.659098,64.886963,53.671692,76.240393,59.618714,84.221498,0.0,55.636625,28.203552,70.128896,20.479242,63.871341,11.575807,49.486765,1.858657,32.741586,0.0,7.949847,16.295051,49.130795,32.168464,62.920675,46.280989,70.337171,57.049903,71.754955,28.863567,277.577661,-60.52181,215.417603
120,-0.316223,4.232287,3.479902,17.671641,0.0,-57.957269,-25.335594,-76.74131,-20.96981,-78.262951,-14.98558,-68.922352,-8.276739,-54.013527,0.0,13.719027,27.0528,44.063272,38.579187,56.534478,46.283879,66.81933,50.411011,75.465617,0.0,58.344005,26.654743,73.94894,18.347786,68.998386,9.294628,54.762302,-0.234879,36.26049,0.0,12.589513,18.923438,57.895852,34.933949,73.419572,48.834016,80.901326,59.35105,81.331813,28.694446,281.768995,-56.894806,233.048291
121,-1.355598,8.142101,1.818512,13.117837,0.0,-58.147585,-29.249977,-59.942677,-26.27282,-58.959332,-21.036369,-52.49152,-14.771067,-51.337807,0.0,15.916193,21.057193,39.432831,28.388319,48.850886,32.709409,55.380523,34.415542,61.130678,0.0,59.897426,27.451366,76.991604,19.07072,72.284557,9.8577,58.014564,0.118252,38.61755,0.0,13.455897,22.326319,64.302359,38.704368,82.209139,52.455938,90.249302,62.651771,90.468207,27.459698,289.948402,-54.955444,246.203434
122,1.225067,6.490042,3.263729,11.978283,0.0,-55.247183,-33.092079,-45.5457,-31.317638,-41.742943,-26.948536,-37.147007,-21.151056,-42.43856,0.0,23.111907,18.643777,37.2143,21.300965,43.494854,21.542823,45.99992,19.742434,48.313133,0.0,60.691177,27.849026,76.97422,19.250187,72.488113,9.852081,57.962185,0.020977,39.352672,0.0,14.806218,24.665004,67.376566,40.906301,85.975692,54.07964,94.236649,63.653523,94.353271,28.770676,296.552855,-51.605804,258.296128
123,0.842205,6.43924,-0.325928,6.055517,0.0,-54.355459,-38.718361,-30.996517,-37.985888,-24.78503,-33.904381,-22.000454,-28.15171,-39.428467,0.0,27.833783,14.891131,36.703253,13.514368,38.943355,10.241226,37.929246,5.654881,35.706373,0.0,63.817406,26.57412,85.268921,16.410736,84.025726,6.223458,68.767983,-3.62582,46.755661,0.0,15.645653,26.403563,64.188183,42.686726,82.009278,54.831785,89.834006,63.004551,89.352315,29.665157,303.179316,-51.879456,264.538866
124,-1.442162,9.564744,1.138916,4.297829,0.0,-56.705079,-46.380157,-15.672054,-45.843721,-5.456142,-40.917583,-2.807086,-34.165683,-37.719245,0.0,35.10556,8.233893,38.499079,2.323847,36.823759,-4.791319,29.734954,-12.211873,19.87626,0.0,63.022659,26.980602,85.937897,17.101376,84.902527,7.19426,70.625405,-2.505489,49.842316,0.0,15.55215,27.793984,63.626106,43.676202,81.055073,55.070524,88.845394,62.741222,89.002301,28.318016,312.966773,-50.645519,269.059408
125,1.139718,3.08636,1.167698,2.289989,0.0,-54.581383,-48.546467,-9.2692,-48.345664,2.405857,-43.69463,3.704189,-37.111845,-37.743897,0.0,38.887995,5.92946,40.112314,-1.160778,37.190371,-8.890244,28.152933,-16.520508,16.573693,0.0,62.623821,26.882115,86.163288,17.070248,85.207455,7.206642,70.932461,-2.380817,50.353375,0.0,16.005855,29.330829,63.254912,45.328582,80.13724,56.359885,88.346945,63.471829,88.651312,29.570944,316.34779,-49.364611,271.644054
126,2.795768,0.232342,0.838154,1.127464,0.0,-50.884517,-46.69923,-10.819462,-46.417265,0.685971,-42.139057,2.436551,-35.920595,-32.099968,0.0,38.68202,7.674045,39.296974,0.42349,36.561777,-7.410766,27.326021,-15.28277,15.896353,0.0,61.983192,26.780571,86.338646,16.974529,85.497002,7.028526,71.059753,-2.42141,50.340477,0.0,16.698398,30.442262,62.525775,46.732465,78.862785,57.510394,86.972603,64.072388,87.595652,32.483253,316.876985,-48.409916,273.068371
127,-0.320594,1.499646,0.458885,0.599127,0.0,-55.352103,-46.405432,-9.910103,-45.626828,1.491245,-40.974999,3.423385,-34.717867,-36.910223,0.0,36.843457,6.965508,37.653734,-0.178138,34.050276,-8.069464,25.109996,-15.966533,13.500202,0.0,61.414169,26.527107,86.1698,16.628632,85.369835,6.58049,70.780541,-2.733959,49.571983,0.0,17.47223,30.994409,62.188186,47.541704,78.563864,58.231367,86.219766,64.48046,86.66327,32.245875,318.585832,-47.867815,273.876699
128,-0.548939,1.506951,0.374542,0.193329,0.0,-59.050959,-46.567629,-9.30257,-45.164675,2.161926,-40.033047,4.230984,-33.519596,-41.699496,0.0,35.606047,6.112364,36.450465,-1.205375,31.751654,-9.259432,23.011253,-17.214175,11.110912,0.0,61.426392,26.034062,85.677361,15.915425,85.017861,5.791855,70.616776,-3.425995,49.026284,0.0,18.326497,31.469504,61.96986,48.120243,78.331052,58.652467,85.637348,64.566959,86.083828,31.74836,320.237406,-47.441849,274.214651
129,1.132095,-0.495387,0.254906,0.075347,0.0,-56.252661,-44.718653,-10.715252,-43.088144,1.061325,-38.205711,2.108997,-31.73719,-39.54273,0.0,36.014687,6.159492,36.26083,-0.44456,32.129073,-7.296435,24.128467,-14.17519,13.484178,0.0,61.523575,25.464752,85.507645,15.037685,84.563622,4.86438,70.181305,-4.262512,48.132752,0.0,19.136342,32.075647,61.993944,48.858853,78.5784,59.308344,85.686811,64.901585,85.711536,32.894256,319.838642,-47.173142,274.386621
130,0.264359,3.164894,-0.074249,0.090724,0.0,-57.15259,-44.687251,-11.129345,-42.592467,1.272537,-37.281258,3.414814,-30.302376,-33.240973,0.0,36.335529,5.863325,34.521778,-2.268037,28.99698,-10.675553,19.854437,-19.196388,6.276756,0.0,61.433029,25.110615,85.605194,14.502605,84.476738,4.338604,70.117676,-4.680874,47.723465,0.0,19.78787,32.213634,61.626491,49.093307,78.542498,59.505797,85.435734,64.956259,85.154078,33.157763,323.034795,-47.248243,274.508604
131,-1.043919,1.975118,-0.142811,0.072038,0.0,-60.667723,-46.311344,-10.944156,-44.105478,1.460415,-38.402555,3.856853,-31.018867,-38.794836,0.0,36.458869,4.639308,33.650652,-4.457232,26.684971,-13.767045,17.367754,-23.012187,3.351324,0.0,61.182552,24.617683,85.556545,13.887806,84.309322,3.796532,70.04726,-5.114502,47.249691,0.0,20.127744,32.270222,61.339969,49.171594,78.366411,59.610439,85.233106,65.013304,84.725616,32.097341,324.990798,-47.407557,274.561527
132,-0.727936,0.580454,-0.08448,0.081004,0.0,-62.985317,-47.948106,-10.913246,-45.893005,1.188526,-40.016069,3.733338,-32.44963,-44.31752,0.0,36.536916,3.734603,33.345432,-5.666583,25.865975,-15.190299,16.579979,-24.424789,3.626138,0.0,60.921077,23.993625,85.496074,13.202728,83.990902,3.231422,69.871387,-5.515217,47.077091,0.0,20.472917,32.198913,61.130241,49.121045,78.149679,59.593112,84.941792,64.968276,84.463758,31.34424,325.51881,-47.517202,274.590089
133,0.961808,-2.27207,-0.427677,0.052846,0.0,-60.524918,-47.018012,-12.242272,-45.198235,-0.427746,-39.716315,1.449394,-32.232743,-37.267674,0.0,37.630405,4.537766,34.05366,-3.408061,28.016286,-11.383608,19.670291,-19.349448,8.730897,0.0,60.684379,23.736671,85.625015,13.000637,83.912635,3.174591,69.91175,-5.434456,47.262863,0.0,20.709051,31.703996,60.867777,48.655941,77.811324,59.300798,84.687862,64.833623,84.394498,32.293311,323.168533,-47.957616,274.564728
134,-0.438652,-0.866895,-0.314312,0.106693,0.0,-62.155261,-48.026305,-11.769448,-46.248934,-0.522938,-40.676743,1.70977,-33.131636,-36.31576,0.0,37.782113,4.66893,34.563996,-2.705706,28.527548,-10.290842,20.401064,-17.802107,10.522795,0.0,60.609043,23.494525,85.375225,12.899128,83.743091,3.194652,69.985416,-5.273735,47.808116,0.0,20.829105,31.530242,60.639769,48.430428,77.38301,59.093353,84.266674,64.661894,84.231538,31.8517,322.177427,-48.274887,274.54721
135,-1.612084,-1.302391,-0.290108,-0.046634,0.0,-65.162584,-49.813013,-10.4897,-48.181314,0.275883,-42.344055,2.941269,-34.577562,-43.166067,0.0,37.47346,3.965322,35.055555,-2.744126,29.218091,-9.62148,21.493491,-16.081616,14.51764,0.0,60.537426,23.282558,85.357029,12.767464,83.714802,3.181549,70.176235,-5.147026,48.279247,0.0,20.862833,31.293565,60.351814,48.207917,76.976643,58.968482,84.033851,64.611543,84.226685,30.240915,320.701277,-48.563696,274.326817
136,-0.195957,-1.347993,-0.201245,0.073112,0.0,-63.927824,-49.007527,-10.742523,-47.029856,0.344559,-41.074305,3.088646,-33.021509,-36.574705,0.0,37.524256,4.532845,35.473519,-1.493057,30.62479,-7.615536,22.901456,-13.560699,16.600314,0.0,60.628464,23.051995,85.241662,12.655507,83.683274,3.204655,70.36052,-4.951389,48.864464,0.0,20.9243,30.952542,60.11967,47.915689,76.641252,58.802942,83.802966,64.572851,84.254769,30.048523,319.145043,-48.761376,274.191688
137,1.022552,-0.97326,-0.290874,-0.032456,0.0,-59.133905,-46.291751,-11.979469,-44.265649,-0.598159,-38.776914,1.784867,-31.050333,-27.155897,0.0,37.599887,5.969776,35.032917,0.622746,31.263301,-4.822825,23.827057,-10.502399,17.112262,0.0,60.690502,23.077137,85.175205,12.776424,83.694683,3.38839,70.403606,-4.699997,49.152706,0.0,20.959831,30.696328,59.927454,47.625178,76.479565,58.552037,83.710785,64.401777,84.333736,31.085792,317.967704,-49.037533,273.955153
138,-0.62249,1.558716,-0.087227,-0.000691,0.0,-58.981126,-46.449943,-11.902793,-44.459747,-0.123115,-38.88941,2.848446,-31.168567,-27.586349,0.0,36.717431,5.540722,34.194896,-0.908528,29.877999,-7.55357,21.491978,-14.291398,13.290745,0.0,60.738888,23.093491,85.044491,12.818962,83.569325,3.417309,70.26115,-4.667908,49.187519,0.0,21.031659,30.684323,59.874496,47.588041,76.409169,58.479431,83.555371,64.33453,84.183632,30.465208,319.30624,-49.122854,273.734282
139,-1.086708,1.842638,0.079914,0.042916,0.0,-60.329177,-47.444023,-11.955894,-45.327043,0.540917,-39.345829,4.324986,-31.201372,-26.120653,0.0,35.789212,4.580671,33.597134,-3.276501,28.614073,-11.548135,19.03517,-19.762262,8.522873,0.0,60.492874,23.015694,84.76133,12.697838,83.239517,3.265492,69.778771,-4.846733,48.791611,0.0,21.12741,30.530923,59.869779,47.405433,76.351421,58.288869,83.470465,64.177389,84.022081,29.373041,320.947232,-49.048399,273.575552
140,0.113869,1.084264,-0.013309,0.032197,0.0,-58.60033,-46.770698,-13.561317,-44.292418,-0.217621,-38.104214,3.579632,-29.620634,-21.377066,0.0,35.159554,4.047579,32.629417,-4.39085,28.10268,-13.200886,17.98482,-22.231291,5.552183,0.0,60.401401,22.916027,84.398494,12.621563,82.96867,3.182716,69.386547,-4.954788,48.532459,0.0,21.143341,30.317884,59.720775,47.172325,76.314358,58.070223,83.379556,64.039907,83.970989,29.475489,321.863371,-49.073129,273.439624
141,0.470604,1.845682,0.114692,-0.082116,0.0,-57.854794,-46.506752,-15.333893,-44.746862,-1.807068,-39.282486,2.092014,-31.604673,-22.268812,0.0,34.213798,3.7225,31.023389,-6.182747,26.159272,-16.613374,15.274916,-27.194072,1.433826,0.0,60.16753,22.880951,84.005574,12.515488,82.548672,2.968346,68.803746,-5.281242,47.870099,0.0,21.286392,30.398481,59.854329,47.154801,76.526915,57.953169,83.372726,63.877627,83.837843,29.919416,323.565289,-48.985114,273.213744
142,-0.773849,-0.466499,-0.045227,-0.001124,0.0,-56.993706,-46.022416,-14.666131,-44.399512,-1.33873,-39.110688,2.127468,-31.658759,-25.157324,0.0,34.586844,4.137438,31.542339,-5.765957,26.581755,-16.228892,15.799324,-26.780197,2.231999,0.0,60.11562,22.715905,83.768361,12.283001,82.321896,2.69513,68.559941,-5.578949,47.500134,0.0,21.365383,30.124704,59.940891,46.961633,76.566164,57.878451,83.374727,63.888347,83.713576,29.118519,322.972275,-49.057389,273.086105
143,-0.760895,-0.602592,0.033566,0.033123,0.0,-56.070294,-45.367802,-13.609989,-43.961998,-0.61488,-38.944571,2.456188,-31.895588,-28.498513,0.0,34.925181,4.535599,31.897787,-4.99625,27.013935,-15.161165,16.552093,-25.378672,3.93407,0.0,59.993271,22.435547,83.48362,12.001831,82.055763,2.431812,68.350754,-5.802784,47.210197,0.0,21.342523,30.024397,59.975668,46.855781,76.598249,57.793347,83.34316,63.820582,83.657309,28.336384,322.27573,-49.045063,273.025275
144,-0.74794,-0.738683,-0.301357,-0.027528,0.0,-55.084557,-44.542912,-12.16547,-43.434323,0.364483,-38.784136,3.078174,-32.315163,-32.292378,0.0,35.228808,4.916982,32.089732,-3.873628,27.455808,-13.410195,17.533221,-22.989499,6.540036,0.0,60.060642,22.371448,83.534076,11.9557,82.206859,2.408752,68.520618,-5.8167,47.172924,0.0,21.440163,29.810024,59.933258,46.688029,76.655405,57.70907,83.46918,63.801526,83.712847,27.573492,321.461252,-49.361372,272.921952
145,-0.233368,-0.821527,0.060905,-0.077843,0.0,-53.836132,-44.388462,-11.316067,-43.535031,0.879123,-39.325842,3.173755,-33.440335,-37.009049,0.0,35.81367,6.459371,32.785387,-2.228585,27.710046,-11.744688,18.139375,-21.188932,8.785008,0.0,59.762821,22.453354,83.266972,11.945332,81.90295,2.306053,68.202885,-6.016903,46.822025,0.0,21.726241,29.886101,60.154374,46.804948,76.715402,57.832694,83.490559,63.89057,83.57843,27.350132,320.554775,-49.290459,272.759159
146,-1.302613,-4.999412,0.032982,-0.121216,0.0,-50.594821,-43.542526,-7.870937,-42.525444,2.391598,-38.087247,2.84879,-32.128864,-46.945232,0.0,32.286659,9.046046,34.833808,4.37777,31.717339,-1.343399,25.600257,-7.080741,20.147862,0.0,59.461956,22.315865,82.933033,11.76852,81.687664,2.169697,68.114742,-6.097561,46.816212,0.0,21.942589,29.748977,60.115397,46.819385,76.653985,58.005583,83.700609,64.163297,83.797347,26.08465,315.454252,-49.220346,272.536832
147,-1.382835,-2.363386,0.197639,-0.061096,0.0,-48.733646,-43.01841,-4.86803,-42.377678,4.08054,-38.092031,3.280849,-32.206238,-48.239548,0.0,22.877663,10.439358,34.368618,9.00074,33.36736,5.990191,29.909831,2.627696,27.040456,0.0,58.986317,22.197636,82.336338,11.627999,81.22498,2.005223,67.745236,-6.318946,46.473736,0.0,22.133534,29.934068,60.076643,46.979109,76.652923,58.128677,83.848662,64.256108,83.906164,24.744278,312.976576,-48.980244,272.361446
148,-0.852333,0.529824,0.139618,0.065147,0.0,-51.24844,-44.799374,-4.566765,-44.297939,4.569305,-39.704327,4.480019,-33.549706,-48.858387,0.0,22.285181,9.220905,34.304355,7.658657,32.985317,4.512288,29.48355,1.176778,26.879276,0.0,58.56165,22.232746,81.795903,11.561577,80.81535,1.861222,67.409123,-6.560234,46.200428,0.0,22.252267,29.744704,59.987561,46.893485,76.470006,58.176199,83.877524,64.400888,83.891961,23.936331,313.372849,-48.79624,272.293042
149,1.194809,0.852107,0.198807,0.002223,0.0,-49.688587,-44.50779,-6.738785,-43.761475,2.910255,-39.189674,2.260551,-32.864216,-44.27219,0.0,22.309757,9.837569,33.920267,7.368392,32.238815,3.50483,28.265843,-0.816687,23.478309,0.0,57.959919,22.218361,81.196598,11.515835,80.323368,1.735748,66.975346,-6.793762,45.908833,0.0,22.38881,29.77469,59.950635,46.932462,76.330487,58.214052,83.813155,64.435777,83.872855,25.174536,314.095175,-48.554037,272.165484
150,-0.115494,-1.967652,-0.036667,0.041694,0.0,-46.854618,-42.727878,-5.917076,-42.283035,2.885285,-38.069298,1.579468,-32.071232,-40.351662,0.0,22.003017,10.596185,34.331487,9.607944,33.75091,7.06873,30.923766,3.920385,26.013917,0.0,57.677479,22.095635,80.841099,11.434365,80.171574,1.655537,66.961178,-6.878471,45.956852,0.0,22.327035,29.722869,59.826207,46.886421,76.112026,58.231688,83.819589,64.534083,84.113731,25.085672,312.006971,-48.564074,272.086626
