takenoko1/special-research/HandMotion_SimilarSearch_自分用/NewProject/handData/test_key/d4_feature_d3/37.csv
frame,vel_0x_L,vel_0y_L,vel_0x_R,vel_0y_R,posFromWrist_0x_L,posFromWrist_1x_L,posFromWrist_2x_L,posFromWrist_3x_L,posFromWrist_4x_L,posFromWrist_5x_L,posFromWrist_6x_L,posFromWrist_7x_L,posFromWrist_8x_L,posFromWrist_9x_L,posFromWrist_0y_L,posFromWrist_1y_L,posFromWrist_2y_L,posFromWrist_3y_L,posFromWrist_4y_L,posFromWrist_5y_L,posFromWrist_6y_L,posFromWrist_7y_L,posFromWrist_8y_L,posFromWrist_9y_L,posFromWrist_0x_R,posFromWrist_1x_R,posFromWrist_2x_R,posFromWrist_3x_R,posFromWrist_4x_R,posFromWrist_5x_R,posFromWrist_6x_R,posFromWrist_7x_R,posFromWrist_8x_R,posFromWrist_9x_R,posFromWrist_0y_R,posFromWrist_1y_R,posFromWrist_2y_R,posFromWrist_3y_R,posFromWrist_4y_R,posFromWrist_5y_R,posFromWrist_6y_R,posFromWrist_7y_R,posFromWrist_8y_R,posFromWrist_9y_R,posFromBody_0x_L,posFromBody_0y_L,posFromBody_0x_R,posFromBody_0y_R
6,-0.184433,0.003124,0.116043,-0.150597,0.0,-49.422032,-41.538014,-5.05687,-41.893742,4.426048,-38.575688,2.507309,-32.989266,-26.27068,0.0,25.019538,6.266469,29.226421,3.951446,28.521169,0.421508,23.365899,-3.889041,18.0781,0.0,57.125942,19.690303,80.761356,8.665649,78.605976,-0.623852,65.706012,-8.072285,45.014488,0.0,22.520252,28.647005,58.828531,45.721907,73.324366,57.516088,81.122838,64.260456,83.011203,25.69435,319.300173,-46.492429,276.356071
7,-1.836846,-1.005321,0.329418,-0.029294,0.0,-50.390728,-41.288749,-2.510238,-42.04882,6.70958,-39.133758,4.480545,-34.198047,-35.174457,0.0,24.854923,6.183921,28.991719,5.119825,28.65928,2.572682,24.374913,-0.539662,21.998004,0.0,57.100776,19.725105,80.608543,8.662926,78.531784,-0.704167,65.681717,-8.25372,44.73896,0.0,22.436765,28.744755,58.901532,45.761773,73.330701,57.500045,81.163,64.17992,83.318423,24.3708,318.13569,-45.649715,276.167615
8,-2.216354,1.07957,0.199322,-0.150313,0.0,-50.10157,-41.710465,-0.492691,-42.487232,9.390495,-39.380997,6.987305,-34.303208,-34.76128,0.0,24.510492,5.532923,28.519613,3.981988,27.68187,0.79306,23.331417,-2.889141,20.828056,0.0,57.288997,19.746803,80.46706,8.694431,78.556125,-0.73795,65.766872,-8.377579,44.496448,0.0,22.425984,28.834787,58.964777,45.739123,73.425439,57.406123,81.384573,64.020666,83.640575,22.542847,319.088656,-45.061992,275.890698
9,-1.182289,4.15826,0.315616,-0.056983,0.0,-56.820259,-45.340073,-0.349411,-46.114929,10.836754,-42.492234,9.977257,-36.982716,-44.73103,0.0,32.825087,2.74036,29.035526,-2.238526,24.351251,-8.678304,17.492818,-14.983219,14.041822,0.0,57.11657,19.618515,80.265885,8.613087,78.460968,-0.815609,65.683273,-8.507572,44.344071,0.0,22.773293,28.772765,58.980807,45.658724,73.441939,57.365206,81.373483,64.063199,83.530054,21.652731,323.150548,-44.454203,275.737347
10,0.261657,-1.645315,0.268776,-0.020909,0.0,-51.30717,-44.274719,0.396035,-45.318717,10.889306,-41.931049,8.738137,-36.599224,-40.547973,0.0,31.536121,4.008578,29.2374,0.425115,25.963183,-4.679051,20.114258,-10.016905,17.17794,0.0,57.105789,19.595604,80.342262,8.585507,78.563484,-0.906944,65.635574,-8.678089,44.234379,0.0,22.890396,28.775223,58.88155,45.612177,73.338309,57.302407,81.263407,64.012404,83.437836,22.133136,321.426857,-43.966679,275.638062
11,-0.47612,-0.52084,0.110607,-0.088735,0.0,-54.897628,-44.836978,1.141663,-46.114299,12.028382,-42.956966,10.318749,-37.935791,-46.734706,0.0,32.227441,3.537471,29.785003,-0.036729,26.134565,-5.232853,20.414563,-10.363954,18.501856,0.0,57.009899,19.65477,80.447811,8.657879,78.581806,-0.887581,65.493405,-8.711941,44.081761,0.0,22.981367,28.690489,58.6591,45.517427,73.275805,57.222933,81.341249,63.955988,83.492436,21.783439,320.859265,-43.729649,275.502575
12,-0.016914,-0.7321,0.288735,-0.047214,0.0,-48.469288,-43.497677,2.236542,-45.181469,12.782845,-42.31366,9.961922,-37.393055,-37.13641,0.0,30.834166,4.530207,29.24082,1.833653,27.145654,-2.583415,22.124715,-7.295577,19.555095,0.0,56.946384,19.751449,80.571773,8.744018,78.531681,-0.878884,65.204601,-8.845768,43.665538,0.0,23.250042,28.739395,58.580442,45.514709,73.206471,57.194997,81.207028,63.954728,83.256413,21.860493,320.099421,-43.346946,275.427617
13,0.330391,-1.157895,0.436237,0.134504,0.0,-52.887646,-45.174797,1.469238,-46.384563,12.330574,-43.02214,10.798348,-37.730186,-42.212082,0.0,31.462589,4.353577,30.536308,1.795999,28.197968,-2.553824,23.371889,-6.952824,21.165856,0.0,56.698494,19.531929,80.733009,8.475815,78.498962,-1.142166,65.075043,-9.019707,43.791195,0.0,23.189886,28.529592,58.18046,45.300881,72.894929,56.965398,80.891274,63.708258,82.950971,22.24744,318.918651,-42.854153,275.539246
14,0.55188,0.622741,0.463268,0.218288,0.0,-50.401062,-45.701099,0.737869,-46.416,11.854957,-42.470055,10.803818,-36.521622,-35.390133,0.0,31.755495,4.649608,30.362282,1.373588,27.982187,-3.565815,22.725695,-8.689432,18.840322,0.0,56.472622,19.100373,80.683743,8.039326,78.463772,-1.484459,64.990368,-9.152275,43.872677,0.0,22.882986,28.219864,57.732399,44.98026,72.583484,56.636786,80.670269,63.37609,82.846847,22.813837,319.523651,-42.376368,275.739793
15,-0.15374,0.829123,0.430596,0.108693,0.0,-48.883404,-44.876633,0.461632,-45.314426,11.680595,-41.233841,10.835197,-35.103401,-31.948219,0.0,31.135014,4.775517,29.563405,0.878473,27.262634,-4.559688,21.465616,-10.204071,16.507466,0.0,56.268024,18.862564,80.534946,7.82032,78.274624,-1.667736,64.836124,-9.243565,43.897693,0.0,22.734538,28.018632,57.383201,44.758329,72.450807,56.370296,80.615855,63.054976,82.788123,22.645203,320.339815,-41.960666,275.835527
16,0.564789,0.499314,0.450256,0.119401,0.0,-49.473438,-45.158661,-0.151795,-45.439968,11.032654,-41.109112,10.56942,-34.799526,-33.832066,0.0,31.521683,4.391936,29.53395,0.061614,26.78287,-5.77007,20.795871,-11.755414,15.322166,0.0,56.282993,18.425159,80.34811,7.403618,78.298908,-1.953781,64.937267,-9.315765,44.125832,0.0,22.648346,27.870134,57.173125,44.629196,72.300445,56.235915,80.433085,62.885224,82.577208,23.165119,320.824754,-41.555283,275.940553
17,0.911796,0.562855,0.299721,0.075138,0.0,-51.115757,-45.553264,-1.156585,-45.438709,10.121453,-40.784958,10.304398,-34.147487,-34.38248,0.0,32.076609,4.20687,29.373596,-0.761754,26.148693,-7.071682,19.466026,-13.527145,13.876601,0.0,56.215404,17.966526,80.249096,6.951793,78.404033,-2.301842,65.109134,-9.433754,44.560123,0.0,22.488388,27.652316,56.861866,44.456579,72.121393,56.082514,80.47137,62.706456,82.714207,23.982484,321.37147,-41.349993,275.999552
18,-0.155159,-0.378284,0.221248,-0.062146,0.0,-49.584926,-45.066284,0.461586,-45.640056,11.277718,-41.574508,10.697686,-35.362587,-32.145343,0.0,32.330034,4.429765,29.512572,0.003199,26.798728,-5.846516,20.283936,-11.866539,14.796486,0.0,56.229996,18.062645,80.083443,7.049572,78.351105,-2.269809,64.942887,-9.505714,44.30769,0.0,22.48761,27.730714,56.764968,44.53226,72.029484,56.176165,80.557834,62.814767,82.850515,23.682769,320.9807,-41.273301,275.92492
19,-0.742836,-2.391741,0.13131,-0.17873,0.0,-45.986835,-42.372665,2.377945,-43.518631,12.212082,-40.314022,10.027657,-35.019653,-31.08815,0.0,31.238422,5.688905,29.475176,3.300683,28.647189,-0.752528,23.660448,-5.266162,20.078455,0.0,56.43409,18.201405,80.107819,7.151871,78.359734,-2.243305,64.942177,-9.585949,44.226402,0.0,22.602651,27.934811,56.914477,44.747831,72.009748,56.374025,80.637121,62.951099,82.862556,22.755329,318.571978,-41.326595,275.729209
20,0.018357,-1.099417,0.117542,-0.145102,0.0,-51.570431,-43.69067,3.394043,-45.358109,13.108886,-42.558117,11.258445,-37.74242,-37.496064,0.0,33.235406,4.846419,30.620214,3.111616,29.352009,-0.518592,24.784034,-4.420452,22.756225,0.0,56.589329,18.343357,80.121083,7.28159,78.358784,-2.14381,64.852375,-9.544784,44.07153,0.0,22.585016,28.103712,57.049477,44.903739,71.957928,56.536171,80.75215,63.114096,82.92206,22.551842,317.451893,-41.430897,275.563439
21,-0.954895,2.156967,0.042835,-0.214372,0.0,-48.51241,-42.785878,3.780601,-44.051422,14.198982,-40.803189,12.472046,-35.360722,-27.391938,0.0,32.108312,5.11491,29.048369,1.964564,27.431015,-2.99124,22.037277,-8.396858,17.70304,0.0,56.716301,18.543263,80.27829,7.468976,78.377518,-2.018852,64.881478,-9.517112,44.082562,0.0,22.649507,28.244156,57.233641,45.035884,71.998177,56.652112,80.897424,63.231495,83.057836,21.343191,319.576935,-41.641818,275.317142
22,-2.479821,-0.681848,0.111386,-0.227748,0.0,-44.3917,-40.580349,6.15207,-42.016433,16.773056,-38.89175,14.492203,-33.578853,-26.9267,0.0,29.021569,5.504987,28.389887,3.578732,27.597938,-0.292537,23.665685,-4.716447,20.450328,0.0,56.861126,18.799816,80.301967,7.739696,78.355991,-1.790611,64.896641,-9.393093,44.073681,0.0,22.644024,28.309859,57.482421,45.105502,72.06672,56.737723,80.946725,63.346141,83.062307,18.609432,318.859602,-41.78437,275.053909
23,0.46605,-1.568757,-0.006111,-0.08855,0.0,-44.619313,-40.067425,6.54911,-41.87542,16.567245,-39.183506,13.359375,-34.479195,-32.847943,0.0,29.05615,5.375274,28.790524,4.740974,28.583846,2.150631,25.57933,-1.098997,25.204406,0.0,57.263134,18.718254,80.2989,7.738128,78.328113,-1.628563,65.049419,-9.064305,44.395408,0.0,22.553449,28.13986,57.596091,45.033711,72.185639,56.75032,80.982009,63.436433,82.988354,18.835133,317.23979,-42.03083,274.914304
24,-0.24337,4.148232,-0.019558,-0.1329,0.0,-48.23283,-40.904984,4.654632,-42.121823,16.212959,-38.741204,14.715042,-33.428994,-28.840771,0.0,29.430913,3.947309,26.936555,-0.216151,24.751751,-6.216686,19.217099,-12.610867,14.726152,0.0,57.527664,18.826938,80.278198,7.885494,78.254287,-1.437264,65.13549,-8.837334,44.664093,0.0,22.537579,28.003837,57.545382,44.96197,72.328098,56.750543,81.025359,63.508113,82.99369,18.369284,321.337195,-42.272867,274.730577
25,-2.220795,3.134303,-0.044438,-0.158488,0.0,-42.766892,-38.315666,4.753601,-39.001797,17.802612,-35.129036,16.777496,-29.316204,-17.989769,0.0,28.964265,4.761043,25.383248,-2.376292,21.565331,-11.105367,14.264938,-20.099377,5.25906,0.0,57.880131,18.693032,80.176014,7.762951,78.405018,-1.447117,65.562664,-8.675113,45.169396,0.0,22.746789,27.798269,57.646615,44.832713,72.443373,56.691028,80.989074,63.487389,83.062492,15.950541,324.411455,-42.515253,274.512046
26,1.867103,-3.062907,-0.016891,-0.02985,0.0,-46.695911,-39.60918,3.558701,-40.840003,15.952515,-37.495971,15.162117,-32.372577,-24.44902,0.0,29.528096,4.340337,27.673348,-1.058205,24.479641,-8.074002,17.958218,-15.181006,11.350084,0.0,58.316906,18.591682,80.039486,7.709083,78.590664,-1.383339,66.007564,-8.461498,45.679539,0.0,22.786136,27.542301,57.7354,44.600161,72.386611,56.535454,80.899042,63.394405,83.054205,17.640152,321.292501,-42.709636,274.426149
27,4.416161,3.015075,-0.047836,-0.229057,0.0,-54.928333,-43.61499,-2.192757,-44.475243,10.89386,-40.696976,11.588265,-35.006092,-23.791614,0.0,33.045992,2.901331,28.620562,-6.267729,22.458847,-16.796458,12.632405,-27.134181,1.317803,0.0,58.770732,18.501903,80.034267,7.603076,78.710048,-1.42091,66.396709,-8.372063,45.9883,0.0,22.86798,27.458234,57.841462,44.572904,72.510989,56.575307,81.050787,63.459626,83.173198,21.880474,324.254711,-42.933311,274.144227
28,2.384514,1.881498,0.112255,-0.382717,0.0,-53.020969,-43.472992,-4.998482,-43.976429,8.178131,-39.884228,9.128059,-33.683258,-17.318253,0.0,33.286399,3.501075,27.888165,-7.981982,20.476017,-20.546067,8.834372,-33.02023,-7.731312,0.0,58.944419,18.508792,80.191772,7.477604,78.950821,-1.66808,66.578155,-8.728901,45.64104,0.0,22.999274,27.45989,57.783751,44.589442,72.51609,56.57432,81.168854,63.385168,83.14362,24.080738,326.088877,-43.005306,273.714178
29,2.627563,-7.282646,0.058559,-0.589642,0.0,-47.035457,-41.874698,-4.827461,-42.907837,6.314324,-39.57471,6.243508,-34.057159,-18.970619,0.0,29.992731,6.801487,30.609543,-0.149584,26.495434,-8.263873,18.172936,-16.5963,5.999102,0.0,59.116619,18.453655,80.332844,7.410187,79.236271,-1.745373,66.563313,-8.832001,45.228447,0.0,22.769822,27.372302,57.658125,44.545129,72.442718,56.550607,81.281301,63.326122,83.261711,26.501449,318.746247,-43.153599,273.064552
30,4.262673,-1.208468,0.382496,-0.875485,0.0,-55.384781,-46.581734,-9.144722,-47.358616,1.568733,-43.461811,2.466339,-37.19363,-25.694252,0.0,30.276387,4.766625,32.101063,-1.903098,28.290618,-9.676401,19.652451,-17.55311,7.748318,0.0,58.524742,18.734527,80.299415,7.77713,79.17469,-1.549381,66.116501,-9.001373,44.376308,0.0,22.073611,26.768124,56.981514,43.978026,72.310621,56.096173,81.571158,63.019025,83.456917,30.549277,317.48024,-42.985948,272.131528
31,0.261932,1.013312,1.080116,-1.975729,0.0,-54.354343,-46.584823,-12.023025,-46.393993,-0.261268,-41.572403,1.738976,-34.153267,-18.010231,0.0,30.643321,5.133546,31.410878,-3.577424,27.255767,-13.243537,16.913005,-23.061766,1.846016,0.0,57.934067,18.504376,79.453629,7.501064,78.227577,-2.257507,64.222641,-10.413425,41.902107,0.0,20.677224,25.130293,56.251253,42.212322,72.962607,54.469803,82.91355,61.748436,84.456125,30.588844,318.443692,-42.128197,270.105939
32,-3.683761,-1.783933,1.00494,-3.282541,0.0,-53.603131,-45.399834,-12.569664,-43.896824,1.471641,-37.769852,4.999809,-29.082367,-12.001191,0.0,30.620202,4.606334,30.869723,-4.433272,27.725293,-14.257219,16.935681,-23.712429,1.881461,0.0,58.07626,18.685055,78.429211,7.637306,76.466915,-2.511074,61.884762,-11.36253,39.507294,0.0,19.588601,22.941636,56.239916,39.510779,74.005065,51.955228,83.812142,59.989438,85.280925,26.691737,316.603878,-41.336603,266.767517
33,-5.345261,-3.330866,1.513596,-4.575175,0.0,-51.82251,-42.636715,-14.740345,-39.462238,2.329491,-31.667828,7.659851,-21.342293,-4.177963,0.0,31.002449,3.492331,29.234226,-6.029928,26.067183,-16.111387,14.723052,-25.399995,0.063998,0.0,57.407444,18.007782,74.713177,6.826687,70.659496,-3.732617,55.490696,-13.039524,34.006199,0.0,19.670915,19.148717,55.84564,34.638931,74.566204,47.185935,83.596856,56.3927,84.603363,21.144436,313.220518,-40.025047,262.139848
34,1.827209,-8.623692,2.035309,-8.795383,0.0,-55.375133,-43.554977,-29.050403,-38.333244,-11.519519,-28.684948,-0.502201,-16.747535,-6.983688,0.0,37.034266,6.079007,37.305017,-4.287862,29.793264,-15.391698,13.429121,-25.888329,-1.782043,0.0,55.658558,21.994159,69.034641,10.907261,60.962562,-0.653584,44.024013,-11.894165,24.918045,0.0,22.914343,17.31652,60.616576,31.264197,79.360296,43.694012,88.159705,53.815694,88.362531,22.901132,304.559519,-38.060251,253.307158
35,2.568261,-17.848734,-2.489342,-15.248337,0.0,-46.591187,-38.909626,-38.627289,-31.809185,-26.084015,-20.88731,-6.244137,-8.123452,-1.661248,0.0,38.00087,10.300339,43.211579,4.688461,40.464439,-2.127068,22.638046,-9.084486,8.705079,0.0,55.164059,27.740959,67.398319,17.853184,56.862625,6.623543,38.677711,-5.050003,24.100181,0.0,24.618234,17.959712,65.163801,31.435776,85.279146,43.50871,93.182804,53.445562,91.395105,25.483784,286.684272,-40.535202,238.032308
36,4.682281,-21.199139,-6.016411,-20.346601,0.0,-39.527389,-35.763233,-48.71925,-27.935715,-39.582424,-16.666305,-11.576786,-4.019737,-3.633499,0.0,39.185156,13.958273,47.913281,13.390194,49.03105,11.229374,29.322837,8.334206,19.426828,0.0,54.224762,28.459877,64.606396,19.064152,53.923496,8.239288,36.241631,-2.890743,24.54903,0.0,24.392525,11.23839,56.307719,23.828842,75.222932,36.709879,84.342381,48.691238,85.297685,30.138279,265.69016,-46.579399,217.890734
37,9.867096,-29.349409,-5.93391,-21.905785,0.0,-37.649448,-34.211071,-61.152592,-26.25753,-55.908537,-15.406345,-21.948223,-3.734001,-11.350765,0.0,41.327426,17.539525,53.855443,22.905691,56.650742,26.168898,37.38599,27.542073,31.81175,0.0,49.812938,28.140215,59.775129,18.190612,47.887121,6.994073,30.948263,-3.94328,21.760831,0.0,22.156047,2.0288,38.628918,12.782165,55.248078,25.566152,71.955229,38.991942,74.332682,39.852716,236.70619,-52.665968,196.350388
38,13.944855,-35.685637,-6.484234,-23.592338,0.0,-42.237488,-36.293209,-74.800289,-28.359032,-72.489676,-17.99239,-34.611614,-7.32621,-21.271305,0.0,43.187843,20.565443,61.641502,32.415341,64.936041,41.52278,48.085039,47.493273,47.3299,0.0,43.595089,28.226663,55.381147,16.784099,41.851152,4.513109,26.489324,-6.780853,19.252149,0.0,17.050104,-8.460971,13.397533,-0.277497,26.417496,11.705161,56.922042,26.032204,60.175128,53.528944,201.648049,-59.418829,173.385546
39,7.33889,-28.051063,-7.024086,-22.924581,0.0,-48.688465,-36.172428,-74.45335,-28.782761,-69.674097,-18.986126,-34.351273,-8.939163,-21.791142,0.0,41.253041,20.100734,53.482074,33.429048,58.612008,43.783993,46.854292,50.68031,47.953653,0.0,38.474361,22.962347,50.41979,10.485054,38.776972,-2.050524,25.492372,-12.473339,18.49811,0.0,4.967098,-21.840309,-21.089319,-16.173968,-11.199947,-5.456779,31.626369,8.808372,36.512765,60.382753,174.91151,-66.927996,151.775489
40,7.704506,-32.90958,-2.5761,-23.803012,0.0,-56.862545,-37.077725,-78.134812,-30.597222,-69.465895,-21.851887,-38.620537,-12.823883,-26.66161,0.0,40.805339,17.172357,48.756612,31.720464,51.32969,43.586145,43.589424,51.748055,47.422136,0.0,30.37278,15.104582,40.944506,-0.02108,29.504134,-14.191251,17.314734,-25.10361,7.924628,0.0,-5.379628,-37.681296,-55.686679,-35.176397,-48.951901,-25.518129,6.670416,-10.498209,14.098175,67.389284,143.668021,-70.202071,129.638568
41,7.796516,-31.463113,0.417996,-22.361973,0.0,-63.402729,-37.149845,-82.419925,-31.536621,-73.594602,-23.799396,-43.975319,-15.621322,-31.688701,0.0,38.696285,13.408194,41.873454,28.219784,43.158709,40.737895,40.807803,49.651005,45.641199,0.0,21.900844,12.737131,33.761736,-4.281441,19.273905,-20.100569,6.975031,-32.4058,-3.232847,0.0,-13.836544,-45.586102,-78.048714,-45.727727,-73.871422,-38.365864,-5.560662,-25.04208,-0.606055,74.445167,114.008977,-70.524708,109.080664
42,5.998787,-26.925174,-0.877705,-22.945379,0.0,-64.387298,-36.267654,-84.989422,-31.927208,-78.695217,-25.452461,-45.63755,-18.298988,-34.554474,0.0,35.611172,10.108876,32.662547,24.649233,35.453128,37.432877,37.101765,47.002067,43.250377,0.0,17.072262,11.501129,29.23375,-5.945492,13.930001,-22.438602,1.407967,-35.661838,-9.470512,0.0,-20.644694,-50.288559,-91.981203,-52.359187,-90.351634,-46.680458,-14.810731,-34.947688,-10.392038,79.869987,89.305512,-71.97638,88.356994
43,3.545654,-22.328116,-0.117679,-23.796645,0.0,-62.828933,-34.876876,-85.789203,-31.834831,-83.479007,-26.56549,-45.357627,-20.178817,-35.81385,0.0,31.508259,7.320969,22.799197,21.65156,29.800817,34.4788,33.153074,44.432966,40.322877,0.0,14.718326,11.059467,27.091518,-5.999142,13.69598,-22.577454,-1.347897,-36.47564,-12.905892,0.0,-25.628594,-52.528852,-98.528111,-54.943787,-97.472821,-50.16798,-19.032983,-39.957555,-14.810274,82.797872,69.400525,-72.711828,66.983478
44,3.764695,-21.564979,-0.069912,-22.051195,0.0,-60.094117,-34.316643,-90.709225,-32.329674,-94.43256,-28.275696,-48.288414,-22.873993,-39.25763,0.0,29.145256,0.70937,18.301186,16.629559,28.497309,31.652545,32.297726,44.209288,39.854327,0.0,12.774009,11.303135,27.290531,-5.962979,14.40049,-22.839752,-1.758156,-37.20694,-13.613835,0.0,-27.051238,-53.487979,-101.122845,-55.9808,-100.404583,-51.421174,-19.254063,-41.619117,-14.968714,85.974352,50.600205,-73.369955,47.696942
45,2.22274,-13.982139,0.094082,-15.946803,0.0,-57.731255,-33.986664,-94.027153,-32.767548,-100.904205,-29.387261,-49.863075,-24.503494,-41.695633,0.0,26.066324,-1.297994,13.260413,14.317197,25.480646,29.343641,30.174166,42.411677,38.421217,0.0,13.309684,12.204597,28.309192,-4.926922,15.910663,-21.975449,-0.742917,-36.618691,-12.393105,0.0,-28.277898,-54.097474,-102.597377,-57.251209,-104.280101,-52.994513,-20.500038,-43.409848,-15.797213,87.638724,39.156665,-73.834241,34.288738
46,0.45314,-12.840517,0.400245,-11.655903,0.0,-57.432335,-34.297279,-95.262566,-33.227371,-104.029438,-29.901009,-51.283173,-24.994972,-43.222847,0.0,24.07924,-2.517342,11.642114,14.022586,25.231428,30.028923,30.637819,44.192745,39.516905,0.0,14.248135,13.278065,29.338131,-3.602794,18.925518,-20.738628,1.017975,-35.505043,-10.095051,0.0,-29.243544,-54.275389,-103.440468,-58.01211,-105.988796,-54.169685,-20.738666,-44.945476,-15.920683,87.667025,28.577575,-73.858835,24.894262
47,-0.52858,-9.000413,2.249565,-7.762274,0.0,-58.200828,-34.880012,-96.270687,-33.494384,-104.893879,-29.833305,-53.484558,-24.523361,-44.430313,0.0,22.340256,-3.689692,12.23624,13.473391,26.019568,30.185646,31.85642,45.202568,41.05633,0.0,14.267842,14.284745,30.144619,-2.670375,21.838738,-20.189975,1.544667,-35.233177,-8.876072,0.0,-29.48074,-54.605926,-104.066253,-58.460714,-106.400202,-54.903569,-19.543919,-45.832483,-15.808161,86.691198,21.332615,-72.056517,18.887441
48,-0.904632,-4.878733,1.689274,-2.853814,0.0,-57.663117,-35.158493,-97.14465,-33.412422,-105.062473,-29.406235,-55.182724,-23.862854,-45.178963,0.0,21.459472,-4.895103,12.688666,12.150758,26.196896,29.197034,32.815429,44.987806,42.319132,0.0,15.556538,15.772579,31.065342,-0.769054,24.120953,-18.283642,2.879357,-33.408394,-7.077942,0.0,-28.691841,-53.469891,-102.282901,-57.853096,-105.206418,-54.711773,-19.390265,-45.837226,-15.733406,85.523089,17.702886,-70.63072,17.282631
49,-1.531769,-2.228325,2.760304,1.386637,0.0,-56.805656,-35.394745,-97.597412,-33.39489,-104.596321,-28.880493,-55.271919,-22.772896,-45.060036,0.0,22.014719,-4.988872,13.064269,11.693792,26.698358,28.67473,33.336207,44.649747,42.879029,0.0,17.485874,16.826648,33.964828,0.815952,27.119442,-16.389118,4.011554,-31.243447,-5.964169,0.0,-27.652422,-52.391168,-99.646585,-57.010926,-102.913898,-54.31034,-17.664441,-45.777477,-14.897398,83.876558,15.672551,-67.985178,18.867258
50,-1.483635,-0.167072,2.833214,4.615794,0.0,-56.735687,-35.333862,-97.836227,-33.131515,-104.682129,-28.514465,-54.293198,-22.257065,-44.011047,0.0,22.254941,-5.058538,12.983203,11.449032,26.301921,28.441888,33.286708,44.641145,43.431658,0.0,22.073478,18.026607,36.453025,2.579589,29.980224,-13.913636,6.51408,-28.226784,-4.234738,0.0,-24.941832,-50.452742,-90.349115,-54.728347,-92.220208,-52.003907,-13.321553,-43.667959,-11.690409,82.405117,15.553209,-65.13977,23.530782
51,-1.084373,0.839299,3.342029,8.826313,0.0,-56.475037,-35.482773,-98.143341,-33.303132,-104.962109,-28.612221,-53.255219,-22.252991,-43.058281,0.0,21.626896,-4.938106,12.468038,11.521793,25.794574,28.558578,33.437416,44.886127,44.03115,0.0,25.55258,20.412243,42.788389,5.286324,33.259249,-10.841017,8.6966,-25.098993,-3.059898,0.0,-19.054244,-46.662946,-79.49079,-51.214865,-80.017585,-48.770985,-9.246596,-40.606524,-7.835618,81.280661,16.430831,-61.837824,32.395418
52,-1.791985,1.620936,3.639153,12.34455,0.0,-57.631988,-35.295937,-95.150379,-32.895676,-101.731121,-27.787674,-51.479553,-20.973999,-41.499962,0.0,20.119741,-3.4074,14.013373,13.548077,27.978976,30.535134,34.156666,46.507341,44.436887,0.0,27.662687,23.539398,53.123251,8.522243,37.108205,-7.546824,10.60806,-22.226206,-2.693699,0.0,-11.215289,-41.23503,-68.144306,-46.564294,-66.890022,-44.756523,-5.124602,-36.998973,-3.474514,79.395132,18.033133,-58.292215,44.721334
53,-1.429573,3.299287,2.805473,11.247035,0.0,-57.244331,-35.629578,-88.738541,-33.218926,-100.413254,-27.741005,-49.102501,-20.486412,-39.268295,0.0,19.668297,-1.790762,15.803363,15.768697,30.705312,32.758625,34.735929,48.214006,44.92663,0.0,28.729471,25.666878,61.265699,10.533634,39.981485,-5.349993,12.702352,-20.193438,-1.32478,0.0,-2.708793,-36.79578,-55.585174,-42.222592,-51.58945,-40.431858,0.398466,-32.516523,1.943029,77.84499,21.470346,-55.607311,56.106295
54,-1.335365,4.278612,1.540878,10.265907,0.0,-56.419602,-36.080658,-82.155545,-33.417252,-97.439621,-27.400635,-47.912911,-19.593018,-37.800888,0.0,18.341157,-0.098788,17.573192,17.848926,33.576348,34.691919,36.325804,49.612282,46.009899,0.0,28.939631,28.082085,64.737116,12.68977,41.666273,-3.329721,14.756327,-18.623296,0.171227,0.0,5.748321,-33.044307,-42.641621,-38.829271,-36.305439,-37.134219,5.509257,-29.055752,6.820151,76.368182,25.886056,-54.207876,66.5093
55,-1.054779,4.678946,0.632561,9.018703,0.0,-55.55864,-36.520867,-75.307434,-33.688568,-93.278515,-27.285805,-47.026406,-19.139557,-36.824868,0.0,17.506841,0.976244,18.926792,19.333851,35.998008,36.175967,37.933698,50.656358,47.076977,0.0,26.6042,30.176594,68.11643,14.53696,44.108557,-2.042444,15.06209,-18.166666,1.002571,0.0,12.382316,-29.854126,-35.687246,-36.488183,-30.152109,-35.472873,7.824793,-27.406096,9.213479,75.192135,30.673597,-53.696583,75.636598
56,-1.151757,4.875158,-0.862576,5.241628,0.0,-54.624984,-36.496902,-70.62545,-33.426315,-87.988678,-26.816047,-46.8227,-18.447738,-36.462753,0.0,17.666583,2.260714,21.291302,20.827284,38.276827,37.497191,39.259257,51.525952,47.672936,0.0,26.029862,30.81522,67.269482,15.304551,45.390233,-1.236087,16.032418,-17.455238,2.864674,0.0,16.959893,-28.21272,-28.917934,-35.035319,-24.18637,-34.224252,10.297147,-25.957446,11.560208,73.987243,35.583854,-54.612294,80.913325
57,-0.052688,4.872824,-1.879005,1.721083,0.0,-52.953095,-36.942009,-67.92849,-33.991493,-82.857582,-27.655197,-46.932266,-19.538727,-36.711754,0.0,18.724145,1.945107,20.84647,20.493375,37.104199,37.189649,39.63733,51.158037,48.030039,0.0,27.488239,30.096748,62.405605,15.071835,45.588089,-1.017929,17.407402,-16.787865,5.04657,0.0,18.869209,-27.708873,-22.805675,-34.266792,-19.366844,-33.404379,12.267837,-25.071563,13.361381,73.96431,40.437322,-56.461544,82.615052
58,-0.08638,3.476128,-1.081158,2.255718,0.0,-52.908875,-36.806649,-68.504059,-33.890328,-80.600121,-27.836838,-47.893616,-20.043206,-37.898072,0.0,18.572629,1.788601,20.257427,20.2246,35.867134,36.963198,39.719002,51.076403,48.07976,0.0,29.141739,29.475506,59.296395,15.065598,46.151001,-0.831035,17.873852,-16.432239,5.833535,0.0,19.037047,-27.344237,-20.22397,-34.307794,-18.467165,-33.906515,12.860171,-25.973551,13.804008,73.948929,43.741386,-57.471703,84.698706
59,-0.505646,2.626579,-0.750503,1.42192,0.0,-53.679749,-36.280586,-68.355515,-33.319244,-75.800274,-27.669365,-47.765762,-20.48394,-37.987381,0.0,18.927156,1.599243,20.08442,20.002119,33.893949,36.844217,39.49465,51.078187,47.950424,0.0,30.322243,29.135021,58.884178,15.103603,47.152244,-0.736645,18.004532,-16.330891,6.134857,0.0,19.55814,-26.603961,-18.163093,-33.836978,-18.460724,-33.766138,13.664601,-25.832093,14.674566,73.502815,46.163703,-58.162674,85.916364
60,-0.114098,2.025889,-0.046829,1.259357,0.0,-54.422401,-36.050033,-68.852165,-33.081001,-71.895755,-27.662086,-48.478271,-20.724609,-38.836601,0.0,18.713561,2.075746,20.349262,20.428475,32.95709,37.134944,39.579834,51.234094,48.053985,0.0,30.947925,28.588462,58.022071,14.753986,46.319961,-1.027886,18.332931,-16.495686,6.038749,0.0,20.028487,-26.202361,-17.055588,-33.523262,-18.092624,-33.536075,14.854481,-25.607161,15.482662,73.423284,47.968782,-58.174936,86.954911
61,0.071778,1.592339,0.825382,1.254293,0.0,-54.529404,-35.863335,-67.546372,-32.794281,-68.895481,-27.497475,-49.091561,-20.787277,-39.697151,0.0,18.993211,2.040246,20.133259,20.41804,32.464767,37.149338,39.891934,51.23244,48.43903,0.0,30.857162,28.109894,57.582401,14.15673,45.591785,-1.816693,18.040912,-17.422531,5.367176,0.0,20.338418,-26.233323,-16.684116,-33.533154,-18.645618,-33.508071,15.479945,-25.546683,15.853276,73.50602,49.317608,-57.338596,87.965691
62,0.143738,1.183151,0.674,0.999591,0.0,-54.57502,-35.774346,-66.560006,-32.750153,-68.957234,-27.5346,-49.652184,-20.908127,-40.389634,0.0,18.984484,2.424,20.136834,20.708488,32.600716,37.359641,40.077165,51.391848,48.52866,0.0,30.113216,27.644611,57.126297,13.437915,45.168685,-2.572644,17.765842,-18.163845,5.053642,0.0,20.820355,-27.019183,-16.705148,-33.948543,-18.338446,-33.528949,15.702969,-25.175748,15.961894,73.626143,50.284337,-56.688211,88.74886
63,-0.091553,0.858639,0.572582,0.427387,0.0,-54.243897,-35.726303,-65.96093,-32.687256,-64.5943,-27.509606,-49.293984,-20.857659,-40.486817,0.0,18.648655,2.727411,20.408573,20.930172,32.353542,37.417421,40.554145,51.243684,48.679603,0.0,28.602333,27.223526,56.720501,12.619434,44.777698,-3.53088,17.95483,-19.142658,5.065292,0.0,21.179983,-27.620132,-15.895273,-34.052592,-17.475614,-33.139353,16.372615,-24.321709,16.302466,73.500406,50.962393,-56.149813,88.995664
64,0.368294,0.52783,0.530834,0.250243,0.0,-53.801674,-35.863701,-65.743103,-32.98098,-63.587677,-27.826012,-49.565735,-21.03003,-40.664658,0.0,18.087103,2.899059,20.236067,21.022854,32.544629,37.387991,40.912624,51.072617,48.783622,0.0,27.440552,26.703049,56.365723,11.833054,44.305595,-4.307087,17.873142,-19.796974,5.276665,0.0,21.26594,-28.21811,-15.589441,-34.200929,-16.823208,-32.906183,16.421645,-23.80571,16.312335,73.811715,51.344742,-55.675964,89.100426
65,-0.223137,0.300595,0.212837,0.045035,0.0,-53.300469,-35.747475,-65.046776,-32.895104,-62.452446,-27.728531,-49.175629,-20.871689,-40.360199,0.0,18.115823,3.153816,20.211027,21.209933,32.572984,37.510949,41.049908,51.119918,48.752148,0.0,26.626568,26.471558,56.960404,11.537213,45.029858,-4.546749,17.672756,-20.048469,5.725067,0.0,21.643661,-28.582154,-15.353394,-34.235003,-15.626702,-32.683123,16.64712,-23.316567,16.602709,73.522854,51.550337,-55.528851,89.050461
66,-0.637711,0.314736,-0.139744,-0.118024,0.0,-53.679657,-35.665443,-64.233879,-32.77755,-61.212067,-27.534943,-48.19709,-20.576408,-39.376007,0.0,17.744975,3.767065,20.110781,21.710747,32.425919,37.861882,40.975881,51.261647,48.618452,0.0,26.186532,26.411202,57.140637,11.558831,45.59871,-4.392437,17.171002,-19.869255,5.634716,0.0,21.627106,-28.517001,-14.928316,-33.98973,-14.602941,-32.355264,16.945252,-22.883461,16.82419,72.809647,51.777508,-55.744091,88.844872
67,-0.930679,0.200157,-0.115768,0.178057,0.0,-53.700737,-35.240639,-64.962021,-32.209259,-61.359787,-26.897919,-47.859101,-19.939682,-38.739258,0.0,17.686245,4.16133,20.428315,21.9711,32.49529,38.014746,40.973597,51.28323,48.558586,0.0,25.965912,26.391586,57.285633,11.641628,45.639977,-4.291821,16.800568,-19.821842,5.486,0.0,21.319775,-28.141391,-14.861626,-33.683182,-15.270901,-32.179535,17.011591,-22.784234,17.058268,71.810332,51.882652,-55.928495,88.927916
68,-0.281868,0.26386,0.018082,0.548974,0.0,-53.933624,-34.808075,-65.392685,-31.820412,-63.846794,-26.558853,-48.192398,-19.697342,-38.636559,0.0,17.584035,4.322047,20.056534,22.08275,32.547327,38.072575,40.71732,51.308331,48.446397,0.0,26.070327,26.263103,57.15794,11.57698,45.426567,-4.368988,16.955887,-19.872609,5.324592,0.0,20.832477,-28.006158,-15.372821,-33.647522,-16.570099,-32.281047,16.164498,-23.040672,16.738709,71.472159,52.025546,-55.966718,89.355924
69,-0.131928,0.298668,-0.141747,0.298014,0.0,-54.056122,-34.660011,-66.113548,-31.727256,-65.948456,-26.551208,-48.599991,-19.827507,-38.768692,0.0,17.517919,4.325308,19.8338,22.112922,32.586137,38.11853,40.545562,51.359683,48.38611,0.0,26.496895,26.058335,57.345921,11.48457,45.613598,-4.343674,17.089142,-19.747661,4.989945,0.0,20.867563,-27.828521,-15.44045,-33.457158,-16.828568,-32.161708,16.18879,-23.065243,16.536031,71.313028,52.195165,-56.135668,89.524889
70,0.160881,0.433846,-0.062153,0.523316,0.0,-54.364792,-34.507141,-67.068626,-31.649826,-66.413818,-26.595131,-48.948372,-20.012352,-38.980659,0.0,17.201992,4.181769,19.541431,21.967154,32.218827,37.943121,40.323983,51.158765,48.223731,0.0,27.004509,25.949936,57.122361,11.509713,45.406506,-4.297542,17.406555,-19.680668,4.854458,0.0,20.282867,-27.504035,-15.712189,-33.229539,-17.904835,-32.099272,15.802894,-23.273718,16.357956,71.473068,52.477559,-56.198662,89.896753
71,0.000527,0.275314,0.100331,0.331939,0.0,-54.144745,-34.441361,-67.830231,-31.527649,-68.497696,-26.439423,-49.086777,-19.880333,-38.951088,0.0,17.520402,3.871202,19.851974,21.624556,32.726842,37.631862,40.296596,50.991836,48.162673,0.0,27.56924,25.555938,56.749042,11.175968,44.926563,-4.594082,18.118045,-19.850087,5.202312,0.0,20.152537,-27.520368,-15.9393,-33.041132,-18.065447,-31.75807,15.680116,-23.016138,16.507633,71.490544,52.565174,-56.081382,90.040993
72,0.159256,0.266768,0.510406,0.117462,0.0,-54.455155,-34.737831,-67.362717,-31.753853,-67.125046,-26.574028,-48.470169,-19.916977,-38.622299,0.0,17.640142,3.513945,20.063216,21.318398,32.970954,37.410821,40.565025,50.934933,48.469196,0.0,27.676804,25.272606,56.160359,10.757538,44.184746,-5.165783,18.4212,-20.507686,5.039543,0.0,20.277872,-27.647747,-15.775452,-32.987713,-17.814284,-31.53643,16.151209,-22.739781,16.891788,71.678124,52.643402,-55.542652,89.969915
73,-0.300087,0.094133,0.319691,-0.37393,0.0,-54.864716,-35.005188,-66.081665,-31.818077,-63.242615,-26.462242,-47.253433,-19.613983,-37.709748,0.0,17.607636,3.702548,20.576213,21.548269,33.035914,37.62565,40.983538,51.125698,48.806179,0.0,27.978252,25.066395,55.787681,10.492664,43.496338,-5.501782,18.314895,-20.913368,4.872356,0.0,20.794204,-27.518157,-14.873358,-32.582592,-17.221035,-30.918721,16.989064,-21.993385,17.560539,71.406607,52.5306,-55.194391,89.38905
74,-0.14589,0.073365,0.51503,-0.502179,0.0,-54.90509,-35.079162,-65.756744,-31.81121,-61.876121,-26.342193,-46.522064,-19.349739,-37.08744,0.0,17.725518,3.583259,20.895537,21.396191,33.109694,37.527109,41.325389,51.140271,49.22134,0.0,27.804188,24.633075,54.955032,9.959141,42.201954,-6.194744,18.421646,-21.677662,4.832931,0.0,21.103555,-27.213252,-14.218366,-32.089707,-16.644404,-30.172499,17.951888,-21.090581,18.471407,71.289516,52.41927,-54.650562,88.702176
75,-0.522949,-0.06083,0.526176,-0.960861,0.0,-54.859611,-34.992073,-65.163322,-31.623024,-61.20504,-26.000839,-45.606399,-18.851967,-36.1436,0.0,17.919747,3.819245,21.360134,21.55915,33.494251,37.678657,41.648313,51.36758,49.63366,0.0,27.372574,23.992825,53.989723,9.302273,41.243145,-6.892799,18.137684,-22.410736,4.409363,0.0,22.172498,-26.920617,-13.033048,-31.486801,-15.162196,-29.218881,18.967115,-19.82195,19.343675,70.792705,52.195613,-54.098248,87.578488
76,0.080223,-0.044744,0.510418,-0.975755,0.0,-54.507797,-35.228508,-65.254623,-32.016746,-60.708961,-26.383575,-45.392028,-19.070823,-35.716713,0.0,17.75383,3.744687,21.453569,21.488964,33.48455,37.676254,42.059916,51.476094,50.232416,0.0,27.417961,23.243374,52.946652,8.60598,40.252487,-7.623825,17.830273,-23.216766,3.830612,0.0,22.626635,-26.141895,-11.806105,-30.558056,-13.852748,-28.122787,19.68692,-18.584861,20.040793,70.890924,52.020418,-53.569834,86.472282
77,0.095284,-0.042849,0.065289,-1.106092,0.0,-54.601456,-35.270714,-65.64489,-32.193627,-61.352463,-26.626785,-45.6614,-19.304169,-35.72374,0.0,17.604586,4.151517,21.362351,21.855564,33.349397,37.950791,41.994634,51.630724,50.242828,0.0,27.519882,22.557472,52.094192,8.171859,39.786335,-7.852032,17.601974,-23.352734,3.684345,0.0,23.306482,-25.258518,-10.32328,-29.507218,-12.134382,-26.915196,20.908041,-17.316903,20.81108,70.993681,51.864612,-53.497072,85.253233
78,0.511757,0.074619,-0.119717,-0.477806,0.0,-54.1325,-35.54084,-67.299225,-32.648735,-64.286042,-27.167473,-46.519135,-19.871636,-36.281548,0.0,17.932314,3.764836,21.375628,21.449518,33.558354,37.659613,42.053853,51.517412,50.435804,0.0,27.356312,22.153175,51.425137,8.008678,39.69524,-7.859264,17.634968,-23.327053,3.66061,0.0,23.730837,-24.576998,-9.522865,-28.959289,-11.19104,-26.409806,21.418741,-16.829581,21.072025,71.511704,51.860858,-53.610523,84.697054
79,0.088875,0.030869,-0.120918,-0.352293,0.0,-54.199288,-35.695404,-67.039719,-32.838295,-62.902932,-27.371613,-46.104653,-20.064698,-36.030648,0.0,17.894195,3.870195,21.38691,21.562349,33.447012,37.724099,42.031202,51.554913,50.475559,0.0,27.460796,22.002022,51.144161,8.009125,39.79264,-7.824978,17.96767,-23.369648,3.778106,0.0,23.793033,-24.014377,-8.815056,-28.473386,-10.642547,-25.945164,21.680477,-16.361914,21.417526,71.596991,51.816601,-53.735029,84.269635
80,0.441078,0.008022,0.096061,-0.025855,0.0,-54.400406,-35.943627,-67.337654,-33.147537,-63.365708,-27.721848,-46.35537,-20.430565,-36.218285,0.0,18.027458,3.528282,21.225691,21.296222,33.277093,37.556662,41.981857,51.463429,50.528867,0.0,28.045784,21.794358,51.342076,7.783574,39.724022,-8.147747,18.309609,-23.760601,3.716218,0.0,23.243393,-23.836196,-8.93287,-28.270697,-10.422463,-25.661476,21.552611,-16.10166,21.394369,72.029812,51.770567,-53.647225,84.189724
81,0.095031,-0.003773,0.31223,0.527843,0.0,-55.156723,-35.916,-66.861351,-33.035499,-62.788261,-27.602989,-46.161689,-20.369247,-36.215606,0.0,17.94948,3.495332,21.016981,21.309202,33.121815,37.577639,41.759006,51.459971,50.277216,0.0,27.721527,21.880188,51.289787,7.724178,39.122005,-8.370575,18.112873,-24.126217,3.347602,0.0,22.992006,-24.261712,-9.615879,-28.830928,-11.414119,-26.272516,21.115751,-16.640513,20.958096,72.113233,51.721503,-53.346605,84.672276
82,0.133324,0.087766,0.564731,0.023064,0.0,-55.372009,-35.77375,-66.76767,-32.916389,-63.97538,-27.544327,-46.140335,-20.425003,-36.249023,0.0,17.911738,3.064296,20.573082,20.890386,32.959443,37.25816,41.46697,51.281117,50.135097,0.0,27.833496,21.571026,50.924664,7.286751,38.493908,-8.868519,17.657032,-24.668403,2.865635,0.0,22.45127,-24.661454,-10.241411,-29.120476,-11.503355,-26.439798,20.892319,-16.686283,20.850286,72.23497,51.774939,-52.793461,84.66101
83,0.081345,-0.04777,0.561276,-0.398661,0.0,-55.849892,-35.731339,-66.616081,-32.890526,-62.338349,-27.584244,-45.751831,-20.519509,-36.190979,0.0,17.388465,2.806494,20.398563,20.642816,32.483427,37.021984,41.167733,51.10506,49.996245,0.0,28.908657,21.118686,50.534088,6.788555,37.756405,-9.311783,16.970558,-25.184819,2.324329,0.0,21.937174,-24.787097,-10.483423,-28.928759,-11.156083,-26.042816,21.250392,-16.141335,21.198997,72.304487,51.725536,-52.244013,84.260716
84,0.233505,-0.092466,0.465591,-0.273326,0.0,-55.895737,-35.705154,-66.414253,-32.898285,-64.717392,-27.613564,-46.098541,-20.603622,-36.619171,0.0,17.349798,2.372266,19.963161,20.315312,32.614771,36.860871,40.874265,51.121345,49.713849,0.0,29.161606,20.828167,50.116791,6.441811,37.219151,-9.62495,15.947754,-25.678253,1.763741,0.0,22.301371,-24.845377,-10.589862,-28.83089,-11.413662,-25.891102,21.537352,-15.923708,21.553716,72.528757,51.637843,-51.787657,83.992163
85,0.220917,0.108675,-0.478145,0.188425,0.0,-55.155419,-35.85331,-67.336762,-33.101692,-70.34586,-27.760895,-46.339188,-20.700188,-36.723015,0.0,17.679328,1.862886,19.856327,19.688094,32.961999,36.328762,40.335104,50.866087,49.301356,0.0,29.058769,20.959716,50.259578,6.815059,37.902294,-8.925671,15.44934,-24.895558,1.927013,0.0,22.801846,-24.764403,-11.117877,-28.901564,-12.514468,-26.119924,21.582628,-16.147621,21.314742,72.744261,51.754965,-52.271215,84.189035
86,0.326935,0.228619,-1.295598,0.584085,0.0,-54.85888,-35.762032,-68.919823,-33.218216,-76.713444,-27.882615,-46.533097,-20.795014,-36.785614,0.0,17.488247,1.315166,19.574652,19.157985,33.26683,35.940067,39.737223,50.742623,48.844927,0.0,30.046315,21.078747,51.176972,7.499623,39.907803,-7.632476,16.140118,-23.14896,3.360192,0.0,22.520419,-24.687246,-12.086717,-29.027751,-14.111445,-26.470024,21.253096,-16.70088,20.804696,73.058682,51.999769,-53.579327,84.789305
87,0.440483,0.288899,-0.43222,1.742202,0.0,-55.211609,-35.739739,-73.127804,-33.085121,-84.821297,-27.595826,-46.7333,-20.434708,-36.672158,0.0,18.439185,0.571475,19.833436,18.395194,34.370378,35.396361,39.111976,50.589266,48.432379,0.0,30.15723,23.820305,55.881454,9.736473,41.992859,-5.725079,16.629547,-21.51796,3.633568,0.0,21.220819,-25.319726,-15.831694,-30.406737,-18.857458,-28.387764,18.946835,-18.898695,19.454208,73.465599,52.333616,-54.045113,86.576455
88,0.941505,0.597139,-0.917885,2.07997,0.0,-55.705971,-35.986748,-79.31543,-33.181595,-93.948887,-27.513794,-46.568092,-20.282936,-36.442314,0.0,18.644079,-0.108508,20.609811,17.554777,35.235822,34.682464,38.591463,50.254134,48.008142,0.0,30.183346,25.577843,59.902039,11.225361,43.800774,-4.495628,17.178097,-20.230522,4.009186,0.0,19.773247,-26.222263,-22.490414,-32.035713,-25.580423,-30.638134,17.511095,-21.595682,18.341113,74.32505,52.946258,-55.045052,88.671928
89,1.766991,1.373903,-1.283661,1.919382,0.0,-55.374481,-36.904724,-86.87098,-34.068947,-101.963917,-28.124405,-45.9963,-20.59726,-35.802933,0.0,18.911397,-0.969951,21.463943,16.605118,36.426253,33.846864,38.184306,49.805678,47.90718,0.0,31.923123,27.005001,62.653794,12.47485,45.586876,-3.355293,18.362915,-18.642666,4.997807,0.0,17.720608,-27.059593,-30.122975,-33.531604,-31.425699,-32.759057,15.377211,-24.103144,16.594688,75.876177,54.255937,-56.544577,90.527086
90,1.567039,2.654842,-0.400062,1.349691,0.0,-55.418106,-37.32962,-93.347511,-34.215225,-106.15567,-27.916099,-45.664169,-20.027206,-35.12178,0.0,20.7693,-1.102369,22.61988,16.498413,38.529867,33.598769,38.390873,49.309013,47.805464,0.0,34.99704,26.612915,64.419937,11.685379,46.111656,-4.171418,18.414745,-18.768723,5.094543,0.0,15.121928,-28.471924,-38.296507,-35.044607,-36.363824,-34.428726,14.262406,-25.828117,15.118285,77.164684,56.767216,-57.223171,91.733214
91,1.066063,4.551561,-1.213589,1.232495,0.0,-54.867302,-37.528404,-99.189388,-33.73883,-107.873817,-26.894142,-49.948013,-18.697357,-37.055214,0.0,24.249967,-0.828024,24.645775,16.552507,41.12118,33.492769,44.274261,48.942747,50.916197,0.0,34.878468,26.805782,66.64127,11.137836,47.258812,-5.064823,18.772408,-19.32613,5.186371,0.0,12.826462,-29.823751,-44.973468,-36.171984,-40.895575,-35.266284,13.452765,-26.074229,14.480607,77.898422,60.852904,-58.769085,92.499836
92,0.870827,7.027499,-2.943661,1.016066,0.0,-53.313675,-37.803085,-101.927902,-33.30471,-107.034187,-25.750168,-56.472427,-17.05751,-41.269798,0.0,25.852125,0.365384,27.135601,17.515925,44.776521,34.135894,52.339403,49.021331,56.521912,0.0,35.283371,24.386925,65.749352,8.772297,49.164631,-6.962951,20.47974,-20.164192,7.070458,0.0,12.572569,-30.988753,-47.749328,-36.34402,-41.652388,-34.309357,14.473913,-23.889216,14.587682,78.3626,67.04274,-62.119395,92.678239
93,-0.393723,9.606796,-3.234421,1.141833,0.0,-51.481155,-37.86914,-101.944015,-32.767479,-105.320766,-24.503791,-63.755127,-15.217048,-46.017219,0.0,27.789445,2.865658,30.649379,19.972751,50.87036,36.202877,62.259896,50.21386,64.057969,0.0,35.418046,22.39499,65.510857,6.811867,51.739975,-8.033432,22.064702,-19.986522,9.117165,0.0,13.876756,-31.736606,-45.621618,-35.290651,-37.130109,-31.303371,14.815214,-19.041617,15.563487,77.455335,75.549338,-65.867358,92.719874
94,-1.50872,11.866509,-3.005104,2.368412,0.0,-50.631226,-37.485077,-101.450169,-31.862183,-103.513023,-23.238258,-72.40995,-13.708488,-51.693054,0.0,29.713057,6.549872,36.243299,23.425488,58.296013,39.17874,72.627753,52.277614,72.801698,0.0,35.961285,19.945336,67.176178,4.629994,55.290757,-9.238586,25.150464,-20.189987,11.894337,0.0,14.411151,-31.942735,-41.436521,-33.259463,-30.242919,-26.741967,18.627537,-12.631763,19.344175,75.521416,86.040974,-69.297661,93.713413
95,-1.749001,13.923662,-3.903751,3.181949,0.0,-50.328689,-37.162422,-101.219261,-30.909622,-101.748893,-22.018478,-81.029193,-12.471473,-57.795456,0.0,30.121054,10.258744,43.478706,26.931127,66.045684,42.390441,83.466574,55.024656,82.772438,0.0,38.452938,19.338764,69.425251,4.411491,59.393612,-8.737656,31.238697,-19.076179,16.376335,0.0,13.639197,-29.634455,-32.839931,-28.530542,-18.411502,-19.656817,24.471757,-4.143156,26.959551,73.337333,98.11565,-73.636494,95.046376
96,-2.057899,15.899385,-2.588596,4.240809,0.0,-48.88813,-37.713638,-101.008507,-31.113052,-100.612553,-22.067802,-84.648022,-12.367996,-61.044937,0.0,30.931497,14.137516,51.029033,30.428608,73.765152,45.516315,89.43343,57.724507,90.180042,0.0,42.871788,18.188358,70.514694,3.55093,62.549331,-8.895264,37.910763,-18.353874,19.917858,0.0,12.961201,-26.007285,-20.332466,-22.586164,-2.593184,-11.963451,31.516984,4.106594,34.372669,70.876774,112.233251,-76.62775,97.505401
97,-3.236183,17.229488,-1.606545,4.831142,0.0,-46.237564,-37.807595,-100.838288,-31.017197,-100.161988,-21.954186,-85.982002,-12.160103,-62.162338,0.0,33.512746,17.493966,58.210558,33.618901,79.871071,48.578086,93.75964,60.605165,95.028129,0.0,46.606739,16.95242,70.5149,3.291802,63.37246,-8.254497,42.029549,-16.91185,22.722496,0.0,11.90372,-19.906307,-4.536883,-14.130983,15.362267,-2.850553,39.23045,12.296452,42.596607,67.315653,127.831791,-78.559233,100.705595
98,-3.233299,17.999505,-2.105301,11.815182,0.0,-45.337235,-37.353447,-101.103356,-30.35225,-100.518105,-21.284501,-87.395119,-11.477211,-62.936417,0.0,35.312998,19.67152,63.955914,35.976864,83.862332,51.059587,95.817311,63.117454,97.907624,0.0,54.127247,17.928933,73.805374,4.702286,67.66864,-6.320228,50.530804,-14.33686,30.171021,0.0,10.388259,-16.023219,7.631492,-7.819134,28.342006,4.898283,45.686067,20.18022,48.830954,63.88983,144.283694,-80.857058,110.973175
99,-4.155007,18.292089,-2.581077,13.82149,0.0,-43.733505,-36.466827,-101.048138,-28.847626,-100.456695,-19.421471,-87.261589,-9.38633,-62.466236,0.0,37.575731,21.380117,68.381085,37.72024,85.794294,52.694677,97.302595,64.578359,99.379508,0.0,59.336185,19.574409,76.737625,6.933529,72.037399,-3.81498,58.138103,-11.721073,35.729496,0.0,9.067516,-11.727552,19.830051,-1.871736,39.502948,11.409351,50.290999,26.630735,53.76457,59.668796,161.260651,-83.504162,123.479533
100,-3.960022,17.765532,-1.783093,15.78057,0.0,-40.366814,-36.179123,-98.54694,-28.768478,-101.241817,-19.388214,-87.790706,-9.090134,-62.742382,0.0,38.014826,23.116008,68.06307,39.441236,85.031787,54.094053,97.138289,65.443766,99.716838,0.0,61.556763,21.26136,79.446934,9.440586,76.692593,-0.973961,63.564652,-9.029091,40.241776,0.0,9.788262,-7.618037,30.072099,3.437671,46.438978,16.87637,53.328731,31.71584,56.601527,55.821596,178.011596,-85.174433,138.245516
101,-3.978515,16.896704,-0.621574,18.026422,0.0,-40.268281,-35.135994,-98.366776,-28.079705,-101.602868,-19.02697,-88.180951,-8.80774,-63.283825,0.0,34.548589,25.621085,66.704054,41.100703,82.751504,54.41308,95.15883,64.139733,97.482621,0.0,63.980827,22.530338,80.798733,11.57111,79.484058,1.558708,66.270927,-6.829651,44.34882,0.0,10.477155,-4.108817,34.828893,8.15931,50.278315,21.988377,56.4868,36.660484,60.173349,52.10356,193.9656,-85.535528,155.329238
102,-1.66111,23.685358,2.569519,21.5385,0.0,-46.297646,-33.964302,-97.988137,-28.990128,-104.233658,-22.085427,-90.510235,-13.99601,-65.696034,0.0,30.261259,25.437798,60.970122,35.105653,64.11402,41.874424,68.329647,45.229448,68.461706,0.0,66.562775,26.778099,83.026943,16.380844,81.607509,6.154415,69.342762,-3.33625,48.860733,0.0,14.051924,0.401279,39.959075,13.481128,55.387477,27.985497,63.157333,43.076655,66.549876,50.822554,216.740003,-82.585905,175.956783
103,-2.992424,21.37078,3.180576,16.585259,0.0,-51.026276,-33.330437,-96.982991,-29.953835,-103.395722,-24.704293,-88.857686,-18.429886,-64.418049,0.0,30.02599,25.370145,52.229969,28.591787,44.676152,28.880409,42.810388,26.110458,41.599005,0.0,65.644535,26.600064,83.689842,16.555905,82.65461,6.224728,70.032944,-4.070366,48.292534,0.0,14.229864,5.500628,43.908989,18.594408,59.161958,32.434972,66.880093,46.482215,70.428185,48.27356,237.300411,-78.961899,191.73167
104,-2.94175,17.548912,3.375424,14.498577,0.0,-54.97546,-32.192894,-96.168789,-30.324074,-103.071648,-26.717903,-89.160507,-22.346169,-66.513359,0.0,29.087346,26.221077,42.317187,24.13148,27.330287,19.046173,20.559404,11.076307,17.863023,0.0,65.909385,25.923511,84.007084,16.105785,82.239956,6.133289,69.726196,-3.975735,48.905479,0.0,15.822963,10.240034,47.745221,24.382829,63.625154,38.313834,71.938687,51.405094,75.132764,45.79501,254.107037,-75.123275,205.487961
105,-4.462807,11.412414,3.190281,13.722102,0.0,-59.353065,-28.823318,-95.094234,-27.117805,-99.557842,-24.438835,-86.353798,-21.791496,-64.909652,0.0,24.141732,30.685867,39.735637,25.359363,17.638833,16.586272,7.515569,4.808591,4.782595,0.0,65.863792,25.093666,84.359367,15.484176,81.735626,6.012428,70.092041,-3.545289,50.462963,0.0,16.841795,13.378202,49.734387,28.751103,66.806252,43.069616,75.556718,55.55387,78.292471,41.847358,264.919817,-71.417839,218.610429
106,-3.450782,8.529116,2.69347,11.286259,0.0,-61.679844,-26.027413,-89.815796,-24.659707,-94.81849,-22.755135,-82.430684,-21.43071,-62.800519,0.0,19.83023,32.067581,34.4046,25.732965,9.221077,15.587545,-2.176208,2.295793,-3.723229,0.0,66.231388,25.206962,87.212551,15.896072,83.547695,6.883369,72.388721,-2.129975,53.155471,0.0,18.004308,16.549876,52.847645,32.755765,69.714523,47.316673,77.994624,59.219855,80.689473,39.012171,272.937068,-68.108774,229.384823
107,-4.258896,-0.775796,-0.010334,7.983266,0.0,-58.968396,-22.886582,-84.867874,-20.224572,-87.330906,-17.584236,-76.105442,-15.934273,-58.628483,0.0,14.171263,35.711758,32.999668,32.662276,17.017377,25.355399,10.890328,14.486857,10.924513,0.0,66.955215,23.381423,89.60527,14.161743,87.053878,5.813552,75.615737,-2.143422,55.07143,0.0,15.529834,17.329759,51.249359,34.201923,68.121091,48.90813,75.931814,60.311084,79.282318,35.426548,271.81199,-67.445835,237.018807
108,-2.110382,-2.808606,1.395984,6.706132,0.0,-55.505722,-20.25721,-80.280144,-16.754082,-82.323441,-13.61847,-72.460041,-11.454667,-56.270062,0.0,7.349349,38.480325,34.696075,40.057171,27.949793,37.05783,26.631421,30.202497,28.683388,0.0,66.800869,24.133747,90.203373,15.337567,87.830784,7.19006,76.641232,-0.482792,56.603565,0.0,15.692595,19.547636,52.597284,37.064623,69.739409,51.725924,77.941197,62.581869,81.306582,34.099829,268.755114,-65.266188,243.476669
109,-1.709015,-1.133799,2.29121,7.176423,0.0,-53.647534,-19.629639,-68.191773,-15.087181,-66.884594,-11.002693,-57.482712,-7.66333,-44.147106,0.0,0.48747,37.668295,39.574801,43.024229,39.321835,43.795961,40.689866,40.769968,44.502299,0.0,66.352867,25.138722,90.884858,16.485421,89.022423,8.239117,77.581559,0.549477,57.812313,0.0,15.518768,21.27156,52.343922,38.774813,69.246949,52.959784,77.859291,63.197718,81.69398,33.25668,267.454206,-62.109112,250.485983
110,-6.888108,11.705865,2.86044,6.0075,0.0,-52.570255,-23.602443,-49.454807,-20.012374,-43.427982,-15.686393,-34.865753,-11.217704,-29.53545,0.0,7.657039,29.62355,35.785537,31.095309,36.775137,28.868256,35.319198,23.906808,33.032037,0.0,65.539798,25.940071,90.880703,17.108287,89.227329,8.442798,77.105976,0.444477,57.011272,0.0,16.587198,23.432528,53.436509,40.6098,69.571386,54.084049,78.535224,63.601566,82.104237,27.277267,279.127612,-58.339977,256.461024
111,-8.330131,5.562934,2.523033,5.323491,0.0,-41.888397,-24.294228,-26.536308,-22.396992,-19.23642,-18.744759,-14.278507,-13.921543,-28.066876,0.0,14.591845,24.183116,37.591168,26.841792,39.812639,26.139641,38.499097,23.459574,38.149022,0.0,64.181316,26.264065,90.113422,17.309532,88.667278,8.262165,76.01849,-0.118778,55.58369,0.0,17.280395,24.770239,53.97543,41.793024,69.961858,54.727241,78.987101,63.64221,82.245694,19.759735,284.776348,-55.004345,261.870317
112,-7.091927,10.14048,2.130546,4.135141,0.0,-40.474731,-29.014858,-9.596832,-27.961521,2.414669,-23.911491,6.781311,-17.874286,-13.499119,0.0,25.339405,18.756354,36.780583,16.996949,37.396593,12.891263,33.240629,7.808105,28.695774,0.0,63.010769,25.441246,89.184689,16.347725,88.161038,7.102925,75.243176,-1.36465,54.27895,0.0,18.153954,25.410269,54.071118,42.562607,69.889486,55.219972,79.155185,63.635343,82.033804,13.483303,295.022853,-52.058304,266.111483
113,-9.007209,4.29584,1.178479,2.861724,0.0,-28.553685,-29.526845,12.357719,-30.066857,25.370956,-26.723488,26.085159,-20.597958,-13.71896,0.0,31.879441,15.296602,38.611396,14.309608,38.59465,11.075887,34.882931,7.341531,32.986453,0.0,62.272979,25.048393,88.534515,16.058109,87.939125,6.85984,74.998054,-1.527466,53.876266,0.0,18.90968,26.040087,53.517946,43.225226,69.633383,55.657424,79.12126,63.642469,81.701612,5.259871,299.451025,-50.096048,269.105539
114,-4.446465,10.300747,0.503368,1.496644,0.0,-31.035393,-33.969395,19.441154,-35.750759,33.025429,-32.625263,33.177612,-26.247997,-13.952259,0.0,40.057121,11.491294,33.908596,5.352859,30.476113,-2.733827,23.578542,-10.745893,17.544502,0.0,61.438396,24.835625,88.051403,15.935337,87.7393,6.713345,74.710659,-1.73711,53.174801,0.0,19.364226,26.290214,53.295509,43.561446,69.647599,55.829598,78.692367,63.522723,80.97045,1.539763,309.859362,-48.866323,270.709773
115,2.519646,1.365425,3.4e-05,0.638759,0.0,-31.477799,-35.333748,12.204654,-37.341362,30.902984,-33.993554,31.09291,-27.298073,-17.39732,0.0,39.245869,11.208786,32.192935,5.497009,29.41445,-2.274984,23.233024,-9.864641,17.282458,0.0,61.006256,24.646431,88.077301,15.74421,87.755356,6.533249,74.894738,-1.895416,53.085869,0.0,19.082952,25.951821,52.523468,43.365437,69.411786,55.66812,78.11495,63.312253,80.557389,4.706744,311.297739,-48.218954,271.421484
116,3.043533,6.324773,-0.416382,-0.076361,0.0,-42.692562,-40.042912,4.747868,-41.072994,26.146797,-36.661846,29.552422,-29.154556,-6.954987,0.0,41.43575,10.346578,28.922313,-1.251656,23.255761,-14.455536,12.695342,-27.212146,-0.710426,0.0,61.049973,24.380345,88.196274,15.4021,87.727547,6.191323,74.780114,-2.186885,52.777245,0.0,19.340094,26.051511,52.070035,43.633126,69.090437,55.940267,77.786994,63.44451,80.357726,8.371891,317.664351,-48.013722,271.386962
117,1.51783,1.282816,-0.71902,-0.068715,0.0,-43.186421,-41.171814,2.782665,-42.068459,24.173904,-37.337483,27.362526,-29.551861,-12.358154,0.0,40.144029,9.334847,26.974506,-1.820427,21.605185,-14.642678,11.608546,-26.931109,-3.104959,0.0,60.92863,24.381076,88.532879,15.359012,87.962322,6.212196,74.899372,-2.062935,52.756679,0.0,19.547006,26.072296,51.358274,43.685934,68.363831,56.006314,77.347429,63.498726,80.375015,10.465279,318.964939,-48.157184,271.336019
118,3.304664,7.083612,-0.522171,0.094046,0.0,-57.649612,-46.713409,-5.69308,-46.59724,19.359719,-40.640441,25.711213,-31.961105,-0.36454,0.0,42.022798,7.29139,23.08181,-9.954265,14.685458,-28.335622,0.453124,-45.756179,-21.84038,0.0,60.567524,24.16325,88.704242,14.958572,87.85976,5.77082,74.523525,-2.47062,52.335285,0.0,19.775371,25.95308,51.061255,43.662666,67.771052,56.029001,76.989697,63.502975,80.366506,14.327224,326.039542,-48.122074,271.421056
119,-0.691406,0.35194,-0.346115,-0.035445,0.0,-54.410328,-45.92855,-7.7532,-45.916294,20.333657,-39.988323,26.484879,-31.326565,1.410485,0.0,41.92212,7.781021,22.567738,-9.386655,14.336705,-27.748931,0.523829,-45.103637,-22.763869,0.0,60.279407,23.811492,88.597171,14.432464,87.614284,5.218837,74.112201,-2.977078,51.854358,0.0,19.961944,25.962973,50.884402,43.677894,67.386335,56.064854,76.927996,63.507396,80.481782,14.159363,326.379836,-47.944644,271.373965
120,-0.178802,-0.707585,-0.225998,-0.049882,0.0,-56.998226,-47.321915,-2.797943,-46.977837,19.526664,-40.964894,25.815834,-32.295605,2.185066,0.0,42.051931,7.754826,23.471949,-9.448962,14.840365,-27.687811,0.782118,-45.021213,-21.718139,0.0,59.922283,23.420665,88.533039,13.877094,87.370342,4.665092,73.813831,-3.454388,51.476955,0.0,20.305771,26.059464,50.829382,43.785043,67.095293,56.181735,76.984016,63.586326,80.769675,14.505032,325.678321,-47.646171,271.330153
121,0.589714,0.929121,-0.172554,-0.027973,0.0,-56.094143,-47.184002,-3.797264,-46.762493,19.198631,-40.699803,24.547989,-32.113907,1.246742,0.0,41.032432,7.178065,21.947554,-9.868667,13.625463,-28.097475,-0.41395,-45.358333,-23.355982,0.0,59.598873,23.237411,88.228923,13.695533,87.204677,4.527374,73.775402,-3.51606,51.47565,0.0,20.561529,25.935976,50.416309,43.698173,66.777315,56.099483,76.933937,63.46527,80.703552,15.583363,326.630626,-47.330108,271.325364
122,0.332313,0.162008,-0.109841,0.008744,0.0,-55.908313,-46.602939,-6.773517,-46.363804,18.620316,-40.306171,23.680344,-31.875641,0.797448,0.0,40.935472,7.220884,21.277735,-9.74645,12.966055,-28.029784,-1.071147,-45.426505,-24.70671,0.0,59.527714,23.367817,88.105465,13.745648,86.720844,4.421929,73.212513,-3.755836,51.210926,0.0,20.659452,25.736102,50.549727,43.509723,66.980178,55.920024,76.898875,63.268694,80.497269,16.339176,326.826436,-47.016449,271.36791
123,-0.447258,-0.031974,-0.038715,-0.06448,0.0,-55.952728,-46.037063,-4.702915,-45.977623,18.840157,-40.150177,23.171265,-31.882003,-3.997169,0.0,40.465625,7.369183,21.30819,-9.315519,12.334521,-27.461495,-1.419543,-44.81567,-24.634771,0.0,59.621567,23.424602,87.963249,13.764679,86.387169,4.378258,72.88044,-3.817486,51.184479,0.0,20.78982,25.707746,50.79311,43.451888,67.266379,55.809133,76.950301,63.079898,80.327431,16.24308,326.830614,-46.704002,271.339582
124,-0.610267,-0.552493,-0.08178,-0.052611,0.0,-55.089272,-45.11998,-1.663388,-45.134045,19.888366,-39.559182,23.683136,-31.528725,-3.815232,0.0,40.755593,8.124007,21.646804,-8.652999,12.541928,-26.937654,-1.369242,-44.432793,-23.978784,0.0,59.716095,23.614186,87.964257,13.918488,86.203652,4.445229,72.7305,-3.817119,51.091645,0.0,20.779705,25.604129,50.909349,43.374625,67.462362,55.737317,76.950547,62.985296,80.236287,15.924752,326.320531,-46.493843,271.329381
125,-0.946701,-0.287103,-0.200283,-0.05649,0.0,-54.588513,-43.734124,0.01498,-44.135434,21.050674,-39.02623,23.84349,-31.485752,-9.317047,0.0,40.925778,8.472231,21.693081,-8.08387,12.090373,-26.249211,-1.571115,-43.673435,-23.145721,0.0,59.786557,23.936875,87.875004,14.287823,86.147953,4.765332,72.782513,-3.555645,51.292523,0.0,20.710483,25.377036,50.93852,43.189758,67.646663,55.575667,76.846943,62.815063,79.912629,15.176131,326.075224,-46.496046,271.314687
126,-1.954995,-1.210369,-0.145408,0.044065,0.0,-51.622489,-42.16682,2.866528,-42.866203,23.635781,-37.947967,26.706826,-30.347351,-13.996513,0.0,41.757678,9.641227,23.172718,-6.561772,13.113194,-24.2854,0.202615,-41.229034,-19.230314,0.0,59.823406,24.208065,87.928997,14.590873,86.142688,5.018005,72.807689,-3.351014,51.44878,0.0,20.532803,25.179225,51.097145,43.017844,67.789121,55.444102,76.69768,62.72245,79.646769,13.398359,324.90817,-46.464231,271.402067
127,-1.86795,-2.059513,-0.168778,-0.024823,0.0,-52.146492,-41.727505,8.680847,-42.84692,25.236855,-38.617538,27.617409,-31.458744,-14.590485,0.0,43.196353,10.874371,25.885625,-5.464034,14.786927,-23.102088,1.740312,-40.022998,-13.713395,0.0,59.944897,24.334408,87.939755,14.827961,86.38892,5.296601,73.263142,-3.060161,51.939846,0.0,20.449044,25.110817,50.945979,42.984931,67.683799,55.430788,76.569374,62.735788,79.386317,11.663818,322.894901,-46.4996,271.423488
128,-3.280334,-2.235735,-0.113617,-0.044238,0.0,-43.301743,-37.668354,13.464889,-39.318993,29.963447,-35.910473,31.042533,-29.351452,-19.434369,0.0,44.558653,12.547696,27.643387,-2.393446,17.33192,-18.695147,5.631428,-34.216187,-5.717779,0.0,60.050091,24.33339,87.929478,14.896717,86.53204,5.38068,73.565106,-2.980259,52.163304,0.0,20.322468,24.812698,50.71029,42.77514,67.615626,55.325454,76.475119,62.730107,79.195286,8.499098,320.702472,-46.497603,271.422556
129,-0.320893,-0.813253,0.020851,-0.054501,0.0,-45.378067,-38.241165,14.679932,-40.316849,29.487602,-37.300758,30.124191,-31.102558,-23.598358,0.0,45.337301,12.920026,28.596196,-2.091622,17.591556,-18.379788,5.822965,-33.917513,-4.231027,0.0,60.106739,24.434418,87.749165,15.09866,86.579075,5.604607,73.839444,-2.766552,52.584698,0.0,20.206204,24.74197,50.495004,42.715687,67.533461,55.280142,76.351396,62.697293,79.026226,8.26502,319.926964,-46.389937,271.4058
130,-2.853962,-1.786526,-0.006969,-0.112917,0.0,-37.067951,-34.652881,18.288861,-36.958923,33.871731,-34.356434,33.720921,-28.37764,-24.89487,0.0,45.869886,14.002808,29.652647,0.4047,19.487615,-14.422512,9.237714,-28.390023,3.314849,0.0,60.27388,24.501949,87.786781,15.231789,86.657318,5.764595,74.128303,-2.573078,52.923431,0.0,20.12935,24.789703,50.423645,42.766829,67.453273,55.325047,76.300279,62.698367,78.893191,5.472255,318.16989,-46.335709,271.322335
131,0.047013,-0.259228,0.019352,-0.205987,0.0,-39.654488,-35.640988,16.728344,-38.042324,32.583011,-35.524041,32.744899,-29.849831,-19.06184,0.0,46.267583,13.715755,29.632553,-0.337404,19.425852,-15.669538,8.407924,-30.241289,1.103295,0.0,60.350635,24.331501,87.8157,15.031139,86.622906,5.593517,74.310482,-2.689007,52.955395,0.0,20.235412,24.858036,50.416124,42.874645,67.423064,55.438939,76.369019,62.77085,78.957041,5.549721,317.935671,-46.285904,271.141357
132,-1.280949,-0.613033,-0.066101,-0.169505,0.0,-34.813259,-34.138561,17.587395,-36.287281,34.749504,-33.604282,35.142563,-27.693626,-24.016411,0.0,45.859128,13.908292,29.714014,1.279332,20.327074,-12.607113,10.711424,-25.664867,7.447964,0.0,60.406643,24.058925,87.783268,14.771232,86.663784,5.44931,74.382374,-2.663063,52.890255,0.0,20.287419,24.679837,50.533388,42.790306,67.564744,55.44162,76.565423,62.810938,79.165288,4.298344,317.347721,-46.322433,270.996935
133,4.384666,2.52385,0.259598,-0.105124,0.0,-44.544181,-39.091701,7.752045,-40.904697,29.036774,-37.433979,31.150315,-31.009975,-16.595043,0.0,43.951622,11.958461,27.554701,-2.367684,17.532276,-17.837051,6.461366,-32.388363,-1.436105,0.0,60.090305,23.91838,87.567844,14.578205,86.509174,5.241359,74.210941,-2.879689,52.568836,0.0,20.254765,24.525695,50.438885,42.633547,67.430487,55.339867,76.617935,62.768034,79.251504,8.720523,319.902718,-46.025322,270.922958
134,1.392311,1.203071,0.271694,-0.145768,0.0,-44.741237,-39.34798,0.614663,-40.751438,27.710953,-36.861579,30.632561,-30.051544,-12.463371,0.0,42.725468,10.778423,25.803472,-3.589107,16.84014,-19.128573,5.652546,-33.729643,-4.510052,0.0,59.761253,23.758644,87.468017,14.322864,86.270302,4.947899,73.864357,-3.1833,52.102043,0.0,20.369127,24.211633,50.510108,42.365933,67.404996,55.185751,76.767705,62.724723,79.352318,10.174077,321.141085,-45.692385,270.812486
135,2.662526,2.353827,0.272632,-0.182262,0.0,-48.149975,-41.414612,-7.648384,-42.661904,23.986805,-38.17527,28.587925,-30.975701,-8.8862,0.0,41.397056,9.85171,23.988899,-5.752039,14.473222,-22.593698,2.287309,-38.584757,-12.789745,0.0,59.492993,23.641606,87.354687,14.127583,86.181805,4.693406,73.667302,-3.500553,51.744908,0.0,20.429432,24.023812,50.494954,42.213199,67.388582,55.122555,76.952918,62.769689,79.571729,12.906401,323.532055,-45.349955,270.667367
136,-0.801751,-0.534289,0.317597,-0.130565,0.0,-47.120636,-40.627258,-5.522621,-42.019523,25.319493,-37.6795,29.375645,-30.543949,-9.153579,0.0,41.663509,10.489011,24.607662,-5.202164,14.929224,-22.154751,2.626615,-38.265619,-12.746644,0.0,59.236393,23.634189,87.227474,14.09983,86.137035,4.59383,73.474994,-3.690777,51.499546,0.0,20.382045,23.695485,50.428152,41.918785,67.346024,54.946541,77.073233,62.749904,79.746544,12.171655,323.029916,-44.965353,270.568952
137,-1.739387,-6.054455,0.618187,-0.027442,0.0,-38.059341,-37.731709,-0.866135,-39.625179,26.752705,-35.993591,28.364056,-29.414578,-9.713665,0.0,37.267744,10.664679,26.794072,0.128243,20.654463,-12.183715,11.434027,-24.292118,-1.005112,0.0,58.832027,23.738182,87.024708,14.151329,85.82896,4.496704,73.107319,-3.978974,51.17046,0.0,20.271215,23.616803,50.181978,41.773153,67.062886,54.807035,76.889834,62.660761,79.659958,10.500464,316.997296,-44.27897,270.563345
138,-2.751228,-1.354175,0.22174,-0.170061,0.0,-33.892571,-35.415974,2.894989,-37.236775,29.277019,-33.683373,30.849231,-27.263489,-7.173329,0.0,39.183391,11.306884,27.648451,0.751799,21.995312,-11.607138,12.425147,-23.858136,-0.323547,0.0,58.779683,23.870545,87.014775,14.312176,85.797787,4.609669,73.061429,-3.923686,51.040959,0.0,20.344377,23.691213,50.243729,41.858974,67.172209,54.881543,76.984486,62.71257,79.827771,7.803194,315.639426,-44.003272,270.389589
139,-4.411652,-7.711329,0.264988,-0.065406,0.0,-21.335529,-30.949539,15.075783,-33.115608,34.312099,-30.18988,33.781918,-24.199963,-14.767536,0.0,37.505842,13.774788,31.902078,8.84871,29.141551,1.760343,23.802079,-5.648965,20.382909,0.0,58.5905,23.837059,86.822983,14.349106,85.671181,4.649403,72.994103,-3.896816,50.906685,0.0,20.303783,23.804166,50.141236,41.931062,67.180002,54.900785,77.003233,62.703073,79.924732,3.427591,307.917204,-43.702235,270.31329
140,-2.582405,-2.13549,0.204197,-0.019402,0.0,-21.489613,-29.918037,19.080368,-32.001789,35.723408,-29.309235,35.226459,-23.629429,-8.408135,0.0,39.876959,14.619743,34.009472,9.127773,31.242991,1.500856,24.94256,-6.396577,20.987644,0.0,58.42883,23.671669,86.631993,14.221836,85.527111,4.583245,72.872715,-3.86436,50.805691,0.0,20.230806,23.652001,49.99669,41.76599,67.109903,54.746372,76.838792,62.601814,79.83691,0.866999,305.766989,-43.476225,270.279163
141,-2.970486,-7.654149,0.072934,-0.055798,0.0,-7.775871,-24.621563,25.649037,-27.3017,38.991966,-25.662071,34.424492,-20.902988,-16.203781,0.0,36.216493,15.962482,37.98232,17.053994,39.071412,15.657435,37.883248,13.466616,41.269443,0.0,58.178283,23.682895,86.448715,14.280979,85.381576,4.689605,72.725189,-3.712796,50.620536,0.0,20.243638,23.691238,49.902077,41.750862,67.086451,54.706172,76.741992,62.588168,79.751077,-2.101055,298.095368,-43.400859,270.205893
142,1.085175,5.932115,-0.101269,-0.160044,0.0,-19.139145,-27.281227,19.941913,-29.189575,36.58992,-26.718842,35.387031,-21.478157,-4.488041,0.0,41.529141,15.656311,36.053843,10.088116,33.399193,2.538807,27.496236,-5.155962,22.536949,0.0,57.988575,23.434421,86.331402,14.075191,85.413082,4.622349,72.769535,-3.591282,50.696857,0.0,20.343327,23.638045,49.86179,41.700646,67.139667,54.66386,76.787193,62.563455,79.707357,-1.042539,304.008544,-43.528787,270.02691
143,-3.628029,-7.775908,0.024479,-0.033296,0.0,-4.695957,-21.573864,30.386753,-24.365753,41.257736,-23.182091,35.894165,-18.937409,-13.472328,0.0,37.478029,17.562484,40.664746,18.718032,41.5273,17.448592,40.506813,15.30337,43.196476,0.0,57.778335,23.208893,86.133934,13.916736,85.280616,4.60136,72.711319,-3.469769,50.849281,0.0,20.187531,23.363034,49.685518,41.366132,66.996023,54.343833,76.625654,62.339931,79.571037,-4.747404,296.222574,-43.581144,269.983552
144,1.830574,6.108659,-0.103329,0.048548,0.0,-15.172783,-25.172024,23.496059,-27.412514,38.201248,-25.450756,35.613144,-20.724175,-1.201218,0.0,40.756384,15.512,38.032919,10.955684,35.809632,4.473991,30.736886,-2.302351,24.751159,0.0,57.768116,23.034634,86.173267,13.807823,85.310154,4.616272,72.770634,-3.313339,51.121548,0.0,19.935491,23.145685,49.528536,41.119192,66.78102,54.089162,76.319557,62.116036,79.150678,-3.04236,302.311282,-43.810003,270.012149
145,-0.926823,-2.676929,0.214474,0.037964,0.0,-9.425399,-22.51672,29.843685,-25.018249,41.235615,-23.703895,36.175015,-19.348217,-11.883453,0.0,39.835561,15.695831,38.629909,14.893186,38.514621,12.181503,36.682128,8.973495,37.41497,0.0,57.608391,23.008644,86.050964,13.803222,85.069221,4.636883,72.432655,-3.351631,50.970726,0.0,19.83012,23.164161,49.497117,41.083105,66.626595,53.995351,76.158339,61.992313,78.954176,-4.133063,299.562262,-43.759409,269.978022
146,1.542298,6.723977,0.061752,0.059515,0.0,-20.531445,-26.347561,21.982258,-27.590664,38.134884,-24.868412,38.552227,-19.361996,0.379337,0.0,44.79181,14.266099,35.221151,7.036522,31.825965,-1.624764,25.10237,-10.100317,18.739892,0.0,57.576485,23.05307,86.192688,13.892052,85.059471,4.779797,72.320343,-3.199058,51.112175,0.0,19.595827,23.207559,49.401997,41.11687,66.480679,53.981099,75.994973,61.938739,78.808642,-2.795259,306.179695,-43.902151,269.930993
147,-2.609413,-7.338036,0.117909,0.091601,0.0,-7.514157,-21.688099,29.18613,-23.646492,42.093509,-21.940796,38.384868,-17.266697,-8.108277,0.0,40.853801,15.694361,38.713421,15.154811,39.111748,12.721956,37.178565,9.689529,38.875639,0.0,57.574848,23.386425,86.357082,14.228794,85.005214,5.044921,72.206439,-3.095524,51.095706,0.0,19.291397,23.126715,49.401725,40.995678,66.347952,53.829007,75.786626,61.820252,78.618414,-5.668109,298.718995,-44.047679,269.89993
148,3.482826,8.036014,0.137786,-0.037507,0.0,-21.613632,-27.135475,18.363682,-28.136936,37.526447,-25.04092,38.333828,-19.186032,2.198833,0.0,44.536002,13.436037,33.939767,6.157294,30.944712,-2.569843,24.055984,-11.134761,18.14358,0.0,57.60719,23.713234,86.549595,14.526616,84.96262,5.235192,71.892277,-3.076744,50.926495,0.0,19.444241,23.558461,49.680725,41.399353,66.382483,54.128842,75.80462,61.994462,78.474584,-2.477033,306.629464,-44.201643,269.736878
149,-2.009823,-5.320169,0.246941,-0.210755,0.0,-12.026104,-22.876442,25.883331,-24.524162,41.255287,-22.461674,39.160629,-17.392319,-9.638283,0.0,42.20285,14.53128,36.675879,12.66233,36.235451,9.022192,33.212039,5.035722,34.961305,0.0,57.761913,24.028393,86.700542,14.719952,84.919132,5.335773,71.725399,-3.092995,50.796421,0.0,19.562939,23.778232,49.938337,41.637735,66.501292,54.351293,75.930184,62.180825,78.742854,-4.81295,301.18802,-44.280796,269.404848
150,1.529549,3.376439,0.126961,-0.157611,0.0,-17.866047,-26.115647,19.301834,-27.438927,37.753257,-24.586178,38.245559,-18.892937,1.272205,0.0,42.664471,13.321268,35.424556,7.705055,33.057576,0.331044,26.723058,-7.142658,21.633985,0.0,57.845478,24.172279,86.818187,14.848892,84.97562,5.414577,71.790012,-3.082123,50.819629,0.0,19.482872,24.004139,49.902558,41.811352,66.441306,54.463554,75.994935,62.263755,78.988434,-3.654996,304.487497,-44.52543,269.170275
