takenoko1/special-research/HandMotion_SimilarSearch_自分用/NewProject/handData/test_key/d4_feature_d3/38.csv
frame,vel_0x_L,vel_0y_L,vel_0x_R,vel_0y_R,posFromWrist_0x_L,posFromWrist_1x_L,posFromWrist_2x_L,posFromWrist_3x_L,posFromWrist_4x_L,posFromWrist_5x_L,posFromWrist_6x_L,posFromWrist_7x_L,posFromWrist_8x_L,posFromWrist_9x_L,posFromWrist_0y_L,posFromWrist_1y_L,posFromWrist_2y_L,posFromWrist_3y_L,posFromWrist_4y_L,posFromWrist_5y_L,posFromWrist_6y_L,posFromWrist_7y_L,posFromWrist_8y_L,posFromWrist_9y_L,posFromWrist_0x_R,posFromWrist_1x_R,posFromWrist_2x_R,posFromWrist_3x_R,posFromWrist_4x_R,posFromWrist_5x_R,posFromWrist_6x_R,posFromWrist_7x_R,posFromWrist_8x_R,posFromWrist_9x_R,posFromWrist_0y_R,posFromWrist_1y_R,posFromWrist_2y_R,posFromWrist_3y_R,posFromWrist_4y_R,posFromWrist_5y_R,posFromWrist_6y_R,posFromWrist_7y_R,posFromWrist_8y_R,posFromWrist_9y_R,posFromBody_0x_L,posFromBody_0y_L,posFromBody_0x_R,posFromBody_0y_R
6,4.083343,0.838274,-0.262413,0.126983,0.0,-47.290123,-43.936958,-14.958858,-45.006019,21.700081,-39.822807,28.752045,-32.005554,0.234604,0.0,43.10301,11.599778,26.050807,-5.589882,16.481852,-23.977697,3.36357,-41.238296,-16.434242,0.0,56.937801,22.303791,84.433628,12.756214,83.815006,3.568256,71.580265,-4.497345,49.270282,0.0,22.41535,25.295365,50.736893,42.936914,67.613058,55.505,77.551145,63.133745,81.059556,12.520958,323.159027,-44.30405,271.08693
7,-1.19664,0.307616,-0.338585,-0.118536,0.0,-44.263321,-42.091644,-5.130604,-43.005936,24.550896,-37.871017,29.744522,-29.892952,-4.549713,0.0,42.410455,10.99408,24.666252,-5.72083,15.951552,-23.715554,2.83485,-40.615074,-17.484913,0.0,57.023083,22.335605,84.536236,12.788498,84.15691,3.619778,71.770511,-4.425099,49.398388,0.0,22.391786,25.252115,50.562806,43.044051,67.576563,55.689782,77.675683,63.38024,81.067448,10.997217,323.573233,-44.969736,271.074984
8,0.676827,-0.109508,-0.131138,-0.008089,0.0,-46.917103,-43.416539,-16.200818,-44.210015,21.786438,-38.827778,28.407669,-30.877236,2.08255,0.0,42.814352,10.671002,25.921477,-6.47195,16.663027,-24.844229,2.986274,-42.188524,-18.193154,0.0,57.109016,22.252567,84.616264,12.613461,84.094894,3.407627,71.618546,-4.623722,49.379768,0.0,22.212821,25.041187,50.549282,42.867086,67.504328,55.564033,77.661912,63.327715,81.025297,11.488638,323.519066,-45.28628,271.122236
9,0.334098,0.746513,-0.025509,-0.0268,0.0,-46.280479,-43.393329,-14.817432,-44.238716,22.292244,-38.840652,28.004471,-30.606468,1.330536,0.0,42.147336,10.223695,25.147102,-6.895928,15.872709,-25.112411,1.969986,-42.145891,-19.691008,0.0,57.278744,22.233479,84.566265,12.506653,83.911022,3.241871,71.246372,-4.853508,48.921467,0.0,22.01359,24.920639,50.673895,42.77971,67.449456,55.554178,77.674905,63.387514,81.086454,11.72121,324.291786,-45.413315,271.121643
10,0.139115,0.492744,0.004692,-0.083832,0.0,-46.520245,-43.362534,-20.703713,-44.173748,21.90271,-38.623764,28.118866,-30.369782,1.73267,0.0,41.718874,10.346219,25.414444,-6.727486,15.391574,-24.991578,1.98814,-42.106063,-20.66133,0.0,57.416668,22.144386,84.504536,12.411038,83.870075,3.206829,71.222431,-4.833023,49.003658,0.0,21.950073,24.964148,50.789331,42.840571,67.460077,55.641369,77.701543,63.507668,81.167285,11.801302,324.799464,-45.467646,271.052745
11,-1.524147,-0.298922,0.065884,-0.072853,0.0,-45.634083,-41.853047,-19.625805,-42.710106,23.204567,-37.238159,29.553749,-29.156582,3.564296,0.0,41.924726,10.473697,26.052301,-6.67932,15.720605,-24.998172,2.27738,-42.17505,-20.455231,0.0,57.567512,21.882065,84.357834,12.126526,83.661461,2.968826,70.92437,-5.015167,48.670692,0.0,21.982047,24.919391,50.972285,42.818859,67.566004,55.662846,77.841408,63.561255,81.247437,10.251635,324.509425,-45.427282,270.988775
12,-2.741993,-4.354812,-0.039368,-0.076855,0.0,-40.091961,-39.090615,-13.039284,-40.282768,26.020511,-35.5536,30.577755,-28.15931,-2.431023,0.0,42.418149,11.285666,28.170131,-2.144295,19.735716,-16.816181,9.171196,-30.59849,-6.118576,0.0,57.785774,21.418625,84.347763,11.668579,83.626763,2.679829,70.943733,-5.087917,48.76973,0.0,22.019493,24.933273,51.161316,42.783724,67.526583,55.645013,77.84068,63.561156,81.331739,7.517807,320.162517,-45.458485,270.919824
13,-1.790108,-0.060009,0.119396,-0.121512,0.0,-39.10049,-37.965156,-4.233009,-39.119831,28.185963,-34.469067,32.21291,-27.183918,-1.301903,0.0,42.158562,11.571225,27.073752,-1.831085,19.352221,-16.658347,8.543392,-30.682063,-6.96326,0.0,57.81387,21.209576,84.387829,11.495694,83.508213,2.591263,70.961758,-5.084667,48.906887,0.0,22.234507,24.968803,51.328103,42.749328,67.414456,55.636565,77.818178,63.626685,81.369543,5.756864,320.10353,-45.309924,270.799334
14,-3.433147,-4.678656,-0.118641,0.042891,0.0,-30.954804,-33.940338,5.835308,-35.52126,32.055038,-31.602585,34.41703,-24.914097,-12.419918,0.0,41.392055,12.234931,28.827081,3.330373,23.39381,-7.224761,16.199023,-17.46845,8.458584,0.0,57.761216,21.192582,84.718987,11.583882,83.735436,2.802773,71.262589,-4.724727,49.539895,0.0,22.161211,24.894938,51.345332,42.599498,67.287473,55.476608,77.584453,63.501271,81.18696,2.365345,315.414602,-45.386937,270.831953
15,0.105995,-0.407046,-0.153808,0.110546,0.0,-34.818283,-35.678753,10.175697,-37.228363,31.311149,-33.361256,33.542564,-26.717491,-7.689766,0.0,41.588137,11.763787,28.511474,2.493704,23.360082,-8.274148,15.725755,-18.662086,9.874027,0.0,57.771995,20.887127,84.896324,11.372497,83.975899,2.755073,71.620926,-4.529205,50.113357,0.0,22.108784,24.617049,51.227178,42.312741,67.114744,55.236151,77.356482,63.308894,81.025507,2.521609,314.987265,-45.490476,270.922208
16,-0.061844,1.273565,-0.168263,0.045905,0.0,-32.100437,-34.977184,16.538292,-36.24575,32.8526,-32.227947,34.173935,-25.110489,-17.308937,0.0,40.114859,10.726257,26.960267,2.060278,22.150071,-8.169851,14.801821,-18.015954,8.204926,0.0,57.764637,21.00206,85.181477,11.567208,84.24725,2.986645,72.008412,-4.233867,50.707592,0.0,21.977713,24.550396,51.129947,42.155475,66.935928,55.035537,77.153274,63.104278,80.924063,2.505421,316.239872,-45.613083,270.947155
17,3.707165,4.527948,-0.202114,0.047931,0.0,-41.441414,-39.619297,9.897777,-40.614418,28.348491,-35.9221,31.65826,-28.293755,-8.241864,0.0,39.574135,9.446553,24.722481,-3.238661,17.966492,-17.368131,7.498204,-30.914022,-6.981205,0.0,57.725441,21.30011,85.44207,11.889736,84.49086,3.260857,72.118058,-3.991195,50.887436,0.0,21.800242,24.520286,50.968234,42.1369,66.867236,55.001858,77.055597,63.043046,80.840935,6.256731,320.740921,-45.771052,270.968187
18,0.034172,0.771201,-0.358268,-0.013659,0.0,-38.573914,-38.833592,14.460491,-39.510029,30.242924,-34.632065,32.433414,-26.685551,-19.12619,0.0,38.2126,8.064727,24.334355,-3.474338,17.244482,-16.340419,7.980895,-28.558886,-4.759648,0.0,57.758995,21.351505,85.663925,11.95285,84.784904,3.379085,72.312652,-3.782364,51.057701,0.0,21.763019,24.541491,50.963294,42.235503,67.00163,55.109896,77.120188,63.103882,80.831869,6.337166,321.479694,-46.083057,270.9221
19,2.454677,3.929018,-0.119145,-0.117203,0.0,-47.45216,-42.142925,9.251931,-42.209758,26.87011,-36.6492,30.474564,-28.276794,-8.486721,0.0,39.422871,7.209237,23.230715,-8.66115,13.852495,-25.666559,1.042149,-41.757061,-19.585922,0.0,57.85722,21.270619,85.751598,11.820797,84.85104,3.251862,72.352833,-3.884033,50.961399,0.0,21.923891,24.628103,50.987328,42.389262,67.034235,55.279599,77.228227,63.25485,80.827177,8.83596,325.384428,-46.158085,270.780613
20,-1.100532,-0.507934,-0.145466,-0.000691,0.0,-41.814011,-39.795387,11.56723,-40.217926,29.042518,-35.140675,32.096924,-27.175793,-20.592064,0.0,38.592254,6.931669,23.180573,-6.914527,14.624239,-21.879159,3.609435,-36.001762,-12.679731,0.0,57.916901,21.524781,85.963509,12.018379,84.967781,3.394387,72.350373,-3.799312,50.970955,0.0,21.939267,24.78585,51.013312,42.52636,66.959924,55.34125,77.181136,63.203041,80.662365,7.775866,324.861869,-46.263113,270.765297
21,1.263153,-0.685529,-0.265388,0.08855,0.0,-45.821022,-41.703083,8.065498,-42.224133,26.649033,-37.205418,29.758049,-29.455032,-13.696198,0.0,39.708195,6.995408,23.290169,-7.278323,15.053047,-22.576926,3.521663,-37.103019,-12.476991,0.0,58.0662,21.5629,86.105736,12.050983,85.172882,3.455898,72.461311,-3.699955,50.941818,0.0,21.695921,24.755036,50.840596,42.535388,66.782762,55.334816,77.072023,63.12237,80.496355,9.08341,324.165194,-46.48411,270.842701
22,-0.852562,-0.054328,-0.091278,-0.147188,0.0,-42.368832,-40.612633,8.734291,-41.018806,28.214516,-35.801502,31.465393,-27.75848,-21.760002,0.0,39.489537,7.297541,23.385857,-6.411582,14.909341,-21.234645,4.112467,-35.385579,-10.67236,0.0,58.205635,21.690925,86.158722,12.14574,85.28952,3.546764,72.63755,-3.606469,51.043144,0.0,21.706813,24.753356,50.92864,42.58711,66.727791,55.410818,77.00427,63.183305,80.366728,8.268448,324.107976,-46.537788,270.692623
23,3.885132,0.117178,-0.270378,-0.609415,0.0,-49.477844,-43.46172,-10.360863,-43.706211,21.534485,-38.490967,26.15506,-30.530503,-16.095349,0.0,39.955209,7.033965,23.722705,-7.553508,14.888815,-23.139275,3.185691,-38.24145,-13.580064,0.0,58.383361,22.087749,86.304428,12.6912,85.847717,4.102672,73.220031,-3.156796,51.299354,0.0,21.515856,24.774697,51.020216,42.683675,66.883514,55.559896,77.159202,63.405508,80.577483,12.181601,324.235701,-46.780145,270.093755
24,2.332901,1.239936,-0.655163,-1.371625,0.0,-52.711235,-44.492283,-12.646408,-43.837681,19.112343,-38.05988,23.684532,-29.68784,-24.623337,0.0,38.559662,5.290219,22.430257,-9.324189,13.279142,-24.865804,1.543044,-39.869598,-17.508341,0.0,58.707218,22.848575,86.552135,13.727943,86.337971,5.128395,73.514339,-2.300595,51.684505,0.0,20.846371,24.904077,52.079816,42.834643,68.188547,55.736478,78.084223,63.674345,81.406445,14.545572,325.487073,-47.404238,268.733566
25,4.398926,-7.042338,-0.885338,-2.80337,0.0,-52.996972,-46.54089,-14.930329,-46.506432,11.660339,-41.20776,12.175941,-32.921288,-28.360028,0.0,30.208536,6.217303,25.549072,-4.227347,20.230867,-15.980859,10.973863,-27.450355,-5.034882,0.0,58.695843,23.009319,85.846561,14.236313,85.579113,5.709148,72.664799,-1.879269,51.074409,0.0,17.767224,25.046807,53.974158,42.994416,71.283342,55.951233,80.969833,64.063298,83.716145,18.987082,318.457768,-48.246992,265.943229
26,6.850776,-2.249728,-2.153275,-5.192308,0.0,-55.142784,-44.339527,-34.357876,-44.428596,-12.590252,-40.111255,-11.61335,-33.379726,-47.032493,0.0,31.009463,9.478737,27.454134,0.055118,15.624867,-11.487936,4.067746,-23.40742,-9.21478,0.0,57.601674,23.085045,84.572972,14.581547,84.195706,6.233941,71.491986,-1.365738,50.405869,0.0,12.454984,24.237308,55.981911,42.220893,73.875068,55.530676,83.453385,64.51998,86.379589,25.877952,316.233333,-50.360173,260.776214
27,6.83654,-12.352096,-2.6128,-3.565185,0.0,-57.784149,-42.752689,-52.370327,-40.920455,-35.097496,-35.574039,-31.584583,-28.258598,-47.756126,0.0,27.641671,14.692375,37.669493,11.071306,31.737304,4.748977,23.814145,-2.750734,14.499034,0.0,55.507828,20.867763,80.382831,13.787063,79.540432,6.68573,67.381954,-0.057999,48.185703,0.0,12.588686,20.260224,52.411478,36.891388,70.425604,49.937484,79.980171,59.596904,82.630894,32.762969,303.915912,-52.924496,257.245704
28,6.325242,-14.265098,-11.249199,-13.476928,0.0,-56.210553,-38.745781,-53.687176,-35.071816,-51.70253,-28.470372,-46.42796,-20.373723,-52.75676,0.0,24.306814,20.985519,49.770301,23.746429,49.335541,22.994211,45.90764,20.135339,41.04393,0.0,52.188114,21.958706,81.511333,17.193478,83.237743,11.952793,72.551021,6.54657,54.925621,0.0,2.761861,19.754438,50.894961,37.162188,68.660382,50.658617,78.243502,60.787488,82.805487,39.12588,289.842716,-64.136026,243.960678
29,9.96508,-16.908239,-11.474018,-13.41277,0.0,-53.866368,-35.689762,-68.247803,-30.849941,-69.088783,-23.446541,-60.93813,-14.949383,-51.70744,0.0,20.301337,28.766924,63.46411,37.984667,68.325547,42.694149,69.623738,44.232067,71.516067,0.0,42.62352,19.030975,76.075619,17.399975,80.581661,15.067749,72.945453,12.063743,58.576801,0.0,-9.812017,16.564177,43.899331,34.163427,61.099377,48.162616,71.374497,59.150608,78.844284,49.059088,273.263493,-75.641916,230.876924
30,9.602485,-10.088103,-13.675793,-12.031846,0.0,-55.800899,-32.872467,-80.911582,-25.493751,-80.201156,-16.137954,-65.065418,-6.384429,-41.368846,0.0,19.771593,32.856419,70.06797,42.989464,75.471341,47.780864,77.234736,48.369765,76.201824,0.0,31.309765,16.356823,69.685364,17.789623,78.428272,18.211098,73.528736,17.599537,62.009354,0.0,-20.577855,12.736554,34.76363,30.275079,50.353571,44.568768,61.498446,56.098125,73.014515,58.471767,263.760682,-89.507515,219.43037
31,2.668396,-14.56665,-13.070103,-0.939211,0.0,-46.34753,-30.623336,-68.034519,-21.768997,-64.643428,-10.51387,-48.129627,1.55951,-23.930854,0.0,16.781032,32.564722,70.048531,46.91054,84.610785,56.250167,91.505416,61.475795,93.12072,0.0,25.720608,17.296498,66.020325,20.234757,74.577393,21.264485,71.510342,20.563237,61.747765,0.0,-20.378365,8.881154,25.612601,22.996903,37.522193,34.299451,46.374991,43.276726,56.134607,60.78959,250.223883,-102.928191,219.52101
32,15.174546,-25.100863,-11.338234,-1.154276,0.0,-43.717095,-33.474861,-69.664753,-26.465424,-66.817291,-16.573105,-52.346283,-5.593277,-31.551796,0.0,7.094066,29.18811,63.911589,44.503978,78.89361,54.901167,87.031956,61.060425,89.702353,0.0,23.52871,19.418393,62.715054,21.361199,70.886216,20.925316,67.400643,18.669938,56.905323,0.0,-21.704294,8.880907,24.975436,20.47719,34.170838,29.347513,40.577974,36.052694,47.339261,75.425503,226.691611,-114.805058,219.935325
33,15.865722,-30.767227,-8.879877,5.5915,0.0,-39.147674,-37.058933,-73.546337,-32.53672,-72.127864,-24.720302,-60.310432,-15.048362,-42.799919,0.0,-3.851058,23.50971,49.946769,39.103359,65.512328,50.170135,75.018334,57.389277,80.047513,0.0,21.864527,19.788815,60.132059,20.738325,65.176249,19.412756,61.259875,16.444393,51.001963,0.0,-14.619243,8.790906,24.804288,17.015493,32.423079,23.234488,37.261785,27.799325,39.936659,90.747774,198.106764,-124.228386,227.709205
34,16.773331,-35.525635,-14.628616,2.589676,0.0,-35.976425,-41.583721,-81.242638,-39.915344,-81.591122,-34.543751,-72.995636,-26.17321,-58.168419,0.0,-15.335456,14.957783,29.606954,30.234943,45.022133,41.875313,56.253297,50.421693,64.148233,0.0,25.512674,25.70216,70.075418,25.775019,72.469465,23.718367,67.684199,20.225338,55.960779,0.0,-5.855822,14.726208,31.94234,21.495819,39.025977,25.556884,42.901537,27.605664,41.811723,107.033134,166.004108,-139.344973,233.72186
35,18.460167,-36.345774,-8.166355,3.338265,0.0,-35.373047,-45.32777,-92.037415,-46.475899,-94.888286,-43.894581,-89.403923,-37.901756,-77.042908,0.0,-22.33384,7.029296,9.212633,21.182191,23.049045,33.125582,35.251371,43.08911,47.876073,0.0,37.687677,29.733856,79.637907,27.858724,78.242174,24.488852,72.727106,20.116093,59.063936,0.0,7.961388,18.058444,35.89376,20.27563,39.063557,20.046017,38.643414,18.434208,31.633278,125.043886,134.043061,-147.960743,241.444852
36,22.768501,-36.885522,-7.64399,-18.488469,0.0,-39.814819,-49.742534,-108.561882,-53.802681,-115.958965,-54.172405,-112.588874,-50.686752,-100.528587,0.0,-38.512435,0.697613,-3.757479,15.946473,10.477186,29.585178,25.955983,41.306456,42.790952,0.0,40.82345,32.741307,90.375258,31.472163,90.296236,28.922156,83.418543,25.780106,69.218085,0.0,4.111028,20.335405,36.372228,25.570024,41.95938,27.731844,43.995989,27.720853,39.275374,147.46578,102.180812,-155.95134,227.979656
37,10.798394,-14.012107,-10.646724,-28.06019,0.0,-40.023034,-49.625691,-112.634743,-54.759316,-122.282559,-56.457791,-119.929528,-54.114487,-108.077935,0.0,-42.217126,-4.325653,-16.432442,10.081616,-4.45189,23.610579,11.408185,35.951102,30.506683,0.0,39.463125,38.43988,104.248003,39.950838,106.804418,39.670023,101.459032,38.408454,88.396917,0.0,-7.120662,21.253214,27.114989,29.270356,34.064794,33.133425,39.017819,33.996165,38.803218,158.104569,93.676962,-166.757669,205.427723
38,6.093978,-2.277908,-5.18006,-27.167057,0.0,-39.230209,-48.099403,-115.058578,-52.946846,-124.179428,-54.376419,-121.155006,-52.08728,-108.096679,0.0,-41.925201,-6.517824,-18.440192,6.937931,-7.842506,19.572806,6.512686,30.701947,25.333514,0.0,38.264786,43.172653,110.500511,45.535206,113.885742,45.387783,108.513611,44.080502,94.644047,0.0,-19.236074,16.427784,8.811512,24.581388,14.635009,28.52259,21.012641,29.493553,24.398372,164.056108,96.376637,-172.080168,183.238249
39,0.644577,14.791836,-0.944835,-29.366902,0.0,-39.707496,-45.414459,-112.329345,-50.135765,-121.269767,-51.67099,-117.38253,-50.237503,-105.326889,0.0,-36.69664,-1.524562,-11.014934,11.063877,-2.274089,22.260678,10.176795,31.310435,27.324897,0.0,36.995132,45.112014,109.359592,48.776779,113.742874,49.195678,108.22277,47.867054,95.393657,0.0,-30.243197,5.693104,-13.416457,14.150557,-9.595168,19.332238,-0.59596,22.177185,6.267938,164.553131,114.55029,-173.172557,157.253164
40,0.369233,18.67845,-6.123093,-31.342484,0.0,-39.210915,-44.313813,-110.992836,-47.983681,-117.877556,-48.177063,-113.039498,-45.765747,-100.673195,0.0,-28.703185,5.145773,6.751364,17.198897,15.690372,27.11865,24.821578,33.99467,36.531056,0.0,27.448608,48.640079,109.264377,54.950363,115.779465,56.772514,111.426132,55.852558,101.135479,0.0,-46.203394,-1.485968,-32.642867,10.746807,-26.916078,19.628795,-13.249033,25.750138,-0.515931,165.022808,135.281818,-179.195206,127.963758
41,-0.507088,19.020868,-5.739704,-14.980459,0.0,-37.46331,-43.630257,-109.795372,-45.336914,-114.730591,-43.595627,-108.551354,-39.797493,-94.419411,0.0,-18.037987,12.533722,23.751444,23.174497,33.13818,31.302457,39.493785,36.225817,45.166802,0.0,21.867302,48.626392,105.678268,56.335613,113.571911,59.446323,111.689506,59.402321,102.763584,0.0,-53.299417,-7.012346,-47.254984,4.874955,-42.977514,13.986802,-28.584018,20.908826,-13.075118,164.705057,155.173595,-184.745573,113.854208
42,-0.639908,15.301406,-0.679207,1.866654,0.0,-36.4506,-43.044548,-109.727371,-43.190117,-112.946274,-39.715782,-104.866814,-34.363266,-87.200203,0.0,-13.67277,16.838597,29.228755,25.864259,37.520705,31.682729,42.805651,34.012584,46.261822,0.0,18.291698,46.100922,99.220058,54.799107,107.221699,58.787716,106.646267,59.588413,98.573925,0.0,-56.166804,-11.304105,-54.36271,1.580211,-50.374245,12.064548,-34.583739,20.449118,-16.651518,164.233909,170.010369,-185.25602,115.25623
43,-1.04322,0.383464,5.525906,16.636808,0.0,-35.429078,-45.505738,-110.096718,-46.514969,-114.291504,-43.967949,-107.095688,-39.100708,-91.198769,0.0,-14.819259,18.964799,25.644829,27.500015,33.03329,32.646443,38.565047,34.424842,42.010683,0.0,22.342781,47.263069,86.388027,57.1039,95.555088,61.866016,96.511756,63.269599,92.208789,0.0,-51.144384,-12.71068,-48.894464,0.57665,-44.7097,11.889968,-28.91347,21.793993,-11.228158,163.266398,169.366517,-179.654405,130.865722
44,2.290466,-11.948723,12.486728,39.389526,0.0,-33.514664,-47.786705,-112.200142,-48.253922,-116.126473,-44.640907,-108.707428,-38.202141,-89.77066,0.0,-23.192782,12.25784,10.481811,20.787393,17.661093,26.459959,25.048239,29.449327,31.865349,0.0,26.422142,46.118626,73.95306,53.25317,81.055882,55.658673,81.508393,55.079052,77.281288,0.0,-43.052635,-14.168299,-39.14786,-5.455625,-36.375155,2.439079,-25.861869,9.961014,-12.52086,165.411181,156.20567,-167.31336,169.043124
45,2.115738,-18.157437,5.154991,40.239779,0.0,-32.76947,-48.388024,-110.916458,-49.884247,-116.74054,-47.684143,-111.063561,-42.251724,-92.935501,0.0,-33.515623,2.919621,-14.624152,11.339753,-8.190081,17.923211,2.735272,23.052701,15.21004,0.0,22.868008,42.925095,72.42009,49.112183,78.973149,51.283425,78.017052,51.096886,72.772545,0.0,-35.946545,-7.219889,-21.987506,-0.294951,-19.426167,5.503339,-11.956522,11.077956,-2.881651,166.805975,136.37157,-162.879313,207.60624
46,1.8628,-18.108839,3.77005,35.035597,0.0,-31.656463,-48.824844,-108.220184,-52.352668,-116.520195,-52.011909,-113.125305,-47.833168,-97.783653,0.0,-46.327216,-7.157423,-38.412659,1.919943,-32.635606,9.802439,-18.85899,17.165614,0.494596,0.0,22.284508,40.705044,72.521267,46.608868,79.153599,48.808411,76.819451,48.983094,71.535633,0.0,-25.3975,2.173818,-4.213891,6.880638,-2.330152,9.983078,1.89675,12.841998,7.001657,167.811847,116.473856,-159.966191,240.852962
47,1.997521,-14.031793,1.333455,25.770942,0.0,-30.010803,-48.602783,-106.700981,-54.441559,-116.652535,-56.446198,-116.143479,-54.197846,-105.223297,0.0,-53.218025,-13.598664,-49.91397,-2.885745,-43.313536,7.32479,-28.622212,17.299452,-6.409014,0.0,22.34888,40.738998,75.871444,45.538501,81.99924,47.026577,77.990524,46.683208,72.506504,0.0,-18.875817,8.397599,8.287596,10.261584,9.275195,10.479477,9.712932,10.894489,10.84804,168.9988,100.765366,-159.443304,264.947207
48,1.436279,3.991546,-3.510756,7.411167,0.0,-32.696571,-46.597847,-104.196533,-52.314445,-114.163765,-53.962417,-114.257034,-51.515488,-103.115112,0.0,-54.634443,-13.34745,-54.334156,-2.449182,-48.000645,7.670964,-32.367682,17.640018,-8.974916,0.0,16.026741,36.642283,87.428616,41.19072,93.570585,43.131575,88.571268,43.358648,80.997225,0.0,-17.03006,13.040279,11.141182,14.601854,12.663329,14.018171,12.33454,12.997547,12.44774,169.899164,103.293465,-163.489975,270.894927
49,1.297852,14.753847,-7.879234,-15.838191,0.0,-32.058792,-45.196015,-103.560311,-51.41082,-114.395645,-53.825798,-114.788933,-52.327561,-105.16436,0.0,-48.434436,-8.380408,-45.815607,1.98422,-40.529759,11.229745,-26.574679,19.703482,-5.936104,0.0,11.149795,36.236715,100.195083,43.010833,109.181162,47.025713,104.698774,49.305433,95.9605,0.0,-17.031764,19.204094,7.522732,24.573904,11.490715,26.19024,14.626641,26.169442,17.309474,171.068459,116.93289,-171.497766,253.942314
50,0.802803,25.016142,-0.986321,-20.547906,0.0,-31.461594,-44.571671,-105.28022,-50.210335,-115.594231,-51.958534,-114.954872,-50.135628,-104.480919,0.0,-38.936087,-0.050129,-31.338322,9.790534,-26.001462,17.620727,-14.545464,23.798979,1.370575,0.0,15.773678,39.296396,103.046013,46.478623,112.089769,50.156359,108.152121,51.723433,98.828585,0.0,-15.298344,15.473986,-4.601122,21.60282,-0.352966,24.107213,4.944386,24.888985,10.37715,172.39345,141.518187,-171.961899,232.963563
51,1.789833,26.507006,0.009682,-21.011455,0.0,-34.262833,-44.957359,-109.428909,-50.0495,-118.923065,-51.482048,-116.667687,-49.858864,-104.363571,0.0,-27.72331,8.866896,-16.645181,18.131638,-11.969428,24.293477,-2.974801,27.803926,8.028727,0.0,18.63747,41.812712,102.925392,48.925335,111.603041,52.092001,108.528024,52.822706,98.657358,0.0,-17.199898,8.704054,-20.01224,16.048358,-15.448545,20.035638,-7.069996,21.942453,1.625919,174.971747,167.797645,-171.163753,211.72456
52,1.28199,24.323611,-1.377674,-22.782345,0.0,-37.24926,-45.498688,-112.01088,-50.21743,-121.124565,-51.260101,-117.175827,-49.707687,-103.696587,0.0,-18.064651,16.256685,-6.652829,23.910785,-2.981273,27.565582,4.017568,28.07669,11.250579,0.0,20.228084,42.990022,101.928554,50.820957,111.625219,54.448293,109.966215,55.437166,100.080019,0.0,-17.571796,4.673296,-31.195054,13.371737,-27.151971,18.581712,-16.118012,21.214799,-4.506279,177.072367,192.107563,-171.722797,188.928522
53,2.280647,15.677787,-1.83185,-17.439891,0.0,-35.994118,-45.100433,-113.989197,-50.445122,-123.801315,-52.31781,-119.131508,-51.861694,-105.058067,0.0,-11.683029,17.784934,-0.717008,24.824432,2.641313,28.006048,7.976536,27.991771,13.592217,0.0,21.216407,43.287849,100.62022,52.001323,111.181171,56.165531,110.600738,57.475673,101.101124,0.0,-18.321594,2.24853,-39.162605,11.9172,-35.710603,17.859442,-23.291514,20.812384,-9.467641,180.033102,207.905702,-172.874559,171.608983
54,0.078804,5.852124,-2.04942,-11.279664,0.0,-36.737869,-43.744423,-114.598869,-50.069275,-124.681114,-53.015465,-120.298462,-53.862282,-106.946274,0.0,-9.117671,18.724429,-0.438724,26.137072,3.91778,29.34918,9.392855,29.362803,14.76524,0.0,21.33545,43.205269,99.334992,52.580612,110.476914,57.147343,110.67651,58.668766,102.228985,0.0,-19.382423,1.568597,-42.786261,11.608226,-40.258446,17.834458,-27.586934,20.72644,-11.981593,180.631159,213.999424,-174.404726,160.570917
55,-1.584755,0.068506,0.090958,-5.28523,0.0,-37.98159,-43.06517,-115.176956,-50.239265,-125.768142,-53.968323,-121.154045,-55.626732,-107.955368,0.0,-10.885153,17.66699,-3.691267,25.532165,0.111015,28.797156,6.73692,28.725896,13.331407,0.0,21.32872,42.734276,98.741833,52.412224,110.394733,57.305054,110.911068,59.186668,103.064655,0.0,-20.548888,1.844065,-43.360324,12.378574,-41.067753,18.822786,-28.102476,21.599936,-12.118975,179.347303,214.16465,-174.012869,155.382407
56,-2.687645,-1.789119,0.766056,-2.129599,0.0,-36.952812,-42.191139,-114.978721,-49.587501,-125.655601,-53.376434,-121.292747,-55.103943,-107.888374,0.0,-14.125037,15.844414,-7.810378,23.835856,-3.729231,27.384628,4.013455,27.525579,11.251221,0.0,20.662537,43.027176,99.878941,53.130146,111.74271,58.267868,112.090061,60.430904,104.544193,0.0,-20.626199,3.655563,-41.896141,14.609419,-39.805068,20.940603,-27.264313,23.461205,-12.035081,176.793771,212.353529,-173.1127,153.230806
57,-1.967468,-2.362003,1.763889,1.014387,0.0,-36.29361,-42.022041,-114.634644,-49.291924,-125.302643,-52.930298,-121.07135,-54.579781,-107.491859,0.0,-16.467884,14.578519,-10.804,22.835092,-6.564069,26.774694,2.129352,27.256496,10.429928,0.0,20.543404,42.947571,100.47939,53.176483,112.314846,58.313576,112.520153,60.448963,104.5975,0.0,-19.004733,5.693919,-40.031644,16.874399,-37.58001,23.004103,-25.671746,25.182806,-10.902394,174.900204,209.827888,-171.27491,154.081555
58,-1.231819,-1.666607,1.828114,2.655416,0.0,-36.536385,-41.84578,-114.546662,-49.03521,-125.334366,-52.593018,-121.031548,-54.273102,-107.600533,0.0,-17.610254,14.249982,-12.570618,22.856742,-8.358227,27.020709,1.324423,27.703001,10.15509,0.0,20.904121,43.409397,101.06979,53.553989,113.103035,58.564258,113.195778,60.557613,105.289146,0.0,-17.648237,6.926877,-38.305677,18.194092,-35.694375,24.170889,-24.135692,26.116336,-9.496034,173.682306,207.837496,-169.432875,156.413186
59,-0.96341,-0.498412,1.764862,3.425789,0.0,-36.809692,-42.336547,-114.67028,-49.279861,-125.498565,-52.584434,-121.258552,-54.125633,-107.796226,0.0,-18.196723,14.023099,-13.359702,22.806131,-9.388026,27.131143,0.698434,27.952757,9.938309,0.0,21.401401,43.82119,101.40461,53.924961,113.358364,58.825481,113.090298,60.688477,105.222576,0.0,-16.976275,7.285462,-37.692272,18.558592,-34.821638,24.332454,-23.714048,26.047621,-9.400154,172.705209,206.83684,-167.6817,159.336731
60,-1.069221,0.054032,1.44334,2.845546,0.0,-36.895454,-42.790306,-114.943863,-49.555939,-125.663727,-52.655319,-121.456993,-54.068871,-107.87661,0.0,-18.679451,14.227937,-13.516326,22.906525,-9.713044,27.188298,0.463412,27.966798,9.970493,0.0,21.799542,43.844204,101.049328,54.097332,113.24374,59.055588,112.925091,60.919201,105.232395,0.0,-16.243002,7.860617,-37.388251,19.15536,-34.470686,24.699337,-23.85742,26.076124,-9.470525,171.583986,206.359438,-166.290362,161.650843
61,-1.176636,0.393819,1.051277,2.153656,0.0,-37.261047,-42.87783,-114.533821,-49.388649,-125.189781,-52.410805,-120.957413,-53.825134,-107.565994,0.0,-18.352778,14.696376,-13.423959,23.640071,-9.829406,28.019645,0.603635,28.824462,10.593024,0.0,22.225171,43.709496,100.745522,54.05547,113.051159,59.119732,112.668148,61.042958,105.233551,0.0,-15.779725,8.334392,-37.076565,19.583316,-34.054129,24.930284,-23.956566,26.078274,-9.492199,170.304371,206.247169,-165.342064,163.298411
62,-1.401718,1.335056,0.626656,2.02886,0.0,-37.374847,-42.835281,-114.373489,-49.273636,-124.701302,-52.308197,-120.68557,-53.804443,-107.31855,0.0,-18.614773,14.522956,-13.684224,23.685025,-10.1233,28.225755,0.777722,29.137513,10.991944,0.0,23.074711,43.87365,101.228897,54.281811,113.433769,59.445282,112.596828,61.454796,105.404331,0.0,-15.198271,8.267108,-36.917639,19.443475,-33.878617,24.621605,-24.129406,25.674586,-9.735175,168.746704,207.145221,-164.871357,164.890267
63,-1.584457,1.801223,0.937351,1.466399,0.0,-37.339508,-42.986847,-114.197434,-49.295517,-124.396889,-52.288422,-120.311509,-53.806641,-107.080857,0.0,-19.064415,14.609073,-13.458626,23.804104,-10.021882,28.361729,0.966702,29.293778,11.188557,0.0,23.084908,43.630451,101.288384,54.009888,112.92619,59.22527,111.864498,61.351181,104.679898,0.0,-14.469048,9.04252,-36.247572,20.183863,-33.110367,25.217732,-23.799807,26.073617,-9.684601,166.971571,208.579159,-164.124682,165.989381
64,-1.869553,2.543536,0.73605,1.653935,0.0,-38.255951,-43.062195,-114.110252,-49.433624,-124.20964,-52.491531,-119.978645,-54.0298,-106.622589,0.0,-20.137933,14.520387,-13.560007,23.662795,-9.857428,28.233215,1.222584,29.248318,11.457271,0.0,23.325771,43.66658,101.151707,53.899876,112.803532,59.01511,111.645229,61.047363,104.25103,0.0,-13.407953,9.420483,-35.440303,20.428691,-32.130752,25.38368,-22.948663,26.223844,-8.909806,164.894972,210.807375,-163.595678,167.327996
65,-2.58094,2.718068,0.793957,1.63315,0.0,-39.361908,-42.994881,-113.095871,-49.123535,-123.329132,-52.076248,-118.960098,-53.4161,-105.18068,0.0,-20.758685,14.733414,-13.50689,24.081031,-9.202207,28.789734,2.081113,29.928832,12.168116,0.0,23.554504,43.518917,101.213058,53.730537,112.460792,58.939579,111.413646,61.117744,104.402595,0.0,-12.51524,10.178136,-34.481559,21.026633,-31.289878,25.701794,-22.518843,26.266514,-8.634992,162.105429,213.117289,-163.010324,168.552992
66,-3.602669,2.86601,0.872532,1.9195,0.0,-40.849365,-42.743202,-112.417671,-48.507477,-122.148605,-51.317574,-117.824066,-52.415817,-103.495926,0.0,-21.302126,15.490239,-12.190359,25.085265,-7.235358,29.882642,3.985235,31.050046,13.443929,0.0,23.396976,43.564853,101.374145,53.635791,112.279563,58.756862,111.149757,60.915332,104.109809,0.0,-11.953299,10.896391,-33.353695,21.695365,-30.185127,26.237515,-21.628366,26.645673,-7.951885,158.326836,215.323347,-162.313716,169.81254
67,-4.902237,3.213602,1.149124,2.466286,0.0,-43.427147,-41.570984,-110.863655,-46.73204,-120.377907,-49.366562,-115.723434,-50.337387,-101.056023,0.0,-21.206919,17.196181,-9.250693,27.361694,-3.808913,32.383411,7.18592,33.655383,16.196602,0.0,23.032402,43.366882,101.021244,53.427131,111.788429,58.576446,110.954601,60.819854,104.035034,0.0,-11.846334,11.5331,-32.321511,22.414844,-29.103154,26.924872,-20.714027,27.219249,-7.150636,153.282194,217.632124,-161.306997,171.374001
68,-6.392395,3.686092,1.740177,2.6835,0.0,-47.279594,-39.673553,-109.361687,-43.840004,-117.688156,-46.068672,-112.664932,-46.850944,-97.268051,0.0,-19.701901,19.330658,-4.229471,30.506915,2.167415,36.09072,13.085048,37.651524,21.291061,0.0,23.675102,42.877064,100.832199,52.829155,111.579002,57.970745,110.752281,60.171284,103.627556,0.0,-11.05236,12.578893,-30.177389,23.53801,-27.068922,28.036713,-18.505956,28.259422,-5.229,146.757757,220.023763,-159.698862,172.763048
69,-7.575394,4.616202,3.046142,3.249196,0.0,-52.4943,-37.301445,-107.799934,-40.080825,-114.342018,-41.569427,-108.357696,-41.814926,-92.006836,0.0,-16.032704,21.135301,4.232953,33.660063,11.595887,40.232258,22.665822,42.410059,29.617375,0.0,24.944298,41.407082,101.355389,51.203476,111.293335,56.544869,110.379525,59.124905,103.293755,0.0,-11.258434,14.643653,-27.039727,26.071283,-24.209706,30.731377,-16.121069,30.869056,-3.285085,139.074268,222.979188,-156.760815,174.351467
70,-9.497543,5.341769,4.481507,4.415093,0.0,-57.934936,-34.828033,-104.269684,-35.68705,-108.498367,-35.719391,-101.257233,-34.834419,-84.415169,0.0,-9.43965,23.062865,16.098604,36.880038,24.354918,44.685055,35.244961,47.737514,40.482137,0.0,27.467113,39.798626,101.996212,48.792526,111.099964,53.827194,109.429447,56.387272,101.504825,0.0,-11.923881,16.63377,-22.39601,28.769986,-18.924019,34.045435,-10.510884,34.631866,1.536424,129.476137,226.304429,-152.379896,176.750032
71,-12.559914,6.954245,5.638378,6.045587,0.0,-63.308509,-32.431892,-100.868648,-31.064346,-103.792373,-29.271011,-95.456428,-26.979972,-77.983062,0.0,-0.287016,25.59373,31.052256,40.980673,41.005188,50.412838,52.019498,54.88342,56.244066,0.0,32.942161,37.309753,102.684414,45.347683,110.704834,50.068828,108.071594,52.657665,98.849476,0.0,-13.009762,18.601163,-15.472158,31.667785,-11.258322,37.809456,-2.635063,39.070338,8.36045,116.815744,231.112959,-146.841997,180.649904
72,-14.276619,7.550309,7.301182,7.059394,0.0,-66.874328,-30.660553,-96.524391,-26.250984,-97.195632,-21.813697,-87.097343,-17.168769,-67.954582,0.0,10.39872,27.158733,47.017467,43.291991,58.990304,53.870368,70.331039,59.494793,72.295456,0.0,40.159744,33.879787,103.229004,40.126533,110.036327,44.160461,106.385879,46.75486,95.395099,0.0,-13.445942,21.211192,-5.556821,35.439154,-0.102049,42.687319,9.218645,44.756081,18.996823,102.430904,236.473725,-139.649036,185.519755
73,-14.916961,7.904608,8.715488,8.836052,0.0,-68.485657,-29.666542,-92.080559,-22.811142,-90.522263,-15.844231,-78.702713,-8.643265,-57.990898,0.0,20.09913,28.366559,61.261497,44.62522,75.147411,56.035671,86.342193,62.608484,86.57388,0.0,47.686947,31.601853,102.98513,35.149544,107.957348,37.521675,102.964428,39.172405,90.09034,0.0,-13.472434,22.572764,5.88637,37.820077,13.388193,46.425034,23.41746,49.793025,32.091355,87.416954,242.3764,-131.030537,192.353874
74,-14.609482,6.484325,11.56667,9.527705,0.0,-64.72213,-30.122955,-88.698349,-21.327438,-85.559521,-12.135567,-72.524323,-2.54528,-50.563568,0.0,26.127192,30.446003,72.016763,46.002538,87.137266,57.514778,97.698896,64.45282,96.389404,0.0,54.149791,27.319862,101.240959,28.752216,105.371624,29.980407,99.892181,31.038013,85.710308,0.0,-10.563433,23.626412,18.606894,41.157453,29.674964,52.09802,41.504873,57.527141,48.686322,72.657091,247.040906,-119.614248,200.06176
75,-13.091675,6.253019,11.404392,9.795073,0.0,-62.27948,-30.022247,-88.942749,-20.717125,-85.345482,-10.728721,-71.703666,0.127693,-47.493942,0.0,29.370756,31.607813,76.202182,46.067092,92.07783,57.138039,102.866084,63.93487,101.609463,0.0,59.946018,24.425182,98.531215,23.240101,101.896202,22.781959,94.990242,22.766475,78.896416,0.0,-6.737291,24.521718,30.344523,43.366759,43.378269,55.623091,55.772935,62.166548,61.648795,59.342033,251.907289,-108.433239,208.470197
76,-11.150276,14.00902,11.710693,9.793591,0.0,-61.150887,-33.81498,-83.331322,-26.667297,-73.70121,-18.057014,-61.509384,-7.99054,-43.842316,0.0,32.532081,27.416639,67.486198,34.935999,75.577329,39.807181,80.523093,41.124255,74.566117,0.0,63.68549,22.728424,95.918781,19.054459,98.842198,16.701439,90.687218,15.271042,73.080139,0.0,-2.244097,25.093342,39.161222,44.486071,54.584918,57.664004,67.733224,65.179412,73.482817,47.888809,264.98163,-97.025494,217.329109
77,-9.525352,12.193323,11.19841,8.991267,0.0,-59.088456,-38.82549,-69.874432,-33.994,-58.429894,-26.439755,-48.320733,-16.367054,-42.756032,0.0,33.632448,21.439693,54.420218,23.500477,57.677836,23.622348,58.261797,21.212674,51.016659,0.0,65.524224,22.139969,93.098637,16.573414,95.512654,12.407536,86.154087,9.27665,67.295265,0.0,2.038394,25.536797,45.619068,45.006454,63.1766,58.809993,76.222041,67.176433,81.561982,38.028929,276.555244,-86.161612,225.700667
78,-7.141617,8.929813,9.835488,7.963185,0.0,-56.458088,-42.78661,-55.697789,-40.234886,-41.417496,-34.059563,-34.059449,-24.871823,-46.787167,0.0,31.196531,16.088564,41.431773,15.289513,41.755419,13.023384,40.15633,9.103826,36.006727,0.0,66.337143,21.595642,91.881626,15.067005,93.920139,9.840568,83.656139,5.62738,63.883174,0.0,5.714396,26.313641,49.683925,45.729045,68.694641,59.700027,81.326367,68.407996,85.837,30.520924,285.130011,-76.692512,233.308806
79,-15.305569,0.894319,6.782283,6.97892,0.0,-41.820145,-35.793617,-26.348236,-36.761662,-13.766533,-34.472935,-14.235706,-29.090939,-44.868599,0.0,24.490436,13.477435,35.160882,14.008797,36.272081,12.093225,34.336909,8.70624,32.807969,0.0,67.278351,23.924939,91.199387,16.051381,92.661484,9.100468,80.77993,2.966744,59.578904,0.0,7.029161,26.863344,51.630706,44.6701,70.094499,57.637119,81.72425,65.981909,86.078309,14.868107,285.918703,-70.257477,240.182099
80,-11.001331,0.335996,5.940686,5.707393,0.0,-28.655995,-33.111512,1.63322,-37.068798,13.919975,-37.669476,7.403434,-35.145562,-44.809914,0.0,18.501103,11.071639,32.418287,13.126347,34.233021,11.898403,31.556758,9.466548,31.513138,0.0,67.278728,25.424194,90.906543,17.286358,92.164707,9.516872,79.826488,2.13042,58.216152,0.0,7.76141,27.798801,53.4342,44.830268,72.064645,57.4976,83.439652,66.01392,87.807567,3.615509,286.22675,-64.568058,245.861543
81,-13.34388,-9.6939,4.886089,4.468334,0.0,-8.109638,-22.025219,29.461189,-26.89547,35.914536,-29.360447,24.24765,-28.822048,-41.226711,0.0,9.316358,13.910317,38.72025,22.94066,49.182326,27.548291,51.826775,30.58031,57.356598,0.0,66.588249,26.09547,89.922272,17.726223,90.734505,9.393711,78.248177,1.235058,56.493393,0.0,8.016809,28.489689,55.713099,45.487639,73.899855,58.047672,84.783044,66.511999,87.807728,-9.880577,276.523739,-59.834175,250.320766
82,-11.289883,-9.022328,3.286846,3.87984,0.0,10.065514,-9.857368,46.985356,-16.625301,51.009533,-22.210327,32.835697,-25.341922,-39.725601,0.0,0.172567,18.590752,47.122986,33.753503,62.608989,43.153324,68.875483,50.023737,77.571855,0.0,65.65321,27.391262,89.897335,18.996941,90.292706,10.183834,77.320782,1.279587,55.808659,0.0,7.585619,29.057929,57.059382,45.908962,74.282906,58.257278,85.013077,66.691582,87.453614,-21.272765,267.514107,-56.649634,254.213302
83,-11.331115,-7.151451,2.553578,2.984311,0.0,27.614055,0.824649,64.115673,-7.315968,64.26559,-15.468258,41.582004,-21.35455,-32.879975,0.0,-5.122815,22.559574,54.610829,41.643699,73.343928,53.620525,81.726485,62.276908,89.343707,0.0,64.88253,27.777465,88.916336,19.250026,89.115875,10.114002,75.728851,0.887397,54.084342,0.0,6.627833,29.735072,58.572242,46.780952,74.786097,59.147818,85.217446,67.449173,87.471744,-32.654811,260.378276,-54.146987,257.213233
84,0.767623,1.815252,1.403274,2.962526,0.0,26.606221,-0.775291,64.188801,-8.847015,64.834179,-16.729934,42.170025,-22.247955,-33.793876,0.0,-5.562416,22.932757,54.835267,42.102468,72.948133,54.195249,82.068446,62.771739,89.367234,0.0,63.8489,28.004219,88.464317,19.340675,88.016235,10.019154,74.242561,0.795181,51.931549,0.0,5.704108,30.242857,59.571549,47.615668,75.144348,59.998824,85.093513,67.982016,87.121075,-31.904423,262.199357,-52.760948,260.181588
85,1.919987,1.578031,0.893681,2.595419,0.0,23.24461,-2.954201,62.240067,-10.894169,63.845879,-18.514286,40.942932,-23.701813,-35.397285,0.0,-5.698426,23.459945,55.410782,43.00442,72.521697,55.19305,81.778973,63.699774,90.167063,0.0,63.803936,28.283409,88.739559,19.292301,87.320034,9.636634,73.288547,0.293735,50.33337,0.0,4.999128,30.492996,60.262808,48.037424,75.358424,60.335303,84.719293,67.988006,86.209689,-30.018934,263.772581,-51.901765,262.7722
86,3.516667,4.851125,0.704361,2.385085,0.0,23.209556,-5.796776,59.475986,-13.381771,60.426395,-19.911713,38.162738,-23.559037,-35.035721,0.0,-5.169979,21.088742,52.845496,41.045462,68.862022,54.160249,78.316306,63.597626,87.77295,0.0,63.837146,28.73125,88.760067,19.512725,86.864605,9.554248,72.313694,-0.055527,48.250682,0.0,4.393468,31.10288,60.533558,48.497674,75.256919,60.52789,84.014721,67.902914,85.591147,-26.564867,268.611433,-51.260004,265.145012
87,3.670417,4.287665,0.88417,2.358026,0.0,24.143052,-8.66304,56.881543,-16.047557,57.126011,-21.547439,37.148014,-23.744556,-34.342357,0.0,-4.8511,19.670618,51.177778,39.657078,65.964457,53.318628,75.145768,63.431147,86.14511,0.0,64.304821,28.442745,88.653088,18.8997,86.526592,8.93755,71.815167,-0.380413,47.481365,0.0,4.228619,31.506332,60.930107,49.200999,75.244458,61.194041,83.471823,68.32236,84.854477,-22.968367,272.891268,-50.449751,267.495208
88,5.513043,6.974511,0.523636,2.702062,0.0,11.057293,-13.717713,51.168732,-20.448383,50.891579,-24.203728,33.664101,-24.499043,-29.365883,0.0,3.248245,17.472279,47.503863,35.285099,60.213173,47.704478,67.483703,57.105596,77.206787,0.0,64.794582,28.524261,88.872288,18.87664,86.810886,9.001797,71.898434,-0.074146,47.69537,0.0,3.621254,31.702143,60.492717,49.447001,74.397934,61.276033,82.260602,68.254719,83.53324,-17.530809,279.851654,-50.0016,270.183145
89,2.269455,1.992674,0.636852,2.103318,0.0,8.617904,-15.012303,48.564697,-21.865185,49.157112,-25.633175,33.586944,-26.044773,-32.159386,0.0,4.249935,17.719033,47.46207,35.537485,59.094094,47.822643,65.798991,57.267418,77.096253,0.0,65.802681,28.423542,88.978981,18.683693,86.994873,8.863884,71.871506,-0.005939,48.09391,0.0,3.361347,32.038608,60.273132,49.807191,74.073843,61.525962,81.584422,68.416443,82.668191,-15.324325,281.799784,-49.427719,272.241919
90,-1.775391,1.431535,0.533043,1.849758,0.0,12.014065,-12.45845,50.724289,-19.578449,50.717583,-23.769962,35.255058,-24.673553,-31.215568,0.0,4.480906,18.093797,46.936932,35.766666,58.60224,48.051935,65.541319,57.569773,76.554307,0.0,66.327759,28.088219,88.653008,18.271328,86.661026,8.523537,71.468971,-0.18156,47.717858,0.0,3.405066,32.079228,59.750181,49.917082,73.48509,61.646326,81.057024,68.525914,82.248956,-17.117089,283.133793,-48.912049,273.994151
91,-0.106247,-1.637263,0.230828,1.504598,0.0,8.214535,-11.939792,49.774681,-19.512153,51.121193,-24.606228,35.634819,-26.762535,-33.766456,0.0,3.435447,19.988139,48.884652,37.555612,60.766394,49.231195,67.797111,58.079461,78.208576,0.0,66.544166,27.921054,88.674934,18.078151,86.560935,8.41016,71.449996,-0.125142,48.191436,0.0,3.600593,31.837352,59.044695,49.743934,72.729611,61.518206,80.507471,68.420235,81.988468,-17.199269,281.387865,-48.657154,275.390084
92,-1.57402,-1.35946,0.218822,0.95171,0.0,6.37714,-10.907032,50.188751,-18.628166,52.989349,-24.416748,37.076134,-27.682034,-36.567719,0.0,2.538485,20.771801,49.249918,38.674011,61.708162,50.114584,69.43656,58.678885,79.177848,0.0,66.539188,27.666138,88.251514,17.782906,85.770252,8.021622,70.576366,-0.687721,46.915226,0.0,4.040885,31.741836,58.445728,49.481877,72.417302,61.144245,80.350439,67.9556,82.017083,-18.709448,279.91207,-48.374491,276.225459
93,-4.028378,-3.730911,0.267403,0.688752,0.0,19.25679,-6.494842,55.049137,-15.045318,58.278797,-22.558788,40.078091,-27.628132,-42.089103,0.0,-6.660053,22.191938,51.343282,42.619554,65.462489,55.649348,75.30695,65.261566,87.032538,0.0,66.233699,27.054989,87.703365,17.111961,85.05083,7.325443,69.92126,-1.422764,46.013958,0.0,4.766576,31.56355,57.921145,49.308433,72.129841,60.958945,80.192543,67.713266,82.058875,-22.649769,276.06769,-48.019031,276.800742
94,-2.223724,0.566449,-0.051911,0.299107,0.0,22.991421,-4.667404,58.065868,-13.391602,60.534977,-21.090271,41.473034,-26.247276,-38.434708,0.0,-7.035768,21.198929,50.661162,41.977239,65.597747,55.476657,75.732756,65.413089,86.088127,0.0,66.107426,26.855885,87.544544,16.768936,84.566792,6.889263,69.462422,-1.966964,45.477597,0.0,5.512125,31.452313,57.691742,49.203086,71.605716,60.841754,80.057988,67.506847,82.026542,-24.76696,276.540995,-47.964409,277.006705
95,0.614319,1.394535,-0.06023,0.35646,0.0,21.831459,-5.337364,57.158741,-13.798313,59.275074,-21.293518,39.944629,-26.186371,-38.845631,0.0,-8.233418,20.656809,49.263626,41.58826,64.916602,55.184799,75.038952,65.179239,84.603375,0.0,65.90831,26.248363,87.396286,16.049229,84.367653,6.183369,69.024696,-2.586113,44.987503,0.0,6.098113,31.389957,57.377038,49.212077,71.309685,60.828478,79.811382,67.363697,81.616545,-24.036329,277.897112,-47.908327,277.324747
96,2.200744,1.542179,-0.165825,0.220437,0.0,18.878209,-8.064514,54.740468,-16.55088,56.609402,-23.671188,37.389966,-28.03902,-41.306201,0.0,-8.635499,20.205241,48.354623,41.051859,63.964844,54.663935,73.955924,64.752927,83.478122,0.0,65.978027,25.809597,87.594978,15.449844,84.369782,5.622471,68.814606,-3.002449,45.033989,0.0,6.737241,31.428057,57.445321,49.406788,71.098918,61.07669,79.664465,67.525928,81.128704,-21.664576,279.39596,-47.903143,277.501853
97,6.733395,1.527718,-0.312229,0.211013,0.0,9.136585,-15.172863,47.764092,-24.203442,49.238136,-30.47065,29.679337,-33.386581,-47.767994,0.0,-8.276322,19.863341,48.259799,40.400491,62.841035,53.931661,72.598897,64.023716,81.905141,0.0,66.053707,25.621536,87.928791,15.155365,84.555851,5.343635,68.946636,-3.20644,45.289478,0.0,7.076597,31.451992,57.290723,49.505985,70.702987,61.224089,79.486341,67.638833,80.703478,-14.691708,280.844017,-47.975899,277.633205
98,0.800217,2.025487,-0.284443,0.203838,0.0,11.01852,-15.480297,47.248672,-24.598915,48.339454,-30.592278,29.215141,-32.979561,-48.27372,0.0,-7.338542,18.815548,48.888629,39.427379,62.36825,53.304364,70.859635,63.620153,79.643594,0.0,66.195328,25.78521,88.446259,15.223984,84.752907,5.357449,69.113686,-3.247295,45.690262,0.0,7.446717,31.329183,57.152575,49.374024,70.294063,61.158744,79.291876,67.628014,80.459713,-13.557913,282.735194,-47.926764,277.702733
99,3.628715,0.946029,-0.181686,0.296081,0.0,5.467221,-18.88932,42.766754,-27.975036,43.988617,-33.514492,25.079178,-35.297836,-53.068245,0.0,-7.892468,19.122596,48.204755,39.449843,61.556664,53.075356,69.896156,63.242154,78.919916,0.0,66.245956,25.689434,88.53891,15.201187,84.900993,5.427589,69.389442,-3.096978,46.139053,0.0,7.654075,31.282018,56.734377,49.325822,70.039861,61.10496,79.066784,67.554111,80.19263,-9.538594,283.552662,-47.717846,277.870253
100,-1.858944,2.827267,-0.095536,0.320954,0.0,6.387394,-17.109764,45.821148,-26.393474,45.603802,-31.319881,27.696774,-32.221332,-44.395534,0.0,-4.224901,17.633892,45.86975,37.266806,58.285683,50.696088,66.424116,60.837099,75.922305,0.0,66.299309,25.839329,88.615174,15.423947,84.937203,5.680104,69.564652,-2.859741,46.791115,0.0,7.664004,31.241818,56.487091,49.24499,69.795515,61.018571,78.824784,67.519407,80.018654,-10.952036,286.235254,-47.36788,278.046532
101,2.163151,0.177384,-0.111431,0.279038,0.0,3.464584,-19.049274,42.595207,-28.554531,42.608917,-33.066547,24.123825,-33.41114,-47.206318,0.0,-3.556329,17.759258,46.289937,37.333163,57.924666,50.691025,65.800486,60.737669,75.442381,0.0,66.40099,25.835507,88.453228,15.555508,84.822041,5.894097,69.684643,-2.631077,47.276882,0.0,7.592003,31.112253,56.060877,49.040559,69.378329,60.8092,78.477141,67.379345,79.875899,-8.32263,286.260089,-47.013056,278.173021
102,-4.689525,1.973865,-0.071937,0.342159,0.0,12.205467,-13.980401,48.30923,-23.055073,47.056652,-27.706193,29.934803,-28.252053,-38.03032,0.0,-1.98766,16.382001,44.403325,36.036206,56.201643,49.817095,63.685991,60.242405,73.664314,0.0,66.488033,25.756004,88.273281,15.579368,84.730282,6.014534,69.594898,-2.392502,47.460445,0.0,7.618185,30.887432,55.78531,48.862397,69.206379,60.660912,78.096981,67.266428,79.45428,-12.494441,288.097208,-46.567279,278.378434
103,0.918388,2.848991,-0.074948,0.179014,0.0,10.311127,-13.28888,46.282276,-22.201298,45.013561,-26.966755,27.441982,-27.873276,-36.919647,0.0,-4.25185,14.89289,40.137669,33.802608,53.056966,47.351327,61.328508,57.697942,71.575038,0.0,66.666184,25.416481,87.978218,15.32119,84.423706,5.903801,69.284455,-2.315654,47.325463,0.0,7.489226,30.916851,55.651732,48.925222,69.11263,60.679561,77.789267,67.213471,78.907641,-11.022337,290.859378,-46.088511,278.470627
104,0.499019,-0.171493,0.213742,0.111781,0.0,9.729767,-13.731502,45.018151,-22.804458,43.863373,-27.555736,25.590615,-28.362728,-37.776924,0.0,-3.973318,15.101705,40.436047,34.036814,53.095622,47.556931,61.383256,57.819035,71.562219,0.0,66.509548,24.922313,87.496753,14.741386,83.783741,5.382717,68.629016,-2.704434,46.688793,0.0,7.442258,30.596329,55.60958,48.694868,68.92644,60.555183,77.627764,67.17526,78.511203,-9.930903,290.607548,-45.282354,278.502071
105,0.935692,-0.812624,-0.021492,0.144533,0.0,13.432595,-14.090057,43.965409,-23.353225,42.325791,-28.46022,23.767205,-29.614265,-38.459587,0.0,-5.950862,15.790655,41.140212,35.222226,53.754734,49.12375,62.19667,59.628261,72.186269,0.0,66.590435,24.660106,87.23402,14.416465,83.400432,5.117031,68.19247,-2.839886,46.157558,0.0,7.427438,30.209215,55.547842,48.432108,68.760343,60.417949,77.443995,67.144347,78.197745,-8.404301,289.738617,-44.712936,278.590297
106,-3.681987,1.1678,0.058067,0.125958,0.0,22.02919,-10.094571,49.266826,-18.95533,46.33794,-23.943856,29.864193,-25.089592,-23.989689,0.0,-4.05804,14.950812,39.839118,34.367685,52.316813,48.720309,60.510698,59.498312,69.322025,0.0,66.473247,24.450222,86.837826,14.186211,82.879589,4.908222,67.711086,-3.008984,45.407535,0.0,7.38488,29.990113,55.481449,48.255243,68.685922,60.317099,77.310047,67.134567,77.972097,-11.480644,290.871818,-44.049225,278.681656
107,-1.341282,0.018525,-0.091473,-0.113262,0.0,25.830516,-7.244328,50.261329,-16.014851,48.491661,-21.108422,32.180694,-22.760891,-14.537533,0.0,-5.177587,15.047389,39.064916,34.073136,52.400214,48.240014,60.491506,58.831729,67.699681,0.0,66.369026,24.584805,86.625985,14.302803,82.587845,4.949353,67.497734,-3.104461,44.811173,0.0,7.517075,29.883988,55.556463,48.132383,68.811312,60.228709,77.451343,67.093045,78.325618,-12.279012,290.867708,-43.597784,278.545759
108,5.667022,-3.474992,-0.132728,0.022526,0.0,15.265618,-14.406864,43.12397,-23.901329,42.054428,-28.507347,25.416573,-29.327018,-24.989502,0.0,-3.623539,18.178889,43.512502,37.23393,55.08075,50.783032,62.793586,60.921474,70.689043,0.0,66.211532,24.716137,86.454277,14.479797,82.528152,5.115326,67.558319,-2.999829,44.566772,0.0,7.633549,29.510201,55.401655,47.85405,68.969567,60.117027,77.60325,67.156772,78.696603,-6.173212,287.370347,-43.291734,278.545916
109,0.189537,2.576622,-0.238026,-0.034938,0.0,15.091084,-14.01892,44.07621,-23.82051,41.989563,-28.385215,26.849877,-29.030994,-20.97924,0.0,-0.964146,15.733462,41.770486,34.664619,52.543883,48.544691,60.111766,59.118807,67.233787,0.0,65.963345,24.890854,86.379307,14.700874,82.568699,5.281082,67.667507,-2.931496,44.227306,0.0,7.974584,29.603901,55.219281,47.890446,69.147617,60.079631,77.791983,67.039631,79.154531,-5.651356,289.924322,-43.197441,278.488331
110,6.101155,-0.827456,-0.148281,-0.127218,0.0,3.596443,-19.959721,36.297214,-30.31707,36.269474,-34.872734,19.897075,-35.546677,-35.575493,0.0,-2.075542,16.40422,44.233414,35.139986,54.226631,48.515583,61.173268,58.489521,68.601485,0.0,65.62001,24.989902,86.387581,14.746284,82.488533,5.21291,67.67498,-3.118526,43.842636,0.0,8.231095,29.800786,55.218725,48.010575,69.390667,60.104059,78.114555,66.921811,79.647163,0.714386,289.07475,-43.081135,278.338997
111,3.575168,0.947696,-0.249081,-0.18682,0.0,-2.300457,-23.272625,31.941948,-34.206127,32.750176,-38.880535,15.823998,-39.457901,-47.797771,0.0,-3.018039,14.618521,43.764938,33.746107,53.453565,47.278438,60.756515,57.413076,68.35205,0.0,65.486309,25.081822,86.428494,14.753575,82.481976,5.110577,67.680073,-3.341755,43.525303,0.0,8.526583,30.050591,55.168905,48.186675,69.701284,60.154386,78.492307,66.787974,80.143674,4.467842,290.002211,-43.151928,278.131942
112,0.3979,2.001554,-0.079719,-0.004063,0.0,-4.423416,-23.319511,31.055454,-34.278271,31.746128,-39.726334,14.071095,-41.011173,-57.027706,0.0,-6.070239,13.113317,43.299216,32.068829,53.403645,45.442128,60.422963,55.51567,69.303771,0.0,65.42062,24.912826,86.403774,14.483104,82.353687,4.808853,67.495777,-3.615223,43.386852,0.0,8.643835,30.224986,55.088555,48.370283,69.654662,60.302945,78.525541,66.847859,80.134819,4.975433,291.983968,-43.121956,278.108082
113,-0.770393,-0.297045,-0.170712,-0.239369,0.0,-4.309445,-22.991799,31.752697,-33.893876,32.738262,-39.28196,15.261943,-40.492356,-55.537239,0.0,-4.729143,12.950037,43.381406,31.910526,53.748992,45.394494,60.961526,55.445436,69.961328,0.0,65.235306,24.856041,86.362747,14.249588,82.021385,4.45158,67.134316,-4.053268,42.988335,0.0,8.913301,30.578198,55.277536,48.636625,69.702667,60.411589,78.682745,66.775882,80.246673,4.278849,291.661923,-43.218859,277.843713
114,-0.856739,0.136074,-0.13829,-0.099703,0.0,-0.828667,-22.439999,32.483573,-32.976437,33.481155,-38.187653,16.142349,-39.163182,-56.516705,0.0,-5.421168,13.044305,43.481392,31.948094,54.040342,45.480574,61.070774,55.665612,70.590761,0.0,65.322716,24.713711,86.352287,14.045139,81.873138,4.25964,66.986,-4.19838,43.212318,0.0,8.951389,30.653634,55.48177,48.734117,69.661023,60.537721,78.682005,66.927567,80.005119,3.483307,291.758792,-43.295952,277.704805
115,-3.011559,-0.948129,-0.236881,-0.200367,0.0,2.904831,-20.304073,34.618652,-30.471954,35.898674,-35.682323,18.759338,-36.695034,-52.923546,0.0,-5.287169,13.595181,43.478083,32.601896,54.707469,46.182985,61.965662,56.443372,71.792227,0.0,65.456691,24.647564,86.326549,13.960098,81.806934,4.203712,66.911007,-4.202099,43.395206,0.0,9.076273,30.780888,55.704194,48.944179,69.624207,60.809224,78.68519,67.249496,79.876553,0.519848,290.761071,-43.484733,277.454846
116,-2.091431,0.225846,-0.175518,-0.035482,0.0,4.149193,-19.134292,36.755722,-28.899788,37.50364,-33.985221,20.167191,-34.901653,-48.392578,0.0,-4.109551,14.385179,42.444344,32.706353,54.196509,45.95278,61.46252,56.335778,72.594106,0.0,65.412689,24.73146,86.487808,14.049259,81.888061,4.301902,66.911613,-4.068352,43.796402,0.0,9.054747,30.830264,55.920975,49.053724,69.50346,61.000799,78.566963,67.56903,79.629305,-1.533801,290.913548,-43.622469,277.345995
117,2.441048,-4.550573,-0.204392,-0.096467,0.0,-2.25753,-24.44236,32.720146,-34.49509,34.192635,-38.711243,15.902458,-38.513878,-55.230423,0.0,-0.932505,18.087869,46.244736,36.822253,56.94276,49.857937,64.6028,59.836866,76.323485,0.0,65.293717,24.684139,86.435417,14.033672,81.838417,4.328556,66.945717,-3.993622,44.030342,0.0,9.05944,30.824126,55.988679,49.109992,69.392347,61.101798,78.527863,67.72763,79.545004,0.943308,286.2896,-43.7908,277.176153
118,-4.589539,2.510364,-0.100296,-0.069197,0.0,1.147511,-21.330402,38.440682,-30.704303,39.283791,-34.491691,22.252579,-33.91262,-42.978675,0.0,3.356963,16.221426,43.690072,34.132677,54.004453,47.034128,61.713288,57.259416,72.057445,0.0,65.413147,24.704762,86.545601,14.105793,82.073319,4.43581,67.144936,-3.87569,44.299324,0.0,8.980646,30.822236,56.133051,49.146807,69.260102,61.204501,78.458752,67.903544,79.562528,-3.613455,288.722582,-43.85832,277.029574
119,-0.32722,-3.01237,-0.200466,-0.297341,0.0,-0.957985,-22.345025,37.09505,-31.930607,39.362995,-35.808701,20.850917,-35.41198,-45.791497,0.0,1.922155,18.88093,46.347624,36.849348,56.89021,49.332268,64.57458,58.898889,75.884526,0.0,65.405491,24.840111,86.6693,14.176689,82.174747,4.44532,67.269115,-3.916226,44.357128,0.0,9.083535,30.843022,56.407433,49.274273,69.508845,61.389061,78.729108,68.091562,79.964153,-3.910995,285.631085,-44.029106,276.653106
120,-3.294217,1.564039,-0.142696,-0.023588,0.0,5.234425,-19.358734,42.601136,-29.069881,42.823288,-33.062233,25.130768,-32.559837,-37.746437,0.0,4.933784,17.33381,44.872493,35.058513,55.184849,47.857545,63.331247,57.99201,74.013661,0.0,65.292434,24.965423,86.752052,14.359508,82.474319,4.644401,67.547996,-3.760129,44.719894,0.0,9.117571,30.713321,56.508728,49.149697,69.426346,61.334868,78.634432,68.161203,79.997189,-7.177357,287.128214,-44.143947,276.562608
