takenoko1/special-research/HandMotion_SimilarSearch_自分用/NewProject/handData/test_key/d4_feature_d3/42.csv
frame,vel_0x_L,vel_0y_L,vel_0x_R,vel_0y_R,posFromWrist_0x_L,posFromWrist_1x_L,posFromWrist_2x_L,posFromWrist_3x_L,posFromWrist_4x_L,posFromWrist_5x_L,posFromWrist_6x_L,posFromWrist_7x_L,posFromWrist_8x_L,posFromWrist_9x_L,posFromWrist_0y_L,posFromWrist_1y_L,posFromWrist_2y_L,posFromWrist_3y_L,posFromWrist_4y_L,posFromWrist_5y_L,posFromWrist_6y_L,posFromWrist_7y_L,posFromWrist_8y_L,posFromWrist_9y_L,posFromWrist_0x_R,posFromWrist_1x_R,posFromWrist_2x_R,posFromWrist_3x_R,posFromWrist_4x_R,posFromWrist_5x_R,posFromWrist_6x_R,posFromWrist_7x_R,posFromWrist_8x_R,posFromWrist_9x_R,posFromWrist_0y_R,posFromWrist_1y_R,posFromWrist_2y_R,posFromWrist_3y_R,posFromWrist_4y_R,posFromWrist_5y_R,posFromWrist_6y_R,posFromWrist_7y_R,posFromWrist_8y_R,posFromWrist_9y_R,posFromBody_0x_L,posFromBody_0y_L,posFromBody_0x_R,posFromBody_0y_R
6,-10.958347,-2.092091,0.244561,0.083339,0.0,16.36124,-7.026707,42.212848,-14.407505,45.484829,-20.843525,35.904567,-26.924527,17.719791,0.0,-5.219515,9.143754,33.908176,27.214604,49.284696,42.187289,57.099741,54.610298,60.35773,0.0,69.454021,22.734043,87.251804,13.624351,87.53548,6.607074,75.656353,1.909229,57.437404,0.0,8.673759,35.597037,55.585053,53.584908,64.964644,64.767154,73.727472,70.211441,76.120832,-9.918737,295.582982,-51.548612,285.706226
7,-10.428955,-0.973878,0.471427,0.422891,0.0,28.603168,-0.533616,54.551639,-9.301598,56.9286,-17.692887,45.789608,-26.284722,24.416736,0.0,-9.225746,7.097185,33.848538,26.89391,50.378691,43.538276,60.081854,57.606762,63.291912,0.0,68.391118,22.390881,86.23415,13.460541,87.615567,6.529129,75.942479,1.982838,57.392384,0.0,8.297687,34.741684,54.694205,52.617341,64.531206,64.027076,73.363862,69.811052,75.735954,-19.535585,294.621896,-50.265078,286.141909
8,-0.612465,-0.226427,0.798752,0.2564,0.0,29.826404,-0.100365,55.295322,-9.039563,57.623371,-17.573662,46.295093,-26.228451,24.958728,0.0,-8.521828,7.614925,35.187867,27.226634,51.370279,43.611636,60.538128,57.436467,63.612694,0.0,67.533497,21.78249,85.502918,12.813549,87.000195,5.890309,75.348393,1.389702,56.825032,0.0,8.003274,34.203739,54.668727,51.987388,64.249303,63.508792,72.880936,69.456901,75.453273,-19.61265,294.382739,-48.930926,286.385579
9,-0.382119,-0.102888,0.434944,0.214472,0.0,30.22411,0.644646,55.932095,-8.278862,58.139271,-16.8624,46.993596,-25.538703,25.804677,0.0,-8.291006,7.709798,35.326657,27.204588,51.490062,43.537362,60.457383,57.396551,63.526576,0.0,67.071362,21.53294,85.339611,12.501206,86.853047,5.552948,75.161168,1.089123,56.6834,0.0,7.86389,33.682528,54.285442,51.495323,64.171361,63.144588,72.703416,69.214518,75.44464,-19.562628,294.269128,-48.063841,286.589328
10,0.150639,0.222067,0.425343,0.194205,0.0,29.136154,1.362225,56.12455,-7.561478,57.954552,-16.289497,47.22068,-25.026306,26.147278,0.0,-8.144213,7.647591,35.212061,26.852734,51.406724,43.094229,60.116805,57.041078,63.240251,0.0,66.608665,21.226467,85.121635,12.109165,86.736374,5.121391,74.853973,0.6591,56.242699,0.0,7.787616,33.368984,54.037316,51.235885,64.314375,62.961214,72.689152,69.078,75.351484,-19.09568,294.485788,-47.322189,286.778126
11,0.102482,0.010028,0.209518,0.189981,0.0,28.49136,2.048046,56.040974,-6.81126,57.743397,-15.702221,47.369556,-24.59372,26.256946,0.0,-8.294007,7.47238,34.791084,26.550923,51.271318,42.901976,59.841558,57.061456,63.111786,0.0,66.564125,20.818909,85.063134,11.76606,86.919342,4.936432,75.23449,0.658654,56.65004,0.0,7.655508,32.815824,53.669642,50.792184,64.168966,62.713731,72.460515,68.994427,75.289314,-18.794214,294.467241,-46.913687,286.939532
12,1.296181,-0.00247,0.063481,0.184906,0.0,26.79182,1.005981,54.592815,-7.924153,56.471477,-16.803532,46.301204,-25.621102,25.11034,0.0,-8.350953,7.231628,34.767075,26.263339,51.237664,42.748242,59.821687,57.10131,63.2095,0.0,66.626095,20.526752,85.20496,11.476318,87.103672,4.751243,75.462559,0.624504,56.878429,0.0,7.526671,32.438689,53.364483,50.47943,63.99452,62.497369,72.282315,68.831727,75.182831,-17.357374,294.428089,-46.709547,287.087756
13,0.645733,-0.437872,0.02195,0.163008,0.0,25.618995,0.089275,53.304245,-8.688195,55.685943,-17.29081,45.76062,-25.813878,24.732559,0.0,-7.892592,7.673859,35.326768,26.605585,51.720428,43.072122,60.357681,57.39781,63.591636,0.0,66.750583,20.364818,85.198871,11.465755,87.298313,4.903221,75.90826,0.906738,57.625225,0.0,7.248301,31.972931,53.121039,50.084315,63.714792,62.298151,72.026706,68.841249,75.221438,-16.614561,293.959477,-46.590517,287.220024
14,0.759807,-0.138716,0.092536,0.121686,0.0,24.362537,-0.576942,51.994091,-9.133999,54.786793,-17.483791,45.354527,-25.753132,24.496525,0.0,-7.532908,7.933532,35.177579,26.783413,51.712079,43.306589,60.365029,57.712268,63.575544,0.0,66.693982,20.14975,85.099492,11.296704,87.232121,4.840554,75.947834,0.955079,57.765072,0.0,7.214226,31.574455,53.019484,49.776723,63.554796,62.121878,71.751397,68.793232,75.094503,-15.758743,293.793724,-46.40197,287.314673
15,-0.521622,-0.409443,0.074868,0.117461,0.0,25.762036,-0.229705,52.095944,-8.582359,55.16058,-16.6833,45.932019,-24.719627,25.33318,0.0,-7.249622,8.157971,35.064848,27.082447,51.900987,43.687935,60.663185,58.095936,63.682126,0.0,66.714374,19.982311,84.956394,11.255172,87.170459,4.95108,76.124416,1.174301,58.113224,0.0,7.160899,31.134966,52.82796,49.376457,63.220628,61.8503,71.367434,68.698878,75.030975,-16.197195,293.368374,-46.243932,287.416227
16,0.195168,0.00741,0.055446,0.045548,0.0,26.022503,-0.757519,51.353931,-8.934712,54.74667,-16.747879,45.556721,-24.409573,24.928219,0.0,-7.047525,8.170383,34.985981,27.173541,51.882622,43.826627,60.537931,58.224192,63.466679,0.0,66.644692,19.994248,84.91642,11.241612,87.011834,4.910969,75.838486,1.089226,57.813012,0.0,7.272963,30.91848,52.712856,49.203592,63.21975,61.70337,71.227667,68.593518,74.908128,-15.92062,293.367722,-46.107079,287.453713
17,-0.613884,-0.232107,0.083062,0.065517,0.0,27.061901,-0.612671,51.519665,-8.486996,55.262592,-15.975678,46.299625,-23.345501,25.868923,0.0,-6.326663,8.535241,35.024377,27.587404,52.030959,44.221174,60.564767,58.549135,63.430492,0.0,66.638328,20.044406,84.850204,11.358821,86.909751,5.018211,75.679275,1.106861,57.767074,0.0,7.317868,30.748235,52.681771,49.050427,63.190394,61.594467,71.000735,68.564743,74.782787,-16.442459,293.131352,-45.931972,287.514967
18,-0.586681,0.168727,-0.062451,-0.0278,0.0,28.671547,0.226982,52.24134,-7.536347,55.805534,-14.999337,47.105712,-22.34475,26.735664,0.0,-6.674219,8.021366,33.979387,27.18573,51.469252,43.971085,60.087757,58.492658,63.001401,0.0,66.500324,20.081818,84.760494,11.318848,86.719586,4.910637,75.365788,0.935372,57.264301,0.0,7.456399,30.779011,52.555195,49.09322,63.3372,61.587922,71.107316,68.480762,74.740895,-16.93147,293.307109,-45.896753,287.494197
19,-0.876973,-0.003384,-0.191517,-0.03132,0.0,30.348645,1.347348,53.370083,-6.423271,56.718304,-13.96043,48.079159,-21.384761,27.827465,0.0,-7.279275,7.743884,33.581022,26.940161,51.282433,43.753798,59.912287,58.346494,62.861154,0.0,66.555474,20.264122,84.722054,11.497799,86.64386,5.04887,75.275368,1.003876,57.210755,0.0,7.383558,30.838514,52.48002,49.167814,63.449734,61.646239,71.27256,68.50955,74.792828,-17.696074,293.308106,-45.975901,287.467258
20,0.147206,0.062183,-0.231216,-0.169999,0.0,30.067474,1.203106,53.05664,-6.59428,56.416305,-14.19484,47.741386,-21.694565,27.405945,0.0,-7.659336,7.665757,33.708191,26.847905,51.248568,43.583712,59.849623,58.155043,62.917284,0.0,66.53112,20.710098,84.787582,11.839565,86.569885,5.191898,75.021355,0.921078,56.875191,0.0,7.485298,31.092185,52.610968,49.425499,63.582781,61.862662,71.471335,68.651663,74.826333,-17.436178,293.371891,-46.094427,287.298861
21,-1.087303,-0.331576,-0.306908,0.003594,0.0,32.044349,1.72475,54.37191,-6.189801,57.71585,-13.837212,48.918846,-21.468361,28.693039,0.0,-7.447964,7.537515,33.7549,26.899863,51.291807,43.680081,60.13286,58.264701,63.18837,0.0,66.677353,20.956318,84.893395,12.136883,86.752396,5.465847,75.098259,1.131478,57.006821,0.0,7.303159,31.340594,52.592554,49.664844,63.648669,62.062992,71.513177,68.807582,74.780342,-18.414522,293.047682,-46.292376,287.309822
22,-1.442677,-0.227105,-0.233883,-0.073434,0.0,34.031284,2.74403,56.108059,-5.203423,59.309681,-12.926788,50.389149,-20.699947,30.11459,0.0,-7.655594,7.718307,33.718121,27.160523,51.239998,43.845719,60.205738,58.319608,63.253713,0.0,66.706089,20.966309,84.852757,12.155445,86.856755,5.535359,75.255261,1.266197,57.212139,0.0,7.352029,31.536467,52.492506,49.949859,63.662489,62.357444,71.642161,69.052423,74.826395,-19.758528,292.833604,-46.427588,287.249415
23,-0.678886,-0.155253,-0.046451,-0.259969,0.0,34.566066,2.845115,57.083347,-5.189186,59.959957,-13.005272,50.849041,-20.947277,30.472789,0.0,-7.542973,7.821357,33.756381,27.410007,51.169923,44.120064,60.209443,58.568314,63.354836,0.0,66.742653,20.947952,85.037269,12.046612,86.8507,5.402378,75.272461,1.143928,57.234123,0.0,7.582432,31.560957,52.728096,50.04262,63.826696,62.497419,71.938798,69.190917,75.110262,-20.346479,292.691936,-46.383104,287.003031
24,0.602863,-0.362043,-0.041359,-0.194724,0.0,33.197731,1.698875,56.710327,-6.535091,59.310287,-14.42617,49.666443,-22.482594,29.045105,0.0,-6.575134,8.38042,34.475873,28.129474,51.628532,44.856772,60.678734,59.178446,63.803688,0.0,66.7714,20.841842,85.252212,11.836418,86.919365,5.165256,75.230163,0.934295,57.147285,0.0,7.765423,31.525488,52.90222,50.046091,64.031497,62.528826,72.20167,69.192794,75.294797,-19.680187,292.346402,-46.361034,286.824816
25,2.950012,-0.333625,-0.196415,-0.086549,0.0,29.175545,-1.111118,53.627289,-9.529209,55.94854,-17.378162,46.242645,-25.293205,25.229645,0.0,-6.486782,8.878623,34.537907,28.788771,51.863788,45.635951,61.090572,59.98703,64.185984,0.0,67.070995,20.483436,85.382206,11.478561,87.146335,4.91906,75.453976,0.86467,57.301678,0.0,7.779897,31.450547,52.842927,49.998135,64.175215,62.469891,72.343757,69.082705,75.408553,-16.672812,292.02676,-46.500086,286.75225
26,1.743794,0.977423,-0.06609,-0.216102,0.0,27.783039,-2.592076,50.644191,-10.905545,53.290294,-18.025349,41.964923,-24.798226,21.017635,0.0,-4.947468,9.162563,34.042471,29.516783,50.967024,46.461158,59.657591,60.600236,63.159,0.0,67.176041,20.254166,85.143975,11.214043,87.098625,4.691529,75.462273,0.709088,57.236069,0.0,7.963741,31.35539,52.918658,49.945401,64.296184,62.45265,72.546311,69.07122,75.589359,-14.879104,293.017487,-46.516262,286.549452
27,1.5573,2.157794,-0.238746,-0.290227,0.0,26.603691,-4.746334,47.35009,-12.864372,51.496491,-18.862449,39.951782,-23.980762,19.005043,0.0,-4.204919,7.58542,30.449424,28.398249,48.604947,45.735726,57.172212,59.907051,60.677264,0.0,67.291809,20.392753,85.440879,11.275955,87.171798,4.652366,75.411666,0.574447,57.067451,0.0,8.087723,31.344102,53.196214,49.895099,64.591647,62.379822,72.838539,68.983077,75.833248,-13.280646,295.180187,-46.71385,286.264131
28,-0.463829,1.296586,-0.252308,-0.145224,0.0,26.821289,-5.234402,48.55806,-12.861042,52.014084,-18.092914,40.631127,-21.927601,19.196022,0.0,-4.028177,8.550023,31.171484,28.823832,49.359747,45.259396,57.319955,58.280026,61.125831,0.0,67.366161,20.377578,85.508777,11.299495,87.277324,4.68988,75.358692,0.603458,56.969638,0.0,7.958282,31.418893,53.18474,49.905126,64.756471,62.303251,72.874291,68.853969,75.845314,-13.701525,296.477659,-46.923208,286.119793
29,-0.737434,-0.600252,-0.209713,-0.587123,0.0,27.085006,-4.264698,49.222389,-11.529087,52.295151,-16.588852,41.429077,-20.208195,20.503967,0.0,-4.955643,9.043978,31.121171,29.317231,49.471602,45.639051,57.802672,58.481333,61.621058,0.0,67.396751,20.60495,85.583152,11.529213,87.316063,4.854309,75.279853,0.639976,56.793617,0.0,8.206308,31.721236,53.49227,50.182781,65.262442,62.492825,73.33616,68.955252,76.198946,-14.383655,295.868068,-47.077617,285.523331
30,-2.693939,-1.154189,0.009235,-1.194056,0.0,29.288658,-1.921864,52.481323,-8.951695,55.326576,-13.945759,44.672012,-17.561028,24.507499,0.0,-5.226308,9.659024,32.444766,29.784397,50.294612,45.852312,58.460931,58.384718,62.139588,0.0,67.226749,21.054794,85.916096,11.943272,87.0676,5.113163,75.074146,0.647999,56.667744,0.0,8.379556,32.19296,54.42732,50.477504,66.291661,62.632097,74.347039,68.979657,76.99938,-17.007093,294.696128,-46.997881,284.311524
31,0.601272,-4.001896,-0.321876,-3.649671,0.0,26.508408,-2.364395,53.147507,-9.884399,55.211907,-15.790935,46.181099,-20.491115,25.738838,0.0,-6.278868,9.94835,34.964998,29.625538,53.82345,45.547042,62.682485,58.089885,65.731214,0.0,66.530994,22.23508,86.700611,13.146114,86.539043,5.848674,74.180339,0.602245,55.725368,0.0,8.983499,32.690754,57.231986,50.738992,69.983075,62.60505,77.738927,68.840755,80.059384,-16.306292,290.658837,-47.220228,280.626458
32,7.547905,-2.419653,-0.373787,-4.87937,0.0,15.569161,-11.242149,45.071182,-18.245876,46.38057,-23.398968,39.348381,-27.248188,20.469177,0.0,0.922095,11.774779,41.913092,27.481614,57.803635,39.884999,63.410239,49.71007,64.184577,0.0,66.049083,23.234527,86.301029,14.105838,85.654392,6.298668,72.798923,0.077888,54.142627,0.0,9.64145,32.757075,59.846153,50.534957,74.007202,62.205488,81.725139,68.645439,83.540787,-8.632513,288.20586,-47.468141,275.713764
33,12.436844,1.484011,-0.401619,-8.329908,0.0,-0.561951,-21.313774,21.501183,-25.864265,24.629814,-28.640648,20.438873,-30.166912,4.519066,0.0,4.255974,12.04096,38.080849,20.846816,47.881553,26.665964,48.790001,30.599774,43.346813,0.0,65.035778,23.489261,84.865184,14.41135,83.545475,6.03368,70.217777,-1.300724,51.479976,0.0,11.753895,32.000224,62.165078,49.369146,77.738508,61.050558,85.952029,68.064873,87.342833,3.922497,289.65928,-47.751594,267.353265
34,13.178982,-0.119438,-1.235928,-9.356583,0.0,-20.413914,-30.074089,-13.231945,-32.42331,-9.558003,-32.690552,-8.857281,-31.67125,-16.845429,0.0,4.541089,14.028175,27.708324,16.49561,30.169214,15.336036,25.736596,12.218283,17.771917,0.0,62.425369,22.139168,82.296112,13.641827,80.167786,5.554676,66.88282,-1.954101,48.063824,0.0,12.632751,28.300103,60.472401,45.240735,76.621813,57.329824,84.607105,65.559449,85.954672,17.212944,289.425051,-48.876057,257.881891
35,17.629783,-16.478912,-6.911425,-17.794894,0.0,-37.68996,-36.769386,-39.251072,-35.86457,-31.704586,-32.767971,-26.592098,-28.58963,-28.97184,0.0,15.3122,17.651022,29.804367,19.92582,27.268796,17.989006,22.775194,13.658573,16.169222,0.0,61.658633,21.272061,79.568053,12.747477,76.508641,4.630171,62.585661,-3.090728,44.005171,0.0,16.01739,23.627739,57.33611,40.589818,73.7473,53.634413,81.25733,63.483721,82.654643,35.028825,272.833155,-55.601384,239.974013
36,17.714138,-17.908694,-12.21492,-24.31252,0.0,-51.779754,-42.625625,-59.197197,-37.92382,-48.4804,-30.715301,-38.10498,-22.593326,-33.792583,0.0,23.93667,21.590364,28.286097,22.615273,22.346696,19.312219,16.450791,13.675592,10.671484,0.0,63.266161,20.217579,76.574599,11.055045,72.852333,2.898898,58.266455,-4.566616,40.492098,0.0,21.274523,18.226862,51.232081,35.532273,66.791153,50.082653,73.802277,61.868837,75.498832,52.988456,254.982877,-67.570811,215.719909
37,19.584549,-30.704886,-20.051422,-27.531533,0.0,-58.384277,-42.035099,-76.539436,-35.414474,-58.523803,-26.36531,-45.004829,-16.647766,-35.687954,0.0,24.21041,24.729953,28.33656,29.24008,18.36724,28.599691,16.3306,24.893764,13.972537,0.0,63.435866,22.751931,76.933829,14.809439,62.534958,7.360079,49.123347,0.41082,34.604708,0.0,20.993523,8.628688,41.021676,25.144435,53.73356,40.645647,61.455208,54.216319,64.014639,72.932327,224.419331,-87.262911,188.329716
38,24.944207,-40.198327,-25.23238,-30.671034,0.0,-63.821503,-41.459565,-80.775055,-35.363388,-58.223763,-26.290261,-43.356331,-16.49675,-31.186444,0.0,27.135756,23.35794,29.988884,35.078353,22.701879,41.866675,25.84085,45.06484,31.002097,0.0,67.08676,21.325184,77.335699,14.253462,54.83432,8.402098,42.539069,3.598572,31.016516,0.0,15.857845,-1.536746,26.660184,15.077752,39.197191,31.882133,47.839378,47.430911,51.948658,98.372006,184.629001,-111.999819,158.066679
39,30.318557,-40.293588,-26.866527,-33.853929,0.0,-65.798286,-37.173362,-69.78083,-31.72586,-45.221214,-23.649055,-31.461204,-14.867225,-22.202179,0.0,29.575082,14.640633,33.329093,32.18148,32.04469,46.616824,40.607565,58.078639,50.709592,0.0,69.048986,18.28434,73.893465,11.378523,45.737102,6.331976,34.521681,2.745128,25.996405,0.0,10.055734,-10.134508,13.515893,6.663172,27.828429,24.316405,38.13979,41.13279,44.297924,129.114521,144.980353,-138.442388,124.85769
40,30.623955,-28.160955,-18.521559,-24.194774,0.0,-67.429802,-31.942016,-70.291122,-26.973335,-42.467056,-20.596733,-30.125839,-13.952476,-21.425583,0.0,18.337668,2.520757,21.568122,20.109578,24.632326,36.520991,34.00129,50.773931,44.948267,0.0,59.791317,14.299267,62.852989,8.225681,28.97374,3.442486,19.319115,-0.216179,13.253655,0.0,-3.252308,-18.460607,-3.432879,-2.39638,10.923197,15.074245,22.519276,32.086631,30.529978,160.033865,117.472514,-156.668558,101.316032
41,32.246819,-28.275896,-23.399517,-23.680351,0.0,-68.259007,-24.367939,-71.30745,-19.832657,-40.487252,-15.575878,-30.38823,-11.690461,-23.064926,0.0,5.23905,-10.13943,9.979407,8.068287,15.716925,26.423995,27.379685,43.088304,39.613343,0.0,56.33535,6.559261,56.94524,1.778629,18.169956,-0.801807,11.358982,-1.882645,8.264992,0.0,-16.198306,-25.342548,-15.013748,-9.123099,1.66271,8.509398,14.983441,25.882747,24.474313,192.223772,89.554807,-180.124987,77.99387
42,26.845573,-21.232916,-15.998268,-20.210681,0.0,-65.371502,-12.325596,-62.063782,-7.456901,-34.458961,-5.120235,-26.633446,-4.069244,-21.189972,0.0,-10.207266,-23.275349,-7.697544,-5.891925,4.662903,13.225573,17.379131,31.394579,30.216381,0.0,49.749824,-4.553089,46.234875,-9.433457,12.635227,-10.72554,6.623073,-9.733795,3.725624,0.0,-25.00265,-27.550163,-25.839553,-11.311324,-3.673193,6.322353,9.459774,23.403776,19.80038,218.728323,68.557009,-196.464277,58.018307
43,19.572968,-16.343747,-11.390373,-16.738475,0.0,-58.061566,0.816066,-55.145783,5.676887,-25.507897,6.292224,-20.00354,4.762275,-15.835076,0.0,-25.100169,-32.976616,-22.33225,-16.561118,-4.042003,2.839821,9.129066,21.759032,22.415754,0.0,32.435657,-7.137932,30.998783,-10.575863,-1.251572,-11.617813,-7.496693,-11.201363,-8.054547,0.0,-28.128257,-25.185813,-30.050955,-9.786452,-5.437883,6.631556,7.235617,22.008699,18.265303,237.611229,52.181655,-208.544712,41.248225
44,14.756858,-14.63659,-14.024208,-11.583154,0.0,-50.380954,7.679089,-51.428627,13.026787,-16.675666,13.214779,-13.458755,10.87127,-10.817115,0.0,-35.239709,-36.326445,-31.611854,-20.358657,-9.187133,-1.21915,4.173115,17.347911,16.84233,0.0,27.8707,-11.41499,27.218708,-14.486298,-5.966,-14.503636,-11.034234,-12.740971,-10.114106,0.0,-33.157606,-25.36061,-33.801756,-9.786805,-7.459357,6.613531,5.029392,21.601053,16.144892,251.602918,37.431176,-223.334089,29.551182
45,10.970696,-11.241934,-17.637452,-12.75598,0.0,-44.885204,10.887394,-46.495468,15.33815,-11.552101,14.705303,-9.734093,11.812042,-9.094185,0.0,-42.154051,-37.969007,-39.00725,-22.421824,-12.786577,-3.837226,0.459525,14.142811,12.910551,0.0,34.638245,-15.006614,33.148911,-17.210266,-1.468952,-14.729393,-5.357906,-9.785705,-2.956443,0.0,-31.463262,-24.355129,-32.305723,-7.989757,-1.646791,9.161297,10.670847,24.654833,21.500672,261.735197,26.124663,-241.809958,16.730623
46,8.218758,-9.38923,-6.795593,-4.423806,0.0,-45.486969,10.365326,-47.790116,13.843528,-11.529671,12.341331,-10.364205,8.72937,-11.598771,0.0,-44.625207,-37.994763,-42.586863,-22.335729,-14.03367,-3.818331,-1.170646,13.941458,11.189928,0.0,34.846745,-14.766998,34.902935,-16.334484,-1.252716,-13.131992,-4.753109,-7.475075,-1.851768,0.0,-32.577066,-24.285591,-35.171392,-8.278563,-1.8947,8.929925,9.660475,24.688766,20.554557,269.329771,16.968819,-249.229735,12.540203
47,0.737297,-4.722999,-6.432094,-4.191421,0.0,-45.798546,9.901886,-49.922837,12.846588,-13.255005,10.606063,-12.312561,6.407501,-13.944489,0.0,-47.572499,-39.444663,-45.125027,-23.487794,-14.825953,-4.519093,-2.133112,13.503018,10.248111,0.0,39.391181,-12.923802,40.046608,-14.207989,3.598915,-10.085152,0.700962,-3.247101,4.293891,0.0,-31.7381,-23.91129,-34.10403,-6.793947,-1.002814,11.106195,10.772255,27.550225,21.982641,269.528452,12.605522,-256.200445,8.708484
48,-0.674332,-4.09412,-4.82753,-1.161358,0.0,-49.083824,5.586983,-57.15802,8.05339,-19.188446,5.639465,-17.839462,1.337265,-20.045425,0.0,-47.407539,-39.960174,-46.596713,-23.880212,-15.101977,-4.786843,-1.755317,13.483832,10.446811,0.0,50.717514,-13.0383,52.889888,-15.605667,17.373275,-10.857457,15.269725,-2.216217,16.968258,0.0,-32.957313,-27.525641,-35.926859,-9.254806,-2.858779,10.189497,9.246785,28.384367,20.081493,268.504435,8.921854,-261.37766,7.957578
49,-4.429321,-3.677904,1.733665,-1.873971,0.0,-52.211129,0.327369,-65.584557,2.07518,-26.07946,-0.358658,-23.831909,-4.611557,-26.535141,0.0,-45.429902,-40.08281,-46.576619,-23.797788,-15.221452,-4.479634,-1.784834,14.025019,10.741262,0.0,53.142849,-7.510918,60.792801,-9.514824,26.014641,-4.857674,22.642639,3.595894,24.405544,0.0,-31.393137,-27.209115,-36.594992,-9.244135,-4.280032,10.516071,8.060998,29.105162,18.392867,263.760424,5.685086,-259.958685,6.524743
50,-9.049004,-3.505207,4.602059,-2.191824,0.0,-56.906845,-4.639137,-71.940376,-3.009247,-31.290001,-4.866028,-28.551453,-8.464828,-31.247543,0.0,-42.186337,-39.886097,-45.376302,-23.648178,-14.773847,-4.246785,-1.394639,14.392373,11.129827,0.0,55.249317,-1.80653,67.773983,-3.370034,33.976615,0.90026,29.53236,8.849384,30.93988,0.0,-30.706788,-27.743022,-37.206822,-9.964436,-6.559913,9.842737,6.234247,28.577646,16.805881,254.428413,2.688616,-255.639633,4.841656
51,-12.245132,-2.768765,6.336078,-3.087817,0.0,-58.712059,-8.277558,-77.139107,-7.199273,-35.1931,-8.78048,-32.458214,-11.832985,-34.921349,0.0,-40.419213,-40.529568,-45.230997,-24.514753,-15.24596,-5.109859,-2.000954,13.702627,10.957846,0.0,56.639271,3.892136,75.13702,3.154495,43.180653,7.182472,36.003307,14.38036,36.760128,0.0,-29.460819,-27.83067,-37.626632,-10.207263,-10.066639,9.463547,4.302027,28.013173,15.049384,242.042187,0.555494,-249.444649,2.389482
52,-11.128418,-5.3314,9.356587,-3.514896,0.0,-63.717545,-14.248009,-86.705498,-14.475655,-39.900742,-16.145119,-37.708947,-18.862473,-40.969826,0.0,-34.600177,-38.272115,-43.120288,-22.305731,-14.153862,-3.159331,-1.702206,15.466885,12.004965,0.0,57.930278,7.754276,81.488296,7.816406,52.258632,11.697338,41.697532,18.126422,41.972683,0.0,-28.524812,-28.072583,-38.827424,-10.76808,-13.437087,8.784009,2.585799,27.284334,13.73704,231.10591,-3.216152,-239.895921,0.43434
53,-13.369286,-5.329252,10.447986,-4.10329,0.0,-68.72628,-17.982101,-92.453476,-19.055626,-43.162125,-21.198601,-41.629921,-24.017715,-44.314751,0.0,-29.979918,-36.843791,-39.656022,-20.233511,-13.454378,-0.959034,-0.924892,17.628433,13.750594,0.0,59.408936,10.745133,86.022938,12.231079,60.10936,16.500996,45.341641,22.495835,46.653019,0.0,-27.569076,-27.607115,-39.578321,-10.772501,-16.826271,8.351756,1.18089,26.634843,13.067209,218.36289,-6.157494,-228.821669,-1.28104
54,-14.104271,-4.412277,11.663441,-5.221837,0.0,-72.669983,-20.602157,-97.117378,-22.192795,-44.611725,-24.743797,-43.938949,-27.596763,-45.851669,0.0,-26.986814,-36.270976,-38.000957,-19.260985,-13.43978,-0.011424,-0.381704,18.496724,14.837105,0.0,60.914783,13.196388,89.075798,15.607429,66.35115,20.167534,48.387005,25.861084,49.017643,0.0,-25.820694,-27.393983,-38.956593,-10.516626,-17.970117,8.460677,0.99136,26.795276,13.44091,205.349018,-7.431174,-216.067829,-3.36428
55,-13.388718,-4.127176,12.479233,-5.64626,0.0,-74.013313,-22.605468,-101.855506,-25.110969,-46.319412,-28.336029,-46.002639,-31.457611,-46.943504,0.0,-25.273103,-35.839593,-37.444048,-18.293627,-13.895145,1.041835,-0.206808,19.511365,15.859958,0.0,62.306843,15.432987,91.879749,18.113056,68.100254,22.492481,49.6306,27.66275,49.629833,0.0,-24.689303,-26.658573,-38.374651,-9.755812,-17.672968,9.193988,1.867339,27.640225,14.551034,193.621736,-8.095649,-201.92716,-5.547839
56,-12.828895,-4.305331,12.845134,-5.526359,0.0,-75.3116,-23.983543,-105.709076,-26.921333,-47.142975,-30.473236,-47.023956,-33.661423,-47.015442,0.0,-22.807854,-34.798185,-36.31856,-16.790079,-13.438921,2.617773,1.00203,21.001173,17.490638,0.0,64.746071,16.902134,94.157296,19.88538,67.034935,24.226216,49.891663,29.158196,49.607769,0.0,-23.795342,-25.901797,-37.481105,-8.764477,-16.540743,10.343305,2.826538,28.865137,15.919571,182.224114,-8.980823,-187.650753,-7.654041
57,-12.102173,-4.057064,12.249367,-5.067603,0.0,-76.510391,-24.698204,-107.391678,-27.538353,-48.195511,-30.906624,-47.375999,-33.832443,-46.31591,0.0,-20.500056,-33.955779,-34.245062,-15.485595,-12.104544,4.25167,3.007647,22.84207,19.530439,0.0,67.019726,18.514115,96.346619,21.722798,62.773419,25.946766,48.061157,30.617615,47.613625,0.0,-22.91669,-25.055329,-35.406149,-7.613888,-13.912158,11.569285,4.365272,30.004389,17.582318,171.105034,-10.388013,-174.418293,-10.07177
58,-10.622246,-3.457912,12.101555,-4.758944,0.0,-75.103935,-25.535705,-106.14093,-28.446853,-49.641929,-31.435363,-47.824127,-33.896461,-46.23658,0.0,-19.014187,-32.332528,-32.039627,-13.695531,-10.239873,6.233735,5.007669,24.891233,21.103407,0.0,70.21225,19.093838,97.884373,21.990063,57.000343,25.766785,46.494438,30.082729,45.075222,0.0,-21.592526,-23.944204,-32.655742,-5.901728,-9.701008,13.511904,6.474623,31.853221,19.488146,160.962461,-11.905514,-161.837065,-12.890303
59,-9.843246,-2.828576,10.924324,-3.947673,0.0,-74.662926,-25.732865,-104.693573,-28.45752,-50.220886,-31.027313,-47.461144,-33.064774,-45.629631,0.0,-18.859607,-31.115625,-29.459788,-12.289048,-8.26504,7.947426,7.177312,26.887766,23.086262,0.0,73.560803,19.16779,99.100788,21.73621,51.678772,25.137509,44.723602,29.114685,42.813675,0.0,-19.901071,-22.536128,-30.14657,-4.052846,-6.446644,15.447903,8.417723,33.660897,21.548603,151.030432,-13.616954,-151.001524,-15.72084
60,-8.337021,-2.058821,9.209244,-0.18485,0.0,-74.8423,-25.790016,-102.712715,-28.301262,-49.909744,-30.554695,-46.695076,-32.318367,-44.955643,0.0,-18.577173,-29.853249,-26.824656,-10.94668,-6.362107,9.544039,9.472291,28.85293,25.195286,0.0,78.162289,19.030575,100.867046,20.080387,50.213093,22.328247,43.293411,25.449383,41.248455,0.0,-21.414049,-24.363995,-29.839565,-6.167471,-5.971469,13.152961,9.263778,31.418072,22.159352,142.020985,-15.045887,-142.464706,-15.275802
61,-7.169266,-1.116842,5.803265,-1.255954,0.0,-74.927536,-25.159469,-100.309204,-27.191871,-49.04718,-29.01503,-45.242317,-30.489372,-43.51197,0.0,-19.157664,-28.735857,-24.162949,-9.767477,-4.53324,10.951139,11.502434,30.52518,26.953598,0.0,79.798965,21.073516,103.214664,21.885017,50.31261,23.565753,43.862892,25.76786,41.679908,0.0,-19.411211,-23.719179,-27.551391,-5.086029,-4.133782,14.503387,10.936461,32.737555,23.693893,134.331419,-15.695374,-137.181741,-16.064401
62,-5.052933,-0.101956,5.352767,-0.681224,0.0,-74.219329,-24.990554,-99.667831,-26.982078,-48.713401,-28.720138,-44.806686,-30.186195,-43.15139,0.0,-19.630858,-27.342712,-23.032336,-8.453879,-3.780682,12.226569,12.674871,31.890512,27.800004,0.0,81.500874,22.275227,104.669369,22.590558,49.534871,23.635964,43.404465,25.161324,41.062214,0.0,-17.651961,-23.161246,-24.705994,-4.011708,-2.811886,15.933959,12.450853,34.353082,25.353651,128.994466,-15.558065,-132.112994,-16.50636
63,-4.083068,0.605709,4.141537,0.235806,0.0,-75.811592,-24.408646,-99.454399,-26.01899,-47.878556,-27.648972,-43.718285,-29.155335,-42.107163,0.0,-20.168851,-26.620238,-21.519222,-7.853868,-3.063221,12.803769,13.63572,32.601853,28.691014,0.0,82.521366,22.986935,105.796875,23.033238,49.18586,23.780937,43.391625,24.914692,40.738667,0.0,-16.217609,-22.49662,-22.758516,-2.989307,-2.242707,17.207629,13.394974,35.720063,26.545378,124.752257,-14.885709,-128.130598,-16.203907
64,-2.612641,1.106617,1.921841,3.945876,0.0,-75.754966,-24.201553,-99.569046,-25.675186,-47.793228,-27.243759,-43.440971,-28.799927,-41.781418,0.0,-19.881323,-25.6039,-20.869552,-6.947817,-2.601872,13.604443,14.196531,33.432828,29.062659,0.0,85.411136,23.896007,108.223789,22.893493,50.517494,22.838299,44.085102,23.449871,41.189552,0.0,-18.265803,-25.468568,-23.987207,-6.663802,-2.675083,13.410423,13.375621,32.345786,26.151435,122.161011,-13.771299,-126.187362,-12.250238
65,-1.879577,1.51262,1.122997,-0.551295,0.0,-74.495293,-23.768235,-99.741028,-25.119896,-47.934403,-26.569725,-43.219117,-28.017815,-41.449334,0.0,-19.607121,-24.621452,-20.242434,-6.200606,-2.10044,14.18352,14.669298,33.926238,29.333773,0.0,85.13641,25.748577,109.24585,25.841057,51.521313,26.290753,45.275562,26.926026,42.309654,0.0,-14.650008,-22.745122,-20.981074,-2.964829,-1.158827,17.723356,14.221144,36.635655,27.401757,120.381054,-12.217189,-124.964745,-12.760043
66,-1.237336,1.729975,2.648403,1.364709,0.0,-73.806289,-23.923553,-99.18061,-25.369903,-48.484863,-26.876587,-43.582283,-28.34317,-41.724403,0.0,-18.795757,-23.923944,-19.72218,-5.511323,-1.656116,14.808594,15.064,34.524272,29.453909,0.0,85.366505,25.094433,108.538548,25.015091,50.602661,25.343674,44.331734,26.041901,41.278565,0.0,-14.479064,-21.967685,-19.675028,-2.004129,-0.541268,18.629716,14.975345,37.558175,28.331471,119.223592,-10.588225,-122.236468,-11.496345
67,-1.273063,2.058277,-0.671013,3.749522,0.0,-74.044876,-23.655739,-98.269158,-24.985153,-48.52549,-26.486527,-43.398743,-27.972084,-41.478035,0.0,-18.608759,-23.704471,-18.838211,-5.385322,-1.065726,14.913008,15.546419,34.643543,29.838614,0.0,87.389878,25.487206,109.235253,25.997052,53.697831,26.849236,46.53566,28.003899,43.703282,0.0,-15.847947,-22.96249,-22.241925,-3.485941,-1.978082,16.747946,13.640079,35.484565,25.982523,117.917736,-8.843177,-122.940274,-8.060052
68,-1.055901,1.810287,0.133988,1.506265,0.0,-73.680908,-23.657615,-98.498588,-25.016098,-48.358337,-26.579544,-43.43763,-28.144798,-41.671577,0.0,-18.053918,-23.594999,-18.785124,-5.160562,-1.007927,15.270229,15.743756,35.071844,29.914469,0.0,88.62743,26.42102,110.268654,27.176491,54.791988,27.998279,47.364807,29.00972,44.512871,0.0,-15.776921,-22.70039,-21.985864,-3.006702,-1.895058,17.290998,13.630607,35.950738,25.887644,116.799826,-7.440224,-122.868295,-6.961121
69,-0.752861,1.643599,1.374275,-1.549077,0.0,-72.720199,-23.665787,-98.547157,-25.079567,-48.259849,-26.674072,-43.407165,-28.308082,-41.829071,0.0,-17.129435,-23.719359,-18.360893,-5.332494,-1.04504,15.229442,15.9882,35.198438,30.134386,0.0,86.490509,26.699719,109.635281,28.480705,53.208115,29.89349,46.880596,31.053772,44.278164,0.0,-12.180744,-18.747431,-18.711758,2.031786,-0.895288,22.580681,14.552084,40.779583,27.546031,115.985779,-6.20842,-121.555206,-8.921993
70,-0.560028,1.442119,1.650593,0.366168,0.0,-72.677673,-23.784599,-99.432632,-25.253815,-48.075439,-26.969353,-43.501717,-28.846893,-42.046143,0.0,-16.549876,-24.14619,-18.334945,-5.703602,-1.269268,15.009326,16.047382,35.151175,30.227506,0.0,84.481636,25.555458,108.446457,27.381706,51.224533,28.906368,45.97546,30.243118,43.430534,0.0,-11.771395,-17.48592,-17.122754,3.420114,-0.707073,23.778249,15.063692,41.757271,28.549117,115.356268,-5.236811,-119.974096,-9.026335
71,-0.344284,0.783304,1.392986,0.469593,0.0,-71.507858,-24.091049,-101.465263,-25.612907,-48.047974,-27.267632,-43.696083,-29.066116,-42.316887,0.0,-16.048519,-24.04303,-18.462305,-5.715581,-1.365771,15.012692,16.143045,35.269482,30.543773,0.0,83.76598,24.630123,107.290615,26.259018,49.681847,27.720429,44.92099,29.077641,42.480938,0.0,-11.557034,-16.940404,-16.26039,3.83785,-0.770151,24.138773,15.177504,42.111842,29.04619,114.952875,-4.886483,-118.640219,-8.989718
72,-0.353806,0.217478,2.781395,-1.554659,0.0,-70.631858,-24.347488,-102.597244,-25.938972,-47.921493,-27.566322,-43.873924,-29.327178,-42.460395,0.0,-15.864286,-23.75752,-18.356545,-5.3443,-1.262518,15.45895,16.438849,35.757416,30.947004,0.0,81.174385,23.620834,105.689083,24.74358,45.373398,25.642834,41.901203,26.466534,39.278046,0.0,-10.041618,-14.706719,-13.022563,6.518917,0.630305,27.044754,16.714379,45.01371,32.058165,114.591917,-4.90675,-115.865976,-10.782122
73,-0.026664,0.051729,-0.643433,1.842268,0.0,-69.16745,-25.038506,-103.599037,-26.678879,-48.480927,-28.099091,-44.346886,-29.578743,-42.614182,0.0,-15.886455,-23.225608,-18.095681,-4.919205,-0.877869,15.730503,16.712279,35.890926,31.173466,0.0,82.283993,23.398602,106.131077,24.620305,46.155213,25.862343,42.805905,27.149895,40.505482,0.0,-10.74435,-15.990973,-14.746344,4.759864,0.644427,25.027065,16.658266,43.206874,30.796208,114.57478,-5.039821,-116.499882,-9.124654
74,-0.226204,-0.079418,-0.93592,0.702534,0.0,-68.824379,-25.377388,-103.638359,-27.078346,-48.722283,-28.377434,-44.591675,-29.626282,-42.658425,0.0,-16.576404,-22.681871,-17.63885,-4.324406,-0.350063,16.229312,16.935224,36.144246,31.318,0.0,81.72797,24.32896,107.817249,25.67617,47.298809,26.827892,43.559772,27.90319,41.461258,0.0,-11.607781,-16.404867,-15.318542,4.458967,0.133721,24.758334,16.20576,42.834915,30.002123,114.38649,-5.324566,-117.397888,-8.627447
75,-0.095329,-0.053803,-0.617043,0.281706,0.0,-68.460572,-25.597527,-103.342232,-27.407135,-48.944527,-28.620118,-44.771943,-29.678536,-42.760483,0.0,-17.057267,-22.186552,-17.288713,-3.696991,0.026448,16.833583,17.103667,36.542313,31.308991,0.0,82.094239,24.823277,108.644417,26.166138,47.993454,27.254505,44.029381,28.198551,42.028073,0.0,-11.982291,-16.480599,-15.556658,4.327604,0.386298,24.622569,16.460103,42.827442,30.06525,114.354922,-5.527014,-117.95117,-8.494386
76,0.003524,0.111602,-0.382427,0.029177,0.0,-68.700554,-25.75193,-102.892364,-27.636177,-49.076545,-28.84584,-44.889381,-29.88723,-42.837593,0.0,-17.588493,-21.997905,-17.028306,-3.437843,0.168807,17.069969,17.088642,36.60481,31.054968,0.0,82.369251,25.050659,108.921204,26.288383,48.099472,27.256336,44.006012,28.066715,41.958195,0.0,-11.950224,-16.586315,-15.331491,4.252973,0.843436,24.624255,16.866075,42.915807,30.400191,114.403713,-5.58903,-118.28833,-8.638827
77,0.200867,0.178187,-0.107265,-0.089699,0.0,-68.510719,-25.854584,-102.574013,-27.813583,-49.260956,-29.014641,-45.016846,-30.055344,-43.14727,0.0,-17.454359,-21.923613,-16.843185,-3.344551,0.082739,17.137487,16.892381,36.580839,30.666903,0.0,82.650306,24.94289,108.97364,25.986145,48.13829,26.847759,43.941123,27.594211,41.877273,0.0,-11.724711,-16.894394,-15.102484,3.879482,1.134843,24.343667,17.123747,42.806719,30.539981,114.63382,-5.59639,-118.366355,-8.914073
78,0.106339,0.146793,1.683036,-1.61381,0.0,-68.834176,-25.688714,-102.877121,-27.673394,-49.018456,-28.943093,-44.941727,-30.097985,-43.320878,0.0,-17.561904,-21.736621,-17.03471,-3.063685,-0.000587,17.479102,16.957058,36.988299,30.705991,0.0,80.228989,24.215355,107.057305,24.829514,45.717156,25.135414,41.847405,25.328602,39.482746,0.0,-11.412236,-14.978063,-12.328303,5.987604,1.401389,26.558,17.571351,44.837184,32.562042,114.721591,-5.663504,-116.701887,-10.74179
79,0.221374,0.280446,1.323727,-0.706252,0.0,-68.978691,-25.596474,-103.372238,-27.57962,-48.914749,-28.896011,-44.907532,-30.133324,-43.419342,0.0,-16.941998,-21.779469,-17.368279,-3.111122,-0.062461,17.483332,17.034604,37.127663,30.785019,0.0,80.346268,22.845875,104.634418,23.045322,43.708557,23.172295,40.386394,23.426136,37.793575,0.0,-11.032372,-14.228894,-10.882991,6.549879,1.804255,27.102299,18.163155,45.48573,33.649603,114.898945,-5.617289,-115.42218,-11.682273
80,0.173676,0.301373,0.448769,-0.103061,0.0,-68.919182,-25.567109,-103.513367,-27.450188,-48.778771,-28.738381,-44.678009,-30.002907,-43.31305,0.0,-16.31546,-21.83686,-17.528997,-3.270395,-0.143366,17.301644,17.0854,37.079269,30.854476,0.0,80.031074,22.245128,103.570999,22.380523,42.933689,22.440662,39.770988,22.719349,37.200828,0.0,-10.444144,-14.022074,-10.524537,6.66098,1.379041,27.149285,17.841972,45.402175,33.541002,115.010405,-5.629318,-115.035627,-12.098736
81,0.336044,0.769471,-0.164349,0.209358,0.0,-69.281822,-25.365555,-103.528153,-27.306519,-48.641029,-28.71611,-44.637634,-30.125221,-43.319069,0.0,-15.775933,-22.2027,-17.95592,-3.766435,-0.423546,16.774981,16.978344,36.647808,30.81001,0.0,79.457245,22.03632,103.298824,22.297108,42.733841,22.463779,39.83551,22.89053,37.399349,0.0,-10.235933,-13.693666,-10.731036,6.907426,0.861295,27.243276,17.385187,45.293075,33.20713,115.291763,-5.137675,-115.254662,-12.167206
82,0.554329,0.745365,-0.421875,0.4809,0.0,-69.561608,-25.510529,-103.658776,-27.421326,-48.541168,-28.851608,-44.596024,-30.309929,-43.205933,0.0,-15.415274,-22.398523,-18.392008,-4.038557,-0.454286,16.469063,17.09709,36.422159,31.068929,0.0,79.461617,21.759922,102.956577,22.081169,42.728016,22.318497,39.780613,22.832222,37.512371,0.0,-10.256966,-13.614051,-11.255426,6.828379,0.478899,27.042593,17.076583,44.96636,32.96936,115.795916,-4.687884,-115.726713,-11.98188
83,0.667991,1.053968,-0.444191,0.609322,0.0,-69.457099,-25.406799,-103.403801,-27.335701,-48.44902,-28.796058,-44.521293,-30.247604,-43.014885,0.0,-14.881231,-22.546971,-18.552189,-4.213125,-0.630527,16.277921,17.061367,36.249048,31.123918,0.0,79.787487,21.414757,102.56432,21.685055,42.426235,21.966499,39.506653,22.576538,37.302807,0.0,-9.913948,-13.649885,-11.487386,6.790502,-0.028504,26.988771,16.717449,44.795867,32.670989,116.428207,-3.979394,-116.206604,-11.718036
84,0.766137,1.299877,-0.410007,1.479491,0.0,-69.675225,-25.367203,-103.252716,-27.244767,-48.138428,-28.662987,-44.369614,-30.081757,-42.68113,0.0,-15.280324,-22.475723,-18.31708,-4.090291,-0.667219,16.369084,17.100845,36.337401,31.29472,0.0,79.935035,20.818107,101.588081,21.034137,41.904991,21.429691,38.884872,22.226131,36.884296,0.0,-10.396651,-13.939538,-12.75146,6.273811,-0.301317,26.369389,16.595584,44.146641,32.416613,117.127728,-3.077348,-116.683227,-10.636376
85,0.847366,2.172991,-0.46288,2.217167,0.0,-70.224724,-25.16423,-103.463768,-27.017372,-48.202034,-28.462143,-44.335922,-29.883019,-42.343918,0.0,-15.219735,-22.651014,-18.685347,-4.248144,-0.641025,16.196855,17.122235,36.185779,31.386666,0.0,79.510666,20.204224,100.081124,20.373917,41.546585,20.784531,38.316353,21.700802,36.449948,0.0,-10.721953,-14.385956,-14.388204,5.514343,-0.047264,25.471372,16.82834,43.269489,32.347527,117.985308,-1.558435,-117.135893,-9.073287
86,0.849472,3.113555,-0.690994,3.507781,0.0,-70.242119,-24.821823,-103.368439,-26.823372,-48.305237,-28.344704,-44.157829,-29.745712,-42.040512,0.0,-14.68092,-22.395899,-19.208053,-3.738228,-0.718077,16.761612,17.299767,36.750294,31.88882,0.0,78.868046,19.262169,98.670296,19.438934,41.62579,19.84338,37.945507,20.745014,35.982754,0.0,-12.597047,-15.272741,-16.677656,4.361062,-0.092983,24.313175,16.873294,42.26168,32.150698,118.94775,0.441019,-117.713917,-6.679607
87,0.323204,4.510583,-0.882316,4.991385,0.0,-69.769226,-24.568932,-103.065514,-26.67437,-49.056221,-28.185791,-44.216881,-29.418068,-41.752441,0.0,-14.255126,-22.244808,-18.810867,-3.428512,-0.333341,17.076039,17.523538,37.051495,32.264615,0.0,75.982841,18.772842,97.436313,19.032577,41.897861,19.448524,37.977493,20.315403,35.876552,0.0,-13.823175,-15.981365,-18.773582,3.456924,0.71507,23.399961,17.497282,41.522675,32.348225,119.578342,3.30448,-118.288845,-3.335344
88,-0.116753,6.274145,-1.075207,7.403356,0.0,-69.463783,-24.851715,-103.087532,-26.887344,-50.950584,-28.218567,-45.006866,-29.197654,-42.22982,0.0,-12.633338,-22.132953,-18.009063,-3.268067,0.503216,17.169134,18.102003,37.122655,32.886102,0.0,73.09251,18.020691,96.065552,18.63327,42.857322,19.354969,38.798618,20.506885,36.673519,0.0,-15.087089,-17.12744,-21.244828,2.022851,1.494848,21.947955,18.065534,40.337777,32.355783,119.909723,7.775983,-118.915918,2.26537
89,-1.226417,7.521558,-1.137944,9.231279,0.0,-68.737381,-25.997658,-102.985382,-27.863091,-53.117752,-28.728722,-46.297508,-29.068108,-42.791748,0.0,-10.192887,-20.845315,-16.275692,-1.885203,2.368999,18.42263,19.692293,38.205684,34.607481,0.0,70.50467,17.823853,95.61446,18.427563,49.380719,19.319321,42.455933,20.69117,38.988305,0.0,-14.604683,-17.608173,-22.272003,1.575259,1.985405,21.665811,18.155726,40.227726,31.886597,119.236239,13.438137,-119.500929,9.637245
90,-2.2053,9.518406,-0.582939,10.560401,0.0,-68.88874,-27.467994,-103.701599,-28.882484,-61.734214,-29.090629,-54.605049,-28.669029,-48.58889,0.0,-7.960474,-18.643437,-11.584377,0.562608,6.504795,20.642465,22.811516,40.062124,36.69785,0.0,68.433884,17.76606,95.022572,17.672264,61.239533,18.442006,53.62714,19.867367,45.495312,0.0,-15.275626,-16.672827,-20.986007,2.79717,3.072176,23.066162,18.343583,41.789993,31.728504,117.138164,21.331893,-119.976643,18.572996
91,-3.480331,11.062333,0.29258,12.848705,0.0,-67.335846,-29.83786,-105.630146,-30.422974,-74.166389,-29.664162,-66.190613,-28.204193,-56.530449,0.0,-5.954172,-15.345607,-5.398282,3.529172,11.817189,22.993223,26.523661,41.7148,39.631205,0.0,66.472847,18.460281,94.00613,17.588379,72.85984,17.809811,64.998116,18.701317,52.796013,0.0,-15.340124,-14.658468,-17.409973,4.645255,5.608647,24.657995,19.962605,43.30058,33.049481,113.360189,31.062837,-119.981707,30.090312
92,-4.302154,12.670351,1.453617,15.453182,0.0,-65.978211,-32.760178,-106.982289,-32.7892,-86.373883,-31.274277,-78.027009,-28.870835,-65.886567,0.0,-3.899872,-11.432619,0.620431,7.263145,17.090483,26.135115,30.509496,44.014749,43.156727,0.0,65.964169,18.753674,91.538796,17.326881,82.90028,16.603031,68.358399,16.343845,52.560539,0.0,-15.878458,-13.029108,-13.690177,5.967844,8.390535,25.365717,21.723406,43.347079,33.646027,108.436032,42.628838,-119.150093,44.439144
93,-5.672928,14.254385,2.774185,16.563356,0.0,-63.801293,-35.85006,-106.356755,-35.340981,-94.543877,-33.034882,-86.984345,-29.588425,-73.455025,0.0,-1.220021,-6.989881,6.892865,11.434194,22.415078,29.542793,34.569517,46.030523,46.665694,0.0,64.619259,20.369992,87.330048,18.213318,91.281269,16.409626,75.769032,14.607216,54.963124,0.0,-15.267554,-10.581143,-9.807978,7.104447,10.923444,24.866867,23.216988,41.116216,33.435428,101.824511,55.684407,-117.314501,59.803684
94,-7.136296,17.980482,5.925682,17.131454,0.0,-62.15039,-39.118435,-107.961788,-38.281723,-106.229547,-35.391472,-97.669155,-31.045795,-81.612184,0.0,2.740699,-2.830309,11.930016,15.269778,26.832641,32.578804,37.501485,47.758111,48.419335,0.0,62.005841,20.856388,81.416794,17.026234,89.974148,12.851864,73.711464,8.366272,49.278328,0.0,-14.844299,-7.973793,-2.236563,7.210695,15.180647,22.244154,24.629226,35.924426,32.754741,93.535297,72.590237,-112.541737,75.860486
95,-8.776268,20.449853,5.826954,19.82765,0.0,-59.967018,-43.17802,-110.932033,-42.347808,-114.834154,-38.885078,-103.452289,-33.462032,-85.113928,0.0,8.240506,1.530296,14.528603,19.243435,29.188376,35.771856,38.796311,49.7809,49.270885,0.0,60.523333,22.613291,79.250004,18.026591,86.691777,12.225998,68.755469,5.711752,45.113074,0.0,-12.719032,-4.500503,4.780408,9.371662,20.691834,22.742779,29.041781,34.515868,35.998459,83.878755,91.858863,-107.595057,94.506909
96,-7.447242,21.484561,5.658039,21.040311,0.0,-60.600449,-47.373608,-112.551247,-46.556443,-118.518935,-42.541787,-106.317421,-36.025189,-87.077494,0.0,10.430886,4.49205,14.917699,21.841183,29.762878,37.698964,40.385415,50.914929,51.497217,0.0,60.554976,25.363776,80.580139,20.357375,86.843285,13.735657,68.119933,6.283991,45.931326,0.0,-9.030007,0.268888,11.637167,14.552034,27.086145,27.577354,35.402567,38.254182,42.065986,75.800589,112.173945,-102.567942,114.377741
97,-6.741372,23.436783,5.52348,21.059514,0.0,-62.162612,-50.364131,-112.790668,-49.265006,-118.91831,-44.597648,-105.960857,-37.173854,-86.309538,0.0,11.376852,6.00733,13.735382,22.661678,28.851953,37.840945,40.176698,50.546772,51.976455,0.0,61.063951,27.364271,82.762413,21.343134,87.189331,14.158664,74.331419,6.183008,52.493963,0.0,-5.205575,5.620835,20.386856,19.626282,33.900859,32.141599,43.228234,42.213737,49.838653,68.556198,134.476883,-97.547481,134.30341
98,-6.336822,23.240551,4.531826,21.305467,0.0,-63.410431,-50.796673,-111.143177,-49.625954,-119.887053,-44.807945,-106.290127,-37.30212,-84.727518,0.0,10.812146,6.957799,11.601134,23.787994,27.903221,39.195584,40.324511,52.595077,53.407984,0.0,63.560285,28.384237,86.991302,21.490866,89.070843,13.79583,76.221548,5.558721,56.482332,0.0,-1.904812,11.692901,29.15873,26.633996,42.333563,39.522533,52.498854,49.55105,59.702336,61.96229,156.791406,-93.272741,154.682849
99,-4.175892,21.588689,2.162475,21.621586,0.0,-63.726517,-49.74765,-107.528595,-48.552063,-117.402374,-43.998848,-105.342567,-36.84922,-84.149563,0.0,8.062454,7.516939,10.536201,24.597177,28.624452,40.296787,42.387335,54.226877,56.911798,0.0,67.615214,29.966601,92.854477,23.516665,95.7029,16.67038,85.261225,9.207602,66.855418,0.0,1.184444,17.469855,34.819106,34.42938,50.487025,48.68031,63.427701,59.584491,71.575421,57.736725,177.347986,-91.159939,175.272326
100,-2.94825,19.599642,4.797203,20.817626,0.0,-63.849094,-46.778641,-101.984607,-45.284385,-110.63681,-40.734329,-100.857994,-33.805755,-81.112129,0.0,3.158756,8.55857,10.918547,25.644539,30.523389,41.457016,46.242858,55.433061,63.206907,0.0,68.774289,32.045941,96.322232,25.352704,97.76817,18.266819,87.937329,10.443467,69.846474,0.0,5.066127,22.900041,40.03709,40.795484,55.805329,55.167089,70.684709,65.898212,78.743076,54.925197,196.018803,-86.226014,195.161127
101,-3.663437,19.456962,3.127419,18.68092,0.0,-63.490825,-42.011673,-96.694095,-39.842445,-104.037849,-35.299919,-94.42091,-29.011436,-75.942695,0.0,1.766432,10.071715,12.476671,27.054782,32.780972,42.693469,48.961185,56.162062,65.905943,0.0,70.84449,31.947762,96.234386,24.535767,96.115803,17.075787,85.661762,9.115929,67.275936,0.0,8.429462,26.462287,45.665294,43.935541,60.637509,57.149574,75.240555,66.572279,82.060765,51.530943,214.619923,-82.829412,212.986205
102,-4.23912,16.985402,2.467243,16.952291,0.0,-62.862774,-37.550949,-86.019333,-34.472878,-92.035229,-29.460228,-82.847923,-23.05497,-65.91354,0.0,1.91509,12.74242,17.960651,29.723314,37.374091,45.018002,52.8905,57.663029,68.646908,0.0,72.114762,32.75845,97.092774,25.031857,96.387016,17.232388,84.692207,9.216889,65.883957,0.0,11.716684,29.451748,49.738117,47.175536,65.548334,59.866246,79.274784,68.188485,85.249223,47.582394,230.975743,-80.071598,229.308914
103,-2.381149,15.245534,3.024582,14.790249,0.0,-61.787911,-35.921174,-74.845116,-31.903222,-77.419098,-26.055108,-68.062912,-18.780007,-55.156151,0.0,2.457235,13.425985,22.863016,29.66002,40.440815,44.208281,54.896425,55.948603,69.6928,0.0,72.326031,32.832527,97.532112,24.592747,96.097984,16.395596,83.007317,8.328884,63.148235,0.0,14.184452,31.594907,53.77815,49.442727,69.564148,61.624515,82.302431,69.222656,87.152358,45.428708,245.693125,-76.819553,243.571011
104,-5.536538,17.439712,3.42445,12.384033,0.0,-62.854854,-38.041362,-60.173275,-34.342758,-57.867794,-28.256012,-49.150634,-20.432659,-43.261814,0.0,10.178876,14.860336,28.842062,28.373771,42.780982,40.155429,53.578103,49.380693,64.508075,0.0,71.536366,33.246849,97.523586,24.295086,95.436687,15.508095,80.956799,7.246296,60.365936,0.0,15.702129,33.079312,57.241927,51.026082,72.198272,62.713236,83.969926,69.638644,87.779161,40.064867,262.76524,-73.222406,255.587447
105,-2.86576,14.958618,1.406101,8.812697,0.0,-63.462239,-40.622212,-45.174706,-37.518311,-39.064946,-31.838883,-32.22773,-24.289879,-34.903737,0.0,18.286915,13.86913,34.58133,24.584864,44.171959,33.932444,51.255077,41.3018,57.645195,0.0,71.887802,31.533623,96.290703,22.233307,95.493714,13.436714,80.405342,5.570996,59.132504,0.0,16.063221,32.754024,59.846289,50.616603,75.870681,62.089434,86.239909,68.773916,89.197865,37.285057,277.440736,-71.730355,264.117022
106,-1.622292,9.783105,3.675682,6.657954,0.0,-61.067253,-44.132572,-29.423195,-42.349457,-20.696915,-37.380775,-16.624283,-30.088589,-29.115715,0.0,24.039942,13.738071,42.215101,22.737082,48.516941,30.515671,52.379009,36.742397,55.806614,0.0,70.079338,30.719055,95.462929,21.295475,95.575447,12.231331,80.040963,4.018524,57.774296,0.0,15.963136,32.218759,60.722601,49.882959,77.904826,61.398991,87.778693,68.376269,90.13762,35.669186,287.022294,-68.048252,270.573429
107,-0.31842,9.940384,4.654656,4.6668,0.0,-56.400444,-46.96439,-20.836213,-46.558216,-10.159928,-42.626656,-8.336632,-36.107266,-26.069138,0.0,31.13725,12.615115,44.99524,18.596939,49.285004,23.756087,50.023255,27.90863,50.207679,0.0,69.096634,29.8274,93.782982,20.123657,94.059929,10.732395,78.253715,2.153217,55.714313,0.0,16.060035,32.027975,61.49642,49.62993,78.360878,61.031761,87.586809,67.996256,89.379745,35.346674,296.834008,-63.397688,275.111559
108,-0.897469,7.82248,4.328075,3.534532,0.0,-51.78059,-47.099796,-15.440552,-48.248188,-4.163086,-45.889046,-4.529594,-40.854275,-24.954849,0.0,36.139281,14.221725,48.295973,17.806324,51.442959,20.581227,49.427957,22.494737,46.256073,0.0,67.957935,29.601059,92.322407,19.658798,92.396244,9.828701,76.573116,0.766983,54.432346,0.0,16.578466,31.493834,62.137748,49.005473,77.898478,60.406352,86.757229,67.448468,88.675036,34.461531,304.582159,-59.057287,278.571762
109,0.336319,3.098303,3.488709,2.197487,0.0,-50.748024,-46.662449,-12.416244,-48.796406,-2.309349,-47.437775,-3.389145,-43.590191,-29.800404,0.0,34.401747,11.916903,48.984662,14.840674,51.548539,16.876918,49.147239,18.337204,44.896415,0.0,66.757885,29.173084,90.722728,18.973205,90.562442,8.687484,74.534511,-0.915676,52.284244,0.0,17.52205,31.765956,62.218196,49.219327,77.995661,60.501559,86.407376,67.334119,88.238597,34.813299,307.654851,-55.553129,280.743638
110,-1.211723,0.044126,2.54211,1.551294,0.0,-43.699482,-44.919766,-8.384217,-48.020302,0.476074,-47.297962,-2.099831,-44.061413,-29.501301,0.0,32.016971,13.505309,48.626844,17.705696,52.816128,20.404473,51.104049,22.119344,47.752236,0.0,66.042641,28.969345,89.783318,18.526394,89.006973,7.945713,72.982544,-1.946869,51.021172,0.0,18.028428,32.211127,62.496332,49.580579,78.1562,60.657887,86.044395,67.14867,87.534988,33.623503,307.749637,-52.989092,282.345592
111,-4.84504,2.91646,1.900005,0.965097,0.0,-34.71865,-39.828689,-0.468017,-43.920147,6.616219,-44.1091,1.869004,-41.772422,-23.37482,0.0,21.707493,11.950804,42.846993,18.072666,49.123749,22.312968,48.635983,25.252954,45.920546,0.0,65.259854,28.623757,88.735531,17.968701,87.640194,7.133812,71.49963,-2.946704,49.930401,0.0,19.155052,32.416731,62.485687,49.848551,77.959315,60.823884,85.599385,67.054118,86.967638,28.80277,310.76064,-51.06478,283.405232
112,-2.214386,1.677363,1.077645,0.276914,0.0,-39.367939,-40.747089,0.25042,-44.773464,7.055191,-44.490291,3.361245,-41.74134,-25.82983,0.0,21.782792,9.634152,41.676193,15.335715,47.655214,19.076827,46.597392,21.689475,43.391879,0.0,64.591015,28.268577,88.238376,17.391083,86.898342,6.407455,70.987987,-3.694817,49.729786,0.0,20.186518,32.714269,62.2601,50.353262,77.744299,61.303685,85.234896,67.349692,86.824722,26.599353,312.553328,-49.976166,283.797471
113,-0.125816,-0.167479,0.896026,-0.348693,0.0,-39.531635,-42.503483,0.254448,-46.881054,6.78685,-46.535053,2.644409,-43.60865,-27.517765,0.0,22.871908,8.328661,41.007461,14.722274,47.536023,19.151075,46.932931,22.244474,44.246294,0.0,64.08569,27.899071,87.969075,16.90075,86.422383,5.857499,70.712117,-4.2415,49.593762,0.0,20.916322,33.020774,62.185469,50.765051,78.014347,61.685303,85.447763,67.589568,86.842828,26.470802,312.519125,-49.082875,283.582054
114,1.411835,-1.667002,0.652153,-0.079089,0.0,-34.305851,-39.327324,0.036758,-42.808262,6.555748,-41.800152,2.055244,-38.286267,-21.453026,0.0,18.940395,11.367745,39.69955,18.992117,47.500517,24.63135,48.5986,28.460036,47.689794,0.0,64.121464,27.615887,87.868435,16.620884,86.107556,5.670044,70.92326,-4.216632,50.253354,0.0,21.280328,32.791234,61.920744,50.592063,77.82087,61.561591,85.154336,67.481356,86.569359,27.872349,310.958877,-48.44101,283.609719
115,0.987213,-2.906172,0.743901,-0.119562,0.0,-35.85902,-40.707916,-0.247307,-45.139149,5.653564,-44.933464,0.800239,-42.256703,-30.129639,0.0,17.114152,10.516935,41.44558,19.380688,50.056132,25.995948,51.311863,30.816827,50.799952,0.0,64.216552,27.173092,87.502693,16.233364,85.806335,5.445224,71.064537,-4.240242,50.518959,0.0,21.853508,32.536786,61.611215,50.323869,77.262301,61.405895,84.79101,67.445752,86.299548,28.818243,308.1203,-47.738428,283.557752
116,-1.837097,0.416951,0.5419,-0.020328,0.0,-43.136353,-42.399468,-1.312317,-45.212414,6.990509,-43.399292,5.080719,-39.282143,-24.920517,0.0,29.657402,11.94374,44.324026,17.206061,50.219387,20.333571,48.392971,22.10114,45.4651,0.0,64.26352,26.793377,87.064225,15.87188,85.553765,5.201386,71.237183,-4.352852,50.533539,0.0,21.992632,32.483854,61.583291,50.303392,76.930318,61.437967,84.552629,67.470662,85.735421,26.895195,308.57893,-47.282479,283.579103
117,0.780349,-6.057011,0.30407,-0.097393,0.0,-37.958095,-41.883979,0.435151,-46.240631,8.060555,-46.056221,3.390725,-43.627567,-35.533035,0.0,26.296969,14.670762,46.562565,23.735327,54.789856,29.916395,55.094323,34.238948,55.324368,0.0,64.058006,26.687107,86.646538,15.862369,85.474686,5.264213,71.475746,-4.295059,50.544685,0.0,22.009082,32.377742,61.560715,50.078806,76.728382,61.192991,84.473576,67.240036,85.322978,27.537603,302.551429,-47.11635,283.51122
118,-7.964584,2.694714,0.354641,-0.100752,0.0,-38.818794,-38.454678,7.520485,-41.891933,16.822952,-40.814003,13.309204,-37.594723,-25.208542,0.0,26.979669,15.74612,45.369584,22.189887,51.595445,25.516752,50.150263,27.451998,48.018343,0.0,63.916523,26.479351,86.326893,15.555759,85.202167,4.878364,71.354061,-4.811051,49.841915,0.0,22.112749,32.354104,61.489492,49.988058,76.616145,61.038961,84.366254,66.989429,84.81434,19.372684,305.268253,-46.962044,283.432578
119,-0.2108,-2.539511,0.464115,-0.193575,0.0,-40.861176,-41.29295,7.440033,-45.720944,16.452667,-45.364391,12.168571,-43.095738,-39.241276,0.0,29.623995,14.853099,47.814666,22.308831,54.145997,26.421791,52.474525,29.134215,51.549664,0.0,63.584061,26.33107,85.999969,15.353737,85.002617,4.631458,71.341713,-5.155449,49.744949,0.0,22.3021,32.245176,61.692243,49.818627,76.514034,60.888784,84.388212,66.867891,84.695902,18.872927,302.743016,-46.786886,283.253277
120,-3.501206,7.182376,0.294125,-0.074384,0.0,-44.551025,-39.542816,9.231514,-41.405044,20.09919,-38.836841,18.092812,-34.536838,-31.014095,0.0,33.104038,13.438384,43.890402,16.496734,46.461862,16.792407,42.927392,16.186574,39.927495,0.0,63.092296,26.494388,85.882862,15.482151,85.062435,4.610023,71.291828,-5.423676,49.386486,0.0,22.326664,32.124898,61.720586,49.60623,76.413072,60.614661,84.32719,66.556891,84.560631,15.012073,309.937365,-46.852409,283.190866
121,0.571724,-1.158524,-0.052838,-0.228477,0.0,-33.517742,-36.923149,10.411583,-39.970813,20.070511,-38.749488,15.725876,-35.558933,-34.846813,0.0,24.198146,12.83959,41.782107,19.096055,47.060816,22.526291,46.252417,24.588693,45.2292,0.0,62.730606,26.611336,86.027962,15.626713,85.286019,4.730255,71.50985,-5.383232,49.384987,0.0,22.676987,31.953541,61.601408,49.21088,76.432412,60.108679,84.387767,66.013055,84.639709,15.184072,308.795486,-47.304972,282.979034
122,-0.775245,0.741351,0.238598,-0.063245,0.0,-32.761059,-36.23703,11.28788,-39.016079,20.59259,-37.664086,16.747764,-34.330696,-30.546593,0.0,25.114905,13.569048,41.458893,18.685205,46.187727,21.084826,44.874851,22.280684,43.581403,0.0,62.562367,26.307907,86.099613,15.409996,85.299946,4.624958,71.592625,-5.349003,49.693348,0.0,22.829597,31.684606,61.363311,48.860718,76.186164,59.821502,84.147102,65.84796,84.755899,13.983759,309.563729,-47.491442,282.942681
123,0.592369,-2.183124,0.089333,-0.207061,0.0,-28.968086,-36.037331,11.06932,-39.127636,20.070373,-38.200527,14.774689,-35.212097,-32.714905,0.0,22.936783,13.624882,41.891491,21.399173,48.379039,26.186065,48.853344,29.387935,49.25634,0.0,62.229458,26.12051,86.061939,15.293495,85.420932,4.621158,71.78207,-5.210804,50.116069,0.0,23.194591,31.227961,61.230511,48.352005,76.158524,59.414641,84.090661,65.613122,85.057203,14.131113,307.428496,-47.847124,282.783511
124,-1.565323,0.101159,0.131595,-0.1462,0.0,-26.971722,-35.051525,13.237953,-38.440819,21.854256,-37.857445,16.573128,-34.93364,-25.941788,0.0,22.900227,13.949468,41.674303,21.291925,48.232741,25.534475,48.300666,28.221865,48.397701,0.0,62.119881,25.913063,86.075798,15.141266,85.3881,4.52924,71.759766,-5.185032,50.316696,0.0,23.365627,30.928138,61.177862,47.99568,76.200774,59.113978,83.985475,65.429748,85.21232,12.128225,307.589806,-48.153094,282.697462
125,-3.146439,-3.133673,0.121777,-0.103099,0.0,-19.177356,-31.924392,17.163002,-35.893055,26.239907,-36.035362,19.538246,-33.64595,-17.112625,0.0,20.898699,15.873697,42.31526,26.033665,51.754836,32.722692,53.230276,37.359913,54.062659,0.0,62.068416,25.624809,85.964504,14.85506,85.204456,4.31987,71.657879,-5.239723,50.474293,0.0,23.581248,30.65719,61.160906,47.734007,76.206332,58.922206,83.896531,65.316338,85.306552,8.529956,304.52555,-48.483147,282.66378
126,3.092972,0.017834,0.368088,-0.084573,0.0,-31.083172,-36.770187,12.694405,-40.228798,22.272514,-39.745388,17.226174,-36.892135,-21.914543,0.0,28.091534,16.296637,44.917039,23.652581,51.935974,27.50572,50.842819,29.872638,50.453038,0.0,61.98254,25.21067,85.554142,14.415012,84.756626,3.938186,71.259098,-5.480164,50.248935,0.0,23.5707,30.600713,61.227855,47.755669,76.176259,59.013325,83.767756,65.446112,85.364597,11.193655,304.602803,-48.544332,282.638626
127,-2.752762,2.336549,0.065975,-0.107841,0.0,-22.733402,-32.593883,15.694657,-35.539501,25.544815,-34.668972,19.977883,-31.321838,-11.969021,0.0,22.986566,15.076696,40.520633,23.223712,48.622435,28.042677,48.691324,30.881418,47.851419,0.0,61.941009,24.833267,85.368713,14.015533,84.609352,3.613369,71.163368,-5.70678,49.907135,0.0,23.538998,30.499047,61.160634,47.686743,76.135936,58.975595,83.737165,65.403603,85.198142,8.036642,307.000923,-48.882608,282.592356
128,3.332886,0.211977,0.066662,0.002877,0.0,-26.94643,-35.472084,11.9534,-39.065506,21.076263,-38.665318,16.203529,-35.773373,-17.492397,0.0,23.807871,14.04276,41.15965,20.553698,48.169644,23.781368,46.84653,25.410121,45.078035,0.0,61.752582,24.494327,85.271381,13.750339,84.414882,3.494865,71.172077,-5.659893,49.983135,0.0,23.285118,30.352502,61.080223,47.566627,75.813711,58.943165,83.525102,65.46938,84.981671,10.980783,307.258855,-49.204691,282.641188
129,-1.171989,1.27023,0.087307,-0.055414,0.0,-27.500084,-35.032734,12.411804,-38.102841,22.171325,-37.234829,17.722389,-33.928288,-14.356499,0.0,24.726693,14.121048,40.852838,19.419505,46.993546,21.454144,44.926747,22.096323,42.003013,0.0,61.542022,24.19337,85.045509,13.555572,84.260513,3.472435,71.198501,-5.531811,49.999351,0.0,23.129333,30.286094,61.021646,47.533861,75.446567,58.962949,83.342641,65.543851,84.659913,9.466999,308.56268,-49.459179,282.619369
130,0.891471,-0.876584,0.022602,-0.050697,0.0,-21.082328,-33.933528,12.510659,-37.867126,20.703713,-37.926246,15.166718,-35.501277,-18.062347,0.0,20.437608,12.975972,39.891334,19.656095,47.091013,23.096124,46.166189,24.983389,44.195536,0.0,61.370006,23.90023,84.913021,13.406456,84.212551,3.485149,71.23344,-5.380211,50.029918,0.0,22.935622,30.092074,60.858439,47.348684,75.210705,58.861147,83.103692,65.562623,84.30344,10.093231,307.726583,-49.701816,282.609159
131,-2.246681,-4.755053,-0.020508,-0.07273,0.0,-13.711349,-30.628864,15.909256,-36.007873,23.415322,-37.742065,15.206841,-37.102134,-23.954132,0.0,17.821317,14.616508,41.973854,24.396945,51.314555,30.424082,52.187817,34.471006,52.279331,0.0,61.074978,23.944794,85.03014,13.563492,84.222095,3.638443,71.243282,-5.325474,50.047016,0.0,22.763141,29.827524,60.687206,47.060668,75.044621,58.632399,82.88475,65.465477,83.973755,7.595627,303.007648,-49.973247,282.572547
132,-4.953609,-1.47292,0.06625,-0.099529,0.0,-14.488713,-28.116223,21.208019,-34.193447,28.774875,-36.586613,19.85812,-36.399365,-21.446858,0.0,23.692027,15.070867,45.015099,25.029442,53.811272,31.109375,53.808938,35.48564,52.522035,0.0,60.844711,24.082741,85.011429,13.744938,84.089744,3.722213,70.998275,-5.406636,49.848655,0.0,22.800265,29.733811,60.733654,46.957211,75.191192,58.525941,82.7508,65.402084,83.691049,2.423521,301.556881,-50.125494,282.495171
133,-1.095131,-2.047545,0.064522,-0.002816,0.0,-12.766468,-26.877766,22.276119,-32.848824,30.070209,-35.429032,20.839771,-35.759926,-25.257569,0.0,24.058232,16.389745,46.150393,27.341748,55.472235,34.328104,56.151601,39.618879,56.165853,0.0,60.938507,24.064842,85.019966,13.801162,84.045799,3.817245,70.930595,-5.268105,50.005188,0.0,22.793522,29.720597,60.644869,46.961139,75.15855,58.526262,82.578949,65.39066,83.555026,1.172888,299.539899,-50.216474,282.522918
134,-1.075127,3.549475,-0.157883,0.004001,0.0,-15.167129,-26.865646,21.928951,-31.970272,31.127575,-33.635994,23.405468,-33.141987,-19.32035,0.0,25.635857,14.605146,44.455036,23.162827,52.195919,28.079938,51.434598,31.481855,48.605565,0.0,60.980072,24.107998,85.059357,13.926155,84.153671,3.946827,71.029632,-5.153057,50.179527,0.0,22.771786,29.517809,60.351592,46.789288,75.16874,58.413074,82.465601,65.336629,83.547283,-0.020708,303.119558,-50.492826,282.557103
135,0.869705,-1.451357,-0.006672,-0.009003,0.0,-14.303215,-27.860584,21.057484,-33.010219,30.028851,-34.618,21.897274,-34.05717,-20.311065,0.0,28.8358,15.339346,45.905738,23.182735,53.467138,27.668668,52.634088,30.701922,49.871041,0.0,61.092922,24.069729,85.017322,13.956093,84.070324,4.005752,71.036167,-5.065933,50.356785,0.0,22.823199,29.424738,60.089956,46.726734,74.960381,58.402095,82.264356,65.365269,83.53965,0.767704,301.681665,-50.580791,282.561564
136,1.606705,5.90066,0.014133,0.135456,0.0,-22.422775,-30.837295,17.74403,-34.599781,27.491902,-34.507358,22.177494,-32.229355,-15.909222,0.0,31.983514,12.247873,42.876423,16.534599,47.930793,18.054227,45.223247,18.646648,39.874982,0.0,61.251526,23.72152,84.798432,13.655411,83.973175,3.862324,71.147828,-4.966449,50.683319,0.0,22.690139,29.187233,59.643327,46.606197,74.422152,58.404564,81.931953,65.413471,83.455941,2.352756,307.602061,-50.588311,282.716756
137,5.807499,4.370533,-0.059806,0.112126,0.0,-21.370342,-35.243477,11.250206,-38.390808,21.223709,-37.53178,17.385109,-34.625954,-16.576286,0.0,31.705058,11.332917,39.94055,11.805259,42.745142,10.197192,38.959657,8.005842,32.9558,0.0,61.195999,23.456909,84.799804,13.446579,83.926597,3.815357,71.302047,-4.780243,51.080841,0.0,22.479707,28.908987,59.076669,46.402705,73.847874,58.300441,81.66928,65.339025,83.563078,8.215679,311.993299,-50.592693,282.849587
138,1.506386,-0.347914,-0.101315,-0.025219,0.0,-23.588608,-36.417572,9.912483,-40.161141,18.838692,-39.571015,14.548988,-36.700161,-19.609039,0.0,31.636218,10.093475,39.621732,11.395186,43.04972,10.713141,39.967275,9.26313,34.731532,0.0,61.017391,23.325108,84.739574,13.372078,83.915188,3.775898,71.376194,-4.797787,51.066502,0.0,22.348808,28.730639,58.471194,46.281489,73.389179,58.237654,81.451782,65.295503,83.479629,9.841839,311.651211,-50.574234,282.830194
139,-2.472908,2.443167,0.026791,-0.083276,0.0,-21.362927,-34.795223,12.903557,-37.953266,22.410347,-36.85809,17.398796,-33.433422,-14.796089,0.0,30.805663,11.079679,37.957139,10.914855,40.567131,8.769288,36.778299,5.833167,29.767071,0.0,60.915344,23.127536,84.772155,13.199524,83.788536,3.660427,71.326011,-4.81691,51.084732,0.0,22.255268,28.77747,58.099233,46.352267,73.015984,58.305875,81.24682,65.307643,83.463956,7.557644,314.101578,-50.35873,282.754118
140,1.286911,-0.378937,-0.075543,-0.02023,0.0,-32.248203,-37.463425,10.126076,-40.692707,19.927116,-39.580399,16.388603,-36.368351,-19.91779,0.0,33.239394,11.429828,39.591906,10.309256,40.955714,6.859767,35.799455,3.005182,28.786449,0.0,60.763241,23.027527,84.779606,13.110008,83.738857,3.60244,71.327007,-4.809849,51.102711,0.0,22.042761,28.713213,57.801856,46.342326,72.739478,58.32839,81.1239,65.323217,83.437713,9.075932,313.726031,-50.202896,282.737278
141,-3.592163,-1.429127,-0.164944,-0.135023,0.0,-19.353665,-33.505383,15.696029,-37.15757,25.113006,-36.540173,19.537925,-33.431889,-18.4273,0.0,28.632258,12.860203,39.231395,14.143067,42.080559,12.994275,39.148403,10.883399,33.736448,0.0,60.632378,23.246476,85.091126,13.332505,83.782494,3.765816,71.315255,-4.704299,51.136918,0.0,22.009477,28.804171,57.729361,46.394011,72.774787,58.328463,81.132347,65.270963,83.559879,5.769161,312.295459,-50.082448,282.60081
142,-1.227059,-6.822173,-0.163604,-0.12339,0.0,-23.552433,-33.074329,16.604966,-37.669796,25.852547,-38.224468,18.938027,-36.369724,-27.787811,0.0,26.891625,15.080636,43.988017,20.130523,49.421041,21.779827,47.647581,22.144377,44.642065,0.0,60.595733,23.488243,85.102501,13.619831,83.813049,4.043472,71.345649,-4.46909,51.229866,0.0,21.958854,28.81809,57.681467,46.411857,72.819149,58.355177,81.106869,65.339828,83.566326,4.834608,305.461967,-49.953546,282.466101
143,-5.605579,-0.463882,-0.312516,-0.184745,0.0,-11.492306,-27.937168,24.229511,-32.818348,33.797047,-33.664742,25.306126,-31.756199,-23.772594,0.0,22.771885,15.131568,43.113891,22.372483,50.082968,25.928344,49.403319,27.740965,45.526541,0.0,60.658219,23.839406,85.204262,13.956906,83.956238,4.288067,71.369019,-4.339256,51.226639,0.0,21.899734,28.770802,57.800312,46.359023,73.065064,58.302331,81.248784,65.309261,83.614702,-0.479937,304.97416,-49.975028,282.257431
144,1.466927,-7.64228,-0.393219,-0.136468,0.0,-8.42006,-27.753903,23.425884,-34.562291,30.682994,-37.345814,20.973094,-37.346409,-33.944447,0.0,21.644866,16.164628,47.055185,28.244552,57.132753,36.222656,59.342615,42.140321,60.733901,0.0,60.626427,24.202618,85.076409,14.315346,84.04731,4.551144,71.38955,-4.215225,51.201531,0.0,21.792189,28.627133,57.942412,46.234732,73.237001,58.225982,81.299061,65.314942,83.58905,1.268338,297.294342,-50.086899,282.083425
145,-3.936036,1.1523,-0.454582,-0.192069,0.0,1.956871,-23.897884,28.191456,-31.024669,36.392521,-34.16447,24.911396,-34.22208,-29.486515,0.0,16.718714,14.155145,43.42883,28.158262,55.568615,38.274955,59.688738,45.825759,60.108592,0.0,60.712738,24.323651,85.060616,14.417645,84.150078,4.573334,71.285729,-4.314869,51.068779,0.0,21.729538,28.575115,57.92516,46.15111,73.504554,58.139186,81.42807,65.282314,83.57013,-2.356528,298.396921,-50.230311,281.841635
146,3.288666,-2.670125,-0.573795,-0.161675,0.0,-7.53368,-27.275699,23.916012,-34.898884,31.368633,-38.448841,21.177303,-39.178264,-31.575462,0.0,19.180444,14.884591,45.732627,28.649351,57.852022,38.306041,60.992722,45.70637,61.490541,0.0,60.967655,24.382221,85.084888,14.520092,84.447338,4.687328,71.523731,-4.241879,51.249058,0.0,21.543459,28.545462,57.867324,46.129213,73.577889,58.183931,81.53165,65.447175,83.600129,1.241466,295.675771,-50.494778,281.628935
147,-1.647926,3.630578,-0.424198,-0.122772,0.0,-2.774265,-25.902592,26.171276,-33.138256,33.794117,-36.045983,23.394779,-35.853115,-31.30806,0.0,16.249584,12.640458,42.134258,26.232168,53.825957,36.068638,57.990553,43.675536,58.53229,0.0,61.188331,24.321384,85.092361,14.422016,84.61528,4.542961,71.580986,-4.429344,51.313659,0.0,21.498777,28.539719,57.996889,46.136648,73.693053,58.244915,81.592116,65.591757,83.65085,-0.0842,299.262442,-50.596716,281.462256
148,3.469448,-0.524915,-0.321385,-0.024972,0.0,-11.996246,-29.3718,20.601265,-36.352341,27.926514,-39.240475,19.453468,-39.376625,-30.664936,0.0,19.350726,13.934388,43.59973,25.36455,53.834565,33.119352,56.717284,39.163679,57.724569,0.0,61.444943,24.175095,85.153897,14.293145,84.735409,4.458424,71.704205,-4.474731,51.526944,0.0,21.431086,28.574633,58.03967,46.152678,73.661141,58.293106,81.508494,65.713443,83.687641,3.70808,298.701106,-50.595269,281.400863
149,1.672394,0.595669,-0.23339,0.017698,0.0,-15.620991,-30.984284,18.82386,-37.737202,26.24041,-40.364228,18.183998,-40.300576,-32.694145,0.0,19.842914,13.512015,43.218842,24.682813,53.179405,32.232468,55.833302,38.197817,56.668032,0.0,61.695201,23.967441,85.249912,14.154899,84.873584,4.425865,71.807109,-4.415326,51.679424,0.0,21.402359,28.622267,57.919132,46.157013,73.646345,58.283719,81.458167,65.723718,83.645428,5.696577,299.26242,-50.512556,281.384206
150,1.428245,1.002209,-0.287362,0.032468,0.0,-20.70132,-33.066181,17.019264,-39.262047,24.088806,-41.143924,17.119332,-40.23888,-35.521431,0.0,22.099571,15.235519,45.162226,24.873535,52.745325,30.641888,54.024361,35.058093,55.913738,0.0,61.818615,24.04818,85.377652,14.291714,85.0761,4.623597,72.063229,-4.155922,51.934468,0.0,21.307091,28.600642,57.876266,46.117876,73.579865,58.242137,81.384783,65.681258,83.655284,7.435936,300.229972,-50.488804,281.382017
