takenoko1/special-research/HandMotion_SimilarSearch_自分用/NewProject/handData/test_key/d4_feature_d3/44.csv
frame,vel_0x_L,vel_0y_L,vel_0x_R,vel_0y_R,posFromWrist_0x_L,posFromWrist_1x_L,posFromWrist_2x_L,posFromWrist_3x_L,posFromWrist_4x_L,posFromWrist_5x_L,posFromWrist_6x_L,posFromWrist_7x_L,posFromWrist_8x_L,posFromWrist_9x_L,posFromWrist_0y_L,posFromWrist_1y_L,posFromWrist_2y_L,posFromWrist_3y_L,posFromWrist_4y_L,posFromWrist_5y_L,posFromWrist_6y_L,posFromWrist_7y_L,posFromWrist_8y_L,posFromWrist_9y_L,posFromWrist_0x_R,posFromWrist_1x_R,posFromWrist_2x_R,posFromWrist_3x_R,posFromWrist_4x_R,posFromWrist_5x_R,posFromWrist_6x_R,posFromWrist_7x_R,posFromWrist_8x_R,posFromWrist_9x_R,posFromWrist_0y_R,posFromWrist_1y_R,posFromWrist_2y_R,posFromWrist_3y_R,posFromWrist_4y_R,posFromWrist_5y_R,posFromWrist_6y_R,posFromWrist_7y_R,posFromWrist_8y_R,posFromWrist_9y_R,posFromBody_0x_L,posFromBody_0y_L,posFromBody_0x_R,posFromBody_0y_R
6,-1.629296,-0.76857,0.341068,-0.087649,0.0,5.66803,-16.465931,40.781468,-25.684078,45.491329,-31.010536,32.651425,-33.338665,-10.737327,0.0,16.480901,16.658013,49.789135,33.94283,62.339449,47.001647,67.490829,57.655063,71.905736,0.0,67.081101,23.473195,84.965584,13.863053,85.17643,4.903004,72.825303,-2.987674,53.176804,0.0,13.709505,30.542779,59.523705,48.355945,74.575454,60.30234,85.253792,67.069296,87.646324,-19.188898,302.985622,-60.077757,290.509803
7,-0.43182,-1.76957,0.016205,-0.099739,0.0,6.314266,-16.607139,41.676338,-26.223953,45.709809,-31.776397,32.119217,-34.228935,-12.115013,0.0,17.792912,17.220461,50.673414,35.190844,63.069389,48.760225,68.720169,59.759592,73.661869,0.0,66.653687,23.382649,84.658035,13.722542,84.970551,4.687592,72.582985,-3.298691,52.941788,0.0,13.68767,30.226604,59.558445,48.160196,74.604464,60.274293,85.316259,67.219609,87.726884,-19.264544,301.153011,-59.705378,290.347023
8,-7.747673,1.698347,-0.087066,-0.069469,0.0,15.915505,-9.624641,50.57,-18.645698,54.908203,-23.591938,40.526505,-25.169071,1.939785,0.0,19.730985,15.37006,48.733314,33.14294,61.782423,47.1013,68.356051,58.477912,73.231481,0.0,66.339134,23.393039,84.503425,13.732246,84.839172,4.634365,72.403747,-3.50338,52.753463,0.0,13.74348,30.051381,59.313382,47.936301,74.435478,60.092351,85.350357,67.131491,87.854262,-26.697367,302.81222,-59.477594,290.238416
9,3.657898,-2.164513,-0.050183,0.034222,0.0,9.898384,-12.938873,45.965973,-22.493706,50.343407,-28.227745,36.052506,-30.647198,-8.191555,0.0,19.618724,15.882169,50.848612,33.813797,63.735478,47.570974,70.523886,58.967655,77.132267,0.0,65.946797,23.432659,84.428204,13.758099,84.686428,4.572075,72.165722,-3.72036,52.586918,0.0,13.654374,29.793462,59.039618,47.577716,74.249251,59.774399,85.299808,66.954255,87.987544,-22.73473,300.625005,-59.223038,290.249936
10,0.384876,-2.011445,0.041817,0.123414,0.0,12.59927,-14.37902,45.69508,-24.309574,48.972691,-30.080909,34.473484,-32.565834,-9.563564,0.0,17.68722,17.957995,53.093461,36.660095,65.470874,50.65553,71.423601,61.918558,77.361373,0.0,65.59441,23.390156,84.398495,13.693405,84.576221,4.423588,71.914844,-4.018833,52.3484,0.0,13.545521,29.701244,58.824282,47.410781,74.105435,59.592519,85.229302,66.84061,88.031857,-22.0532,298.596229,-58.884567,290.356019
11,-5.673877,1.489543,-0.055584,0.051352,0.0,20.880317,-9.305615,52.40332,-18.620282,55.206596,-23.60479,41.045837,-25.107983,3.146267,0.0,17.68391,16.718109,52.85671,35.181136,65.102928,49.246127,71.276908,60.480898,76.617849,0.0,65.421661,23.573593,84.553368,13.820309,84.506264,4.419685,71.744888,-4.179668,52.082931,0.0,13.552659,29.874713,58.702905,47.459625,73.912044,59.531102,85.165229,66.696113,87.969859,-27.433513,300.094309,-58.646587,290.415908
12,3.973777,-0.913819,-0.016617,0.040607,0.0,15.907345,-12.631324,47.47316,-22.474502,50.912293,-28.39722,37.229966,-30.931148,-6.480892,0.0,16.039521,17.043854,53.992794,35.120497,66.204061,48.571268,72.460996,59.468968,79.012356,0.0,65.325668,23.64386,84.634712,13.911301,84.440735,4.479378,71.760269,-4.1945,52.121384,0.0,13.579434,30.097175,58.510812,47.573666,73.721989,59.549812,85.094426,66.64328,88.002809,-23.183756,299.203242,-58.387224,290.479267
13,1.627568,-0.372467,0.02813,0.152659,0.0,14.310837,-14.480873,46.643909,-24.340153,49.211117,-30.230942,35.343899,-33.006455,-7.329209,0.0,15.853937,18.639202,55.429233,36.567952,66.959134,49.666178,72.096719,60.120226,77.074197,0.0,65.366729,23.581604,84.677582,13.841652,84.520134,4.448124,71.868049,-4.148884,52.263702,0.0,13.437223,30.045132,58.419558,47.545496,73.486053,59.537512,84.855897,66.630695,87.928128,-21.319484,298.875412,-58.12239,290.676563
14,0.91317,0.15529,0.111877,0.125502,0.0,13.237014,-14.968884,45.348323,-24.652268,48.107334,-30.336045,34.198734,-32.988888,-10.701794,0.0,14.285514,18.38789,55.214588,36.302475,66.848008,49.33816,71.918569,59.788639,77.147322,0.0,65.413468,23.487053,84.830475,13.760445,84.65815,4.38493,71.955208,-4.175972,52.268212,0.0,13.362591,30.067844,58.470897,47.54037,73.356784,59.515812,84.610884,66.600672,87.743717,-20.196092,299.091995,-57.800291,290.863358
15,0.285747,0.218202,0.087193,0.017846,0.0,9.514149,-14.745861,44.823006,-24.531795,47.891556,-30.418957,33.859886,-33.33926,-11.905254,0.0,17.735743,18.770099,55.675567,36.098043,66.848254,48.632352,71.636121,58.74786,76.574771,0.0,65.377201,23.244014,84.979122,13.526561,84.792995,4.244178,72.142124,-4.176693,52.408024,0.0,13.31224,29.982826,58.551765,47.451276,73.31309,59.453877,84.452691,66.566524,87.600455,-19.71991,299.381614,-57.522663,290.952621
16,6.239903,-1.141,0.145134,0.119413,0.0,-0.095799,-20.304909,37.251743,-30.465935,41.020763,-36.823426,27.22578,-40.536656,-25.829956,0.0,16.130109,19.450194,55.695451,37.156298,66.94435,49.657977,71.305733,59.878609,76.833852,0.0,65.378254,22.962421,84.949253,13.295196,84.912151,4.131431,72.35606,-4.157296,52.62775,0.0,13.189554,29.6863,58.510207,47.192233,73.170928,59.285175,84.160933,66.535945,87.487971,-13.3299,298.295671,-57.227422,291.127091
17,-3.454033,1.409478,0.17823,0.070975,0.0,5.63903,-16.918282,42.509754,-26.630173,45.610302,-32.375187,30.951954,-35.299221,-20.161663,0.0,15.872993,19.605855,54.691401,37.488391,65.639823,50.2523,69.834751,60.502103,74.577405,0.0,65.40144,22.675358,84.729206,13.131935,84.880154,4.127975,72.440289,-3.991802,52.833858,0.0,13.058138,29.330261,58.366033,46.907034,73.079649,59.106408,83.953082,66.503934,87.393086,-16.673824,299.756461,-56.939083,291.249378
18,-1.000889,0.6055,0.220356,-0.031245,0.0,7.91708,-15.315868,43.832703,-25.278935,45.870666,-31.196686,31.564041,-34.085712,-20.488415,0.0,13.61147,18.496817,53.843593,36.586341,64.975154,49.513901,69.640768,59.866864,75.834248,0.0,65.15934,22.465313,84.310478,13.074932,84.72789,4.146183,72.401504,-3.952354,52.753555,0.0,12.994843,29.280674,58.064826,46.843875,73.011958,59.035011,83.93132,66.46408,87.311637,-17.57955,300.403658,-56.623564,291.25983
19,-1.949181,-0.375826,0.127865,-0.099085,0.0,10.884556,-13.403995,46.117241,-23.272545,48.081505,-29.412746,33.633271,-32.614906,-18.391754,0.0,13.185924,19.013743,53.434114,37.048074,64.684422,49.922306,69.579599,60.198168,76.211099,0.0,64.957958,22.411045,84.168354,13.10812,84.645893,4.21899,72.431705,-3.873699,52.737407,0.0,13.018271,29.169931,57.926938,46.716879,73.00587,58.9083,83.913141,66.381866,87.323271,-19.449961,300.055786,-56.416929,291.188699
20,-1.078022,1.21988,0.119465,-0.058725,0.0,5.76614,-13.396465,46.164769,-22.005546,49.465176,-27.08694,36.19962,-29.511051,-13.851505,0.0,16.744069,18.563594,52.709485,35.352741,63.007304,47.195741,67.546281,56.855185,74.330268,0.0,64.777519,22.469982,83.916664,13.344349,84.574402,4.501625,72.503608,-3.625992,52.810753,0.0,12.933414,29.12026,57.755642,46.607211,72.995545,58.796668,83.858394,66.35477,87.3034,-20.472691,301.296028,-56.242172,291.150336
21,-1.432045,-0.206975,0.15715,-0.056872,0.0,7.240906,-12.303463,47.448635,-20.626213,50.627713,-25.608925,37.578587,-28.033161,-11.429626,0.0,17.834667,19.368387,52.801727,35.787501,62.97517,47.335099,67.54407,56.749258,74.657631,0.0,64.601005,22.321094,83.728798,13.308632,84.494614,4.521664,72.456505,-3.570236,52.674133,0.0,12.841764,29.116764,57.567279,46.577385,73.023049,58.738832,83.923738,66.274618,87.253925,-21.867537,301.111879,-56.047823,291.11629
22,-0.82426,0.815772,0.131756,0.116573,0.0,3.513862,-12.524643,47.0606,-19.980194,51.472343,-24.037709,39.395599,-25.75755,-4.593876,0.0,21.783767,18.314913,52.135564,33.76478,62.32085,44.84594,66.399848,54.140687,72.641814,0.0,64.554302,22.521858,83.796535,13.503994,84.475216,4.619041,72.309414,-3.608196,52.375568,0.0,12.688351,29.264681,57.440381,46.668862,72.874674,58.732212,83.778019,66.168197,87.048197,-22.664268,301.945445,-55.888538,291.250657
23,5.386894,-2.218606,0.042606,0.090489,0.0,-5.074059,-17.990902,39.104828,-25.321072,45.166809,-29.558533,33.903671,-31.776089,-15.101326,0.0,23.000769,20.314577,53.291952,35.615909,63.28759,46.211168,67.17421,55.179909,73.834573,0.0,64.688988,22.456284,83.959763,13.461891,84.60157,4.590042,72.518005,-3.631542,52.433075,0.0,12.533147,29.121111,57.36985,46.440817,72.743603,58.470773,83.497351,65.914563,86.925128,-17.258205,299.735632,-55.826763,291.349939
24,-2.977089,1.844633,0.08923,-0.012338,0.0,-2.011688,-16.348778,42.618278,-22.934509,48.917175,-25.783218,38.064445,-26.458683,-1.266518,0.0,25.737226,19.638397,52.500287,34.554716,62.386503,45.176824,65.780096,54.022632,70.167031,0.0,64.761966,22.623848,84.060917,13.599964,84.696727,4.646438,72.54095,-3.652039,52.309833,0.0,12.370238,29.28391,57.274656,46.590698,72.648014,58.553914,83.41852,65.898335,86.796157,-20.21866,301.586236,-55.720899,291.343572
25,4.704952,2.654144,0.122188,-0.123698,0.0,-5.272831,-20.967762,36.250637,-28.158439,42.969326,-31.531128,33.51257,-32.537453,-7.229519,0.0,23.615667,18.275072,51.630347,30.548275,60.151114,38.566553,61.492123,45.010975,64.040155,0.0,64.902787,22.921315,84.408097,13.758763,84.714272,4.673916,72.39972,-3.70063,52.339714,0.0,12.496826,29.627279,57.358957,47.035115,72.51173,58.931011,83.254313,66.113869,86.866292,-15.502402,304.23913,-55.587405,291.218624
26,-0.136986,5.08837,0.159062,-0.226908,0.0,-10.827747,-22.134784,35.309842,-28.535568,43.235928,-30.900993,35.420895,-30.829639,1.12397,0.0,29.440028,16.269072,49.734115,24.778477,55.77706,29.660736,54.60789,33.421719,53.363459,0.0,65.057911,23.044269,84.738704,13.7364,84.751522,4.55389,72.389522,-3.837902,52.48788,0.0,12.743481,29.905354,57.663041,47.402876,72.477607,59.279086,83.20001,66.335466,86.967131,-15.628001,309.32213,-55.416956,290.986346
27,5.061322,-1.563446,0.199894,-0.356461,0.0,-15.232075,-26.044968,29.535003,-33.602429,36.898544,-37.067551,28.948036,-37.991982,-12.290474,0.0,26.778128,17.095712,50.933283,26.083695,57.110362,30.911317,56.32013,34.545638,56.897089,0.0,64.958427,22.934784,85.038826,13.443432,84.724891,4.182003,72.288414,-4.162274,52.451751,0.0,12.97743,30.197471,58.120488,47.729487,72.611729,59.575019,83.307913,66.516062,87.187642,-10.556877,307.751108,-55.20726,290.622309
28,-3.401848,1.774892,0.176468,-0.345049,0.0,-9.273892,-23.197895,35.087333,-30.533753,42.068596,-33.439705,33.784218,-33.666687,0.18005,0.0,26.563977,15.877686,50.026429,24.918699,55.929213,30.288206,54.857942,34.169504,54.004823,0.0,64.944671,23.240913,85.338638,13.602848,84.693901,4.229953,72.209884,-4.140404,52.641357,0.0,13.242833,30.621844,58.622099,48.23279,72.710826,60.050275,83.389263,66.861593,87.387788,-13.94236,309.515082,-55.014427,290.266342
29,-0.54752,2.121448,0.049839,-0.238554,0.0,-8.775261,-21.11998,36.477574,-28.692432,42.980221,-32.181175,33.952984,-32.825718,-2.329697,0.0,27.076789,13.448474,48.241632,22.124765,53.845642,27.4662,53.717733,31.678813,53.999796,0.0,65.139026,23.206283,85.428623,13.475978,84.657337,4.10836,72.152561,-4.151242,52.761875,0.0,13.473792,30.692215,58.90872,48.42124,72.949133,60.277615,83.469551,67.031616,87.447117,-14.470379,311.625449,-54.945087,290.016707
30,0.775452,-5.561119,0.022441,-0.086772,0.0,-3.028233,-19.718205,37.422031,-28.110352,42.282108,-32.623089,31.347187,-34.297737,-11.593746,0.0,20.357666,15.238804,50.09186,28.514438,58.533672,37.696737,61.500446,45.157817,65.859346,0.0,65.446541,23.417714,85.638703,13.686058,84.745903,4.246113,72.196473,-4.102867,52.672783,0.0,13.228593,30.657573,58.97157,48.266913,73.151934,60.084831,83.629806,66.827383,87.446957,-13.676222,306.057396,-54.903941,289.923001
31,-2.935925,-3.716214,-0.071697,-0.158143,0.0,8.723511,-15.675327,43.399178,-24.71442,46.600685,-29.719917,33.447693,-31.754722,-9.184433,0.0,15.278003,16.399205,50.898259,33.539971,61.66637,46.280933,66.928542,56.641171,72.845677,0.0,65.563328,23.829849,85.764599,14.171665,84.91547,4.71698,72.320515,-3.713997,52.718731,0.0,12.910579,30.703392,58.886058,48.22496,73.448398,59.992502,83.778254,66.739821,87.433928,-16.595976,302.335303,-54.959467,289.758979
32,-5.058689,1.777066,0.030613,-0.285323,0.0,17.186588,-10.584949,50.423138,-18.885944,53.405743,-23.28582,39.482174,-24.566631,0.652004,0.0,14.900806,15.096481,49.883934,31.470097,59.893725,43.860441,65.837894,53.980197,71.647755,0.0,65.960175,24.26009,85.968636,14.665501,85.096069,5.190788,72.476097,-3.326763,52.844147,0.0,12.499394,30.695351,58.689728,48.194307,73.688112,59.933924,83.812549,66.663707,87.417785,-21.634598,304.109575,-54.908787,289.470862
33,6.550003,-0.604364,0.083336,-1.06748,0.0,5.580906,-16.537948,43.293102,-25.559601,46.683026,-30.291252,33.283505,-31.684273,-10.110214,0.0,20.221037,13.91858,49.858802,29.3373,59.453359,40.681283,65.080599,50.269813,71.080171,0.0,66.247009,24.753868,86.506119,15.273731,85.78743,5.829952,72.896782,-2.743584,52.857925,0.0,11.791464,30.82357,59.077681,48.198148,74.042165,59.837915,83.904644,66.486187,87.568062,-15.069334,303.504942,-54.81019,288.403113
34,1.631539,-2.533261,0.579323,-3.188309,0.0,6.982921,-16.827816,43.263004,-26.369259,45.702198,-31.787144,31.356685,-33.978287,-13.467614,0.0,11.226941,14.522598,51.27254,30.704194,60.682858,42.393646,65.770919,52.010161,72.007427,0.0,66.261703,25.750706,86.394836,16.150646,85.239395,6.313385,71.415596,-2.923474,49.960075,0.0,10.463693,31.070275,61.006257,48.230122,76.42021,59.835297,85.926031,66.607674,88.888334,-13.42048,300.950899,-54.213552,285.194022
35,3.356512,-7.605502,0.959209,-6.632995,0.0,5.867574,-15.700424,37.661665,-22.958428,40.169901,-26.129752,27.206949,-26.183201,-6.773375,0.0,12.996282,15.468342,55.641975,30.484758,65.531853,41.680478,70.196923,50.721251,74.256945,0.0,65.091145,25.69812,84.924237,16.328385,82.808247,6.562283,68.172261,-2.934677,47.297093,0.0,10.538535,30.353057,63.462701,47.424674,79.432828,59.376257,88.847295,67.056402,90.996049,-10.019605,293.31484,-53.20998,278.53047
36,13.838069,-17.424052,-1.173637,-9.216854,0.0,-8.566434,-20.527416,14.882189,-23.555614,18.458525,-22.827363,10.503874,-19.416881,-12.582132,0.0,19.925147,19.72649,66.236184,32.897433,77.731499,42.741079,82.051607,50.387824,84.562966,0.0,64.182918,28.7843,85.468574,20.376177,82.680908,11.046575,67.521435,1.335422,47.40469,0.0,11.934632,27.469936,64.378583,41.124434,77.991844,50.450216,84.427923,56.172861,81.372883,3.997278,275.85626,-54.204803,269.279088
37,17.958676,-27.923326,-3.466038,-11.786808,0.0,-22.671862,-26.540554,-8.708925,-25.772701,-4.083372,-21.47608,-6.714025,-15.122349,-18.335283,0.0,29.200602,24.869262,78.476079,37.512177,91.901971,47.083552,94.708045,54.206308,94.214419,0.0,63.266556,34.89691,87.879925,28.306784,85.064266,19.927443,69.772911,10.174908,50.61232,0.0,14.816153,22.450073,63.792708,29.387052,72.316192,33.153741,72.876188,34.109859,59.979342,22.133549,247.902476,-57.493246,257.461822
38,13.557541,-37.309735,-7.443123,-34.349679,0.0,-26.490549,-25.516102,-26.377688,-19.735302,-20.637274,-11.318854,-18.603567,-1.662907,-16.742392,0.0,32.73963,27.952238,88.034598,40.031792,102.57569,49.678194,105.19944,56.671644,102.4261,0.0,64.237942,40.217406,82.612782,34.826186,77.337571,26.525728,62.619358,16.076271,45.852013,0.0,11.347237,17.563997,55.055939,24.606878,64.227455,29.295958,65.38359,31.721316,53.593065,35.883848,210.57023,-64.743611,223.089632
39,23.243168,-50.020816,-10.361515,-43.518121,0.0,-43.403189,-34.368725,-49.938589,-24.850605,-42.935229,-12.636927,-34.256167,0.854999,-20.524515,0.0,42.350884,31.836697,90.945821,42.649385,106.474679,51.377429,108.133406,57.39095,104.428128,0.0,62.1931,39.224722,76.498352,33.893606,68.997448,25.886599,54.757107,15.826893,40.635796,0.0,6.851622,6.226769,37.815192,12.173241,46.808041,17.639579,49.983828,22.202391,40.649833,59.415699,160.53686,-74.816443,179.558957
40,21.884393,-53.763355,-10.698269,-49.451194,0.0,-52.505058,-39.00238,-61.180458,-28.574707,-52.970649,-15.456321,-40.489311,-0.961853,-22.256836,0.0,45.21409,24.171372,80.463164,34.954667,95.437115,44.8462,97.407329,52.612981,94.84988,0.0,59.094979,39.255335,68.04332,32.316771,58.096871,22.751204,44.089188,11.473137,30.123951,0.0,-3.817855,-7.41481,14.541741,-5.499899,20.814304,-2.33587,22.807503,0.859399,14.394818,81.450262,106.704888,-85.364542,130.039146
41,15.502339,-51.759022,-11.646457,-57.452194,0.0,-52.895336,-37.540032,-59.2374,-27.74144,-50.504769,-15.641453,-37.135185,-2.018475,-20.311661,0.0,33.665729,8.718893,52.012427,19.1045,65.594509,29.862826,68.390261,39.631742,69.473771,0.0,56.583275,30.749542,51.534427,22.307167,40.708122,12.464756,28.970031,1.973945,15.556411,0.0,-17.307134,-21.423855,-18.931179,-18.857569,-11.76375,-13.992316,-4.907151,-8.161212,-5.556234,97.148501,54.98207,-96.815099,72.623156
42,12.871055,-49.44437,-11.219239,-59.819643,0.0,-51.831173,-33.08979,-56.143123,-23.16838,-46.914825,-11.687541,-32.71669,1.338353,-16.25933,0.0,10.812111,-11.033916,9.654455,-2.448364,22.444634,8.074169,26.929602,19.114735,32.927722,0.0,52.710583,19.692192,33.417183,8.916104,19.89061,-2.151706,9.66148,-12.403083,-2.45668,0.0,-32.248498,-30.025564,-49.23194,-23.741045,-42.124501,-14.427299,-29.255076,-3.592584,-17.237943,110.063329,5.533356,-107.990565,12.799169
43,10.602425,-45.392605,-8.554699,-48.245492,0.0,-49.693806,-27.272095,-45.919773,-17.365288,-36.106338,-6.514744,-21.803627,6.007061,-6.303223,0.0,-11.81762,-27.724758,-32.400743,-21.214668,-22.877309,-11.52711,-17.080623,-0.008283,-5.8558,0.0,47.970646,8.743985,20.443337,-3.642803,7.409729,-14.958629,-2.483402,-24.701259,-15.052654,0.0,-40.629857,-44.111388,-78.028806,-41.166582,-75.438623,-33.94661,-62.678814,-23.834344,-48.314461,120.550386,-39.488907,-116.660632,-35.075981
44,6.983849,-38.520061,-7.18151,-41.928891,0.0,-47.937756,-18.702942,-36.605954,-7.915238,-25.029694,2.995159,-10.477135,15.002758,5.384582,0.0,-27.898719,-45.653608,-69.231314,-41.887336,-64.686729,-33.338621,-57.735885,-21.242095,-42.08181,0.0,47.679142,4.273944,9.593112,-8.528367,-2.571167,-19.945908,-11.376915,-29.551964,-23.423264,0.0,-47.024566,-50.687035,-99.121101,-49.933443,-101.071705,-44.941086,-90.500452,-36.976693,-74.730685,127.016081,-76.886605,-124.360296,-75.882509
45,1.555046,-29.821163,-6.259003,-38.080862,0.0,-47.702832,-11.783753,-28.08894,0.544075,-15.499054,12.414974,-0.332108,25.007297,16.206505,0.0,-43.695666,-54.737801,-98.447478,-54.117052,-98.647872,-48.389321,-91.327447,-38.108304,-72.617049,0.0,48.802585,-1.154011,0.89645,-12.933472,-9.964554,-23.156719,-17.025341,-31.68837,-28.240746,0.0,-48.639237,-55.740806,-116.208017,-54.462906,-119.883951,-49.231936,-108.721012,-40.638122,-89.723913,127.949684,-104.808122,-131.240742,-112.063725
46,-0.548184,-27.313239,-2.912213,-30.720339,0.0,-48.553573,-7.06398,-20.636833,6.134697,-7.109276,18.495667,7.455277,31.281967,25.571869,0.0,-51.583599,-59.455245,-115.795641,-60.653765,-120.897149,-56.486658,-113.725985,-47.178337,-92.71647,0.0,50.239254,-0.719638,-0.654109,-12.486248,-12.214622,-23.209854,-20.161388,-32.848445,-31.250106,0.0,-47.0338,-57.432903,-120.655315,-57.031844,-127.371926,-52.515258,-118.512497,-44.460266,-98.755279,126.556566,-129.398269,-134.997889,-140.060972
47,-1.571571,-21.685732,-0.495368,-27.478096,0.0,-50.356888,-5.722183,-14.324158,7.560814,-0.70134,20.109215,13.606224,33.102768,32.291176,0.0,-51.453685,-59.561184,-120.82625,-61.45916,-130.884191,-58.2312,-123.992689,-49.849295,-102.292489,0.0,52.748588,-0.672249,-2.386323,-12.478501,-13.32169,-23.243489,-21.780785,-33.527939,-33.406552,0.0,-44.621157,-62.416953,-126.502532,-62.780601,-132.540625,-58.830893,-124.18266,-50.868878,-104.396186,124.294447,-147.189026,-136.183805,-163.644093
48,-3.152412,-15.879915,1.481426,-17.022014,0.0,-51.897217,-5.519486,-13.372284,7.756919,-0.031403,20.397697,14.472564,33.544372,34.439025,0.0,-48.575816,-60.451344,-123.356288,-63.042014,-135.768775,-60.596837,-129.449386,-52.916861,-107.59877,0.0,54.500747,-0.194447,-1.367226,-12.196942,-12.618622,-23.266297,-21.22665,-33.922806,-32.994313,0.0,-41.008686,-62.018554,-125.613131,-62.851068,-132.348283,-59.401358,-124.613832,-52.025602,-105.556306,120.63025,-159.184553,-135.214164,-176.781719
49,-3.169579,-10.646537,3.028484,-12.298728,0.0,-53.046043,-6.259529,-14.235741,7.114632,-1.42804,20.068977,13.183227,33.676941,34.502312,0.0,-45.219379,-60.262838,-123.729953,-63.506247,-137.218539,-61.746876,-131.298505,-54.878514,-110.826034,0.0,54.703228,-0.448585,-0.922016,-12.303463,-12.369804,-23.501942,-20.912876,-34.631607,-32.949852,0.0,-37.490348,-62.608508,-125.546616,-63.935782,-132.819572,-60.964176,-125.125479,-53.848681,-106.188228,117.321854,-166.741961,-132.324497,-185.991318
50,-3.151062,-7.340506,2.088684,-7.315543,0.0,-53.13501,-6.22213,-14.705956,7.247337,-2.257439,20.26934,12.025543,33.976891,34.954605,0.0,-42.095154,-60.73681,-124.026565,-64.42208,-137.919106,-62.920888,-132.370188,-56.298872,-112.559064,0.0,55.603913,0.171513,0.796566,-11.792415,-10.391132,-23.085285,-19.294052,-34.43985,-31.489517,0.0,-33.45562,-61.274733,-123.645711,-62.976221,-132.102615,-60.288609,-124.238468,-53.605595,-105.711577,114.309311,-171.736331,-130.097294,-190.960725
51,-1.272858,-3.36054,1.641575,-4.245499,0.0,-53.675995,-6.904106,-15.115471,6.652703,-3.088485,19.875687,11.782517,33.863457,34.720093,0.0,-39.579267,-60.900699,-123.668336,-64.997407,-138.011211,-63.970244,-132.496853,-57.913927,-113.767498,0.0,55.813843,0.624069,1.649838,-11.475986,-9.349113,-23.026897,-18.30994,-34.670814,-30.595081,0.0,-30.806554,-60.619655,-122.802547,-62.73469,-131.694018,-60.499303,-123.880392,-54.368429,-105.894452,113.346325,-173.653165,-128.145847,-193.762518
52,-0.602783,-2.477217,0.898224,-2.795184,0.0,-54.541557,-6.983025,-15.760895,6.707382,-3.455383,20.068932,11.350365,34.139237,34.83419,0.0,-37.668008,-61.013841,-122.958625,-65.329043,-137.811701,-64.432513,-132.500781,-58.537831,-114.481949,0.0,56.278484,0.962974,2.71376,-11.111332,-7.961449,-22.868088,-16.96899,-34.873844,-29.873886,0.0,-28.365543,-59.671244,-121.88022,-62.077889,-131.320446,-60.203895,-123.703142,-54.52248,-105.8326,113.218243,-175.878332,-126.772922,-196.305652
53,-0.151771,-1.366725,0.181435,-1.496055,0.0,-55.158394,-6.835579,-15.717957,6.972656,-3.038819,20.484306,11.788101,34.629066,35.18518,0.0,-36.763105,-61.467858,-122.77172,-65.783764,-137.634595,-64.785173,-132.074205,-58.804463,-114.673854,0.0,56.383747,1.510437,3.632514,-10.620427,-6.829915,-22.555951,-15.685902,-34.899228,-29.087563,0.0,-26.789707,-58.704349,-121.552443,-61.376075,-131.04235,-59.746151,-123.832436,-54.377984,-105.913475,113.741444,-177.398912,-125.916515,-197.955562
54,-0.021813,-0.532937,-0.147675,-1.054123,0.0,-55.789398,-6.532562,-15.311119,7.398377,-1.957809,20.945068,12.786507,34.966278,35.701058,0.0,-36.404699,-62.008245,-122.864188,-66.288626,-137.478766,-65.19535,-131.687405,-59.124859,-114.744745,0.0,56.738731,2.125786,4.826054,-10.180962,-5.689842,-22.393044,-14.646652,-35.124126,-28.50428,0.0,-25.712396,-57.965663,-121.052227,-60.856752,-130.929958,-59.344936,-124.010335,-54.077213,-105.967951,114.385059,-178.052222,-125.398762,-199.130058
55,0.47905,0.186863,-0.369026,-0.402684,0.0,-56.804627,-6.826813,-15.495049,7.125915,-1.984017,20.632347,12.470604,34.553283,34.906196,0.0,-36.492369,-62.177018,-122.640258,-66.515555,-137.23641,-65.487402,-131.371173,-59.553027,-115.065352,0.0,57.165642,2.748722,6.601272,-9.624504,-3.96167,-21.973526,-13.134693,-34.889134,-27.300465,0.0,-24.624369,-57.345158,-120.548981,-60.353245,-130.720327,-58.908202,-124.214189,-53.682143,-106.126218,115.495909,-177.972922,-125.135988,-199.640305
56,0.96849,0.547566,-0.928906,0.46516,0.0,-57.912849,-7.327949,-17.258422,6.332474,-4.241981,19.598236,9.678727,33.380059,31.15329,0.0,-36.219241,-61.630654,-121.878792,-65.938211,-136.175263,-64.988666,-130.306279,-59.204326,-114.178792,0.0,57.954827,3.850182,10.589665,-8.412391,0.386685,-20.871299,-9.023826,-34.057537,-24.094734,0.0,-23.763918,-56.696385,-119.391005,-59.812226,-129.851386,-58.484774,-123.749229,-53.238027,-105.759854,116.967991,-177.574977,-125.561302,-199.324766
57,1.309502,1.126732,-1.460964,1.625947,0.0,-58.770676,-8.0289,-20.220772,5.35643,-8.019356,18.360489,5.114044,32.088249,24.335861,0.0,-36.297816,-59.524724,-117.817162,-63.472397,-129.634224,-62.536452,-124.203249,-57.009948,-109.023825,0.0,59.033375,5.650326,17.151077,-6.372757,7.796768,-18.942295,-1.85955,-32.544445,-17.785412,0.0,-24.266776,-54.976441,-113.57118,-58.14485,-122.996814,-57.19225,-118.125343,-52.300268,-102.207105,118.53903,-176.553814,-126.760729,-197.804388
58,1.422913,1.664646,-1.497402,2.134955,0.0,-60.587014,-8.951363,-24.69104,3.941185,-14.337639,16.689651,-2.082184,30.452705,15.155822,0.0,-35.631671,-55.673088,-109.923766,-59.747173,-120.203232,-59.479198,-115.913136,-55.101255,-102.341732,0.0,60.081379,7.309421,24.040558,-4.407337,15.501514,-17.072548,5.43235,-31.155006,-11.45002,0.0,-24.821396,-52.482366,-104.517234,-55.881123,-113.225149,-55.427364,-110.096731,-51.065148,-97.121291,119.920023,-175.046758,-128.300051,-195.827023
59,0.680099,1.377837,-1.380604,2.124415,0.0,-61.670013,-9.331901,-28.197143,2.972077,-20.198433,15.531487,-8.582771,29.375244,7.187004,0.0,-34.659448,-51.28289,-100.58981,-55.147175,-108.779914,-55.270503,-105.377452,-51.74348,-93.721389,0.0,61.00557,8.468319,30.196198,-3.020393,22.367077,-15.706547,12.539017,-30.039196,-4.807548,0.0,-25.379428,-49.822961,-93.788004,-53.36737,-100.157311,-53.281531,-98.739293,-49.429148,-89.488337,120.492582,-174.100426,-129.788195,-194.134113
60,0.083244,1.037638,-1.033802,2.182482,0.0,-62.088958,-9.56456,-32.032173,2.195,-25.963691,14.663727,-14.569107,28.760857,0.027375,0.0,-33.73409,-47.051242,-90.153433,-50.613839,-95.975167,-50.881898,-93.519599,-47.986696,-84.078463,0.0,61.698292,9.283173,35.901157,-1.965156,28.530613,-14.645313,18.562809,-29.242561,0.922405,0.0,-26.362251,-46.775162,-82.442195,-50.517657,-86.384765,-50.840698,-86.369208,-47.678157,-81.092203,120.444179,-173.794395,-130.953644,-192.683238
61,-0.647026,0.61082,0.031792,1.578199,0.0,-61.751838,-9.321281,-34.178627,2.104157,-29.702591,14.614655,-18.26667,28.925446,-4.279998,0.0,-33.178537,-43.106086,-79.620329,-46.520868,-83.475887,-47.025681,-82.196245,-44.750496,-75.226097,0.0,61.192817,9.239559,39.299309,-1.812081,32.216938,-14.518147,21.594154,-29.333016,4.11581,0.0,-27.611095,-43.717591,-71.520826,-47.665656,-73.974397,-48.307011,-75.131994,-45.81905,-73.215008,119.663068,-173.934506,-131.055937,-191.85597
62,-0.990532,-0.095516,0.566849,0.674941,0.0,-61.540878,-8.675697,-34.723869,2.439469,-31.61,15.007668,-19.904983,29.405663,-5.354782,0.0,-32.554604,-40.457095,-72.479957,-44.020958,-76.406959,-44.808674,-75.853783,-43.055567,-70.491251,0.0,60.151405,8.452022,39.522262,-2.543393,32.225647,-15.233426,21.224533,-30.029377,4.448581,0.0,-28.095647,-42.05556,-65.601166,-46.255381,-67.757387,-47.018845,-69.1067,-44.880023,-68.535268,118.559967,-174.785813,-130.601657,-191.93682
63,-1.070549,-0.834328,0.87799,-0.336827,0.0,-59.931633,-7.92501,-33.875907,3.177842,-31.002731,15.891266,-18.872154,30.424347,-3.882293,0.0,-32.738022,-39.480494,-69.528012,-42.763531,-72.565694,-43.158191,-71.905684,-40.951858,-67.156951,0.0,59.111298,7.487217,38.877217,-3.503654,31.194615,-16.175709,20.006356,-30.890373,4.27192,0.0,-28.522,-40.962759,-62.622149,-45.177901,-63.773266,-45.991018,-64.665549,-44.171407,-65.019588,117.425434,-176.301088,-129.787651,-192.954594
64,-0.456207,-0.855719,0.453324,-0.573735,0.0,-58.704872,-7.589584,-33.91008,3.461998,-31.022919,16.170319,-18.857529,30.72773,-3.866775,0.0,-33.308481,-39.103686,-67.826693,-42.476243,-70.926319,-42.74927,-70.579764,-40.372466,-66.3198,0.0,58.611396,7.454223,38.949966,-3.435357,31.376999,-16.13403,19.424194,-30.942204,4.048141,0.0,-28.654992,-40.016021,-61.449441,-44.330173,-63.248652,-45.329329,-63.749976,-43.832456,-64.065428,116.84602,-177.461462,-129.457534,-193.832984
65,-0.440391,-1.162001,0.338859,-1.158416,0.0,-57.51384,-6.859887,-33.106133,4.093986,-30.415512,16.720573,-18.724366,31.150085,-3.938004,0.0,-33.64419,-38.604409,-67.540726,-42.124862,-70.792092,-42.531386,-70.640273,-40.246822,-66.334327,0.0,58.101013,7.462372,39.046017,-3.33649,31.795132,-16.1002,19.529354,-31.025162,4.165444,0.0,-28.610559,-39.573561,-61.016487,-43.933807,-63.399307,-45.001533,-63.885039,-43.62043,-63.664868,116.26668,-178.551307,-129.257624,-194.919244
66,-0.041314,-1.004074,0.132603,-1.35222,0.0,-56.966285,-6.697425,-32.95008,4.165558,-30.392738,16.73005,-18.884216,31.133675,-4.235618,0.0,-34.062981,-38.560406,-68.067704,-42.147314,-70.837812,-42.591673,-70.588418,-40.397091,-66.397856,0.0,58.119541,7.407577,38.930923,-3.312939,31.854423,-16.007446,19.815227,-30.907368,4.592331,0.0,-28.552363,-39.35703,-60.587511,-43.68645,-62.709212,-44.78851,-63.348783,-43.473448,-63.039364,116.097158,-179.386232,-129.253229,-196.102315
67,-0.165527,-0.97394,0.247146,-1.360893,0.0,-56.493324,-6.821548,-33.174133,4.050774,-30.508232,16.648796,-19.002251,31.101608,-4.524971,0.0,-34.314768,-38.559649,-68.628969,-42.230097,-71.203458,-42.650157,-70.718013,-40.359646,-66.341586,0.0,58.225033,7.379368,39.169201,-3.373878,31.877976,-16.109481,19.730656,-31.050006,4.619912,0.0,-28.405893,-39.131999,-60.133065,-43.419759,-62.032301,-44.468593,-62.782264,-43.161006,-62.603958,115.896343,-180.12632,-129.041371,-197.229356
68,-0.163902,-0.885235,-0.128551,-0.776792,0.0,-56.246979,-6.878746,-33.304001,3.94059,-30.853867,16.495788,-19.495445,30.920288,-5.1828,0.0,-34.406873,-38.638465,-68.99627,-42.336817,-71.519787,-42.747383,-71.025129,-40.449333,-66.563674,0.0,58.489632,7.619911,39.683601,-3.151474,32.143707,-15.89756,20.03968,-30.84074,5.030445,0.0,-28.582413,-39.30005,-60.352719,-43.615113,-62.383034,-44.650954,-63.3591,-43.328285,-63.014652,115.806799,-180.743746,-129.095564,-197.738339
69,-0.348015,-0.727096,0.287659,-0.804049,0.0,-56.148926,-6.740913,-33.236595,4.076591,-30.839607,16.660561,-19.500458,31.127998,-5.374878,0.0,-34.262438,-38.618167,-69.420063,-42.270926,-71.749437,-42.657644,-71.139991,-40.362823,-66.355316,0.0,58.237426,7.407829,39.707061,-3.46241,31.549804,-16.28698,19.602562,-31.294384,4.863807,0.0,-28.814299,-39.379121,-60.408837,-43.638112,-62.280978,-44.56484,-63.276938,-43.154813,-63.013414,115.688089,-181.282429,-128.5786,-198.353975
70,0.014145,-0.283363,0.15263,-0.461585,0.0,-56.340752,-6.862885,-33.377884,3.947708,-30.942833,16.533989,-19.46759,30.978241,-5.218117,0.0,-34.357522,-38.650602,-69.69945,-42.291943,-72.089688,-42.603119,-71.562327,-40.154264,-66.50532,0.0,58.168201,7.374881,39.762313,-3.566758,31.188159,-16.448468,19.241535,-31.496693,4.804515,0.0,-29.105241,-39.473808,-60.642254,-43.651885,-62.405698,-44.508425,-63.297522,-43.040281,-63.22338,116.046656,-181.437645,-128.081548,-198.687413
71,-0.253624,-0.126276,0.11444,-0.239106,0.0,-56.183876,-6.77108,-33.412788,4.130836,-30.757073,16.778892,-19.228821,31.233284,-4.873993,0.0,-34.472495,-38.563889,-69.809734,-42.230002,-72.611198,-42.52026,-72.120508,-39.970471,-66.731423,0.0,58.098954,7.364045,39.923756,-3.599659,30.972588,-16.509876,18.986699,-31.55532,4.893666,0.0,-29.244236,-39.5752,-60.770947,-43.714485,-62.713265,-44.513344,-63.565841,-42.980121,-63.527004,116.23831,-181.493136,-127.52183,-198.855734
72,0.013664,0.205993,0.025063,-0.010696,0.0,-56.173164,-6.816032,-33.532104,4.056542,-31.012573,16.66507,-19.4282,31.107651,-4.925583,0.0,-34.639298,-38.712519,-69.772621,-42.35328,-72.958476,-42.630456,-72.52673,-40.087892,-67.048465,0.0,58.086662,7.351112,40.030094,-3.53793,31.169952,-16.423244,19.141491,-31.485901,4.949181,0.0,-29.573924,-39.646175,-60.943635,-43.771835,-63.073754,-44.57794,-63.915515,-43.068485,-63.903568,116.732162,-181.2647,-127.016579,-198.843987
73,-0.27697,0.212798,0.152184,-0.09901,0.0,-56.123817,-6.706146,-33.5942,4.136536,-31.102203,16.763214,-19.38826,31.233879,-4.672119,0.0,-34.796814,-38.743783,-69.622827,-42.354287,-72.96592,-42.675176,-72.655671,-40.187533,-67.373016,0.0,57.775531,7.311824,40.057182,-3.488789,31.639583,-16.337471,19.359455,-31.407612,4.847751,0.0,-29.89055,-39.624727,-60.699295,-43.789305,-63.175365,-44.65126,-63.947132,-43.205967,-63.905471,116.917654,-181.051698,-126.401933,-198.942793
74,-0.18132,0.194977,0.022876,0.023422,0.0,-56.02446,-6.839218,-33.569206,4.048691,-31.258072,16.739319,-19.458824,31.281006,-4.44912,0.0,-35.011576,-38.908466,-69.701368,-42.520741,-72.903485,-42.879002,-72.6394,-40.409501,-67.560722,0.0,57.568554,7.102902,40.238823,-3.53976,32.235375,-16.262912,19.806576,-31.253196,5.01099,0.0,-30.29277,-39.652305,-60.462699,-43.857317,-63.263424,-44.807637,-64.129097,-43.489704,-64.086379,117.180708,-180.849793,-125.934683,-198.912443
75,-0.280495,0.154039,0.131207,0.061275,0.0,-55.812996,-6.720771,-33.481796,4.177575,-31.389793,16.911599,-19.512886,31.532959,-4.26361,0.0,-35.131705,-39.071915,-69.711074,-42.636273,-72.64592,-43.00236,-72.403108,-40.560573,-67.484055,0.0,57.395691,6.744678,40.202659,-3.763996,32.523468,-16.376003,19.950233,-31.324745,4.879715,0.0,-30.615586,-39.633823,-60.183449,-43.859058,-63.307897,-44.867473,-64.252128,-43.614977,-64.150896,117.304224,-180.683126,-125.399465,-198.83854
76,-0.198097,0.325873,0.092377,0.052802,0.0,-55.628059,-6.589943,-33.275917,4.321999,-31.371895,17.098412,-19.481506,31.755707,-4.186546,0.0,-35.522814,-39.40371,-69.910797,-42.923039,-72.619257,-43.252768,-72.507834,-40.770685,-67.723684,0.0,57.164726,6.599624,39.951061,-3.830899,32.377944,-16.399579,19.693141,-31.375844,4.438316,0.0,-30.868672,-39.509463,-60.1451,-43.702307,-63.370187,-44.735058,-64.328896,-43.547721,-64.020846,117.459617,-180.337406,-124.953598,-198.765891
77,-0.107803,0.28993,-0.325711,0.348671,0.0,-55.390961,-6.159966,-33.003845,4.725952,-31.167549,17.490509,-19.555527,32.045173,-4.442734,0.0,-35.90423,-39.596195,-70.068513,-43.099148,-72.33668,-43.393339,-72.239297,-40.881598,-67.600751,0.0,57.220654,6.512524,40.128342,-3.849357,32.696972,-16.332058,20.073658,-31.236671,4.795201,0.0,-31.063273,-39.501973,-60.285694,-43.714197,-63.656227,-44.816223,-64.679148,-43.700594,-64.172277,117.683928,-180.007292,-124.947195,-198.377036
78,0.578819,1.017156,-0.419575,0.628619,0.0,-55.528061,-6.011948,-32.859169,4.925148,-30.863434,17.701698,-19.34832,32.257507,-4.162857,0.0,-36.490254,-39.826688,-70.504543,-43.259946,-72.803952,-43.412741,-72.165585,-40.787953,-67.407398,0.0,57.354344,6.25882,40.227379,-3.99963,32.744339,-16.388225,20.42743,-31.186821,5.156548,0.0,-31.229792,-39.616048,-60.444329,-43.739323,-63.666563,-44.815877,-64.688665,-43.720483,-64.274974,118.567835,-178.920398,-125.061682,-197.678679
79,1.415085,1.973466,-0.670818,1.117331,0.0,-55.881706,-6.033554,-32.765076,4.952843,-30.288666,17.709709,-18.81704,32.192871,-3.717407,0.0,-37.681435,-40.10148,-71.428631,-43.418076,-73.626156,-43.356993,-72.291569,-40.47482,-67.073788,0.0,57.384808,5.940228,39.87806,-4.354912,32.013348,-16.716431,19.903999,-31.420269,4.498535,0.0,-31.395592,-39.823863,-60.874623,-43.824907,-63.580823,-44.778895,-64.53219,-43.554079,-64.077642,120.27677,-176.83262,-125.43865,-196.447036
80,1.876854,3.157722,-1.3614,2.206135,0.0,-55.809975,-5.724541,-32.010819,5.348465,-29.145676,18.071457,-17.827973,32.433563,-2.79728,0.0,-39.678277,-40.493062,-72.493372,-43.664066,-74.184401,-43.309878,-72.041032,-40.041209,-66.451752,0.0,57.236503,5.581237,39.51836,-4.843426,31.468723,-17.196625,19.845359,-31.640236,3.979373,0.0,-32.077678,-40.127039,-61.354776,-43.933269,-63.120229,-44.629579,-64.116303,-43.088209,-63.417801,122.421049,-173.226825,-126.532625,-193.792828
81,1.876579,5.035079,-2.24255,3.65003,0.0,-54.591362,-4.470772,-31.173042,6.667786,-27.137604,19.216873,-15.257698,33.290497,-0.165527,0.0,-41.257711,-41.164477,-73.294998,-43.876055,-74.001219,-42.720115,-70.398459,-38.475055,-64.017773,0.0,57.208294,5.207451,39.4571,-5.210667,31.304992,-17.440842,20.232834,-31.496968,3.950042,0.0,-32.698798,-40.379468,-61.469667,-44.027905,-62.224811,-44.492407,-63.24248,-42.5535,-61.859187,124.52833,-167.750774,-128.544473,-189.701826
82,2.097016,7.173721,-2.202908,5.21569,0.0,-52.99125,-3.544693,-31.019646,7.861244,-25.655411,20.337066,-12.72931,34.201263,3.361793,0.0,-41.861744,-40.976653,-72.495314,-43.333253,-72.177179,-41.520322,-67.631234,-36.497945,-60.371087,0.0,55.990608,4.379242,38.969112,-6.157585,30.706535,-18.368557,19.248516,-32.096386,1.87151,0.0,-33.366258,-40.223499,-60.245058,-43.880068,-60.291993,-44.025099,-60.715295,-41.502443,-57.760517,126.805647,-160.387087,-130.56708,-184.29617
83,1.447162,11.188656,-2.08604,6.778911,0.0,-51.08781,-3.757496,-32.477989,7.90329,-24.845352,20.254967,-11.460285,33.693135,3.650757,0.0,-42.919747,-41.765178,-69.054646,-43.75331,-66.537503,-41.345935,-61.850062,-35.552749,-54.980003,0.0,54.856281,3.641555,37.787807,-7.429688,27.357376,-19.858281,14.609218,-33.275963,-1.074658,0.0,-33.260406,-39.263308,-56.462212,-42.826468,-54.129433,-42.482154,-53.664638,-39.282117,-53.408954,128.431658,-149.932615,-132.474271,-178.251443
84,0.30938,14.942186,-1.705273,9.29134,0.0,-48.876698,-5.086338,-35.503304,6.941528,-24.616288,19.238479,-11.111607,32.247631,1.396202,0.0,-44.080038,-43.591703,-62.839103,-45.159386,-57.438028,-42.197541,-53.036009,-35.714992,-48.057007,0.0,52.260647,3.722385,36.282154,-7.804779,24.699211,-20.55154,10.560631,-33.895557,-3.610748,0.0,-33.913376,-38.330444,-50.582059,-41.637284,-46.79264,-40.661862,-45.680778,-36.661957,-46.949604,128.879906,-136.633423,-134.040676,-170.603097
85,0.235771,17.697785,-1.413643,14.404261,0.0,-47.920841,-6.716824,-40.202728,5.312805,-27.818802,16.750877,-14.667149,28.121395,-5.234963,0.0,-41.016689,-46.01713,-54.302553,-46.760104,-46.746888,-42.498873,-41.904731,-34.574162,-38.812386,0.0,49.334667,3.268181,34.489391,-8.431938,22.366419,-20.982422,7.521103,-33.818441,-4.248499,0.0,-35.42047,-38.803579,-45.123533,-41.679052,-40.511463,-40.01132,-38.510682,-35.139799,-40.984153,129.035626,-121.598386,-135.53437,-158.861584
86,-1.770023,21.340387,-0.904907,19.179561,0.0,-49.651486,-10.204594,-46.790554,1.740337,-34.072358,12.539051,-22.20187,22.625473,-15.15762,0.0,-35.400524,-46.311942,-42.912625,-46.477686,-33.839533,-41.332646,-29.381445,-32.375845,-28.308376,0.0,45.845753,2.139106,32.170349,-9.629608,20.428774,-21.570854,5.656139,-33.414122,-3.293913,0.0,-38.412948,-40.914119,-40.460982,-43.058483,-35.490855,-40.468703,-32.48805,-34.507543,-36.03697,126.990246,-102.620576,-136.714634,-142.0446
87,-4.126236,24.9202,1.068821,21.061558,0.0,-53.177662,-14.571408,-54.445576,-2.934071,-41.881234,7.307247,-31.68369,16.331817,-27.102253,0.0,-28.126572,-45.800574,-30.415845,-45.233131,-20.087448,-38.979437,-15.866639,-28.580732,-16.569802,0.0,43.455025,2.389686,30.996151,-9.822327,19.049532,-21.636818,5.853355,-32.932314,-0.041136,0.0,-41.248745,-43.068809,-35.22563,-44.226994,-29.263609,-40.32478,-25.924184,-32.999764,-31.852931,122.609808,-79.754303,-135.900015,-123.036969
88,-4.101036,25.253967,2.420666,25.562019,0.0,-56.977479,-19.152489,-63.348999,-8.32655,-52.613686,1.166427,-43.621503,9.28387,-38.909009,0.0,-19.552459,-42.131439,-17.63401,-40.423793,-6.662718,-32.956794,-2.334163,-21.322445,-3.38835,0.0,41.811269,3.068618,31.403852,-9.247347,21.126771,-20.602232,9.825336,-31.113247,3.834125,0.0,-43.937816,-46.031675,-32.140775,-46.106267,-26.708094,-40.829498,-23.314844,-31.90932,-26.572663,118.175091,-55.255538,-133.81303,-98.230152
89,-4.075837,25.587734,3.625259,28.899319,0.0,-61.050934,-23.947838,-73.500824,-14.437099,-66.269714,-5.883407,-58.015308,1.481633,-50.577884,0.0,-9.678185,-35.304535,-4.567119,-32.049671,6.434655,-23.264718,11.215984,-10.600983,11.235978,0.0,42.389792,3.550735,33.336805,-8.861383,23.880094,-19.514563,14.169479,-28.785221,7.992485,0.0,-45.025814,-48.954612,-30.467505,-47.900079,-24.787853,-41.221955,-21.002945,-30.621987,-22.224303,113.74451,-29.675797,-130.542515,-69.338826
90,-3.426704,26.176025,4.197258,22.722835,0.0,-65.072228,-30.695389,-86.264557,-22.694309,-81.447762,-14.493279,-73.594357,-6.753765,-62.66074,0.0,-5.305596,-27.539952,6.645218,-22.695762,18.62883,-12.837099,24.036116,0.262013,25.88843,0.0,43.162691,4.214401,37.643469,-7.316637,30.306278,-16.350466,23.677666,-23.579813,17.981409,0.0,-39.311171,-46.115134,-25.408081,-43.21422,-18.546875,-34.544663,-14.687265,-22.106743,-14.233627,109.782423,-3.940707,-126.88064,-47.056926
91,-2.01083,26.359108,5.505489,25.301392,0.0,-67.368988,-37.652,-97.004322,-31.224243,-94.763901,-23.515057,-86.795803,-15.515854,-72.815666,0.0,-5.213498,-20.372934,15.747602,-14.250384,28.06948,-4.086454,33.570021,8.209816,35.777923,0.0,48.059859,6.798065,44.869005,-4.547018,39.141346,-12.999201,34.451557,-19.129434,26.895212,0.0,-30.450009,-42.357714,-18.670716,-37.726683,-10.044443,-27.003555,-5.523751,-12.611167,-3.351853,107.592001,21.391621,-121.554743,-22.782314
92,-7.284302,28.488441,5.337302,26.462975,0.0,-67.802238,-43.047546,-101.933693,-37.98191,-100.49913,-30.407146,-92.254932,-21.595161,-76.781021,0.0,-3.030843,-11.572475,24.856085,-2.970009,37.861645,8.242386,43.675909,20.194787,47.275794,0.0,52.429184,10.812555,53.3241,0.480451,49.321855,-7.048274,45.040019,-12.241414,35.48184,0.0,-21.693256,-36.344462,-11.133207,-29.577009,-0.880277,-17.19581,4.654168,-1.477055,8.670999,100.409403,48.824044,-116.115737,2.624643
93,-6.803524,27.730786,5.372497,25.082199,0.0,-68.670456,-45.998611,-106.042408,-41.816253,-105.596729,-34.479515,-97.088207,-25.335205,-79.742225,0.0,-1.814672,-4.044158,32.806394,6.743805,46.758869,18.945576,53.573879,30.663612,57.565302,0.0,55.803091,16.869524,63.471113,7.947887,61.166113,1.027474,56.771931,-4.080648,45.023495,0.0,-13.836007,-27.700941,-1.524111,-18.597825,10.21517,-4.788078,16.958281,11.720735,21.834652,93.916694,75.090076,-110.432425,26.242088
94,-6.974716,26.996594,4.513619,24.416564,0.0,-68.885857,-47.037003,-106.661282,-42.969521,-107.304634,-35.87011,-98.603863,-26.89286,-80.40097,0.0,-1.687984,2.080724,39.065651,14.683655,54.543015,27.709411,62.173014,39.132416,67.24844,0.0,59.816453,20.60753,73.428835,12.909679,74.067312,6.621002,70.117481,1.564882,55.573436,0.0,-8.812081,-20.214433,6.502602,-9.000182,19.908774,6.176591,27.685216,23.483978,33.956184,87.255741,100.755093,-105.605043,49.327075
95,-12.531097,30.63517,7.835575,30.520129,0.0,-66.779515,-45.425469,-100.08648,-41.17408,-100.662552,-33.913605,-92.085663,-24.418053,-74.339676,0.0,3.494857,9.18212,44.256119,22.539783,59.28854,35.149261,67.054822,45.2962,72.053814,0.0,63.311033,26.001199,79.839311,18.33134,80.880117,11.120933,74.760509,4.878805,58.106002,0.0,-6.742188,-14.264022,15.655458,-1.751177,29.764152,13.912929,38.023643,31.309817,43.44971,75.430333,131.172136,-97.063779,79.629077
96,-11.081177,26.834883,7.873913,25.498572,0.0,-66.337521,-42.020187,-95.526249,-37.501511,-96.512077,-30.09288,-88.306778,-20.413422,-69.497498,0.0,6.868072,15.903473,48.021677,30.95006,66.0269,44.387135,74.697398,54.876875,81.732388,0.0,64.114168,29.903783,85.429681,21.95708,86.696805,13.553787,77.708232,5.409376,57.813674,0.0,-5.873903,-7.128347,26.360547,6.094257,40.334804,21.601783,48.684587,38.376653,52.918828,64.93594,158.081357,-88.603082,105.201987
97,-11.853996,34.755466,6.760671,25.124949,0.0,-61.973465,-35.173531,-82.861634,-32.574326,-85.658856,-28.082486,-79.101471,-21.762944,-63.395497,0.0,12.544263,14.851727,40.917873,21.900944,52.428656,27.868381,54.382081,31.801326,55.7933,0.0,64.96344,31.847992,88.082325,23.426136,88.652081,14.021759,76.939362,4.329952,54.436375,0.0,-4.056971,-0.689727,35.676066,12.038589,49.47285,26.289139,56.457161,41.038997,58.078628,53.430348,192.822189,-81.494007,130.312302
98,-8.727619,32.866768,7.340504,25.810172,0.0,-59.807122,-32.997781,-73.17421,-31.820767,-75.143189,-29.0665,-69.759705,-24.608409,-57.725459,0.0,18.912508,14.637175,32.981142,14.511186,36.015168,13.318452,30.841305,10.767759,28.252122,0.0,66.084995,32.909694,87.776561,23.900287,86.312725,13.722301,74.047817,3.141906,52.875126,0.0,-0.169993,5.755941,46.203004,19.352937,61.473079,33.64959,68.351074,47.6347,69.184384,44.884936,225.486193,-73.971296,155.91971
99,-4.949273,30.954604,6.415832,23.336889,0.0,-60.926273,-34.961128,-69.133163,-34.998584,-67.71714,-32.906976,-62.973243,-28.79294,-53.785692,0.0,26.095811,15.391112,24.744366,8.988193,17.004576,1.051054,5.165991,-7.739951,-1.493137,0.0,67.516159,34.891285,87.873654,25.112664,84.997937,13.954914,71.948994,2.396153,51.15326,0.0,4.863067,13.573111,56.523993,27.666617,71.827412,41.506638,78.159843,54.020162,77.519269,40.019989,256.181053,-67.471138,178.996855
100,-0.036461,22.853692,2.865715,20.326457,0.0,-65.634189,-35.676819,-72.263237,-36.407329,-68.378459,-35.127817,-61.707744,-32.332643,-53.79923,0.0,31.164606,16.717905,15.529488,5.197606,-2.700389,-8.618925,-20.648177,-23.026043,-28.913457,0.0,69.995945,35.350731,89.489674,24.748787,85.525143,12.878243,71.631008,0.354904,48.717785,0.0,6.613271,18.541216,63.007724,32.674304,78.678843,45.896982,85.763542,57.040078,85.353581,39.958997,278.742588,-64.629954,199.031155
101,-1.557563,20.335115,2.405377,18.817475,0.0,-67.80827,-35.213013,-72.785351,-36.079663,-66.778427,-35.39007,-59.848481,-33.791445,-54.436289,0.0,38.856311,18.783246,6.800622,2.364917,-21.423756,-17.257425,-43.867456,-37.756295,-53.843445,0.0,71.09816,35.288669,88.93753,24.507019,83.454551,12.71363,69.185737,0.390037,46.904239,0.0,8.490088,23.307717,67.571759,37.978158,84.442626,50.868421,90.989911,60.742991,90.229949,38.218512,298.759362,-62.407499,217.530289
102,2.09658,7.399156,2.316604,16.337936,0.0,-71.996315,-43.118637,-69.599407,-42.937362,-60.42342,-40.124308,-52.171692,-35.939398,-52.780866,0.0,40.230826,19.654866,12.080715,6.172991,-13.669312,-11.170563,-32.279706,-29.694853,-40.551903,0.0,72.861466,34.456135,89.219742,23.452092,83.962967,12.056752,70.237015,0.612053,49.142979,0.0,9.562792,26.718477,70.870046,42.911633,88.498974,56.442816,96.099746,66.34132,96.707147,40.016413,305.875009,-60.389574,233.584716
103,0.844174,6.559549,1.028572,12.152382,0.0,-72.629849,-46.510804,-63.756215,-45.104863,-51.767018,-40.746335,-42.69888,-34.864998,-46.894776,0.0,40.445742,17.927133,16.578565,6.119478,-4.072958,-9.368587,-19.803246,-26.181137,-28.72744,0.0,74.330613,32.171231,89.919136,20.672448,86.506737,9.536637,71.874596,-1.149433,48.78114,0.0,9.139259,27.709127,69.866232,43.562211,86.813015,56.329368,93.952548,65.269741,94.415479,40.455878,312.347249,-59.765711,245.649789
104,-2.198983,5.135597,2.403145,9.847363,0.0,-70.032142,-46.137851,-51.742115,-44.347629,-39.521736,-39.626896,-30.387531,-33.407547,-37.609588,0.0,40.350065,14.808687,20.901785,3.706358,6.02143,-10.275565,-7.261725,-25.297959,-17.093762,0.0,73.802216,30.675293,89.18747,19.218716,86.485291,8.411568,71.124459,-1.751827,47.971585,0.0,9.720651,28.56232,70.122582,44.433658,87.199696,56.72073,94.639114,65.07792,94.594369,37.845766,317.430173,-57.773695,255.444479
105,-3.15731,5.714864,2.986141,7.33296,0.0,-64.627911,-47.403351,-33.971947,-45.268845,-20.904614,-39.827374,-14.000576,-32.560593,-25.645764,0.0,39.237855,10.579303,26.786353,-0.797939,17.730643,-13.970289,6.258763,-27.704779,-6.848948,0.0,72.520947,29.73808,88.801999,18.466279,87.049908,7.811394,71.185673,-2.123016,48.021607,0.0,10.81351,29.850681,69.608004,45.980666,87.040096,57.875586,94.307971,65.629067,93.522679,34.250067,323.11963,-55.225943,262.752032
106,-3.089081,5.252984,2.954796,6.25097,0.0,-57.500404,-50.183418,-15.666481,-48.348095,-0.908134,-42.41225,5.466705,-33.958488,-12.630844,0.0,39.297135,5.440187,33.001606,-6.313424,27.216247,-18.525061,16.614085,-30.335396,0.369527,0.0,71.99857,29.43599,88.94228,18.540665,87.998509,8.121804,72.17751,-1.534103,49.66848,0.0,11.421702,30.519486,67.639363,46.891941,84.684725,58.524644,92.717441,65.865682,91.780872,30.73815,328.358103,-52.693983,268.988491
107,-1.797569,-5.670268,2.969158,4.547732,0.0,-50.657559,-45.002918,-8.91671,-44.830857,2.886383,-40.862561,4.483291,-34.364559,-20.880501,0.0,34.394708,9.995922,37.651177,3.159398,34.314926,-4.932314,25.973409,-12.922929,15.926777,0.0,70.558777,29.278393,88.480019,18.621895,87.99495,8.046238,71.88485,-1.857204,49.12864,0.0,12.494455,30.570159,65.588114,47.044663,82.585681,58.586173,90.896496,65.865262,90.124134,28.54275,322.661875,-50.122656,273.510263
108,-6.919556,-3.659824,2.175042,2.991598,0.0,-42.246448,-38.438747,4.710045,-40.098152,13.56427,-37.862732,10.756508,-33.021183,-26.455273,0.0,35.788427,12.714472,40.246436,10.558481,37.797897,6.676739,32.7972,2.72102,28.347626,0.0,69.073311,28.974414,88.067527,18.475593,87.855606,7.675003,71.581215,-2.627896,48.157287,0.0,13.795832,30.873329,64.117367,47.471222,80.844578,58.834422,89.394021,65.766943,88.713952,21.31711,318.945274,-48.253698,276.445084
109,-3.748878,-5.503641,1.199592,2.099316,0.0,-40.257477,-35.800095,11.681923,-38.977147,18.132454,-38.037804,11.951042,-34.592995,-38.871529,0.0,35.446848,14.61568,42.124723,17.211482,41.431254,17.499709,39.837315,17.463375,41.580159,0.0,67.97937,28.785988,88.39634,18.387326,88.080895,7.533291,71.723419,-2.868141,48.01458,0.0,15.008808,30.87281,62.155767,47.788731,79.091694,59.157352,87.579189,65.895051,87.111393,17.349827,313.352336,-47.272511,278.455103
110,-6.150948,-5.048133,0.701947,1.640289,0.0,-33.626072,-30.761444,21.432816,-35.748939,24.765358,-36.412193,15.154793,-34.287312,-49.399063,0.0,32.221809,15.289044,43.849276,23.363676,46.354836,28.688142,47.907871,33.419384,54.278501,0.0,67.337276,28.143344,88.283603,17.778579,87.698123,6.930038,71.279125,-3.410763,47.946407,0.0,16.505576,30.462194,60.652625,47.668823,77.384925,59.158809,85.661765,65.879501,85.976667,11.074654,308.204031,-46.694789,279.99522
111,-9.547703,-4.424528,0.363864,0.624148,0.0,-29.843387,-22.747627,31.705319,-28.995025,34.388088,-31.969951,21.153729,-32.639568,-51.630272,0.0,34.079904,15.242051,45.633986,26.138739,49.407122,34.032739,52.600161,41.454793,63.357268,0.0,66.318078,27.555417,87.907746,17.157246,87.341217,6.246071,70.929955,-4.144775,47.769654,0.0,17.918154,30.136634,59.730309,47.57915,76.51443,59.170455,84.552184,65.922492,85.552516,1.465313,303.671357,-46.392563,280.511222
112,-0.221466,6.183007,0.189274,0.321819,0.0,-34.799217,-24.582092,31.142246,-29.621601,36.131458,-31.526745,24.570957,-31.47662,-48.506904,0.0,39.779837,9.71881,40.848589,17.993958,43.138356,24.135395,45.45612,29.968438,54.265619,0.0,65.692463,26.951821,87.738705,16.505081,86.912327,5.625229,70.71983,-4.682647,47.843273,0.0,18.864985,30.022704,58.857664,47.626166,75.640055,59.22524,83.642044,65.909117,85.074419,1.190162,309.753541,-46.256974,280.732218
113,2.812317,1.343503,0.433617,0.360931,0.0,-33.091038,-26.472095,27.155491,-31.742248,32.338154,-33.630157,20.884335,-33.443619,-52.927917,0.0,29.862858,8.407628,37.722425,17.216299,41.039608,23.599476,44.009247,29.51771,53.327977,0.0,65.452984,26.188236,87.588306,15.657749,86.493381,4.933159,70.547367,-5.081669,48.001064,0.0,19.369659,29.449525,57.871671,47.307077,74.667178,59.133602,82.612369,65.992653,84.696606,3.939085,311.019668,-45.886751,281.015773
114,-2.086922,-0.27117,0.354332,0.416618,0.0,-31.081787,-24.908054,29.302472,-30.318889,34.850659,-32.612995,22.866452,-32.836727,-48.930141,0.0,31.852949,7.486866,37.419329,16.597794,41.029727,23.308903,44.096327,29.499826,53.821856,0.0,65.263126,25.480396,87.260822,14.804741,85.727314,4.109115,69.92506,-5.714436,47.334446,0.0,19.814126,29.125187,57.383768,46.973464,73.723854,58.855565,81.776354,65.690286,84.17022,1.787235,310.695747,-45.597347,281.37964
115,-1.94268,0.545268,0.399731,0.245914,0.0,-28.330708,-23.290203,30.602978,-28.546818,36.959026,-30.821411,24.769032,-30.897102,-46.754116,0.0,31.827965,7.108633,37.102155,16.208347,40.658843,22.808182,43.702113,28.801318,53.123101,0.0,64.917182,25.054607,87.06768,14.198822,84.963066,3.47676,69.319839,-6.222165,46.67546,0.0,20.354505,28.864181,57.154527,46.712668,73.261727,58.628077,81.302186,65.420314,83.91781,-0.230015,311.196215,-45.272186,281.580754
116,1.747204,-0.744142,0.311817,0.158934,0.0,-26.606152,-24.829949,28.616112,-30.883347,34.230148,-33.532047,22.153335,-33.625832,-48.3517,0.0,32.051687,8.001458,37.887793,16.868459,41.421386,23.235346,44.712399,28.962561,54.317515,0.0,64.610836,24.670841,87.094631,13.616272,84.537586,2.864319,68.89278,-6.678246,45.968136,0.0,20.711866,28.689031,56.883812,46.529713,72.897263,58.441862,80.920494,65.129209,83.550839,1.442042,310.416826,-45.035516,281.704441
117,-5.92915,-4.571025,0.236755,0.017611,0.0,-15.071319,-18.30178,34.831249,-25.403618,40.117871,-29.707821,26.978703,-31.503547,-40.593647,0.0,32.543517,10.869061,41.205741,21.194323,45.757698,28.605619,50.037137,35.170973,59.9072,0.0,64.335239,24.461952,87.159611,13.22509,84.168217,2.397114,68.474247,-7.109619,45.576954,0.0,21.030325,28.422924,56.770525,46.218294,72.724646,58.112992,80.710925,64.748876,83.44411,-4.564963,305.803592,-44.876616,281.679843
118,-4.827633,-3.572224,0.137798,0.089439,0.0,-14.057087,-15.29623,38.779015,-22.355335,44.108368,-27.446823,31.013054,-30.500244,-32.963962,0.0,42.880635,12.737122,45.172637,22.090741,48.784061,28.67331,51.959316,34.622839,62.374351,0.0,63.975632,24.447934,87.169442,13.196904,84.01632,2.369889,68.369179,-7.075573,45.801339,0.0,21.16425,28.206218,56.690855,45.906047,72.442768,57.759977,80.413499,64.361158,83.210916,-9.478667,302.163263,-44.824889,281.701177
119,-2.992126,0.256721,0.339066,0.110274,0.0,-9.156944,-12.142056,41.241829,-19.200279,47.089348,-24.819363,34.055305,-28.594883,-28.458607,0.0,43.71035,13.984567,46.093077,21.693278,48.733561,26.720256,50.862629,31.274089,60.070492,0.0,63.442818,24.462112,86.898697,13.18903,83.616417,2.317886,67.939178,-7.181156,45.636635,0.0,21.344265,27.983558,56.660017,45.678151,72.328974,57.512765,80.088457,64.110179,83.003978,-12.569961,302.346322,-44.584991,281.737789
120,-2.470574,-1.494199,0.270367,0.215114,0.0,-8.280235,-9.907482,42.011765,-16.776855,48.841988,-23.280727,36.286034,-28.743507,-20.724048,0.0,49.397884,15.459228,47.426564,21.023076,48.575023,24.059677,49.505737,26.925267,59.496139,0.0,63.044872,24.292568,86.627437,13.056163,83.409885,2.215232,67.65961,-7.253724,45.779926,0.0,21.370002,27.68865,56.340162,45.401719,71.963201,57.28251,79.570593,63.924718,82.604539,-15.134337,300.777288,-44.408426,281.878068
121,1.051873,-3.606286,0.198875,0.16906,0.0,-5.888089,-10.699082,40.875663,-17.576912,47.243934,-23.909466,34.039901,-28.978054,-24.831917,0.0,47.387044,17.326894,48.453103,25.462585,51.567806,30.492502,53.584871,34.853427,64.870438,0.0,62.622677,24.292236,86.297825,13.240894,83.312634,2.466843,67.680828,-7.041412,46.15884,0.0,21.324011,27.141467,55.87922,44.874494,71.682262,56.858717,79.226878,63.667182,82.405801,-14.176019,297.08474,-44.303106,281.960866
122,-0.858513,-0.251423,0.151657,0.17011,0.0,-0.667843,-10.345036,43.865707,-16.944615,50.194359,-22.152764,36.998886,-25.354134,-22.778355,0.0,43.768075,16.986983,48.835807,26.676771,52.701729,33.0824,55.714643,38.531751,67.295895,0.0,62.277363,24.293656,85.921681,13.455666,83.245114,2.782654,67.854504,-6.682857,46.704518,0.0,21.398012,26.695728,55.567899,44.455789,71.441337,56.578037,78.802146,63.594526,82.106905,-15.130817,296.752386,-44.247734,282.050045
123,2.024242,4.70485,0.044758,0.152709,0.0,-7.681961,-13.643829,40.04678,-19.300621,48.083805,-22.928535,38.005245,-24.346264,-16.528656,0.0,44.136737,16.46476,47.426725,21.987902,48.841118,24.627102,48.937004,26.584257,55.884741,0.0,61.941444,24.309128,85.816223,13.66626,83.277031,3.101074,68.027435,-6.309746,47.261398,0.0,21.305646,26.261647,55.228864,44.079383,71.229878,56.330418,78.411081,63.514955,81.793064,-13.19755,301.380123,-44.293951,282.125641
124,-0.878906,-2.10128,0.005516,-0.046683,0.0,1.873226,-12.63699,42.651386,-18.375217,51.180004,-21.448048,39.884182,-21.677239,-10.860924,0.0,38.66239,16.394006,47.104771,24.340704,51.453568,29.365779,53.643831,33.178101,60.746388,0.0,61.678917,24.308498,85.832062,13.877735,83.461235,3.42136,68.328781,-5.928795,47.836144,0.0,21.300199,25.983832,54.966511,43.769136,71.106031,56.089455,78.346415,63.390675,81.888999,-14.156153,299.196992,-44.368132,281.997107
125,3.416588,3.197437,0.014797,-0.021946,0.0,-4.679466,-17.615914,37.854664,-22.791493,47.071049,-24.255135,38.702808,-22.424378,-6.491226,0.0,38.039785,16.174396,46.345376,21.388564,49.12985,23.935719,49.511912,25.50124,53.188643,0.0,61.419789,24.440312,85.812756,14.170212,83.548908,3.77964,68.624668,-5.554596,48.219921,0.0,21.238696,25.730865,54.721819,43.46588,70.91127,55.83692,78.222569,63.270237,81.997495,-10.833521,302.316791,-44.447291,281.897523
126,-1.985081,1.979162,-0.021904,-0.065172,0.0,1.733883,-15.825256,41.531113,-20.617138,51.994537,-21.381752,43.040566,-18.614445,1.864998,0.0,34.990933,14.581594,44.879162,19.489961,48.286871,22.250983,49.418497,24.00325,52.071949,0.0,61.244717,24.357502,85.952191,14.148022,83.598713,3.818711,68.769345,-5.430702,48.464505,0.0,21.148578,25.673944,54.724586,43.357459,70.752548,55.752101,78.047136,63.258752,81.963039,-12.915081,304.212948,-44.565674,281.749346
127,3.500507,6.138275,-4.6e-05,-0.091761,0.0,-12.900672,-21.254699,34.299763,-24.964416,46.693394,-24.569881,41.390568,-21.2043,8.299714,0.0,37.432593,13.746099,42.225339,12.448093,42.315594,9.589061,39.050615,6.304717,35.830405,0.0,61.062413,24.394227,86.186818,14.241177,83.797589,3.957688,68.976803,-5.250995,48.556721,0.0,21.085691,25.627434,54.571087,43.306404,70.560306,55.716841,77.888561,63.241339,81.999718,-9.510035,310.256402,-44.661181,281.562764
128,-3.395267,-6.070461,0.110882,-0.105618,0.0,1.595638,-16.643074,41.180237,-21.373077,51.604065,-22.166405,42.884193,-19.461754,3.641762,0.0,33.902965,13.977441,45.10097,18.550182,48.98386,21.171426,49.725384,22.457353,50.593669,0.0,60.97316,24.42857,86.008919,14.353821,83.788697,4.088974,69.034264,-5.13517,48.401184,0.0,21.089729,25.656963,54.548326,43.279419,70.432891,55.666354,77.823291,63.221949,82.196307,-13.003315,304.086242,-44.648312,281.357447
129,2.742119,5.310807,0.073689,0.070136,0.0,-12.659992,-21.062611,36.164978,-25.03355,46.832565,-24.974259,41.931404,-21.661068,4.195678,0.0,38.767292,13.90849,44.759885,13.043614,43.837223,10.541734,40.484917,7.459883,37.62633,0.0,60.868664,24.408554,85.827564,14.41341,83.818325,4.218246,69.169727,-4.941033,48.55228,0.0,21.051901,25.512356,54.398544,43.158549,70.231646,55.612483,77.569287,63.301323,82.187921,-10.366092,309.303281,-44.679519,281.333815
130,0.673256,0.455496,0.081802,-0.008015,0.0,-13.523827,-21.931137,35.968895,-26.06052,46.858864,-26.018509,41.677116,-22.604325,3.489212,0.0,38.80165,13.43684,44.628357,12.227236,43.526211,9.487432,39.902326,6.198914,36.715288,0.0,60.693478,24.390072,85.693783,14.475861,83.800656,4.34166,69.23061,-4.763946,48.514492,0.0,21.115566,25.462103,54.376857,43.120782,70.112171,55.598712,77.467473,63.339695,82.230764,-9.775806,309.65189,-44.680687,281.218913
131,0.30899,-1.102899,0.097481,0.037124,0.0,-12.5075,-21.878895,35.395386,-26.083649,45.621231,-26.27306,41.031578,-23.016025,-0.403667,0.0,39.445274,13.214316,45.534309,12.731082,44.446007,10.543327,41.078016,7.531932,38.400963,0.0,60.470821,24.395199,85.528896,14.523422,83.73492,4.4049,69.210331,-4.700432,48.360134,0.0,21.340029,25.449531,54.307141,43.115299,69.967811,55.59607,77.379479,63.364284,82.321759,-9.539332,308.463362,-44.655722,281.170408
132,0.804932,-0.75191,0.216934,0.143508,0.0,-12.455017,-22.42075,34.797638,-26.721977,44.792129,-27.01878,39.781036,-23.74102,-3.844082,0.0,39.93183,13.1683,46.013146,13.26079,44.98126,11.660268,42.068555,9.30549,40.535341,0.0,60.220608,24.245281,85.356045,14.357243,83.427784,4.222,68.856503,-4.880722,47.991451,0.0,21.479251,25.380173,54.289567,42.990551,69.87831,55.459107,77.235934,63.250787,82.192824,-8.800873,307.639577,-44.505261,281.242041
133,1.636482,1.167984,0.088532,0.092984,0.0,-14.312828,-23.290203,33.106155,-27.442062,43.522934,-27.651203,38.181152,-24.401974,-7.230526,0.0,39.982317,12.268313,44.717228,11.834652,43.458507,9.948708,40.870461,7.527882,39.207535,0.0,60.082271,24.041633,85.527248,14.092838,83.279972,3.950889,68.651973,-5.104031,47.7598,0.0,21.634504,25.316644,54.178231,42.941175,69.807346,55.422625,77.200699,63.189851,81.85027,-7.243721,308.748664,-44.496059,281.276128
134,1.641243,2.148075,0.109462,0.071556,0.0,-17.923691,-25.649654,30.063583,-29.407185,41.305527,-28.961815,36.839951,-25.06113,-6.378193,0.0,38.613014,10.893192,43.295659,9.268514,41.770238,6.343978,38.458292,2.956992,34.912707,0.0,59.898766,23.982548,85.774727,13.90757,83.098503,3.655953,68.29287,-5.467746,47.274857,0.0,21.692537,25.474318,54.141082,43.047929,69.728393,55.463702,77.140739,63.12778,81.556116,-5.68998,310.835899,-44.474099,281.286844
135,-1.52552,-4.889349,0.059945,-0.005545,0.0,-7.12452,-22.090016,34.318908,-26.425083,43.85305,-26.806824,36.30883,-23.583447,-17.580586,0.0,35.275022,11.507992,44.863577,15.218871,46.334768,17.120833,46.61451,17.893269,47.979749,0.0,59.862304,23.888763,86.105964,13.635486,82.89521,3.271888,67.971611,-5.884209,46.995849,0.0,21.85168,25.658075,54.19977,43.195957,69.744732,55.555809,77.171306,63.115553,81.477149,-7.318937,305.886572,-44.517591,281.221321
136,2.583446,6.235001,0.088176,-0.066888,0.0,-22.539425,-26.641113,29.800976,-30.502716,40.675656,-30.124363,35.27615,-26.460777,-15.616447,0.0,39.12621,10.581341,42.749329,8.662607,39.956963,5.439137,36.34323,2.108406,33.871386,0.0,59.852978,23.810875,86.363056,13.386154,82.613377,2.91346,67.554051,-6.304161,46.632237,0.0,21.996942,25.939298,54.384551,43.441353,69.794811,55.726437,77.268908,63.14528,81.410928,-4.850012,312.057911,-44.543936,281.090771
137,0.699097,0.32214,-0.039242,-0.101554,0.0,-23.301052,-27.495838,28.9491,-31.3671,39.958134,-30.905171,34.27747,-27.105835,-17.371719,0.0,39.052825,10.100502,42.182348,8.103963,39.422895,4.903662,36.043715,1.683748,33.724728,0.0,59.923462,23.888993,86.599915,13.369389,82.461503,2.813084,67.357773,-6.47509,46.417351,0.0,22.071338,26.230982,54.567554,43.692109,69.886115,55.887025,77.430311,63.159494,81.444606,-4.280102,312.328172,-44.712365,280.937338
138,0.687939,0.114065,0.117039,-0.028109,0.0,-22.449006,-27.977726,27.952446,-31.864712,39.234558,-31.434197,33.612007,-27.693158,-17.518158,0.0,37.419638,10.47534,41.433477,8.823825,38.957755,5.725597,35.581613,2.488455,33.265985,0.0,59.807453,24.028874,86.560444,13.435307,82.225605,2.77359,67.106838,-6.648216,46.18253,0.0,22.242622,26.436549,54.714767,43.770705,69.87873,55.860447,77.477748,63.030918,81.673416,-3.708034,312.408487,-44.711197,280.875479
139,0.346756,-0.142717,0.028759,-0.018352,0.0,-22.707436,-28.511239,28.050109,-32.330544,39.33522,-31.751484,33.678062,-27.816605,-17.807579,0.0,37.617992,10.285,41.346828,8.795716,38.840996,5.928731,35.6938,3.018656,33.981807,0.0,59.783547,24.131962,86.517586,13.540695,82.087784,2.832459,67.072083,-6.668941,46.181465,0.0,22.480719,26.529199,54.875713,43.734679,69.882916,55.746938,77.561185,62.864809,81.890321,-3.478002,312.244145,-44.799162,280.835502
140,0.494865,4.269053,0.016171,0.066295,0.0,-28.092281,-30.093292,26.648048,-33.05991,38.798286,-31.77396,34.196892,-27.27729,-16.487686,0.0,39.024766,9.794615,39.419104,4.921656,34.507476,-0.894146,29.678705,-6.259751,26.146767,0.0,59.67445,24.232372,86.46548,13.702652,82.066944,2.996544,67.09869,-6.581406,46.13673,0.0,22.492649,26.479132,54.829697,43.639263,69.759453,55.6533,77.507363,62.810197,81.913897,-3.091158,316.512491,-44.891012,280.90109
141,0.063904,-0.116437,0.05207,0.157377,0.0,-28.265225,-30.109863,26.64743,-32.860737,38.884414,-31.428177,34.572235,-26.757248,-15.546204,0.0,38.872922,9.673486,39.540715,4.985049,34.726246,-0.591161,30.017172,-5.733131,26.234984,0.0,59.476055,24.377026,86.392468,13.954193,82.08791,3.25676,67.213223,-6.401859,46.219792,0.0,22.375768,26.354631,54.588105,43.439241,69.501472,55.444336,77.29609,62.656896,81.82431,-3.131784,316.404717,-44.943472,281.06713
142,-1.263382,-0.627903,0.064156,0.056897,0.0,-26.463879,-28.656967,28.354935,-31.55008,40.72023,-30.511631,36.164612,-26.283165,-14.00576,0.0,38.928806,9.928972,39.940809,5.726017,35.438574,0.578206,31.031286,-4.214342,27.243232,0.0,59.316204,24.528877,86.405559,14.173096,82.185757,3.464928,67.356914,-6.266304,46.33437,0.0,22.332827,26.345727,54.477139,43.365634,69.358878,55.368828,77.211307,62.644397,81.821766,-4.4937,315.786043,-44.97785,281.133256
143,0.37809,3.91363,0.06245,0.039186,0.0,-38.351338,-31.002949,26.18296,-33.406414,39.669868,-31.964699,37.335159,-27.652577,-7.633026,0.0,43.920413,8.997035,39.053381,0.506798,31.320785,-8.409418,24.106336,-16.170531,17.735719,0.0,59.19793,24.563782,86.478104,14.259796,82.217377,3.57565,67.362786,-6.139435,46.357315,0.0,22.282167,26.317347,54.464346,43.358299,69.333141,55.407385,77.129884,62.751313,81.728289,-4.216982,319.709683,-45.016772,281.182452
144,-3.399811,-1.882313,0.065827,0.015166,0.0,-33.253098,-26.599892,30.834343,-29.579796,44.129814,-29.362644,40.451271,-26.422554,-6.42096,0.0,45.029166,9.65522,40.063161,2.462569,32.966087,-5.213007,26.74745,-11.909753,21.262643,0.0,59.204773,24.562626,86.561165,14.273952,82.197715,3.628246,67.28968,-6.040924,46.300552,0.0,22.194136,26.311604,54.439386,43.397943,69.371265,55.465579,77.114372,62.812631,81.675578,-7.69784,317.836521,-45.031992,281.206769
145,0.982132,0.793011,0.200477,0.128725,0.0,-39.100468,-28.022461,28.138481,-31.374115,42.316818,-31.346981,39.934914,-28.629444,0.943108,0.0,46.477065,8.644193,39.752359,-0.068753,32.410889,-9.065813,24.955058,-16.929974,16.764521,0.0,59.220406,24.244091,86.290833,13.990322,82.028458,3.485356,67.251732,-5.986198,46.496361,0.0,22.233619,26.30759,54.378747,43.372514,69.241108,55.449598,76.992933,62.817484,81.561192,-6.793493,318.636238,-44.9093,281.3422
146,-2.05584,-0.922255,0.062531,0.089106,0.0,-36.010379,-25.08855,30.602578,-28.705913,44.316124,-29.521156,40.958771,-27.900489,1.615746,0.0,46.690364,8.489039,40.11886,0.646898,33.332231,-7.489176,26.423829,-14.627721,19.369129,0.0,59.248672,23.859981,85.972183,13.655044,81.822967,3.33221,67.332046,-5.891762,46.829452,0.0,22.417499,26.253348,54.433631,43.323929,69.243281,55.450104,77.099502,62.851447,81.517497,-8.916167,317.714076,-44.913603,281.431399
147,-2.570434,-4.835254,0.064705,0.168628,0.0,-28.802216,-20.740826,34.76532,-25.037224,46.750168,-27.343014,40.767975,-27.550942,-3.469013,0.0,46.580509,9.428448,41.37175,5.729388,36.922596,1.292386,32.892493,-2.709917,30.63265,0.0,59.319122,23.333427,85.682922,13.178478,81.703376,3.08044,67.441932,-5.841763,47.160347,0.0,22.510236,26.109779,54.35275,43.193586,69.039357,55.364876,77.037344,62.784818,81.386277,-11.540125,312.872567,-44.902422,281.593772
148,-2.660832,-4.079813,-0.062073,0.146583,0.0,-22.190208,-17.054592,38.409085,-21.79161,49.055226,-25.048084,41.398625,-26.427189,-5.180488,0.0,45.662515,10.602471,42.513121,10.236082,39.941537,8.606414,38.100906,6.832473,39.060877,0.0,59.430634,22.905224,85.45285,12.824593,81.660004,2.94651,67.683563,-5.709892,47.550247,0.0,22.573839,26.044064,54.282972,43.111446,68.806212,55.30646,77.007173,62.73585,81.324873,-14.237555,308.784677,-45.001093,281.732278
149,-1.869014,-1.572054,-0.02425,0.204555,0.0,-19.011097,-14.585198,40.767311,-19.309342,50.907417,-23.064228,42.201942,-25.171544,-6.743683,0.0,46.064387,11.038478,43.346541,11.753264,41.053909,11.121162,39.947897,10.284086,42.785971,0.0,59.463604,22.478783,85.142521,12.472343,81.592312,2.805633,67.885082,-5.603851,47.931232,0.0,22.616236,25.852254,54.105884,42.91682,68.507969,55.177858,76.855625,62.685251,81.117934,-16.138338,307.200325,-45.057112,281.924535
150,-1.939671,0.272788,-0.14716,0.062602,0.0,-16.386211,-13.02578,42.520672,-17.537567,52.914242,-21.285713,44.900929,-23.573044,-1.505642,0.0,46.021298,11.403548,43.362115,11.614697,40.977154,10.401017,39.305397,8.8444,40.649259,0.0,59.39708,22.356583,85.205864,12.394604,81.737389,2.780526,68.150574,-5.580322,48.106339,0.0,22.658981,25.68585,54.073984,42.719108,68.398449,54.993299,76.845436,62.5165,80.984233,-18.101687,307.454835,-45.22795,281.968859
