takenoko1/special-research/HandMotion_SimilarSearch_自分用/NewProject/handData/test_key/d4_feature_d3/45.csv
frame,vel_0x_L,vel_0y_L,vel_0x_R,vel_0y_R,posFromWrist_0x_L,posFromWrist_1x_L,posFromWrist_2x_L,posFromWrist_3x_L,posFromWrist_4x_L,posFromWrist_5x_L,posFromWrist_6x_L,posFromWrist_7x_L,posFromWrist_8x_L,posFromWrist_9x_L,posFromWrist_0y_L,posFromWrist_1y_L,posFromWrist_2y_L,posFromWrist_3y_L,posFromWrist_4y_L,posFromWrist_5y_L,posFromWrist_6y_L,posFromWrist_7y_L,posFromWrist_8y_L,posFromWrist_9y_L,posFromWrist_0x_R,posFromWrist_1x_R,posFromWrist_2x_R,posFromWrist_3x_R,posFromWrist_4x_R,posFromWrist_5x_R,posFromWrist_6x_R,posFromWrist_7x_R,posFromWrist_8x_R,posFromWrist_9x_R,posFromWrist_0y_R,posFromWrist_1y_R,posFromWrist_2y_R,posFromWrist_3y_R,posFromWrist_4y_R,posFromWrist_5y_R,posFromWrist_6y_R,posFromWrist_7y_R,posFromWrist_8y_R,posFromWrist_9y_R,posFromBody_0x_L,posFromBody_0y_L,posFromBody_0x_R,posFromBody_0y_R
6,-0.62043,-2.47082,0.190246,0.168245,0.0,-27.467972,-33.010014,20.267418,-36.354195,29.140137,-35.682919,19.206596,-32.228256,-36.995533,0.0,26.483011,10.239256,30.482955,15.760299,32.567118,18.741497,33.912968,20.784053,45.12688,0.0,56.669712,21.033108,83.760624,10.580063,78.584965,0.970562,66.35709,-6.923103,47.027813,0.0,25.415692,26.915992,52.57561,43.671694,65.95953,55.68599,76.6383,62.942405,81.549706,7.32407,315.945547,-41.561234,284.233932
7,-0.005539,4.039342,0.054223,0.077855,0.0,-37.575703,-36.699577,18.210869,-39.179901,28.902397,-37.341785,22.438545,-32.6227,-32.134346,0.0,31.385647,8.817736,31.015787,9.217941,29.561379,7.793001,28.102773,6.136447,35.522801,0.0,56.394962,21.08179,83.517574,10.662105,78.593662,1.010799,66.236583,-6.976422,46.661945,0.0,25.313383,26.726504,52.582686,43.450591,65.917725,55.481535,76.625395,62.793413,81.499565,7.352051,320.050811,-41.473491,284.377709
8,-2.577255,-4.527318,0.021858,0.104247,0.0,-21.985714,-32.020455,23.223037,-35.847508,32.338485,-35.068428,23.307678,-31.058625,-29.528137,0.0,26.406748,11.498408,33.028813,15.652692,34.061305,17.076138,34.42972,17.631015,42.160637,0.0,56.352802,21.078769,83.511829,10.67387,78.722088,1.030277,66.236675,-6.952412,46.599735,0.0,25.115597,26.558469,52.61881,43.278394,65.904436,55.321848,76.554592,62.661132,81.532033,4.784249,315.549261,-41.44218,284.507724
9,-1.432892,2.540202,-0.005505,0.132862,0.0,-30.066582,-33.845982,23.613785,-37.317444,34.023582,-36.150169,27.0905,-31.735943,-27.939137,0.0,31.783925,10.593493,34.524865,10.327472,31.720087,7.995233,30.141278,5.540234,36.24601,0.0,56.407356,21.100651,83.484947,10.711762,78.812966,1.084305,66.195625,-6.886745,46.581299,0.0,24.807574,26.319644,52.614006,43.063502,65.832596,55.148305,76.500708,62.539731,81.498046,3.353485,318.092684,-41.445557,284.643807
10,-2.644776,-0.785305,-0.050537,0.062936,0.0,-26.604011,-31.459247,26.410309,-35.315837,36.891243,-34.535568,29.769242,-30.465076,-21.716251,0.0,32.353264,11.837184,35.440538,11.239526,32.511061,8.500401,30.74453,5.498232,35.424989,0.0,56.418915,21.110378,83.496712,10.747444,78.938187,1.106609,66.140923,-6.914097,46.445137,0.0,24.63834,26.173184,52.665605,42.880585,65.972288,54.941602,76.487617,62.3373,81.382313,0.704046,317.283719,-41.500757,284.683083
11,-1.779487,4.000118,-0.044861,-0.007756,0.0,-34.824692,-33.135178,25.944351,-36.062519,38.6212,-34.173077,34.881454,-29.005634,-8.751297,0.0,36.940986,10.979594,36.05483,4.935895,29.567703,-2.622355,24.473664,-9.847252,23.198629,0.0,56.386437,21.015564,83.581192,10.687912,79.057938,1.095452,66.11396,-6.866249,46.49556,0.0,24.65153,26.082065,52.677721,42.805633,66.087811,54.885631,76.501252,62.314811,81.406087,-1.089689,321.245394,-41.559866,284.636884
12,-3.645401,-7.543826,0.065037,0.051599,0.0,-17.121792,-26.878292,32.961868,-31.346375,42.946701,-31.310578,35.275085,-27.848866,-10.05724,0.0,34.745586,12.815928,39.440075,12.952631,36.802567,10.952621,34.871458,8.306629,36.868368,0.0,56.415768,20.803402,83.521259,10.426506,78.946667,0.860687,65.864468,-7.03553,46.280399,0.0,24.5881,25.839386,52.688996,42.596373,66.107336,54.710939,76.361634,62.165906,81.194431,-4.756256,313.650251,-41.515995,284.637166
13,-3.146668,0.877276,0.007839,0.041583,0.0,-17.604412,-24.053375,37.065812,-28.621673,47.193444,-28.659553,40.042717,-25.133537,-0.381843,0.0,37.374412,10.95556,38.873366,10.497323,36.469682,8.370552,35.405723,5.796239,35.697049,0.0,56.329102,20.529946,83.392868,10.252968,79.019806,0.848362,65.908196,-6.882213,46.478714,0.0,24.522521,25.711957,52.666827,42.495225,66.200764,54.638073,76.248803,62.131967,81.069979,-7.921887,314.472207,-41.527119,284.623429
14,0.867783,1.583812,0.095146,-0.052982,0.0,-19.745853,-24.940247,34.822014,-28.791893,45.816124,-27.992157,40.383957,-23.670547,7.363232,0.0,36.531741,10.661011,38.313142,8.834965,35.83469,5.364875,33.36597,1.472673,29.993323,0.0,56.147438,20.238076,83.308297,10.095967,79.035782,0.87529,66.045296,-6.652748,46.807366,0.0,24.605328,25.698088,52.619724,42.501042,66.218239,54.703245,76.289361,62.269708,81.275892,-7.067968,315.984877,-41.445837,284.499305
15,-0.922417,-1.80925,0.153191,-0.005805,0.0,-15.340187,-23.049156,37.675003,-26.843971,47.140045,-26.079128,40.076271,-21.791668,1.838631,0.0,35.916336,11.575781,38.968178,12.132609,37.254455,10.802357,36.232326,8.745031,35.937393,0.0,56.001114,19.909481,83.166138,9.860481,78.916695,0.809315,66.022636,-6.535172,46.859894,0.0,24.650542,25.659692,52.643424,42.492892,66.26086,54.752559,76.319273,62.373585,81.474717,-8.000616,314.106266,-41.302877,284.424139
16,3.826516,1.556839,0.203911,0.011128,0.0,-20.70646,-26.100266,33.033142,-28.913521,42.834342,-27.301415,36.928665,-22.311963,0.841781,0.0,34.758837,9.919845,37.455836,10.270983,35.709769,8.869421,34.627852,7.005794,33.581763,0.0,55.705765,19.662117,82.973625,9.690605,78.716903,0.768963,65.963379,-6.440884,46.853851,0.0,24.871818,25.700805,52.625702,42.499597,66.212793,54.748965,76.266699,62.361642,81.585509,-4.173723,315.594837,-41.098589,284.366999
17,5.122718,8.369613,0.050514,0.018414,0.0,-38.785583,-32.79491,23.749604,-33.359619,36.324189,-29.421959,34.89402,-22.509075,-2.785846,0.0,35.908433,7.23069,33.116265,2.111136,27.695295,-4.162286,23.554139,-10.128586,20.58765,0.0,55.485741,19.501041,82.897087,9.693604,78.794724,0.936607,66.199242,-6.122314,47.230019,0.0,24.842536,25.838731,52.436029,42.616009,66.047462,54.853842,76.201651,62.444968,81.780949,0.953705,323.890028,-41.043365,284.310991
18,4.767563,6.764486,0.122852,0.071247,0.0,-50.342926,-38.838478,14.367508,-37.164802,29.943306,-31.096733,31.795029,-22.557472,-6.241573,0.0,36.279763,7.316819,30.278092,-2.781411,21.838565,-13.825966,13.462516,-24.190884,7.228812,0.0,55.374218,19.366173,82.81287,9.547943,78.577847,0.816445,66.053044,-6.199287,47.147518,0.0,24.878253,25.755418,52.343219,42.588358,65.984687,54.864093,76.237392,62.452144,81.973116,5.71649,330.574834,-40.925291,284.302558
19,2.327912,0.651097,0.139458,0.096467,0.0,-53.267693,-41.07454,11.526237,-38.575951,26.989013,-31.776661,29.454917,-22.548649,-9.553174,0.0,35.990264,6.253983,29.555118,-3.650092,21.121728,-14.439149,12.975441,-24.472257,6.818554,0.0,55.106518,19.304626,82.623013,9.432941,78.301724,0.632412,65.613018,-6.456814,46.713192,0.0,24.800818,25.611588,52.330979,42.443318,66.015612,54.729279,76.213667,62.326346,81.931299,8.036488,331.14858,-40.793747,284.321674
20,4.380775,4.708592,0.060631,0.076113,0.0,-61.527191,-45.878723,3.504364,-42.084835,20.996429,-34.01144,26.601151,-23.693218,-5.197243,0.0,35.04778,4.348946,27.163018,-9.094971,17.288473,-23.244893,6.606269,-36.42432,-5.26542,0.0,54.972805,19.330261,82.443409,9.456344,78.183895,0.58334,65.315861,-6.611584,46.384609,0.0,24.686481,25.459843,52.211382,42.322065,65.927803,54.639914,76.173197,62.267374,81.931917,12.403593,335.772987,-40.746786,284.313602
21,-3.195923,-0.276209,-0.09438,-0.045436,0.0,-54.694073,-42.694393,7.089043,-38.776222,24.985794,-30.739975,29.565811,-20.421009,-3.638901,0.0,35.071912,5.958544,26.897874,-6.926371,17.357892,-20.816978,6.599056,-34.124748,-4.304671,0.0,55.034798,19.344521,82.349923,9.429245,78.229477,0.482724,65.204819,-6.790935,46.16446,0.0,24.595869,25.331156,52.208554,42.220832,66.021281,54.558354,76.316433,62.190211,82.019615,9.189491,335.413983,-40.859345,284.185371
22,0.152962,0.275172,-0.007816,0.00783,0.0,-56.659104,-43.35125,6.910606,-39.231514,25.038483,-30.930153,30.389191,-20.301888,4.695694,0.0,35.572634,5.946021,27.065625,-8.129813,17.451271,-23.155639,5.998496,-37.300003,-8.111806,0.0,55.010113,19.285149,82.267101,9.330998,78.251164,0.365067,65.114811,-6.923069,45.997479,0.0,24.658582,25.20227,52.219459,42.169875,66.151673,54.566456,76.410022,62.259384,82.072473,9.313219,335.603989,-40.896395,284.108035
23,0.966225,-0.371775,0.012463,-0.085265,0.0,-59.351647,-45.29813,5.643493,-40.943951,23.570457,-32.409668,29.613853,-21.510888,8.609367,0.0,36.760193,6.078921,28.394445,-9.007248,17.993342,-25.064171,5.865845,-40.165913,-10.467646,0.0,54.880462,19.262729,82.198471,9.302364,78.229912,0.304699,64.984565,-7.021088,45.775612,0.0,24.874054,25.336923,52.292707,42.300897,66.24725,54.677792,76.521728,62.346279,82.101681,10.256081,335.14795,-40.907295,283.938506
24,-2.694466,0.036445,0.006477,-0.043422,0.0,-52.076454,-42.110939,9.453117,-38.401371,27.454491,-30.556114,32.007042,-20.333393,7.084511,0.0,36.256779,7.194788,28.320345,-7.096308,17.91766,-22.618509,6.056209,-37.461035,-8.738375,0.0,54.969521,19.339474,82.20932,9.359356,78.328423,0.362228,65.05323,-6.95953,45.770119,0.0,25.00221,25.511528,52.289866,42.511367,66.306653,54.858522,76.594124,62.450414,82.08271,7.538847,335.098886,-40.923586,283.809575
25,-0.770325,-1.17921,0.012875,-0.116375,0.0,-52.323154,-41.627643,10.855019,-38.629875,28.632752,-31.229645,33.315468,-21.27539,10.302613,0.0,37.109564,6.872574,29.210427,-7.432033,19.36031,-22.704219,7.353436,-36.915706,-7.102829,0.0,55.025287,19.407406,82.300403,9.313854,78.351505,0.260433,65.127536,-7.078961,45.878437,0.0,25.254115,25.668819,52.425482,42.659556,66.515148,54.986136,76.828689,62.562627,82.046661,6.746687,333.83321,-40.932546,283.606734
26,0.192238,-0.921094,0.025955,-0.070161,0.0,-52.416492,-41.97076,11.886314,-39.473534,28.629044,-32.504436,32.942024,-22.963383,3.71212,0.0,38.067783,7.391166,30.750791,-7.180511,20.237635,-22.721719,8.24857,-37.189161,-6.321242,0.0,55.042522,19.391086,82.399235,9.228859,78.359997,0.144894,65.083454,-7.197441,45.891254,0.0,25.388916,25.848302,52.506289,42.825504,66.636858,55.112366,76.947942,62.653586,81.94434,6.920248,332.831392,-40.925268,283.455849
27,-1.054115,-0.865704,0.066833,-0.109755,0.0,-50.523365,-41.074265,13.191376,-39.33458,29.729049,-32.911423,33.589073,-23.738068,4.411834,0.0,38.760079,8.014944,31.703847,-6.599674,21.338855,-22.141895,9.032443,-36.595888,-5.536431,0.0,55.016499,19.166268,82.34174,8.90355,78.391331,-0.172794,64.946789,-7.453479,45.643032,0.0,25.560755,26.160735,52.741446,43.12193,66.980066,55.340892,77.200278,62.784509,81.772958,5.864325,331.898464,-40.860243,283.27887
28,-1.77594,-7.058974,0.00277,-0.030344,0.0,-38.337948,-36.946793,18.745537,-37.480694,32.920555,-33.272427,32.904053,-26.028706,-7.727005,0.0,36.042604,10.024896,34.998689,1.0133,27.364597,-9.424755,18.574957,-19.236821,11.475771,0.0,55.265133,18.954037,82.090221,8.696308,78.536442,-0.313236,65.22726,-7.481701,45.849781,0.0,25.608426,26.130613,52.741743,43.118694,66.807239,55.350006,77.322952,62.775258,81.615655,4.088602,324.76639,-40.857256,283.175426
29,-0.195809,-1.941482,0.076778,-0.075534,0.0,-40.859012,-37.091171,18.355111,-38.243579,32.320908,-34.532478,32.784256,-27.72171,-4.076477,0.0,37.939095,10.273293,36.854338,0.763667,29.397296,-9.962762,20.19446,-19.812916,12.049074,0.0,55.278923,18.648079,81.957619,8.290169,78.49823,-0.728359,65.114868,-7.849067,45.659821,0.0,25.717528,25.996282,52.800197,43.005075,66.918724,55.29248,77.403932,62.780533,81.439457,3.893926,322.759709,-40.779345,283.034693
30,-3.281776,-4.462418,0.132466,-0.044793,0.0,-28.004574,-32.769516,24.833908,-34.932724,36.204781,-32.473995,32.742966,-26.710293,-12.808788,0.0,36.97669,11.572324,38.793424,6.096865,33.358598,-0.845586,27.52863,-7.445939,24.587248,0.0,55.144992,18.379806,81.54729,7.990791,78.234432,-0.99226,64.84077,-8.027195,45.42509,0.0,25.832753,25.995589,52.817165,43.038493,66.799718,55.301236,77.396385,62.701566,81.380139,0.614113,318.247572,-40.644916,282.940181
31,-2.003563,-1.905321,0.06776,-0.193069,0.0,-27.541157,-30.58247,25.896813,-33.774227,37.459419,-32.404175,33.643753,-27.775658,-6.877521,0.0,37.829006,11.042097,39.846157,6.337827,35.244405,0.36219,30.090951,-5.121258,27.292323,0.0,55.094627,18.61219,81.163193,8.154419,77.989334,-0.946941,64.611054,-8.139324,45.060173,0.0,25.980016,25.973396,52.949706,43.093933,66.897926,55.394751,77.470152,62.780656,81.333382,-1.388163,316.292845,-40.575869,282.697706
32,-3.311073,-2.303834,-0.037971,-0.27842,0.0,-22.76968,-26.824814,29.683227,-30.674252,40.911392,-30.420937,35.567322,-27.108673,-7.357922,0.0,38.812369,11.647128,40.864978,8.405009,36.798948,3.766083,32.929963,-0.536685,31.534107,0.0,55.12516,19.181568,80.945457,8.68983,77.747016,-0.63802,64.395813,-8.145321,44.970451,0.0,26.042816,25.784069,52.872394,42.957402,66.902088,55.283575,77.401967,62.681151,81.392736,-4.697061,313.944541,-40.611665,282.374816
33,-0.964623,4.768008,-0.094437,-0.349187,0.0,-33.087318,-28.582283,26.368447,-31.013202,39.566277,-29.286609,38.585152,-24.822681,8.791386,0.0,42.421681,9.723591,39.543062,1.210617,33.272567,-7.926678,25.801472,-16.093281,17.229242,0.0,55.021431,19.821407,81.251175,9.166466,77.635597,-0.475525,63.909805,-8.378655,44.487762,0.0,25.904471,25.832285,52.956931,42.995268,67.3388,55.269991,77.334253,62.633962,81.40279,-5.660643,318.670651,-40.705061,281.983731
34,-2.775913,-6.781615,-0.239388,-0.321485,0.0,-17.923553,-24.344639,32.212566,-27.747654,42.915012,-27.137855,38.327282,-23.425381,1.104012,0.0,39.650137,10.628716,41.605896,8.183412,39.429651,4.452637,35.830516,0.795321,32.591682,0.0,55.017403,20.447422,81.399239,9.742138,77.585541,-0.093772,63.752404,-8.262382,44.437638,0.0,25.818848,25.985438,52.89302,43.191067,67.348112,55.429035,77.259683,62.749534,81.467924,-8.436298,311.850436,-40.944191,281.623646
35,1.318909,3.046382,-0.351734,-0.521766,0.0,-27.760964,-27.091267,27.58263,-29.77224,40.486873,-28.276886,39.246792,-24.001511,8.718281,0.0,41.521941,10.075766,40.353425,4.308957,36.200846,-2.595975,29.721585,-9.134022,22.286095,0.0,55.343182,20.865876,81.750469,10.055146,77.703518,0.058262,63.851132,-8.297699,44.284756,0.0,25.704165,25.985994,52.936924,43.237552,67.62568,55.529824,77.457506,62.865896,81.538727,-7.1168,314.85953,-41.295336,281.064592
36,0.120071,-3.691291,-0.414367,-0.631583,0.0,-18.834606,-26.036053,29.725308,-29.140194,41.380863,-27.955696,38.194164,-23.588196,-1.725071,0.0,39.300864,11.159979,40.745874,9.222708,39.299296,5.861695,35.969319,2.434189,34.436982,0.0,55.642101,20.59798,82.179416,9.787731,78.253475,-0.153328,64.14117,-8.419568,44.025707,0.0,25.412369,25.755294,52.873914,43.083818,67.797889,55.556944,77.8297,63.068141,81.886974,-7.013649,311.130964,-41.726623,280.395734
37,3.380242,1.010496,-0.454033,-1.055463,0.0,-20.137333,-29.111332,26.044452,-31.873307,36.71323,-29.897713,34.765148,-24.598721,-4.659771,0.0,39.873155,10.457309,39.556005,7.62231,38.089161,3.507522,33.316385,-0.733891,30.61373,0.0,55.755924,20.221813,82.227825,9.641441,79.152774,-0.110607,64.97089,-8.338486,43.836994,0.0,24.98728,24.979623,52.839951,42.38594,68.117621,55.144254,78.266523,63.001043,82.230369,-3.667179,312.099667,-42.214428,279.298478
38,3.737777,-0.020452,-0.160584,-2.586799,0.0,-21.505726,-32.913391,20.127903,-35.10252,31.995037,-32.36087,30.478283,-26.095241,-8.239986,0.0,40.697264,10.315444,38.235226,7.012328,36.172848,2.447182,31.124505,-2.183556,28.585328,0.0,56.087574,19.747776,81.194859,9.187706,78.31818,-0.664352,64.251286,-9.161876,42.158993,0.0,24.905078,23.332245,54.377734,40.594696,70.326532,53.637396,80.180008,62.087767,83.225835,0.006592,312.066726,-42.439018,276.69919
39,6.18932,6.515682,0.426567,-4.978565,0.0,-36.523476,-36.384957,1.949901,-36.504398,16.962112,-31.834328,19.677543,-24.1871,-6.383217,0.0,42.69936,8.975422,34.04215,-0.865507,25.537883,-11.314825,15.325612,-21.124137,6.692941,0.0,54.654248,18.485825,77.863621,7.739159,75.080487,-2.359245,61.065731,-11.264488,38.62801,0.0,25.874843,21.373337,56.459513,37.634628,73.311003,50.485852,82.5274,59.435438,84.175395,6.156092,318.61111,-42.052271,271.749327
40,7.597549,-16.525596,-1.799251,-11.207193,0.0,-34.952545,-34.173088,-13.392574,-31.365761,-0.62598,-24.603321,4.620323,-15.535927,-11.05735,0.0,43.783685,15.626917,46.226346,10.414071,43.69737,3.864859,36.022238,-2.926957,28.339302,0.0,53.373069,21.65197,73.980606,11.045082,69.041359,-0.026551,55.107582,-10.865341,35.231518,0.0,28.760044,22.224936,68.447367,37.277674,85.10054,49.84119,92.49914,59.298537,90.500094,13.705009,302.156147,-43.900154,260.612767
41,12.083588,-18.110989,-6.021378,-19.125807,0.0,-47.571487,-35.207039,-30.744976,-28.363506,-18.038921,-18.071972,-7.683678,-6.458702,-3.897789,0.0,47.204251,19.467275,57.745244,14.08086,56.298987,7.322018,46.587302,-0.10873,33.011573,0.0,54.476875,23.632176,66.410454,12.445873,60.335404,0.294205,47.105839,-12.081631,29.196282,0.0,29.172735,23.746553,71.446004,37.703159,87.054236,49.357153,93.285495,58.297983,90.635192,25.802662,284.250425,-49.907467,241.692227
42,12.646454,-30.461515,-10.184246,-25.598732,0.0,-50.468937,-31.009964,-41.238522,-20.881073,-27.547566,-8.062615,-14.961777,5.612549,-0.816353,0.0,46.647842,22.283451,66.769412,20.512511,68.596409,17.094811,61.263214,12.678051,48.688335,0.0,55.945507,24.286617,59.008896,12.44101,48.330242,-0.890705,34.719441,-14.623569,18.655712,0.0,25.864864,20.631739,66.677403,32.717603,81.33621,43.469276,86.721537,52.445291,84.309504,38.562481,254.475007,-59.978348,216.779592
43,14.509483,-34.929108,-9.47913,-26.724727,0.0,-50.740173,-23.650177,-46.895061,-10.470657,-33.71838,4.378945,-19.839455,19.222366,-1.007309,0.0,39.52776,18.330943,66.13873,19.962426,71.86487,20.720882,66.88938,20.681411,56.758817,0.0,53.919422,22.333832,47.474465,9.343369,33.37262,-4.950336,19.452164,-19.213543,5.378163,0.0,18.143544,13.092002,52.033355,21.555439,64.733772,30.119221,69.123943,38.10592,67.195465,53.329336,221.131548,-69.200106,191.640514
44,18.659638,-41.101889,-12.807449,-29.681397,0.0,-50.604653,-23.435166,-46.579857,-9.457444,-35.765957,5.630447,-20.729828,20.507377,-1.297738,0.0,30.241795,13.529305,59.391311,17.829134,69.130419,21.688016,67.903334,24.97643,60.871382,0.0,52.952351,19.616959,34.331108,5.296509,17.605614,-9.829239,3.785271,-24.357822,-8.865097,0.0,5.914411,2.296843,32.077616,7.966964,40.831879,14.810361,44.583149,22.05093,44.600186,72.327502,182.100165,-81.669027,164.029623
45,12.841392,-30.192086,-11.602661,-28.019268,0.0,-50.332809,-18.5774,-34.52108,-3.660988,-20.32576,11.798195,-5.749054,26.733032,11.600372,0.0,13.705306,0.240196,33.668813,1.987708,38.724109,4.694525,37.289425,7.835417,32.278311,0.0,50.693962,11.502331,19.235779,-4.53495,2.008976,-19.809403,-12.250603,-33.230381,-25.17627,0.0,-9.986178,-10.315752,-3.307371,-6.855698,2.080371,-1.53133,6.686341,5.124574,12.832427,85.788402,154.443931,-92.65218,138.546207
46,10.288811,-28.982383,-8.363331,-22.29125,0.0,-45.507065,-11.407723,-21.528031,4.478279,-5.874504,19.812355,8.525413,34.270981,23.297951,0.0,-5.764938,-16.59672,4.160662,-16.610324,6.687075,-14.19839,6.627653,-10.162556,5.436401,0.0,45.861088,5.315048,6.444534,-11.367188,-12.398621,-26.481869,-26.654079,-39.188599,-39.450611,0.0,-23.64553,-23.11975,-32.140769,-21.785898,-29.422843,-17.200683,-23.758323,-10.061724,-13.700608,97.250422,127.964116,-99.842302,118.757525
47,6.606926,-23.514891,-4.433716,-16.260551,0.0,-39.154862,-5.888237,-8.159889,10.410461,8.165222,25.227356,21.834297,38.642189,33.968651,0.0,-24.899081,-26.801735,-24.988372,-27.24882,-25.464128,-24.564252,-23.738914,-19.755198,-19.645121,0.0,40.1166,0.041176,-6.47937,-17.33662,-24.440346,-32.235912,-37.828686,-44.289848,-50.173164,0.0,-34.058631,-31.511754,-53.91849,-31.78261,-54.443665,-28.045389,-48.140986,-20.972663,-35.333395,105.063297,106.479236,-103.070069,104.526985
48,3.569549,-19.596857,-5.226093,-13.510515,0.0,-32.95626,-0.722854,5.18969,15.14589,21.150788,28.838288,33.64428,41.098275,44.979859,0.0,-37.819275,-31.756872,-45.728039,-31.665778,-49.100741,-28.510184,-45.179207,-23.237291,-36.681128,0.0,37.477901,-2.970783,-15.094334,-20.3993,-32.15181,-34.978089,-45.009201,-46.92469,-56.955151,0.0,-39.879929,-34.436266,-67.212761,-34.144063,-70.753881,-29.918321,-63.296815,-22.168077,-47.113428,109.982374,88.086731,-106.946634,92.220822
49,-1.90995,-11.198721,-2.433895,-5.110211,0.0,-27.666847,7.959229,20.194679,25.430397,37.929245,40.101997,50.553452,52.925125,62.666473,0.0,-48.285463,-36.475635,-60.319927,-34.928151,-64.384778,-30.02252,-58.866446,-22.841861,-46.056101,0.0,35.557182,-4.856529,-19.502278,-21.717579,-36.835842,-35.904328,-49.798199,-47.911858,-60.877453,0.0,-41.952427,-34.299933,-76.080725,-33.025318,-80.57103,-28.047012,-72.319464,-19.754049,-53.600265,109.315435,77.905185,-108.137518,88.127786
50,0.632515,-3.518378,-3.349674,2.414546,0.0,-24.84819,10.386932,25.522911,28.132919,42.219955,42.552589,54.020233,54.815598,64.720093,0.0,-51.078095,-37.194336,-67.316625,-34.605691,-70.967415,-28.855486,-63.875398,-21.073273,-49.334683,0.0,36.913089,-5.538609,-18.556012,-22.705124,-36.19994,-36.697117,-48.340405,-47.79657,-59.663807,0.0,-38.914535,-33.569629,-73.473054,-32.897896,-78.711261,-28.437868,-70.533228,-20.940349,-53.253777,110.853945,74.860892,-110.581197,91.016417
51,0.851349,7.498902,-3.765347,12.803535,0.0,-23.698597,9.909153,26.689407,27.33324,44.141704,41.439365,55.331428,53.124584,65.731441,0.0,-48.52867,-30.386112,-65.963019,-26.665242,-69.338207,-20.758136,-61.992628,-13.513834,-46.643442,0.0,37.947121,-6.628166,-15.711903,-24.040398,-33.042389,-37.820297,-45.876492,-48.248371,-57.906864,0.0,-33.29058,-31.189732,-62.896735,-31.663074,-68.832425,-28.540862,-63.078213,-22.322725,-49.338184,111.996294,82.723569,-114.055544,104.183727
52,1.822288,16.165245,-2.598553,16.094405,0.0,-24.904552,8.925259,24.721825,26.395054,43.547162,40.521893,54.963524,51.901806,64.608067,0.0,-42.65008,-24.787702,-55.730951,-20.452595,-58.0961,-14.608715,-51.724658,-8.088949,-36.944972,0.0,39.134766,-6.968147,-16.251125,-24.649406,-34.542617,-38.304577,-47.212978,-48.223983,-57.710186,0.0,-25.488767,-26.67159,-50.729884,-27.305792,-57.353295,-25.285998,-53.346107,-21.019149,-42.646539,113.897317,99.225125,-116.575362,120.614443
53,1.343651,18.95884,-7.315853,21.057538,0.0,-26.987102,8.15427,22.294052,25.456707,42.814808,39.212483,54.651169,49.831089,63.250042,0.0,-36.480763,-19.94316,-45.122761,-15.151989,-47.159521,-9.693117,-41.737412,-4.083595,-28.171381,0.0,37.522785,-3.864384,-13.266002,-20.990021,-31.476768,-34.474285,-43.324367,-44.329902,-52.555492,0.0,-23.847292,-23.368214,-43.248759,-23.875092,-49.554112,-22.493378,-47.097465,-19.39941,-39.274614,115.020939,118.398526,-124.111244,141.886542
54,3.251953,19.418306,-7.60576,17.979547,0.0,-31.980159,4.470143,16.603615,21.619503,37.9502,35.4772,50.589501,45.978985,58.796895,0.0,-32.66896,-15.556615,-37.582363,-10.832535,-39.875375,-5.888704,-35.205219,-1.140373,-22.890597,0.0,37.787103,0.056345,-10.145439,-16.707951,-28.139323,-30.102843,-39.042515,-39.954684,-47.684555,0.0,-22.895071,-20.460715,-36.712769,-21.266737,-43.233745,-20.657878,-41.628695,-18.521246,-36.249721,118.063459,137.698951,-131.926437,159.748208
55,0.987008,14.603121,-5.833935,15.206335,0.0,-34.58479,2.014972,13.666877,18.367458,36.232738,31.920009,49.389678,42.421955,57.841014,0.0,-29.289823,-11.564081,-30.628637,-6.260819,-33.294233,-1.230229,-29.642718,3.198316,-17.215765,0.0,37.478079,4.264486,-9.498768,-11.16029,-27.450903,-24.266241,-38.173245,-35.066191,-46.25885,0.0,-25.706159,-19.881169,-37.626267,-19.798645,-44.24334,-18.699575,-42.710049,-16.095887,-37.005379,118.940037,152.244249,-137.870802,174.89672
56,-1.02324,6.997019,-4.269951,6.910699,0.0,-35.768486,1.341111,13.539872,17.438439,36.501137,30.730889,49.818924,41.08564,58.192749,0.0,-27.224201,-9.66883,-28.111103,-3.779162,-30.647415,1.504277,-27.489684,5.818581,-15.677047,0.0,30.091593,8.829374,-9.987694,-4.993996,-27.936327,-18.099775,-38.420219,-29.881846,-44.297115,0.0,-32.366559,-20.715812,-45.775735,-19.106041,-51.6793,-17.075064,-49.016199,-14.231951,-41.269869,117.876657,159.228998,-142.180893,181.795149
57,-1.494117,1.889031,-5.522713,3.456319,0.0,-36.158776,1.398971,13.875824,17.214752,35.808128,30.131675,49.387848,40.274734,58.113739,0.0,-28.916705,-11.228954,-31.617513,-5.859607,-35.371296,-0.812536,-31.894977,3.416317,-20.312859,0.0,21.50722,13.032973,-6.418281,0.855732,-23.179132,-12.121828,-34.229404,-24.755041,-40.207718,0.0,-41.3981,-22.643907,-54.422652,-20.202395,-59.494877,-17.42304,-55.730803,-13.788299,-46.386793,116.495768,161.186717,-147.590378,185.320156
58,-1.20472,-0.23659,-1.117573,-2.546303,0.0,-36.224556,0.773003,14.741799,16.681,35.129562,29.783432,48.755631,40.242256,58.318359,0.0,-30.16415,-11.235278,-34.559013,-5.923087,-38.356441,-0.809597,-34.553993,3.28485,-22.593685,0.0,16.778853,14.660197,-5.563568,3.160664,-22.507146,-9.768522,-34.216804,-22.744016,-39.981811,0.0,-44.31979,-23.415442,-57.852912,-20.35356,-62.705676,-17.154981,-57.741588,-13.343227,-46.947474,115.456089,161.064492,-148.54291,182.888218
59,-2.293487,-2.702606,-0.972799,-2.589238,0.0,-34.162995,2.386573,17.51509,18.430435,37.357154,31.258186,50.265289,41.364326,60.333114,0.0,-27.794107,-10.09802,-32.989867,-4.729637,-36.974584,0.203752,-33.433581,3.758229,-21.748174,0.0,13.119084,16.103291,-4.442139,5.170784,-21.230667,-7.792007,-33.900043,-21.071789,-39.426407,0.0,-46.119401,-23.064817,-59.550912,-19.397509,-64.10277,-16.040201,-58.732682,-12.445265,-46.763242,113.326144,158.524191,-149.352167,180.461285
60,-0.911614,-0.080386,-0.233116,-3.18479,0.0,-33.368729,3.263809,17.82637,19.338455,37.647766,31.950165,50.953056,41.781944,60.977966,0.0,-27.155411,-10.509809,-33.261211,-5.449536,-37.689525,-0.715502,-34.189931,2.792415,-22.201842,0.0,7.503365,17.000301,-3.612797,6.701763,-20.011608,-6.349857,-33.895203,-20.026989,-39.073803,0.0,-47.30126,-21.562738,-59.262673,-17.106038,-63.58803,-13.586993,-58.177231,-10.371019,-45.476079,112.564585,158.633011,-149.435228,177.465701
61,0.010643,1.376663,-0.694313,-3.599172,0.0,-33.181801,3.368179,17.946236,19.323166,37.151001,31.738793,50.745873,41.390991,60.88337,0.0,-27.669038,-11.171563,-33.430364,-6.444137,-38.878998,-1.926699,-34.953999,1.555197,-22.319933,0.0,7.378441,17.867821,0.761982,7.649071,-17.721039,-5.367142,-32.830456,-19.215225,-38.314327,0.0,-48.285513,-19.940752,-55.056464,-14.940179,-60.779412,-11.209269,-55.119375,-7.894074,-42.109051,112.648676,160.184403,-150.056093,174.041258
62,-0.308487,0.762408,0.534542,-2.510352,0.0,-33.034035,3.58017,18.078942,19.72538,37.448891,32.168907,51.104759,41.78936,61.372994,0.0,-27.057734,-11.02398,-33.161799,-6.10598,-38.162002,-1.451777,-34.094193,2.215543,-21.307116,0.0,10.628906,18.53159,1.260258,7.886753,-17.152965,-5.364441,-32.798012,-19.435261,-38.003403,0.0,-47.254583,-18.294807,-51.741881,-12.852521,-57.261077,-9.036173,-52.18192,-5.887717,-39.078008,112.334982,161.082091,-149.526758,171.666186
63,-0.129845,1.393225,1.887142,-2.09928,0.0,-32.954589,3.64618,18.140488,19.814003,37.528084,32.221093,51.377358,41.841431,61.529824,0.0,-27.251099,-11.231375,-33.050346,-6.435282,-37.940089,-1.912138,-34.057026,1.734767,-21.410288,0.0,16.001301,17.830673,0.275574,6.594063,-18.363029,-6.847881,-34.438888,-20.99097,-39.624847,0.0,-44.433373,-16.467315,-48.869165,-10.54781,-54.020372,-6.473876,-49.527183,-3.406745,-36.476301,112.187032,162.621488,-147.657721,169.713078
64,-0.225677,1.082732,3.375344,-3.002243,0.0,-32.571968,3.948235,18.663437,20.275909,38.238373,32.728363,52.225365,42.312012,62.003952,0.0,-27.138874,-11.060919,-33.136284,-6.241843,-37.44043,-1.797122,-33.618067,1.769643,-21.132658,0.0,22.312362,15.862014,-2.953503,3.740913,-21.922818,-9.683373,-37.731423,-23.56596,-42.518315,0.0,-38.677062,-14.269446,-45.255129,-8.151906,-50.297835,-3.636111,-45.485298,-0.359289,-32.675045,111.909788,163.830349,-144.333944,166.836964
65,0.029091,1.076976,5.430141,-3.868256,0.0,-32.655007,4.622246,18.900123,20.928932,38.658096,33.23822,52.704529,42.576507,62.304588,0.0,-27.26908,-11.848063,-33.382161,-7.025961,-38.195791,-2.488504,-33.976459,1.339725,-21.725289,0.0,27.120518,11.809708,-9.412319,-1.63718,-28.715824,-15.19146,-44.076942,-28.642548,-48.52351,0.0,-32.658317,-11.325149,-40.786808,-4.968882,-45.738005,-0.011547,-40.318919,3.48386,-27.895156,111.820307,165.022011,-139.022375,163.083394
66,0.176903,1.177643,6.990864,-3.202549,0.0,-32.655442,5.059456,18.210571,21.184021,38.602066,33.318351,52.783905,42.418167,62.45961,0.0,-27.679129,-13.00581,-34.549702,-8.447123,-39.716371,-3.934687,-35.219447,0.183732,-23.124282,0.0,32.174904,6.240715,-20.485703,-8.810108,-38.620285,-22.654518,-52.66341,-35.574944,-56.553349,0.0,-25.276895,-8.997838,-38.456625,-2.753068,-42.146126,2.53357,-36.156391,6.33621,-24.433292,111.856127,166.312441,-132.172594,159.993632
67,-0.234192,0.48395,3.021595,0.857503,0.0,-32.29493,5.632118,18.679161,21.708091,39.4934,33.739517,53.655395,42.61425,63.049873,0.0,-27.845743,-13.77853,-35.086918,-9.319125,-40.699573,-4.753065,-35.83185,-0.439774,-23.970176,0.0,38.603554,3.599258,-24.689999,-12.771813,-42.830246,-26.777538,-55.919872,-39.34465,-60.332531,0.0,-22.396281,-10.399288,-39.270254,-4.883,-43.451387,0.322226,-37.019223,4.539409,-25.662421,111.45797,166.914488,-129.314964,160.969232
68,-0.66417,-0.002445,2.540634,-0.298057,0.0,-31.373748,6.781769,19.288216,22.847924,40.755433,34.703064,54.730843,43.222779,64.119942,0.0,-27.9152,-14.387599,-35.226276,-9.901691,-41.228034,-5.178192,-35.74204,-0.589495,-23.883689,0.0,41.640736,1.233181,-28.740727,-15.716137,-46.252361,-29.599606,-59.16267,-41.583046,-63.619217,0.0,-20.415921,-10.780609,-38.8433,-5.719039,-43.326108,-0.396104,-36.108417,4.403336,-24.79605,110.6019,167.023762,-126.96623,160.782894
69,0.716286,-1.479392,2.052944,-0.561965,0.0,-31.733345,6.333687,18.351998,22.688553,40.538086,34.775322,54.526772,43.408356,64.059792,0.0,-26.615749,-13.345474,-33.36523,-9.281556,-39.617755,-4.831278,-34.099109,-0.372861,-22.833141,0.0,39.474392,-0.702965,-31.567783,-17.954361,-48.327942,-31.810604,-61.643085,-43.361332,-66.345852,0.0,-20.428321,-10.561433,-37.806036,-5.884654,-42.62962,-0.880203,-35.561958,3.947049,-24.710687,111.123985,165.63518,-125.107487,160.311739
70,0.656365,-0.898592,-0.151874,0.736336,0.0,-31.563767,5.738754,18.376075,22.445434,40.948928,34.852661,54.459617,43.743164,64.245208,0.0,-26.053351,-11.984693,-32.31567,-7.977758,-38.544589,-3.677151,-33.033766,0.529621,-21.263495,0.0,38.767353,-0.690857,-31.278328,-17.95475,-47.684395,-31.55262,-61.033734,-42.608071,-65.474865,0.0,-20.627515,-11.23324,-38.044497,-7.289549,-42.717095,-2.85198,-35.834196,1.815722,-25.452248,111.597119,164.798969,-125.442592,161.110456
71,0.999069,-0.462894,-0.812245,0.990983,0.0,-32.033066,4.948334,17.635895,21.927017,40.182792,34.60936,53.55526,43.849342,63.828781,0.0,-25.776449,-10.885165,-31.911303,-7.087107,-37.685325,-3.020632,-32.525843,0.887589,-20.468964,0.0,39.597702,0.104141,-30.089882,-17.055713,-45.665737,-30.213478,-58.989143,-40.673916,-63.334305,0.0,-20.710977,-11.946358,-37.878771,-8.562732,-42.999992,-4.655808,-36.449996,-0.34169,-26.459273,112.453045,164.383521,-126.39798,162.148885
72,1.211311,-0.092983,0.552498,-0.726666,0.0,-32.782654,3.954048,16.812653,20.895584,38.598107,33.774857,51.979019,43.367111,62.672081,0.0,-25.370182,-10.182915,-31.262715,-6.285562,-36.82208,-2.302648,-32.296824,1.425483,-19.594481,0.0,39.105766,-0.168262,-29.805061,-17.154201,-45.233425,-30.167267,-58.555206,-40.450802,-63.137695,0.0,-19.929279,-11.179616,-36.213678,-7.883453,-41.667678,-4.201214,-35.229506,-0.195749,-25.552259,113.559254,164.306463,-125.950584,161.438144
73,1.07785,-0.843449,1.806519,-1.28615,0.0,-33.658241,2.734086,15.891037,19.731423,36.837777,32.939324,50.461373,42.917359,61.519753,0.0,-23.754223,-8.421917,-29.804825,-4.22132,-35.074518,-0.235393,-30.970623,3.321406,-17.608982,0.0,37.751918,-1.365338,-29.598381,-18.358418,-45.686463,-31.354443,-58.958577,-41.449322,-63.082364,0.0,-18.390891,-10.170688,-32.844377,-7.055034,-39.067491,-3.590577,-32.646196,0.309567,-23.624263,114.559164,163.452356,-124.222005,160.141336
74,-0.708549,0.263279,0.892547,0.157624,0.0,-33.818069,2.72612,15.456276,19.377434,36.172119,32.398796,49.701187,42.242569,60.700195,0.0,-22.844997,-8.408961,-29.315366,-3.481871,-34.927478,1.020759,-30.432468,5.03892,-15.386708,0.0,37.79448,-1.156391,-27.872577,-18.095581,-44.597832,-31.075756,-57.661217,-41.07645,-61.735245,0.0,-18.976581,-10.576512,-31.558079,-7.686481,-38.342819,-4.339523,-31.761467,-0.275074,-23.204039,113.788033,163.689496,-123.39204,160.272821
75,-1.76667,0.106359,1.906803,-0.331983,0.0,-34.255852,2.286392,14.142288,18.720566,34.785347,31.816337,48.531875,41.806755,59.705978,0.0,-20.878383,-8.524953,-27.853734,-3.408215,-32.339537,1.40497,-27.80384,5.775269,-12.350984,0.0,37.446053,-1.512073,-26.884437,-18.342407,-43.948906,-31.223064,-56.487533,-40.916107,-60.479793,0.0,-19.695602,-11.30503,-29.60056,-8.325314,-36.65954,-4.747026,-29.799736,-0.213767,-21.515646,111.944607,163.709599,-121.561993,159.854582
76,-1.824761,0.297007,0.856957,0.427968,0.0,-35.983108,0.451859,7.897751,16.15828,27.754509,29.361649,42.352158,39.910103,53.855004,0.0,-18.390113,-10.064897,-22.500208,-5.474965,-24.641107,-0.698657,-20.534087,3.828797,-7.679491,0.0,38.258125,-0.379269,-22.01643,-17.281311,-40.01144,-30.484886,-52.350998,-40.539253,-57.75166,0.0,-21.864907,-13.154814,-28.816052,-10.682291,-35.337797,-7.181339,-28.693243,-2.373674,-21.938378,110.035337,163.712279,-120.789545,159.988223
77,-0.260765,1.269625,3.903477,-1.325806,0.0,-41.810348,-1.704735,-3.613609,13.437241,13.836273,26.464234,28.730667,37.264618,42.281525,0.0,-16.402156,-13.505976,-20.28133,-8.659248,-19.362199,-3.014581,-15.297429,2.89528,-4.215885,0.0,36.810264,-1.645089,-17.358525,-18.257012,-36.815793,-31.406193,-49.898461,-41.182526,-56.63744,0.0,-22.275881,-14.055061,-25.349026,-11.562419,-30.402655,-7.519805,-23.519275,-1.774226,-17.825368,109.688501,164.491581,-116.972139,158.172094
78,-0.164406,0.579417,2.289951,2.365843,0.0,-48.670532,-6.184158,-18.522331,8.781327,-1.404373,22.293526,14.196259,34.038414,28.583703,0.0,-12.887114,-16.429253,-11.916533,-12.23787,-6.564649,-5.938797,-1.970826,1.462064,6.160196,0.0,37.635658,-0.490059,-8.573822,-16.61261,-27.099369,-29.85426,-40.885666,-40.123135,-50.488209,0.0,-26.129576,-17.965134,-25.482308,-15.801461,-28.5799,-11.454973,-22.549571,-4.953025,-16.508577,109.458852,164.430022,-114.747431,159.896961
79,1.084351,0.190895,3.767189,2.078853,0.0,-56.816803,-12.147514,-37.690247,2.494972,-23.972557,16.310326,-7.053337,28.711281,9.948532,0.0,-8.032839,-18.37938,-2.216556,-14.200026,8.216349,-6.894717,14.08228,2.205033,18.499917,0.0,37.899834,-0.564766,-1.863213,-16.55254,-19.553238,-29.881874,-32.856114,-40.299877,-43.862286,0.0,-29.705308,-24.636241,-22.620535,-22.552819,-23.134249,-16.977103,-17.19812,-8.851724,-11.81977,110.511011,163.765433,-111.012434,161.12033
80,-0.352592,-1.80657,2.025375,2.957041,0.0,-65.077401,-18.642197,-56.103653,-4.959092,-45.838555,8.691719,-28.570405,21.512168,-8.949486,0.0,-1.544662,-15.444877,12.925201,-10.071529,26.843522,-1.572326,33.330205,8.879067,34.871532,0.0,40.601933,1.562107,7.828331,-14.279308,-8.931072,-27.654339,-22.858967,-38.226986,-35.88137,0.0,-32.40548,-30.113786,-19.610732,-27.394891,-17.519098,-20.404361,-11.732405,-10.461544,-7.289784,110.168684,161.029192,-108.976794,163.1477
81,-1.415932,-1.017647,1.96859,1.316495,0.0,-71.582062,-23.535439,-70.445755,-10.707024,-62.851914,2.4123,-46.373131,14.976837,-25.102913,0.0,5.262679,-10.181136,25.302849,-2.134292,41.879401,8.417174,49.368096,20.411525,51.655566,0.0,44.801331,3.364918,20.036339,-11.674061,5.80386,-24.569309,-7.999809,-34.651188,-22.25362,0.0,-31.240398,-31.936424,-13.271263,-27.557851,-7.366825,-18.296277,-0.424633,-6.091135,5.004092,108.745606,159.115664,-107.01535,163.568314
82,-4.381828,0.152301,1.590374,0.678328,0.0,-73.812607,-27.904862,-79.999169,-16.069062,-73.925194,-3.458519,-58.087235,8.862487,-36.49086,0.0,12.37109,-2.532075,40.563068,7.474974,58.659076,19.31222,67.90189,31.701896,69.561704,0.0,50.737381,7.016201,32.006207,-7.208302,20.495041,-19.665619,7.551544,-29.432316,-7.331886,0.0,-27.296967,-30.391886,-4.280045,-24.475727,5.319538,-13.585103,13.153603,0.023206,19.174972,104.312474,158.413691,-105.47628,163.392368
83,-5.525826,3.82161,2.803013,3.151197,0.0,-75.285622,-29.548805,-86.645782,-19.297737,-84.643787,-8.123657,-69.95446,3.080498,-46.956413,0.0,16.385632,3.938972,47.701847,17.00573,66.664818,30.481189,76.987944,43.244703,79.554748,0.0,56.311191,10.249683,42.568256,-3.788647,32.857693,-15.955971,20.640678,-25.058704,5.391254,0.0,-22.034362,-27.524109,5.86088,-20.068859,18.117374,-7.526523,27.603126,7.679714,32.360279,98.698042,161.427035,-102.761873,165.735299
84,-6.990829,7.781305,2.488941,4.391949,0.0,-74.468399,-29.716828,-87.31897,-21.190476,-86.849682,-11.381813,-74.007729,-1.146309,-51.678887,0.0,17.711859,9.014461,51.894157,24.141176,71.022323,38.611137,81.226727,51.314136,85.451011,0.0,63.060104,14.533997,55.841126,1.248253,48.2444,-10.766178,35.404484,-20.009857,18.073826,0.0,-15.545938,-19.458814,16.067803,-9.947991,30.92904,3.289667,40.990949,18.754514,45.614708,91.571824,168.518362,-100.408321,169.43727
85,-6.231034,11.475709,4.318462,6.614964,0.0,-72.3311,-27.635238,-85.869049,-20.048744,-86.841991,-11.303192,-75.206886,-2.155861,-54.886162,0.0,17.817625,10.329387,51.342442,26.424051,71.394876,41.581369,82.240335,54.24707,86.823648,0.0,67.977505,17.836247,67.276131,5.491127,61.625302,-6.383514,48.55814,-16.099067,28.65738,0.0,-9.85838,-10.264055,27.298054,0.508737,44.192892,13.861967,54.196447,28.824499,58.582529,85.209285,179.234628,-96.221364,175.292791
86,-7.604187,24.030753,8.206456,10.202637,0.0,-71.285259,-30.804451,-88.780494,-25.413688,-90.523613,-18.562706,-80.139622,-11.074173,-61.285961,0.0,20.157348,13.129262,40.54563,23.515916,53.444155,31.983923,59.187276,37.907529,61.226337,0.0,67.904571,24.332256,73.000557,12.68193,67.053234,0.370021,54.097492,-10.755879,34.756096,0.0,-3.398322,-0.315878,40.467021,12.187741,57.675651,25.663484,67.112028,39.666748,69.603138,77.450918,202.556208,-88.169088,184.786255
87,-7.234543,23.533317,7.390274,13.254257,0.0,-71.277008,-33.360946,-89.301452,-29.863105,-90.003547,-24.51725,-80.536674,-18.305809,-64.508697,0.0,22.281043,15.774303,28.433657,20.385219,33.740771,22.027199,34.417037,20.910048,35.581156,0.0,68.698036,26.79277,78.672065,15.242946,73.558456,3.110847,60.34576,-8.002613,40.832142,0.0,-1.209641,5.090939,47.930003,19.365707,65.786678,33.543787,74.349386,47.428676,75.708364,69.976146,225.467316,-81.019043,197.418303
88,-7.642639,19.360175,6.649257,11.152581,0.0,-69.747139,-34.91645,-88.096481,-32.25872,-87.509456,-27.50299,-79.272251,-21.928482,-64.577728,0.0,27.7792,19.255346,20.688055,19.342007,19.280763,15.704648,15.784146,9.023143,17.288954,0.0,68.384594,28.082646,82.369343,16.863041,77.372132,5.100346,63.944127,-6.081905,43.163269,0.0,1.393435,11.628912,53.849212,27.142925,72.453908,41.198924,80.298519,53.691848,81.492402,62.01396,244.290222,-74.689333,208.033615
89,-7.662758,11.620563,5.826039,11.997253,0.0,-69.308281,-35.113907,-89.708839,-32.362816,-88.166942,-27.565635,-80.385349,-21.768493,-64.214298,0.0,27.067317,25.79248,17.451061,24.656988,13.378609,19.065933,10.928946,9.784303,16.013363,0.0,67.897567,29.159042,84.463794,18.217781,79.920021,7.094307,66.571151,-3.557453,45.627411,0.0,3.330336,16.22024,57.332812,32.683444,76.57681,46.987716,84.14473,58.666078,85.096353,53.926014,255.453653,-69.288482,219.573736
90,-5.540657,10.243084,5.159443,11.562802,0.0,-69.829799,-36.646042,-91.947166,-34.090027,-89.888614,-29.471992,-82.549347,-23.670112,-65.450992,0.0,24.349435,31.59214,18.029045,29.52365,10.740274,22.122221,7.364477,10.526111,14.02032,0.0,67.876144,29.982856,86.618866,19.217136,82.430626,8.634269,69.488708,-1.428761,49.042167,0.0,5.056297,19.606126,58.605488,36.910308,78.885003,51.388804,86.446551,62.276723,87.025782,47.816642,265.416575,-64.697754,230.856376
91,-2.787048,-1.411936,2.710704,10.563137,0.0,-67.824772,-35.598885,-79.246353,-31.376999,-75.149986,-25.358208,-67.264538,-18.392578,-53.063255,0.0,20.181455,31.717926,29.621339,33.970359,26.677351,31.357119,26.493805,24.560621,34.300502,0.0,69.984112,27.080887,88.949719,16.17754,85.947133,6.307045,72.004338,-2.62104,49.747296,0.0,3.514611,20.028252,55.568096,37.144589,76.231525,51.167663,83.843919,61.52753,85.840001,44.326447,263.842748,-62.690197,241.257622
92,-1.520805,-0.559891,2.934746,9.072172,0.0,-64.570301,-35.425576,-66.558953,-30.198281,-61.341454,-23.338532,-54.068802,-15.744667,-42.236378,0.0,15.674898,30.528354,40.977117,36.322865,43.798888,38.248119,46.078936,36.445871,52.92613,0.0,70.047306,27.270104,89.293705,16.705948,87.093373,7.086422,72.640652,-1.845577,49.83617,0.0,4.544818,23.014922,54.981431,39.618373,74.740649,52.706657,83.254364,61.926154,85.89223,42.027214,263.189407,-60.533879,250.236344
93,0.767418,1.974482,2.62199,8.707031,0.0,-62.429066,-37.209847,-55.768799,-31.747971,-48.820611,-24.526795,-41.359463,-16.439278,-32.721715,0.0,8.11167,28.897884,49.46166,36.484354,56.747048,41.04708,60.450578,42.339195,64.690114,0.0,70.19442,28.353138,90.306565,18.236561,88.452507,8.775341,73.899193,-0.137203,52.089032,0.0,5.808182,24.961492,55.412918,41.537674,74.660682,54.267324,83.527818,63.089297,86.01037,41.98526,265.096285,-58.721261,258.875771
94,2.013336,7.756679,2.990021,7.968051,0.0,-59.282124,-40.438225,-42.957871,-35.540177,-34.342736,-28.505081,-27.125805,-20.558716,-23.485817,0.0,6.96741,24.287277,53.555799,30.74127,61.299721,34.949264,61.586551,36.522553,59.883043,0.0,69.761124,28.758568,90.866547,18.914818,88.771408,9.394341,74.172501,0.263329,52.729569,0.0,7.070447,27.141615,56.124628,43.543105,74.354881,55.785766,83.520631,64.075883,85.875124,43.249386,272.759869,-56.48045,266.750727
95,-4.464112,8.610638,2.505249,7.023702,0.0,-51.770805,-42.201896,-23.229263,-41.044521,-14.302505,-36.792183,-11.311477,-31.111885,-27.429977,0.0,11.017076,19.876902,53.940331,27.113519,61.920214,32.143683,61.350652,35.485764,60.309108,0.0,68.91227,28.987702,90.409859,19.361481,88.559258,9.759648,74.128235,0.432438,53.205116,0.0,9.078916,28.742359,57.48347,44.88525,73.952997,56.709256,83.478801,64.638923,85.98977,38.130283,281.277504,-54.630192,273.681426
96,-8.301498,7.484879,1.473473,5.620337,0.0,-43.020241,-38.748173,-7.798943,-40.68932,-1.255692,-38.761059,-2.987778,-34.762974,-33.368076,0.0,13.172437,19.470905,52.163907,28.778767,59.869148,35.408489,60.959525,40.295651,62.50641,0.0,68.172317,29.088707,90.057861,19.827152,88.489631,10.259537,74.52317,0.856739,53.941063,0.0,11.178158,29.68404,58.083191,45.905688,73.630574,57.577529,83.20884,65.281103,85.73647,29.326046,288.639738,-53.659458,279.179118
97,-11.764446,7.896013,1.223854,3.912098,0.0,-31.244683,-31.498364,9.140865,-35.245892,13.27367,-34.962124,8.068554,-32.207074,-35.913391,0.0,13.496812,18.213691,49.497463,29.336299,56.971263,37.377561,59.293672,43.525494,63.499603,0.0,67.131569,29.11393,89.744774,19.928112,88.19973,10.216976,74.446312,0.671139,53.987274,0.0,12.86061,30.39974,58.395809,46.920001,73.515644,58.522237,82.736549,65.923098,85.287261,17.215439,296.396309,-52.781765,282.951774
98,-6.723267,2.153545,0.898521,2.272798,0.0,-24.394844,-28.6684,18.433582,-35.797748,21.574871,-38.63007,12.09763,-38.653541,-47.28194,0.0,17.312395,17.900679,49.48126,31.412472,56.319822,41.112288,59.8402,49.07367,68.429152,0.0,66.532883,28.771855,89.229126,19.607598,87.831368,9.892514,74.240387,0.469952,53.853516,0.0,14.199631,30.978959,58.550827,47.915652,73.379682,59.572401,82.380509,66.7786,85.404945,10.212324,298.380275,-52.163092,285.054993
99,-11.610672,3.391271,0.450508,0.853181,0.0,-15.293575,-22.411148,33.299893,-31.674877,35.068119,-36.390999,21.86681,-37.906299,-49.346203,0.0,21.57247,17.349371,48.363466,32.974066,54.856436,44.152496,59.482567,53.70211,69.644091,0.0,66.025246,28.72221,89.024735,19.617691,87.7221,9.883427,74.194703,0.502064,53.841454,0.0,15.262133,30.837155,58.107101,48.096877,72.953209,59.848005,81.804044,67.057749,85.597804,-1.656916,301.619727,-51.971152,285.756355
100,-3.621666,-1.768877,0.37809,-0.226686,0.0,-9.19273,-17.921333,37.438145,-27.08733,39.049862,-32.36087,24.588696,-34.51712,-44.873188,0.0,19.25673,17.994452,47.27588,34.456433,55.084418,46.292258,60.721872,56.069053,70.550154,0.0,65.494904,28.685463,89.182045,19.563641,87.867028,9.713242,74.130364,0.268387,53.604401,0.0,15.700364,30.488204,57.327243,48.097223,72.471902,59.998627,81.072017,67.23606,85.666964,-5.528,299.703282,-51.84248,285.382101
101,-5.005726,1.041606,0.702118,-0.550962,0.0,-11.934139,-13.828502,39.650162,-21.066524,43.390091,-25.159916,30.96579,-26.802784,-27.855961,0.0,25.003495,17.479824,44.270278,32.504898,52.157287,43.329164,57.174163,52.340649,65.797039,0.0,65.212326,28.393971,88.877152,19.217961,87.75792,9.348233,73.87072,-0.039493,53.326103,0.0,16.094862,30.334038,56.909847,48.183872,72.170733,60.189523,80.646718,67.46319,85.611439,-10.783465,300.622869,-51.390101,284.70912
102,1.670208,-6.181834,0.688992,-0.323312,0.0,-9.266052,-14.276127,37.077748,-22.909939,41.698551,-28.832267,27.805218,-32.432659,-31.397392,0.0,24.761223,19.359236,46.690128,35.641065,55.52376,47.219379,61.724896,56.700537,71.8686,0.0,65.297069,27.972736,88.464351,18.820701,87.471645,8.984916,73.62038,-0.336388,53.149463,0.0,16.582147,29.977453,56.962272,47.93782,72.045255,60.130711,80.465097,67.604326,85.661036,-9.348822,294.33948,-50.936674,284.284253
103,-3.027305,-1.390792,0.566551,-0.094232,0.0,-3.192078,-10.720906,41.708187,-19.414547,45.660885,-25.855557,30.83044,-30.064419,-27.104199,0.0,22.42108,19.785511,46.339127,36.833071,56.299196,49.070372,63.489353,58.818391,73.329565,0.0,65.153149,27.452316,87.985874,18.285851,87.005299,8.444927,73.3736,-0.875164,52.959286,0.0,16.925208,29.657661,56.90629,47.61042,71.914061,59.882821,80.343412,67.432648,85.446306,-12.585113,292.876854,-50.579109,284.118187
104,3.686943,-3.311774,0.373455,0.08881,0.0,-3.795307,-12.746212,37.458996,-22.431073,42.258281,-30.085957,26.176883,-35.586537,-35.084805,0.0,20.026437,20.453947,47.380103,38.328777,58.369515,51.195797,66.255475,61.322519,77.929107,0.0,64.960648,26.963619,87.601181,17.806641,86.808517,7.992806,73.429504,-1.302544,52.956734,0.0,17.031999,29.374177,56.716518,47.304249,71.670146,59.658333,80.192728,67.278173,85.130909,-9.099855,289.519848,-50.407339,284.161765
105,-2.38488,3.019064,0.268948,0.093008,0.0,-4.208599,-11.884083,40.206173,-21.030041,45.430904,-27.52541,30.691738,-31.625931,-26.857762,0.0,22.72761,18.002431,45.64525,35.822785,56.201705,48.987615,63.561799,59.432573,72.726684,0.0,64.627338,26.559883,87.354915,17.464347,86.762066,7.692913,73.613193,-1.614201,53.040836,0.0,17.007706,28.988929,56.456957,46.899537,71.412117,59.395425,80.066832,67.187289,84.872508,-11.677614,292.507678,-50.33127,284.223539
106,6.179042,-4.292814,0.253612,0.044547,0.0,0.167748,-16.131362,35.505684,-27.742069,39.980919,-36.304206,22.569832,-41.894645,-47.517402,0.0,14.699055,18.372378,49.098543,38.029559,60.644919,52.617563,69.292731,64.177857,81.03798,0.0,64.349945,26.356716,87.24543,17.32576,86.568146,7.550949,73.721626,-1.816761,53.202095,0.0,16.958627,28.805221,56.215575,46.699614,71.035673,59.318866,79.86786,67.227044,84.59147,-5.698603,288.192023,-50.277689,284.245245
107,-0.856292,2.508474,0.159897,-0.05313,0.0,-1.669808,-16.906426,36.336319,-28.003693,41.238945,-35.104191,24.886619,-38.830776,-42.888897,0.0,18.208641,17.0484,48.035634,36.575375,58.787208,51.196402,66.741945,62.9006,76.63467,0.0,64.188858,26.265072,87.417892,17.218861,86.521202,7.406525,73.840508,-2.024849,53.336197,0.0,16.952934,28.691168,56.090345,46.588611,70.751992,59.307776,79.786942,67.281026,84.453075,-6.75678,290.682268,-50.319677,284.173886
108,0.838577,0.182041,0.207024,-0.053982,0.0,-2.770065,-17.918667,35.288246,-28.86795,40.394806,-35.512424,24.097824,-38.632805,-44.010738,0.0,16.032741,16.898803,47.761745,36.738889,58.343135,51.516874,66.314335,63.274276,76.432004,0.0,64.02697,26.275074,87.536018,17.188717,86.513717,7.275856,73.785621,-2.298203,53.239494,0.0,16.973817,28.681066,56.026445,46.562355,70.505175,59.329635,79.566147,67.368995,84.399265,-6.116014,290.842709,-50.310464,284.098304
109,-5.299187,4.891213,0.263248,-0.034235,0.0,-7.624397,-15.272129,40.190987,-24.378593,44.930626,-29.268333,30.88813,-30.724468,-28.568309,0.0,23.05417,16.564362,45.534778,33.557446,53.751893,46.089482,59.965751,56.194282,67.1472,0.0,63.722179,26.247299,87.533695,17.10981,86.259052,7.144192,73.537594,-2.480369,53.155689,0.0,17.147435,28.787376,56.080897,46.644014,70.316528,59.395746,79.5309,67.39314,84.392424,-11.622322,295.709351,-50.254337,284.039498
110,0.739312,-3.313515,0.107277,0.043991,0.0,-3.233414,-14.81242,39.767761,-24.41708,44.684051,-30.529633,29.587417,-33.432324,-34.811955,0.0,18.309578,17.924687,47.555598,35.602854,55.859558,48.392365,63.011244,58.579182,73.70691,0.0,63.752827,26.168072,87.690662,16.959824,86.071278,6.970207,73.288845,-2.63213,53.165554,0.0,17.140445,28.584439,56.064175,46.47278,70.260595,59.283064,79.395519,67.319657,84.257338,-11.085588,292.359082,-50.349638,284.046735
111,-3.166718,-0.350767,0.177841,-0.013683,0.0,2.678604,-11.44249,43.523712,-21.125622,48.463829,-27.756981,32.649513,-31.326382,-31.430546,0.0,17.670226,17.573957,47.944588,35.621441,56.300629,48.70087,63.629032,59.021772,74.261774,0.0,63.649372,25.892876,87.734425,16.549256,85.923603,6.504845,73.059391,-3.084846,52.991947,0.0,17.105629,28.271956,56.127098,46.144477,70.348564,58.98445,79.433222,67.062256,84.215261,-14.453676,291.957794,-50.373167,283.982531
112,0.203567,-2.921671,0.264427,0.071173,0.0,6.120209,-10.253059,43.075516,-20.314544,48.35376,-28.236522,31.628769,-33.373844,-36.099586,0.0,11.992559,18.846065,49.462166,37.429999,58.688307,50.745191,66.730212,61.072083,79.569357,0.0,63.477482,25.533509,87.580136,16.09932,85.600376,6.047882,72.691441,-3.508587,52.743679,0.0,17.04551,28.050174,56.111809,45.878667,70.367818,58.714737,79.374486,66.824382,84.063479,-14.449036,288.976071,-50.307667,283.993652
113,-2.188591,-0.418236,0.193783,0.090934,0.0,10.266793,-8.284858,44.997391,-18.24504,50.752739,-26.422554,33.937272,-31.864631,-34.83942,0.0,11.510314,19.050138,50.22387,37.654376,59.519456,50.949215,67.558952,61.227472,80.332778,0.0,63.472344,25.214253,87.662453,15.724503,85.517281,5.722172,72.488457,-3.72092,52.62101,0.0,16.981338,27.744707,56.036263,45.511708,70.292606,58.342814,79.311476,66.472812,83.946313,-16.837492,288.502278,-50.313749,284.029029
114,1.253827,-5.301495,0.052288,-0.02086,0.0,21.736049,-7.279896,44.404506,-18.912518,50.195171,-29.123246,30.816341,-36.579781,-47.147988,0.0,2.232685,19.242774,52.741731,40.97472,64.464552,56.736266,74.666511,68.825379,91.025282,0.0,63.704235,25.065811,87.859234,15.516918,85.485111,5.484513,72.294033,-3.934158,52.47234,0.0,16.878685,27.488332,56.106079,45.217876,70.388159,58.088971,79.352157,66.30001,83.897025,-15.773718,283.144729,-50.451514,283.952115
115,-0.114922,-0.047091,0.135178,-0.09864,0.0,21.950443,-7.227837,44.269604,-18.904083,49.85812,-29.136967,30.236469,-36.616424,-47.728695,0.0,3.293903,19.432373,52.828404,40.936336,64.984108,56.63749,75.325919,68.748376,91.094763,0.0,63.701626,24.972645,87.851772,15.4235,85.413059,5.400284,72.148922,-4.004597,52.237003,0.0,16.953107,27.528136,56.135559,45.193707,70.333016,58.034124,79.510831,66.250054,84.061861,-16.080477,283.041504,-50.508173,283.797341
116,-0.352478,0.187734,-0.034069,-0.067196,0.0,21.500759,-6.870254,44.629749,-18.648148,49.952007,-29.051445,30.308086,-36.733841,-47.480473,0.0,5.399517,19.514525,52.435695,40.717357,64.898719,56.252982,75.330624,68.290472,90.76099,0.0,63.853935,25.068352,88.001724,15.534794,85.407371,5.489834,72.022636,-3.954781,52.105499,0.0,17.040569,27.629184,56.195814,45.200782,70.413192,57.985205,79.592489,66.170654,84.11294,-16.611843,283.178424,-50.72113,283.679331
117,-0.633636,0.391571,-0.039265,-0.096652,0.0,21.509182,-6.193291,45.563587,-18.306942,50.5116,-29.080021,30.571483,-37.203713,-46.569409,0.0,9.162885,19.214876,52.295189,39.911897,64.734674,55.18932,75.024466,67.211446,89.88863,0.0,63.873974,25.187439,88.145886,15.69627,85.403561,5.624485,71.89983,-3.887821,51.898899,0.0,17.102431,27.646153,56.262949,45.118383,70.527986,57.84912,79.702257,66.031506,84.282915,-17.406417,283.529418,-50.921333,283.542102
118,-1.093495,0.322498,-0.001293,-0.109286,0.0,21.477471,-5.206638,46.525772,-17.407356,51.033623,-28.435009,31.004608,-36.900226,-45.616184,0.0,11.162647,18.966824,51.753761,39.337458,64.442026,54.445079,74.726619,66.444826,89.286971,0.0,63.769752,25.401066,87.998405,15.969704,85.166176,5.827343,71.644409,-3.861488,51.559341,0.0,17.158575,27.703112,56.367666,45.045184,70.688055,57.691644,79.810604,65.859593,84.399895,-18.666344,283.801414,-51.089058,283.382314
119,-1.39341,1.343825,0.068298,-0.092058,0.0,18.737252,-4.115959,47.564988,-16.282528,52.133446,-27.446033,32.533287,-36.302879,-41.964981,0.0,17.123031,18.530051,51.406674,37.622896,63.241697,51.699779,72.816012,63.072402,86.723452,0.0,63.505486,25.302098,87.762795,15.944847,84.887055,5.826954,71.39193,-3.911819,51.221192,0.0,17.293401,27.743188,56.37867,44.997884,70.815879,57.57911,79.82235,65.724385,84.435414,-20.214026,285.090432,-51.175032,283.235449
120,-2.182182,1.756762,0.039471,-0.003853,0.0,15.573635,-2.673626,49.187828,-14.476341,54.291206,-25.597675,35.491402,-34.6768,-36.679481,0.0,22.902845,18.270749,51.00547,35.684402,61.573435,48.353401,70.342512,58.706882,83.440318,0.0,63.198177,25.241844,87.634289,15.908981,84.705631,5.78611,71.155071,-3.992924,50.928898,0.0,17.375714,27.696258,56.397467,44.850461,70.959288,57.360563,79.801725,65.480273,84.359634,-22.556191,286.780155,-51.295544,283.164557
