takenoko1/special-research/HandMotion_SimilarSearch_自分用/NewProject/handData/test_key/d4_feature_d3/48.csv
frame,vel_0x_L,vel_0y_L,vel_0x_R,vel_0y_R,posFromWrist_0x_L,posFromWrist_1x_L,posFromWrist_2x_L,posFromWrist_3x_L,posFromWrist_4x_L,posFromWrist_5x_L,posFromWrist_6x_L,posFromWrist_7x_L,posFromWrist_8x_L,posFromWrist_9x_L,posFromWrist_0y_L,posFromWrist_1y_L,posFromWrist_2y_L,posFromWrist_3y_L,posFromWrist_4y_L,posFromWrist_5y_L,posFromWrist_6y_L,posFromWrist_7y_L,posFromWrist_8y_L,posFromWrist_9y_L,posFromWrist_0x_R,posFromWrist_1x_R,posFromWrist_2x_R,posFromWrist_3x_R,posFromWrist_4x_R,posFromWrist_5x_R,posFromWrist_6x_R,posFromWrist_7x_R,posFromWrist_8x_R,posFromWrist_9x_R,posFromWrist_0y_R,posFromWrist_1y_R,posFromWrist_2y_R,posFromWrist_3y_R,posFromWrist_4y_R,posFromWrist_5y_R,posFromWrist_6y_R,posFromWrist_7y_R,posFromWrist_8y_R,posFromWrist_9y_R,posFromBody_0x_L,posFromBody_0y_L,posFromBody_0x_R,posFromBody_0y_R
6,-3.031357,-0.056143,0.055286,-0.096849,0.0,-54.016445,-37.796173,15.311851,-33.546307,29.738731,-26.082951,32.950332,-17.182789,9.508438,0.0,34.988191,8.011288,31.887431,-4.181442,22.441878,-18.145161,10.185471,-31.840822,-7.187637,0.0,58.907765,21.25256,83.188282,10.718582,78.369931,1.25029,65.38052,-6.742149,45.4594,0.0,25.251151,28.255815,55.722818,45.449143,67.891354,57.420856,77.084274,64.280412,80.446139,4.322783,323.462793,-40.283987,275.659045
7,-3.620659,-4.575051,0.02187,-0.080325,0.0,-45.868744,-32.604401,22.526436,-30.502178,35.199852,-25.088093,34.526573,-17.78397,3.15992,0.0,34.688578,8.619307,33.619419,1.6764,26.369278,-7.180116,18.052757,-16.118562,5.664982,0.0,58.957809,21.167026,83.052887,10.63314,78.47097,1.231373,65.465401,-6.69738,45.4991,0.0,25.329661,28.251468,55.805835,45.50289,67.845807,57.517927,77.182432,64.375249,80.496379,0.433697,318.784344,-40.530544,275.475322
8,4.835083,4.134511,0.069591,0.098961,0.0,-55.153565,-39.412743,15.251404,-36.257652,29.448097,-29.498005,32.184059,-20.686855,4.761566,0.0,34.100306,7.754691,32.021763,-3.491541,22.542111,-16.390338,11.717042,-28.678917,-4.238931,0.0,58.809483,20.976162,82.896183,10.467785,78.466702,1.100785,65.438702,-6.834308,45.347683,0.0,25.12502,27.98972,55.766019,45.256457,67.733632,57.333738,77.067281,64.285563,80.340411,5.136572,322.840173,-40.593161,275.495601
9,-0.529724,1.221522,0.054612,0.071223,0.0,-54.233792,-38.517174,16.630142,-34.875,30.48143,-27.810677,32.553795,-18.956463,6.404022,0.0,33.296909,7.11613,30.688534,-4.37561,21.563602,-17.545182,10.357396,-30.24471,-6.005981,0.0,58.577282,20.939712,82.707538,10.441074,78.309642,1.01802,65.254772,-7.007412,45.125942,0.0,25.048005,27.820462,55.889421,45.086273,67.636424,57.145572,76.895886,64.092432,80.111131,4.546486,323.99703,-40.598911,275.502159
10,-2.684075,-0.834965,-0.032078,-0.022403,0.0,-49.714519,-35.959693,19.507096,-32.806434,33.931939,-26.180053,35.324616,-17.592121,9.783188,0.0,33.463438,7.599216,30.874218,-2.669408,22.151652,-14.622164,11.595579,-26.248272,-2.567285,0.0,58.46878,20.896957,82.617096,10.468494,78.333641,1.070503,65.307701,-6.975907,45.211738,0.0,25.073767,27.838913,56.042846,45.108231,67.693728,57.113783,76.975939,64.008785,80.214254,1.834922,323.107131,-40.658478,275.424822
11,3.377793,0.752244,-0.10199,0.054167,0.0,-53.629841,-39.12521,14.733421,-36.493733,29.963012,-30.180645,31.985985,-21.640629,6.486625,0.0,32.320684,5.717421,30.18039,-4.323319,21.219442,-15.801992,11.459901,-26.684317,-1.377479,0.0,58.564362,20.796581,82.497025,10.405895,78.339523,1.071957,65.417336,-6.898453,45.407616,0.0,25.152734,27.572992,56.08433,44.881422,67.723221,56.942328,77.027267,63.917889,80.254887,5.205775,323.813881,-40.767408,275.433495
12,3.9944,5.510508,-0.176124,0.063406,0.0,-62.027012,-44.870362,6.944137,-40.271988,24.25264,-31.940209,29.901054,-21.691075,12.66156,0.0,31.497774,4.255554,27.654588,-10.961563,16.347532,-27.454307,2.781448,-43.012324,-14.30783,0.0,58.746757,20.787895,82.507324,10.44104,78.401847,1.140586,65.522941,-6.786358,45.694564,0.0,25.132294,27.362533,56.241596,44.690885,67.79054,56.797423,76.960971,63.831722,80.280006,9.199099,329.281361,-40.944608,275.453873
13,-3.195557,-0.260476,-0.347809,-0.143521,0.0,-57.394729,-41.340214,10.2594,-36.219944,27.624275,-27.72036,32.496346,-17.643471,15.629425,0.0,31.683877,5.411819,27.506252,-9.546391,16.816935,-25.917203,2.840655,-41.681651,-14.211659,0.0,59.237045,21.028942,82.635498,10.674499,78.529541,1.356434,65.674896,-6.52509,46.065674,0.0,25.156871,27.295177,56.55782,44.661826,67.986352,56.823483,77.08998,63.874454,80.659982,6.009058,328.991724,-41.286901,275.281191
14,0.980278,-0.017179,-0.450554,-0.085363,0.0,-59.319568,-42.602886,8.184609,-37.729259,26.131005,-29.381229,31.720551,-19.223488,15.1157,0.0,31.077538,4.870663,27.680833,-9.791911,16.585161,-25.827616,3.218,-40.977968,-13.051875,0.0,59.705955,21.26049,82.892097,10.901459,78.799759,1.579113,65.886314,-6.256863,46.528084,0.0,25.114411,27.20796,56.861187,44.626429,68.21237,56.893075,77.170354,64.014058,80.898177,7.003401,328.950764,-41.72339,275.172047
15,2.054123,0.693989,-0.335118,-0.100629,0.0,-63.247627,-44.675972,5.489113,-39.682903,23.087677,-31.114208,29.120545,-20.564621,11.243866,0.0,30.560834,3.779779,27.265721,-11.357247,16.030234,-27.837061,2.784758,-43.323484,-14.345757,0.0,59.981701,21.52335,83.088994,11.047451,78.781117,1.610539,65.816151,-6.267974,46.667622,0.0,25.102642,27.078482,57.168803,44.578401,68.321718,56.979229,77.126882,64.191789,80.910923,9.075725,329.626719,-42.040307,275.053384
16,-4.408333,-2.475043,-0.510715,-0.156389,0.0,-56.186142,-39.649749,10.920479,-34.869827,27.870392,-26.695347,32.199143,-16.56023,12.801613,0.0,31.11702,5.734229,28.357493,-7.068953,18.370241,-21.45381,6.086231,-35.366067,-8.424103,0.0,60.243347,22.028755,83.419167,11.525333,78.961945,1.957592,65.86338,-6.073277,46.775345,0.0,25.017154,27.092116,57.360563,44.632333,68.495286,57.118896,77.239984,64.394466,81.080415,4.699585,327.136665,-42.518829,274.881984
17,1.438706,-0.329081,-0.396343,-0.180941,0.0,-58.871636,-41.524052,8.442764,-36.780991,25.977104,-28.569615,31.142807,-18.228504,11.001411,0.0,30.714235,5.284242,29.05536,-7.269456,18.616687,-21.287145,6.956394,-34.522333,-7.33254,0.0,60.414951,22.345939,83.450145,11.775261,79.003818,2.067695,65.850551,-6.091416,46.78268,0.0,24.871053,27.007012,57.519125,44.597679,68.740003,57.151538,77.470918,64.478224,81.40747,6.179386,326.788413,-42.874077,274.681872
18,2.079345,0.859109,-0.178574,-0.070223,0.0,-62.453945,-43.441658,5.416031,-38.649238,22.843666,-30.279373,28.84591,-19.604976,9.293427,0.0,30.119665,3.826797,28.605298,-9.076471,17.929417,-23.310422,6.408458,-36.702456,-8.438959,0.0,60.297352,22.580784,83.486858,11.98375,78.965229,2.168862,65.709377,-6.15057,46.703259,0.0,24.80319,26.953487,57.551286,44.598359,68.950918,57.211621,77.578772,64.613334,81.354797,8.294145,327.621717,-43.017237,274.585844
19,-4.235893,-1.084572,-0.09605,-0.136159,0.0,-56.387432,-39.30582,10.430123,-34.605972,27.561539,-26.452881,32.090744,-16.025059,11.807373,0.0,30.879924,4.982159,28.391432,-6.803413,18.641029,-19.99934,7.596314,-32.753802,-5.549065,0.0,60.17894,22.621376,83.374672,11.922134,78.722259,1.993629,65.421341,-6.421703,46.354683,0.0,24.960356,27.034441,57.633783,44.70237,69.03407,57.290859,77.629617,64.643406,81.314881,4.095159,326.513318,-43.07638,274.425858
20,1.729202,0.306542,-0.128769,0.012782,0.0,-59.512813,-41.355812,7.776856,-36.480388,25.151413,-28.196022,30.331559,-17.708553,9.534577,0.0,30.519091,4.666083,28.901131,-7.61863,18.220323,-21.187209,7.093084,-34.127107,-7.198839,0.0,60.133324,22.70462,83.298042,12.021641,78.789024,2.087391,65.443748,-6.361897,46.306641,0.0,24.998975,26.909656,57.401676,44.574807,68.999046,57.204445,77.565792,64.626598,81.280993,5.866035,326.796766,-43.163475,274.415546
21,2.849671,2.43987,-0.208397,-0.090081,0.0,-65.559437,-44.613613,3.29258,-39.032444,20.745941,-30.042069,27.765129,-18.907356,7.865982,0.0,30.025013,2.865157,27.801579,-11.616229,16.180052,-27.161339,4.069673,-41.837881,-13.501703,0.0,59.947174,22.870411,83.282455,12.147171,78.81617,2.100803,65.422188,-6.465088,46.174645,0.0,25.117165,26.99639,57.26275,44.614462,68.96859,57.159948,77.633519,64.538084,81.549335,8.759005,329.21942,-43.328573,274.308249
22,-4.100418,-1.003914,-0.149826,-0.107434,0.0,-59.918026,-40.482308,8.276642,-35.004822,25.435203,-26.277798,31.069198,-15.493195,11.734634,0.0,31.123467,4.618474,27.815436,-9.403699,17.041533,-24.661941,4.806084,-39.36259,-12.092262,0.0,59.626717,23.095699,83.316055,12.432461,78.857346,2.367645,65.484581,-6.274704,46.271645,0.0,25.33864,27.263005,57.196233,44.870258,68.95009,57.343717,77.816251,64.662179,81.847454,4.704947,328.203989,-43.432039,274.189298
23,0.599556,-1.159376,-0.315411,-0.091341,0.0,-61.084397,-41.666096,7.423828,-36.474209,24.637756,-27.910595,30.437484,-17.252117,10.179428,0.0,31.998285,5.241288,29.200275,-8.919255,17.944558,-24.180795,5.830992,-38.702083,-11.321778,0.0,59.583767,23.266114,83.409314,12.660977,78.990361,2.593518,65.630917,-6.091804,46.332356,0.0,25.367588,27.361422,56.987454,44.964501,68.786871,57.398144,77.922091,64.707738,82.148117,5.375794,327.034829,-43.676159,274.088173
24,2.409347,0.312123,-0.331157,0.036457,0.0,-65.404175,-44.486847,4.232712,-38.89135,21.205078,-29.990707,28.441796,-19.184864,9.039803,0.0,32.789481,5.413572,29.876628,-10.181173,18.084806,-26.906667,4.963511,-42.689196,-14.634934,0.0,59.579086,23.337238,83.554527,12.921261,79.245483,2.987114,65.986862,-5.641651,46.757744,0.0,25.002532,27.360533,56.611037,44.964279,68.506401,57.395526,77.905172,64.759806,82.337654,7.878525,327.330764,-43.913932,274.108442
25,-4.201904,-0.982757,-0.17244,-0.022563,0.0,-60.065712,-41.000839,10.021774,-35.536434,26.297607,-26.883957,32.661804,-16.395355,15.176788,0.0,34.174061,7.936051,30.212957,-7.957467,18.906654,-25.222314,5.095668,-41.650085,-14.928002,0.0,59.701058,23.013725,83.46595,12.670864,79.318314,2.899784,66.076264,-5.573341,46.838539,0.0,24.827593,27.368388,56.445681,45.066525,68.338415,57.507553,77.872543,64.808737,82.209805,3.775166,326.330121,-43.987827,274.067993
26,-4.306412,-3.086706,-0.173984,-0.063998,0.0,-54.268821,-36.910801,17.109055,-32.529464,32.618042,-24.975059,36.010735,-15.396103,13.2957,0.0,36.240761,9.432264,31.788124,-3.860944,21.222456,-18.678783,9.48206,-32.829261,-7.849675,0.0,60.03519,22.801483,83.465252,12.532768,79.543293,2.951419,66.380939,-5.311478,47.148639,0.0,24.446444,27.251617,56.161789,45.100376,68.102652,57.690186,77.806902,65.058147,82.034693,-0.416359,323.224847,-44.046924,273.985427
27,2.216286,0.226649,-0.296311,-0.088044,0.0,-56.785435,-39.208969,14.476112,-35.599571,30.270492,-28.387528,34.416023,-19.096573,12.700355,0.0,35.877063,8.56619,32.008659,-5.578323,21.013986,-21.114862,8.995318,-35.787649,-8.880784,0.0,60.599384,22.633999,83.749478,12.446297,80.165325,3.047138,66.87917,-4.999786,47.544262,0.0,23.858321,27.086262,55.731612,45.024782,67.908447,57.714998,77.574807,65.160788,81.733537,1.930475,323.436713,-44.212687,273.8826
28,-3.611916,-0.983289,-0.310913,-0.401785,0.0,-51.5877,-35.486801,19.792603,-31.869701,35.457688,-24.868366,38.618821,-16.007389,17.044464,0.0,36.447896,9.944521,31.407778,-3.578844,20.894635,-18.836939,8.497227,-33.49272,-8.276457,0.0,61.162228,22.486599,84.178928,12.384041,80.871403,3.1917,67.623058,-4.673401,47.705395,0.0,23.361144,27.056363,55.19773,45.13424,67.743845,57.93184,77.442698,65.403801,81.215624,-1.503388,322.445056,-44.345547,273.472447
29,-1.352668,-2.850387,-0.049747,-1.366043,0.0,-45.194996,-32.728466,22.861793,-30.881985,37.390594,-25.46584,39.5251,-18.056385,17.151992,0.0,37.909047,9.803545,32.12538,-2.887128,22.367506,-17.198144,10.185323,-31.034201,-5.716371,0.0,61.687889,22.48249,84.501388,12.387542,81.71022,3.266178,68.326606,-4.499028,47.659698,0.0,22.587584,26.648724,55.002994,44.817263,67.835693,57.770573,77.799863,65.408963,81.352253,-2.634201,319.599705,-44.173439,272.11144
30,3.444923,-2.652143,-0.565796,-3.008962,0.0,-43.556797,-34.217869,19.3946,-33.93433,32.973679,-29.633022,34.503181,-23.105976,11.167076,0.0,38.816433,8.218276,31.689953,-3.918619,22.800957,-17.635881,10.210764,-31.174905,-5.60359,0.0,61.880287,23.288257,85.22232,13.372341,82.869301,4.053062,68.957588,-4.085095,47.336998,0.0,21.361407,25.98345,54.920804,44.199327,68.464559,57.275236,78.536546,65.190985,82.098482,1.074068,316.948396,-44.475889,269.103312
31,5.689156,-6.585805,-0.776013,-4.937526,0.0,-38.516888,-36.736142,12.747757,-37.589322,24.323753,-33.927281,24.96611,-27.927716,3.83068,0.0,37.2467,8.846673,30.558711,-1.717081,24.244817,-13.905563,13.254677,-25.905607,2.046594,0.0,62.512699,23.089897,85.173191,13.551579,83.284046,4.443798,68.082356,-3.74089,45.265057,0.0,19.207972,24.690322,54.678829,42.776141,69.550218,56.089024,79.71562,64.671664,81.930978,7.089512,310.350855,-44.925614,264.15405
32,-0.627114,-13.743394,-0.403358,-6.783542,0.0,-33.910423,-31.424045,4.756794,-30.418304,13.907032,-26.30318,14.928658,-20.488163,-2.452011,0.0,41.506268,11.95015,31.748974,4.783508,27.620959,-3.907689,19.282023,-12.983716,13.327826,0.0,62.249622,22.184898,83.254886,13.213177,80.310047,4.307693,62.426868,-4.145554,37.965763,0.0,17.070074,21.590995,52.004901,39.270706,70.008344,52.839136,81.06215,62.378365,81.402839,6.844688,296.572109,-44.946682,257.335156
33,4.292542,-14.399529,0.322471,-11.419429,0.0,-33.213925,-29.188168,-11.544434,-27.41597,-5.048161,-22.583325,-0.906555,-16.024212,-8.990319,0.0,34.161341,12.040997,31.693732,9.561063,34.522692,5.358478,30.845566,0.190191,28.50005,0.0,60.23148,28.220673,78.226559,19.425454,72.768849,9.511197,53.0155,-1.000968,30.45892,0.0,17.015215,20.272203,57.446692,35.679993,74.738326,48.098063,83.176409,57.606477,82.191502,11.552382,282.073122,-44.209059,245.816269
34,10.389816,-26.052548,-1.211151,-10.055956,0.0,-36.983734,-31.545696,-31.332745,-27.576691,-26.30389,-20.583172,-20.582245,-11.885662,-20.490692,0.0,34.683107,17.281062,39.725732,19.975529,47.938055,20.648312,48.852739,19.526764,50.2399,0.0,58.297383,34.947453,74.068394,26.450203,65.417805,16.148083,43.956597,4.25512,24.585194,0.0,18.705126,17.46456,58.494992,28.813224,73.175868,38.027287,78.31412,45.215912,75.214781,22.31888,255.903532,-45.043528,235.643271
35,9.356209,-29.005688,-5.600841,-20.794661,0.0,-40.131981,-30.859245,-47.565743,-25.047787,-43.660916,-16.816326,-36.316132,-7.101265,-29.990982,0.0,35.008902,21.400495,46.465259,28.981914,58.837077,34.564645,63.920939,37.861994,70.313613,0.0,58.926544,34.53376,68.316902,25.377548,58.106998,15.114315,38.814285,3.584587,21.781769,0.0,19.98862,8.529498,52.254792,18.060217,65.593473,27.375686,70.319282,35.853252,66.199801,31.961483,226.9293,-50.357975,214.880066
36,9.528797,-30.261191,-5.877354,-17.358646,0.0,-49.95599,-30.77512,-64.130007,-22.727692,-59.857761,-13.107891,-48.485653,-2.464909,-33.361359,0.0,34.921952,22.70613,49.743292,30.964658,62.977665,37.329211,67.454971,40.920473,71.166442,0.0,57.157013,35.615227,63.381649,26.1782,51.843842,15.54229,34.830437,3.826744,21.0,0.0,14.896669,-0.266676,36.265918,5.07045,45.104044,11.304635,47.59697,17.760406,43.616428,41.632319,196.852588,-56.09329,197.705899
37,12.702713,-32.644985,-7.587936,-25.583079,0.0,-55.469536,-33.548458,-73.505178,-26.465561,-69.831894,-17.37006,-58.473049,-6.903339,-42.991974,0.0,28.48168,21.121028,47.925829,31.140004,62.670432,39.022346,67.845703,43.923223,70.803263,0.0,55.443203,33.357341,57.892856,23.125202,45.937374,12.785076,32.497215,2.214466,23.159649,0.0,7.935101,-13.759202,21.787262,-10.513791,26.185899,-4.776246,27.542944,2.287526,25.706129,54.371412,164.757067,-63.644846,172.672284
38,9.768677,-29.745568,-7.848072,-23.69409,0.0,-58.801266,-35.158619,-75.8976,-28.157708,-72.406952,-19.736882,-62.854534,-10.278797,-50.720581,0.0,29.572111,19.557013,41.078479,27.507869,51.948849,33.587,55.315321,36.730108,57.895661,0.0,54.948669,25.027622,56.847496,14.895218,47.044716,5.55384,36.076206,-3.182431,26.04586,0.0,-3.343148,-26.633249,-4.306912,-25.054945,-2.43186,-20.357357,0.099289,-13.471815,0.529245,64.119988,136.105217,-71.513019,150.071912
39,6.557899,-30.400982,-7.389645,-29.225982,0.0,-62.589351,-32.71249,-77.806761,-27.256508,-74.984596,-21.146267,-67.120777,-14.212612,-57.654945,0.0,21.513381,12.707269,26.867475,21.148646,35.681432,27.829429,38.628113,31.899189,42.786404,0.0,55.596268,18.594315,56.246006,8.145012,49.244179,-1.198231,41.533447,-9.135315,31.18388,0.0,-16.188821,-39.413627,-25.211094,-38.39782,-23.256638,-33.194749,-20.075627,-24.661737,-19.18563,70.759186,107.423249,-78.821365,122.564944
40,4.484459,-26.957729,-2.272728,-20.197744,0.0,-63.50552,-31.730312,-82.111593,-26.984962,-80.921699,-21.786518,-73.034626,-15.831516,-62.650406,0.0,11.350263,7.638653,10.127883,15.208756,16.392116,20.67021,19.120114,23.399461,24.563085,0.0,54.545277,17.324993,57.922623,7.813053,52.701782,-1.064552,45.416462,-8.845093,35.38876,0.0,-28.508097,-45.161041,-40.155441,-47.11985,-39.965682,-44.896632,-39.174925,-38.688344,-38.927633,75.412348,82.165993,-80.92539,104.067673
41,5.858997,-24.909925,-0.385219,-24.823475,0.0,-62.963081,-31.490364,-86.374614,-28.858909,-87.689735,-25.559303,-80.105232,-21.316268,-68.614311,0.0,4.315082,1.934005,-3.04795,10.732623,2.805989,17.509688,7.162233,21.744556,14.720156,0.0,55.648693,17.571613,62.222911,8.175167,58.21265,-0.860379,50.695003,-9.319199,39.140441,0.0,-33.176606,-50.129713,-44.446736,-52.561784,-42.499931,-50.448308,-42.315951,-44.009963,-43.72509,81.632944,59.327971,-80.94901,81.316101
42,5.380463,-20.126892,1.288169,-16.785132,0.0,-61.505493,-31.620827,-89.221928,-31.371506,-93.231285,-30.107643,-86.32663,-27.580696,-73.235985,0.0,-1.360318,-2.864787,-13.1425,7.713182,-7.078783,16.209403,-0.833927,22.117744,8.746353,0.0,56.922638,21.158249,66.301518,12.355454,63.738762,2.669129,56.722115,-7.403652,43.758328,0.0,-36.060574,-47.532158,-47.98272,-52.260659,-47.788873,-53.157664,-49.636809,-49.954355,-52.904184,87.691538,41.425807,-78.98271,66.755697
43,6.068756,-22.20391,1.38073,-15.633223,0.0,-61.046928,-32.160484,-94.437893,-34.90432,-100.890747,-36.13813,-95.17646,-35.587898,-81.050583,0.0,-5.327474,-6.806643,-17.792085,7.178423,-11.063809,19.193164,-2.562587,28.551921,9.424712,0.0,58.504921,23.481571,68.354084,14.79546,66.151932,4.900635,60.082272,-5.728546,48.050411,0.0,-36.469737,-46.976144,-46.566492,-52.747782,-46.533393,-54.895041,-49.811772,-53.357543,-56.098656,94.459608,21.396919,-76.902666,53.297496
44,1.510735,-9.507409,1.753601,-11.850916,0.0,-57.494271,-31.655228,-94.988583,-36.251084,-103.61174,-38.863289,-97.821648,-39.339958,-81.603585,0.0,-9.036654,-9.324367,-24.426826,4.929641,-18.335469,17.306171,-8.817952,26.876731,3.986663,0.0,59.05299,23.685734,70.151379,15.532025,68.064846,5.981243,61.868008,-4.841492,48.964165,0.0,-36.584044,-44.404475,-45.969841,-50.665343,-47.125222,-53.793063,-50.926121,-53.8281,-57.73085,96.683155,13.596113,-74.436253,43.153183
45,2.27758,-10.657139,1.569649,-9.348716,0.0,-55.887611,-30.586166,-93.864372,-37.053955,-103.696747,-41.45018,-99.092285,-43.628174,-82.802444,0.0,-10.124048,-12.839201,-25.567388,3.765997,-18.108389,18.977013,-6.676288,31.55966,7.062117,0.0,58.979622,25.436325,70.737419,17.416294,68.254417,7.493992,61.338306,-4.290333,48.007267,0.0,-36.25032,-42.240333,-43.694549,-48.957759,-46.088631,-53.00719,-50.187617,-54.421293,-57.321568,99.772528,4.607022,-72.054811,35.472515
46,0.012726,-6.21311,0.731975,-6.581149,0.0,-55.057526,-29.162018,-91.100739,-36.001099,-101.310036,-40.900246,-98.167648,-43.626251,-82.047684,0.0,-11.910241,-14.085245,-26.535023,2.962383,-19.125227,18.599489,-7.468058,31.386413,5.986054,0.0,58.039822,24.728978,67.685223,17.052304,64.89544,7.42788,58.692261,-4.191616,46.491944,0.0,-36.198135,-40.462625,-42.635344,-47.52011,-47.335804,-52.260078,-51.428318,-54.676112,-57.290569,100.594769,-0.454971,-70.513321,30.042483
47,-0.766457,-4.354417,0.309414,-4.887138,0.0,-54.296974,-27.736129,-89.089943,-34.518265,-99.216614,-39.515465,-96.78907,-42.422287,-80.351783,0.0,-13.598626,-14.821482,-26.929027,2.347115,-19.410828,18.210067,-7.661009,31.186403,5.158679,0.0,57.984272,24.875233,67.199799,17.493862,64.844021,8.049752,58.788826,-3.567386,46.682236,0.0,-35.654824,-39.521622,-40.962432,-47.042736,-46.554685,-52.288483,-51.216804,-55.336668,-57.179375,100.439174,-4.118481,-69.593045,25.846252
48,-0.823654,-3.267758,0.095444,-3.52178,0.0,-53.596641,-26.482086,-87.377426,-33.057426,-97.276886,-38.072983,-95.646377,-41.069549,-79.22818,0.0,-14.155602,-14.963891,-27.237415,2.211159,-19.600902,18.102059,-7.48494,31.127765,4.748422,0.0,57.815838,25.22002,67.288971,18.117886,65.261982,8.921127,59.083614,-2.558968,46.751038,0.0,-35.284025,-38.939094,-40.75379,-46.667399,-46.749014,-52.187793,-51.352532,-55.596749,-56.614692,100.20797,-7.138058,-68.905151,22.572653
49,-2.091991,-3.073281,0.599316,-2.796781,0.0,-55.106518,-25.5332,-83.929894,-31.232392,-92.753781,-35.821278,-91.597161,-38.735905,-77.039086,0.0,-13.171844,-16.791981,-25.07235,0.162052,-18.146686,16.068446,-6.557804,29.424312,4.518584,0.0,57.47073,24.840957,65.804775,17.913459,64.156379,8.84008,57.967941,-2.494492,45.913524,0.0,-34.719163,-38.418087,-40.276774,-46.154259,-46.475695,-51.705559,-50.940879,-55.162353,-55.388823,98.570521,-10.108049,-67.851293,19.879162
50,-3.567833,-3.021985,0.895488,-2.565353,0.0,-58.692135,-24.297924,-78.600953,-28.888275,-86.037518,-33.035122,-85.113854,-36.018185,-73.82293,0.0,-10.521529,-19.686445,-21.527697,-3.250986,-16.865124,12.464976,-6.514788,26.12744,2.612836,0.0,56.690449,23.766301,64.110169,16.950486,62.498108,7.996457,56.126622,-3.088096,44.575001,0.0,-34.498893,-38.123939,-40.214295,-45.621785,-46.131732,-50.965703,-50.133443,-54.220894,-53.901441,95.288246,-13.101524,-66.670247,17.342319
51,-1.896126,-2.181889,1.090874,-2.417115,0.0,-60.194698,-22.079304,-76.546829,-26.192848,-83.774128,-30.536671,-83.940811,-34.27747,-73.424812,0.0,-10.422901,-22.526075,-22.402614,-6.407426,-18.254607,9.564083,-8.386104,23.823118,-0.173571,0.0,55.82888,21.543434,62.49012,14.813519,61.325638,6.020325,54.802448,-4.655845,43.178959,0.0,-34.568603,-38.331216,-40.368122,-45.356326,-45.19441,-50.184344,-48.980995,-52.904659,-52.47873,93.570465,-15.185421,-65.401028,15.023196
52,-3.419952,-0.926774,2.362129,-3.027413,0.0,-60.916661,-18.274785,-73.656121,-21.275734,-80.71629,-25.775334,-81.095444,-30.792309,-72.430825,0.0,-11.88291,-26.48616,-23.924342,-11.561734,-20.3868,4.084215,-10.765441,18.695159,-2.948598,0.0,52.900898,15.14003,58.715481,7.940712,58.05906,-0.175026,52.115902,-8.79895,40.413208,0.0,-35.405216,-41.219666,-41.089119,-46.651362,-43.744998,-49.039608,-46.263532,-48.719179,-48.818449,90.268902,-16.050469,-62.92051,12.057509
53,-9.208123,4.020106,3.029063,-5.178553,0.0,-58.061016,-9.851864,-65.466202,-10.553238,-71.129368,-14.126255,-71.655601,-19.756107,-64.283409,0.0,-15.358402,-34.062905,-27.82979,-21.811944,-25.439972,-7.542541,-17.068009,6.879082,-11.074613,0.0,51.745908,15.700538,60.123562,9.022407,61.447454,1.77507,56.199571,-5.480113,44.245531,0.0,-31.953976,-40.503685,-36.680026,-43.748824,-35.628271,-43.500606,-36.044358,-40.173901,-37.98936,81.110183,-11.95048,-59.842043,6.958839
54,-8.813083,6.657793,3.839206,-7.41788,0.0,-52.646782,-2.448304,-58.540284,-1.066018,-62.660271,-3.393174,-63.37159,-9.016503,-56.457322,0.0,-21.201732,-40.475363,-33.662823,-31.221243,-31.764992,-18.695314,-24.665881,-4.911146,-19.223749,0.0,52.388037,23.397206,67.551339,18.238015,72.185137,12.049588,67.824618,5.480742,54.999361,0.0,-24.476841,-36.313308,-27.894467,-36.695975,-20.958349,-33.596506,-18.269884,-27.306418,-20.070328,72.323056,-5.405533,-55.976881,-0.571887
55,-7.427719,9.43056,2.900849,-5.338128,0.0,-45.631829,3.025405,-53.247666,6.124649,-56.66462,5.302825,-57.474038,0.348014,-49.955246,0.0,-29.204091,-45.310353,-42.478645,-39.090085,-39.226183,-28.392555,-31.887616,-15.432156,-26.395065,0.0,54.301317,30.991316,75.782438,26.828255,83.089628,21.288646,77.3468,15.155267,62.983082,0.0,-17.686993,-31.110203,-19.244499,-28.238246,-7.389583,-22.160442,-2.34293,-12.980829,-3.311151,64.483544,3.549932,-53.487825,-6.38511
56,-9.365204,11.461593,1.85693,-3.514877,0.0,-40.525566,6.121353,-45.970253,11.770294,-47.388062,13.485168,-46.514443,10.302017,-40.238434,0.0,-35.014602,-50.175168,-47.244184,-47.504493,-44.73797,-39.428033,-37.829253,-27.8982,-32.784831,0.0,57.676294,39.179311,84.865133,35.52632,93.994199,30.186467,84.255449,24.108644,68.179598,0.0,-11.321214,-24.514635,-10.069459,-18.131182,5.348441,-9.13045,12.083705,2.690852,12.600396,54.384877,14.24892,-52.364358,-10.662592
57,-7.34887,12.389621,0.210971,-1.071095,0.0,-36.151268,7.587044,-39.679596,14.924469,-39.212562,18.975266,-37.846321,17.877274,-32.757202,0.0,-38.427923,-54.175717,-51.620479,-54.264768,-50.118518,-48.289532,-44.140448,-37.930481,-39.743862,0.0,63.675505,50.697739,96.140923,47.392897,105.831866,41.201849,88.973917,33.272249,70.806153,0.0,-5.143148,-14.578886,-0.72343,-5.098583,16.547425,5.348769,23.535735,17.600489,25.634341,46.044021,25.718188,-53.145373,-12.65404
58,-1.272102,8.344587,-1.080064,3.159204,0.0,-36.542679,3.400543,-39.698181,11.550247,-38.365723,17.335373,-36.01989,18.225082,-32.092575,0.0,-39.970684,-54.447537,-52.544272,-55.811721,-51.580441,-50.923101,-46.199108,-41.294952,-41.347286,0.0,68.785915,54.635009,102.223663,50.117712,110.429363,42.44977,83.913517,33.113079,63.525323,0.0,-3.956426,-7.387572,3.613557,5.043295,20.225359,16.972996,25.888443,29.749743,30.577739,43.704117,33.099611,-55.293239,-10.458
59,0.214325,6.47148,-3.839802,8.908442,0.0,-37.442825,-0.179695,-40.492493,8.203995,-39.659615,14.962807,-36.854668,17.07344,-33.481155,0.0,-40.681425,-54.143317,-53.084242,-56.411008,-52.311145,-52.399245,-47.001018,-43.339027,-41.842629,0.0,69.151085,49.876098,100.274998,44.406881,104.454117,36.222387,73.477066,26.817489,54.21187,0.0,-8.129112,-5.054661,-3.536227,8.527704,9.927805,20.877153,15.876194,33.67145,22.835348,42.834091,38.782689,-60.217392,-2.33796
60,0.380997,4.267725,-7.376061,6.910189,0.0,-37.442551,-2.200859,-41.560479,6.241356,-40.983147,13.501396,-38.116539,16.32003,-34.837624,0.0,-40.873647,-53.749819,-52.43682,-56.669168,-52.255983,-53.4249,-47.807274,-44.955757,-42.609513,0.0,71.378025,42.621672,97.57849,37.442468,98.889771,30.474189,67.77443,22.860718,49.29536,0.0,-11.843234,-2.11543,-9.249161,13.963557,1.390715,27.667235,8.946194,40.855832,18.69998,42.574551,42.585236,-68.23399,4.107051
61,0.575065,1.670534,-10.595501,6.066996,0.0,-37.518333,-2.29573,-42.224052,5.894692,-42.06546,12.924546,-39.449959,15.522606,-36.232246,0.0,-40.907802,-53.665023,-51.761554,-56.743899,-51.706207,-53.679738,-48.447076,-45.216146,-43.128995,0.0,71.887173,37.179961,96.031844,33.623065,96.444706,28.771989,69.747025,23.39811,52.167398,0.0,-14.292597,-0.524906,-14.501511,17.336109,-5.33157,31.827509,3.260016,44.603891,14.328543,42.7882,43.964327,-79.190907,9.882604
62,0.369644,-0.151801,-10.49002,4.339125,0.0,-38.178657,-3.345199,-43.127563,4.932061,-43.215774,12.179421,-40.698028,15.119271,-37.009986,0.0,-41.144429,-53.291933,-51.409305,-56.596253,-51.561637,-53.724785,-49.224489,-45.315274,-43.56833,0.0,70.678997,32.163185,93.930301,31.023857,94.839031,28.927471,75.334442,26.193626,59.274581,0.0,-14.971289,-0.185777,-19.737161,19.019688,-11.682999,34.079502,-1.384939,46.207888,10.089677,43.011165,43.626783,-89.827606,14.035986
63,0.063446,-1.139258,-10.060044,2.571867,0.0,-38.252288,-3.643478,-43.319984,4.518128,-44.02565,11.687348,-41.716186,14.631592,-37.686492,0.0,-41.16921,-52.926519,-51.207455,-56.339143,-51.39874,-53.615184,-49.301801,-45.223655,-43.345943,0.0,68.82169,27.759774,91.968247,29.614987,93.800686,30.787525,83.774872,31.033173,70.072232,0.0,-15.44153,-0.443003,-24.901218,19.490703,-17.143514,34.684762,-4.720776,45.880075,6.335135,42.998067,42.309132,-99.964194,16.42946
64,-0.272438,-1.247309,-8.056549,-0.63062,0.0,-38.315071,-3.838371,-43.285926,4.349968,-43.983856,11.555077,-41.659492,14.64441,-37.160408,0.0,-41.121921,-52.422265,-51.346221,-55.837088,-51.352538,-53.180715,-49.251863,-44.935256,-43.541969,0.0,70.131523,25.204102,92.740196,28.735199,96.647976,31.979714,90.634541,34.470852,76.203896,0.0,-14.827651,0.4469,-23.388573,22.213951,-15.289883,38.355034,-3.264966,49.131154,8.016229,42.659837,40.874478,-108.086535,15.611495
65,-0.350257,-1.101492,-3.867599,-0.147336,0.0,-38.713601,-3.899849,-43.252625,4.278121,-43.748429,11.459564,-41.462906,14.558418,-36.677742,0.0,-41.004021,-52.049428,-51.70893,-55.467035,-51.734803,-52.8683,-49.486854,-44.737914,-43.891217,0.0,68.803859,25.679592,93.743362,30.17601,99.398208,34.168647,95.512253,37.223934,81.077533,0.0,-14.446454,0.02378,-23.25284,21.669893,-14.547039,37.469001,-3.691304,47.283179,6.541029,42.241488,39.605084,-112.022226,15.296257
66,-0.346116,-0.5632,-0.467881,-0.855213,0.0,-39.05262,-4.554748,-42.914291,3.680787,-43.235664,11.107819,-41.000976,14.591996,-36.353805,0.0,-41.000341,-51.735638,-52.168428,-55.376918,-52.632365,-53.010438,-49.9403,-45.139082,-44.588028,0.0,67.974061,25.146813,93.54712,29.779347,99.532116,33.995465,96.032811,37.30901,82.066384,0.0,-13.789441,-0.214274,-23.253686,21.556365,-14.778281,37.435478,-3.633567,47.082559,6.373495,41.825403,38.914221,-112.560076,14.313381
67,-0.405876,-0.60387,-0.132064,-0.600004,0.0,-39.020118,-4.781318,-42.276283,3.400612,-42.459617,10.921349,-40.25798,14.639832,-36.069465,0.0,-40.755124,-51.236404,-51.965855,-55.018481,-52.503603,-52.871765,-49.305629,-45.327705,-44.609943,0.0,67.97232,24.895568,94.033092,29.443336,99.966339,33.675247,96.339077,37.085014,82.585876,0.0,-14.24238,0.061948,-23.459636,21.737319,-15.201247,37.516753,-3.764712,47.061965,6.337062,41.355732,38.231239,-112.755935,13.634265
68,-0.312996,-0.251528,-0.186081,-0.3408,0.0,-38.72937,-4.776992,-41.632644,3.31778,-41.75148,10.83046,-39.614547,14.6204,-35.487854,0.0,-40.575177,-50.866278,-51.961675,-54.733873,-52.777046,-52.692479,-49.398829,-45.307321,-44.664876,0.0,67.535946,24.946312,94.077461,29.365757,99.948738,33.472686,96.518921,36.762909,82.852958,0.0,-14.147328,0.152128,-23.58373,21.772936,-15.479025,37.559138,-3.617173,47.101454,6.713048,40.996982,37.921178,-112.98777,13.234932
69,-0.203682,0.061374,-0.335759,-0.059398,0.0,-38.534248,-4.823913,-41.137207,3.192078,-41.225303,10.722359,-39.198967,14.593666,-35.247963,0.0,-40.568848,-50.873867,-52.204243,-54.793833,-53.303808,-52.782134,-49.683122,-45.414483,-44.998804,0.0,66.946026,25.043759,94.1288,29.381665,99.825211,33.41478,96.851853,36.653172,83.467083,0.0,-13.908731,0.08206,-23.689712,21.672301,-15.891265,37.501581,-3.703382,47.073951,6.820302,40.764227,37.95009,-113.352602,13.143072
70,-0.070358,0.080424,-0.468807,-0.033197,0.0,-38.382294,-4.875069,-41.043617,3.008927,-41.330337,10.452072,-39.415329,14.248467,-35.394699,0.0,-40.399232,-50.714336,-52.233649,-54.72655,-53.581475,-52.819253,-49.930031,-45.563166,-45.035113,0.0,66.252011,25.181717,94.576103,29.543392,100.251171,33.578167,97.396134,36.822556,84.128094,0.0,-12.921416,0.033074,-23.822179,21.588302,-16.20521,37.426807,-3.742285,46.962041,6.850109,40.679941,38.004004,-113.835337,13.083365
71,0.0038,0.045683,-0.330963,0.075194,0.0,-38.454781,-5.353524,-41.278519,2.481788,-41.544159,9.949722,-39.610291,13.799491,-35.778031,0.0,-40.289563,-50.49945,-51.953333,-54.623087,-53.414267,-52.893193,-49.925036,-45.838894,-44.976456,0.0,65.93494,25.391018,94.955395,29.785664,100.540512,33.813675,97.786675,37.0509,84.709522,0.0,-12.917007,0.048807,-24.213146,21.569023,-16.604161,37.369768,-3.983902,46.862251,6.741335,40.680846,38.023502,-114.169195,13.132374
72,0.119018,0.315643,-0.099724,0.10311,0.0,-38.623649,-5.351692,-41.64798,2.371491,-42.043716,9.67012,-40.20829,13.249306,-36.305466,0.0,-40.316393,-50.667769,-51.932121,-54.843838,-53.471608,-53.180789,-50.274777,-46.132257,-45.0099,0.0,65.637451,25.524502,95.120465,29.974697,100.539585,34.015732,97.482937,37.223728,84.32412,0.0,-12.697558,0.106347,-24.312829,21.572315,-16.533543,37.314533,-3.974596,46.735664,6.649433,40.801597,38.310067,-114.267186,13.206406
73,-0.031357,0.173383,6.155537,-2.254297,0.0,-38.690918,-5.590599,-42.041954,2.178772,-42.367492,9.503495,-40.411674,13.066613,-36.676025,0.0,-40.397138,-50.975379,-52.021765,-55.098701,-53.303783,-53.366651,-50.180429,-46.237579,-44.960129,0.0,68.135879,23.844074,93.290268,26.459576,96.500153,29.66399,89.20285,32.930145,76.461971,0.0,-12.696379,0.665015,-23.372642,22.381122,-16.585766,38.524495,-2.745257,49.09908,10.404092,40.774852,38.406753,-108.107037,10.875412
74,-0.203682,0.232768,1.832268,-0.514356,0.0,-38.57753,-5.861274,-42.426727,2.026451,-42.511688,9.452019,-40.309227,13.191903,-36.777534,0.0,-40.759595,-51.030442,-52.121652,-55.03043,-52.997513,-53.260299,-49.928191,-46.102987,-44.752808,0.0,70.190151,22.840175,93.493549,25.226406,95.923771,28.380169,87.288906,31.73061,73.603672,0.0,-13.190321,1.141314,-23.457525,23.041697,-16.439109,39.442266,-2.565767,50.609433,11.106293,40.575657,38.549838,-106.270282,10.271373
75,-0.298759,0.579935,0.4487,0.230156,0.0,-38.40184,-5.513237,-42.175209,2.428253,-42.239548,9.873184,-40.024933,13.571068,-36.833679,0.0,-41.125163,-51.408965,-52.379386,-55.29984,-52.968756,-53.419188,-50.022033,-46.136246,-44.614654,0.0,70.734031,22.664371,93.373226,24.914795,95.523765,27.965995,87.131836,31.190712,72.76617,0.0,-12.715058,0.811764,-23.641269,22.943304,-16.384873,39.62966,-2.457827,51.09066,11.239871,40.29051,39.046619,-105.80797,10.418375
76,-0.540482,0.876461,0.633098,0.568807,0.0,-38.002899,-4.957718,-42.004989,3.140007,-41.986084,10.697983,-39.551605,14.478173,-36.348655,0.0,-41.401873,-51.982145,-52.588893,-55.721096,-53.067866,-53.602594,-50.121439,-46.029251,-44.316455,0.0,71.206398,22.452084,93.674973,24.66742,95.835285,27.770016,86.658932,31.087853,71.901684,0.0,-12.284528,1.120987,-23.8312,23.153003,-16.883155,39.790113,-3.142466,51.268021,10.414776,39.768242,39.854954,-105.156658,10.919056
77,-0.800033,1.124777,0.207779,0.995528,0.0,-37.543625,-3.78344,-41.414315,4.523437,-41.393028,12.15081,-38.679245,15.891334,-35.488632,0.0,-41.769967,-52.729584,-52.658664,-56.12201,-52.912551,-53.533747,-49.724661,-45.515037,-43.811256,0.0,71.767067,22.305313,93.520466,24.28973,95.289494,27.307057,86.519463,30.573612,71.666336,0.0,-12.291543,0.909429,-23.628894,23.139973,-16.494313,40.045883,-2.642115,51.77007,10.926254,38.998307,40.969221,-104.918781,11.904074
78,-0.894264,1.621949,-6.001716,4.132795,0.0,-36.781037,-1.705079,-40.391419,6.710632,-40.235459,14.181335,-37.598008,17.495109,-34.08696,0.0,-42.044528,-53.315732,-52.652464,-56.182637,-52.756477,-53.030575,-49.468076,-44.541807,-43.235971,0.0,69.643684,23.57238,95.981529,27.256473,99.612533,31.140392,94.631778,34.420852,78.697128,0.0,-11.192201,0.007768,-24.705111,22.081922,-16.353504,38.871088,-3.842432,49.742853,7.336097,38.135073,42.706585,-110.889467,16.152284
79,-0.764809,2.428662,-1.676114,3.748342,0.0,-35.26165,1.540489,-39.082787,10.001312,-38.890434,16.952248,-36.472138,19.26725,-32.58522,0.0,-42.133263,-54.224228,-52.725009,-56.349387,-52.876964,-52.255156,-49.242644,-42.905637,-42.098349,0.0,67.954583,24.056546,95.453534,27.677777,99.657223,31.42162,95.944302,34.454464,80.235798,0.0,-10.852387,-0.732483,-24.657816,21.160619,-15.921238,37.936767,-3.601271,48.55685,7.321172,37.404945,45.259359,-112.5309,20.024738
80,-0.559181,3.537317,-0.693683,4.855398,0.0,-32.810715,4.929931,-36.991036,13.45317,-36.361061,19.769485,-34.189751,21.137855,-29.907349,0.0,-41.734331,-54.731545,-52.09705,-55.632002,-51.671047,-50.24715,-47.275486,-39.826743,-40.252648,0.0,68.203239,23.653107,94.86961,27.122154,98.999977,30.821216,95.178097,33.884743,79.500412,0.0,-11.873492,-0.989402,-24.38139,20.680065,-15.310144,37.468582,-3.330008,48.214123,7.985644,36.864121,48.928655,-113.206226,25.012115
81,-0.3219,5.107753,-1.014198,6.714802,0.0,-30.534851,8.904465,-34.084213,17.322739,-33.303543,22.656052,-31.306411,22.685601,-27.092811,0.0,-39.957833,-54.54333,-50.993978,-53.779619,-49.728175,-46.853384,-44.421085,-35.23639,-37.840467,0.0,68.224319,22.754619,93.124889,26.038787,97.172058,29.579875,94.207546,32.481868,78.314151,0.0,-12.840548,-1.626617,-23.908519,19.914125,-14.134879,36.933971,-2.557375,48.084323,9.746382,36.506881,54.105371,-114.255764,31.79588
82,3.73645,4.22886,-0.151017,10.736038,0.0,-31.835495,8.89737,-35.067169,15.728188,-34.933639,18.865151,-33.834091,17.051423,-30.818847,0.0,-36.661473,-51.093742,-45.974491,-47.846819,-43.076513,-39.235428,-36.766134,-26.765309,-29.925071,0.0,66.301827,21.450943,90.967644,23.817078,94.713478,26.65939,92.005795,29.156777,76.260498,0.0,-14.249377,-1.48377,-24.849984,17.797246,-15.825063,33.131942,-5.117115,43.372205,7.293983,40.265338,58.012348,-114.384774,42.210035
83,3.223664,4.676618,1.927368,13.350877,0.0,-33.51677,8.177994,-38.707649,14.101845,-38.591561,15.773369,-37.137428,12.77053,-34.772324,0.0,-32.161788,-44.522665,-38.106735,-38.858472,-33.901705,-28.698053,-26.539216,-15.679801,-19.320345,0.0,64.238102,22.972493,84.064293,25.445034,87.511357,28.320111,86.033535,30.758172,73.051415,0.0,-16.895086,-1.635441,-24.328903,15.372061,-16.970767,28.589033,-7.334918,37.697392,4.081943,43.650364,61.982933,-112.296044,54.854879
84,4.531425,9.335983,1.90543,13.130577,0.0,-36.738899,3.042046,-42.371933,6.437805,-42.535263,5.99318,-41.481537,2.106148,-40.51252,0.0,-27.684655,-40.373704,-30.752347,-32.618377,-24.410173,-21.23969,-16.361377,-7.831928,-9.931671,0.0,64.775631,20.494812,81.320629,22.131741,84.70586,24.942719,82.721878,27.735913,69.850079,0.0,-16.817719,-0.693161,-22.665514,15.42303,-15.572225,27.985595,-6.419548,37.116363,4.610292,48.464092,70.278382,-110.108311,66.944922
85,2.854058,13.648304,1.296295,16.430068,0.0,-41.290341,-5.431611,-49.833722,-3.790104,-49.734749,-5.093331,-47.322937,-8.395676,-46.641247,0.0,-23.339858,-35.551898,-23.588762,-26.92546,-16.069548,-15.461366,-8.301916,-2.642473,-2.144812,0.0,62.856034,20.218884,80.051011,20.706711,82.735852,22.406846,80.222237,24.307618,67.735074,0.0,-16.137779,0.537333,-20.686827,14.043427,-15.144987,24.500828,-6.633149,32.499254,3.278342,51.647173,82.684598,-108.482993,82.132902
86,1.351074,17.265619,4.171395,18.819376,0.0,-46.165158,-17.157852,-60.9482,-16.530201,-59.732803,-17.499848,-54.727913,-18.777672,-52.705044,0.0,-19.698579,-30.216866,-16.362543,-21.917907,-8.116159,-11.43935,-1.537313,-0.139698,4.279533,0.0,61.421677,21.582905,79.518591,20.414984,80.790172,20.436601,76.481357,20.69961,64.05744,0.0,-14.693634,2.247823,-18.597476,13.174624,-14.723771,21.276871,-6.694272,27.791162,1.512209,53.369665,98.487964,-103.94018,99.490025
87,-3.923699,23.417967,6.118103,18.960853,0.0,-47.76844,-28.398216,-71.177993,-26.638939,-67.329483,-24.95446,-57.536384,-22.245552,-51.988952,0.0,-16.868372,-26.859478,-12.475621,-20.706611,-4.959997,-12.415006,-0.578996,-3.260514,4.259371,0.0,62.055439,24.640148,79.822763,22.222177,79.414547,20.634172,72.334911,18.840952,59.602793,0.0,-11.914742,4.033892,-15.222483,14.21686,-12.211597,21.424565,-4.324829,27.37276,2.978516,49.698257,120.521635,-97.569786,117.066582
88,-0.777626,22.559167,1.685451,23.448417,0.0,-52.470039,-40.688518,-83.618042,-39.697712,-80.084724,-37.06398,-69.2379,-31.973625,-59.512871,0.0,-14.396046,-23.89279,-9.107815,-18.655763,-2.060722,-11.472152,1.524112,-3.310971,5.551511,0.0,64.129601,23.54393,87.011851,19.485255,86.323082,16.618166,77.265816,13.933279,61.729918,0.0,-11.921461,6.066567,-13.567122,11.528851,-12.335649,14.675306,-6.974799,16.885742,-3.000808,48.988472,141.876267,-95.816494,139.310464
89,-3.199756,24.414366,1.577992,26.540413,0.0,-56.327986,-48.335627,-93.150748,-46.99644,-89.381459,-42.998457,-77.332518,-36.00432,-65.101302,0.0,-10.72995,-17.306134,-5.718447,-15.144412,-1.649848,-11.32657,-0.859795,-6.530329,1.213148,0.0,61.854458,26.486011,90.517256,22.186472,89.593025,18.355665,80.532268,14.426233,64.316602,0.0,-11.807531,6.83168,-11.101112,5.840261,-14.430883,2.997822,-12.824755,-0.50305,-14.238147,45.750601,165.237922,-94.276617,164.798166
90,-2.742821,26.262438,3.773014,16.132258,0.0,-59.76737,-52.164919,-96.778753,-51.710692,-93.131519,-47.858133,-82.016054,-40.668402,-70.79653,0.0,-6.571492,-10.542994,-3.586674,-12.890947,-3.827719,-13.92928,-7.156966,-14.018332,-8.752105,0.0,64.376793,27.224327,92.071798,22.414587,91.555607,18.003279,82.748646,13.435141,65.620073,0.0,-11.495197,10.182041,-4.746649,10.528205,-6.585833,8.418187,-3.120782,5.006754,-4.347553,42.993807,190.560991,-90.517576,179.991055
91,-1.415665,23.080272,5.97813,19.929452,0.0,-64.572618,-52.27244,-94.148306,-53.012129,-91.286659,-50.014726,-82.52857,-43.726965,-73.938543,0.0,-1.625296,-5.299136,-1.701459,-11.32255,-5.98167,-16.291803,-12.734028,-20.413031,-17.143113,0.0,63.705574,27.077271,91.121727,23.23716,89.403076,20.067879,82.427914,16.637112,67.281624,0.0,-11.394174,13.952752,0.03127,12.575508,-3.248764,8.289585,-1.123154,2.445304,-4.107193,41.581003,212.95985,-84.536585,199.239094
92,0.385689,18.13391,1.661419,12.221159,0.0,-69.831511,-49.222795,-90.24943,-50.846231,-89.056389,-49.104876,-84.051847,-44.616812,-78.106802,0.0,5.91275,-2.364127,0.435266,-9.401185,-5.951462,-15.439067,-13.740807,-20.954854,-19.581402,0.0,65.197575,23.788147,92.143879,20.726017,92.130856,18.929466,86.733181,17.386929,71.122959,0.0,-9.358694,17.091119,7.809871,18.1873,7.307124,15.86257,11.382034,10.997909,9.478182,42.024382,230.650892,-82.817476,211.017385
93,-1.534584,24.366787,4.524502,6.488277,0.0,-72.448191,-44.048842,-82.268927,-45.77722,-81.078758,-44.950327,-76.937651,-42.045874,-74.933607,0.0,12.818286,-1.207295,0.183942,-13.435995,-10.779406,-24.547105,-23.039802,-35.011854,-33.32429,0.0,65.872982,21.981834,89.584236,18.99519,89.82962,17.181679,84.738968,15.721596,69.277428,0.0,-3.03323,20.166215,16.403602,27.856673,20.718239,31.159356,29.527849,30.648199,31.473802,40.591747,254.705627,-78.191025,217.19361
94,-0.391125,18.921079,5.079449,4.051037,0.0,-74.933704,-39.984123,-77.120041,-41.83818,-75.811214,-41.612446,-71.750255,-39.827808,-71.958721,0.0,19.797405,-0.601523,0.971248,-15.872412,-13.270188,-30.141883,-27.996957,-43.799308,-41.392289,0.0,68.009273,21.172577,87.494053,17.574474,87.470569,15.25526,81.734768,13.485775,66.575088,0.0,2.039776,24.876845,23.901077,39.189306,34.310468,48.010575,48.045859,51.978249,54.127447,40.256,273.503992,-73.056198,221.121933
95,-1.416732,2.925278,4.058487,11.146851,0.0,-76.647377,-35.04815,-77.440007,-34.516663,-77.137928,-32.945847,-72.42976,-30.681565,-68.378712,0.0,22.637318,2.596901,6.241805,-6.500478,-2.232685,-15.361304,-11.20318,-24.484421,-17.414617,0.0,67.407039,21.254585,86.87527,17.415882,86.449825,15.035625,79.583072,13.353664,64.074291,0.0,6.312114,27.014582,26.890649,42.011102,38.525279,51.001332,51.855019,54.687795,57.662658,38.801142,276.393196,-69.035837,232.23271
96,-0.999299,1.27091,-0.167611,4.241487,0.0,-74.463981,-30.314346,-81.026676,-27.895042,-81.722511,-25.458412,-75.934307,-22.92913,-66.528648,0.0,22.014454,8.578614,14.079489,4.724869,10.121942,0.163848,6.193307,-5.522821,5.418067,0.0,69.684712,20.761403,88.971669,15.638878,90.580731,11.914044,81.740628,9.288907,62.618237,0.0,10.490914,28.440597,31.766956,47.236818,47.881702,59.517258,63.829178,65.639626,71.081134,37.687854,277.682526,-69.317437,236.492617
97,0.250763,0.455483,2.031132,8.605599,0.0,-72.938884,-25.020057,-82.840175,-22.648132,-84.796371,-20.946121,-78.685547,-19.424492,-66.49673,0.0,16.986056,14.348363,19.424716,15.084687,20.188519,13.68709,20.792117,10.314122,24.764126,0.0,69.621163,22.3396,90.494774,16.498844,91.564018,11.793881,81.692208,8.327202,61.740486,0.0,11.865145,29.739839,33.695854,48.171336,50.05707,59.897073,65.132668,65.423735,71.269782,37.74876,278.194396,-67.476162,245.154603
98,-1.588188,-5.461972,2.206421,7.457042,0.0,-66.909176,-21.794266,-74.487373,-18.884514,-76.636001,-16.46537,-71.11631,-14.070282,-60.382931,0.0,13.693413,19.057375,24.450668,26.562693,30.513114,30.862794,36.541374,32.37831,45.972416,0.0,68.629303,24.42104,92.154007,17.738297,92.427544,12.015198,81.158112,7.440296,59.184105,0.0,12.717707,31.066694,36.131944,48.99043,52.517478,59.979842,65.989948,64.855643,71.216268,35.886783,272.793458,-65.54353,252.672679
99,-3.346916,1.278332,2.746079,6.196827,0.0,-64.449783,-23.363136,-67.145828,-19.17667,-64.973511,-15.130486,-59.712994,-10.87397,-52.266449,0.0,14.430701,19.47881,27.554874,28.763379,36.262386,34.562459,43.355854,37.249034,53.544684,0.0,67.949318,25.289016,93.524551,18.128757,93.50521,11.844898,81.293586,6.669696,58.287208,0.0,13.405483,31.367863,38.511076,49.197998,54.575878,60.000677,67.243617,64.796115,72.039389,32.190399,274.132827,-63.146919,258.930543
100,-0.767647,9.162823,2.9985,4.762982,0.0,-61.144775,-27.345966,-52.092247,-23.907291,-46.360771,-19.702286,-42.329338,-14.679519,-44.176563,0.0,16.798199,17.117251,28.030401,22.450387,33.040941,24.733954,35.848374,24.36076,40.422412,0.0,67.305645,25.731926,94.401158,18.05111,93.802655,11.183579,81.279087,5.518639,58.323178,0.0,14.654212,31.816887,41.996937,49.618185,57.575541,60.453147,69.292471,65.331676,73.329367,31.048078,283.349849,-60.523093,263.747724
101,-0.03495,4.23094,2.640347,3.438831,0.0,-55.067471,-31.133984,-36.076218,-29.142918,-28.373589,-25.404144,-26.389538,-20.289436,-36.073837,0.0,19.474376,14.440915,27.925476,19.231438,32.451324,21.359554,33.456806,21.180355,35.303291,0.0,66.9963,26.403248,94.786262,18.276421,93.777466,10.886627,81.120392,4.800556,58.716362,0.0,15.86126,31.809329,45.04737,49.646726,60.203416,60.660962,70.945493,65.786431,74.549692,30.664564,287.603099,-58.23131,267.208865
102,-3.638855,10.950349,2.355114,1.966096,0.0,-54.554157,-38.628674,-20.794212,-36.607018,-8.756332,-31.511158,-6.853889,-24.550449,-23.750359,0.0,24.798558,9.643723,26.637831,8.815328,26.436167,6.128099,22.106598,2.163907,16.885922,0.0,66.584209,26.914009,93.494968,18.317974,92.372349,10.342712,79.700214,3.542187,57.26833,0.0,17.556186,32.036163,47.962743,49.958862,62.947345,61.064377,72.986999,66.306431,75.776203,26.706619,298.559941,-56.195286,269.181454
103,-1.453011,7.265986,1.923546,1.088722,0.0,-55.088413,-43.706737,-13.571548,-42.488296,1.081833,-37.54335,2.119927,-30.467582,-19.9319,0.0,27.460457,7.210213,27.335771,3.908443,25.476627,-1.029478,18.44428,-6.933645,10.932441,0.0,66.399044,26.943981,92.881153,17.989746,91.88705,9.662853,79.30299,2.518306,57.470638,0.0,18.641609,32.214078,49.802806,50.236319,64.641751,61.455096,74.6427,66.84119,76.866962,24.983139,305.8292,-54.542209,270.273449
104,0.470581,1.229364,1.141571,0.252732,0.0,-56.647361,-45.50687,-8.597579,-43.964733,5.19516,-38.709903,6.734574,-31.367797,-15.015312,0.0,26.406131,6.401949,28.733455,3.232424,26.824885,-1.281889,20.168043,-6.516336,13.705294,0.0,66.150112,27.116787,92.443004,17.789154,91.253437,9.08234,78.540127,1.596325,56.652935,0.0,19.734122,32.32103,50.808115,50.423842,65.672217,61.752684,75.384075,67.276394,77.568484,25.270214,307.061401,-53.584144,270.529018
105,0.461037,3.703987,0.724788,-0.213953,0.0,-59.153927,-46.324379,-8.791328,-44.678032,5.347138,-39.407192,7.954994,-32.082115,-15.678291,0.0,24.974424,4.201894,27.283247,-0.93926,23.919109,-7.198616,16.195676,-13.959112,6.499454,0.0,65.82795,27.055081,91.816201,17.555706,90.727845,8.614209,77.519326,0.798134,55.354157,0.0,20.403176,32.126677,51.000381,50.114732,66.01576,61.440832,75.785873,67.101752,77.840148,25.583576,310.766787,-53.007031,270.316464
106,-0.058845,1.497399,0.531018,-0.39582,0.0,-62.824791,-47.299679,-9.676621,-45.237843,5.001503,-39.647587,7.934669,-31.94133,-19.203438,0.0,25.780685,3.863414,26.752118,-2.203317,22.321872,-9.303713,14.263344,-16.774932,4.780124,0.0,65.369831,26.870338,91.34309,17.186073,90.058674,7.998504,76.43478,-0.183048,53.91299,0.0,20.85078,31.98885,50.915252,49.824073,65.947278,61.088398,75.834063,66.85785,77.825933,25.405049,312.26184,-52.595695,269.918298
107,2.287307,-7.530846,0.254802,-0.291166,0.0,-55.149616,-42.609844,-8.700142,-41.298866,1.971154,-37.060592,2.603852,-30.645412,-24.385711,0.0,20.435867,8.069766,28.093189,6.940462,26.709103,4.368508,22.436839,0.733113,17.537537,0.0,64.870903,26.488301,91.068444,16.77142,89.534913,7.587204,75.803467,-0.576507,53.362473,0.0,21.222629,31.772057,50.77834,49.579727,65.676479,60.885709,75.515987,66.7333,77.554887,27.587946,304.722207,-52.445303,269.618345
108,-0.32991,1.429843,0.282692,-0.420224,0.0,-59.004925,-42.985874,-10.875778,-40.532226,0.834,-35.31546,2.400902,-27.899895,-25.045555,0.0,22.279709,7.326859,27.267945,4.599689,24.724989,0.741153,19.678448,-4.109589,13.967153,0.0,64.478806,25.754563,90.701729,16.026741,88.89592,6.95541,75.314095,-0.994812,53.202279,0.0,21.685065,31.687199,50.765817,49.478765,65.374556,60.886709,75.294822,66.818404,77.57545,27.177618,306.139604,-52.243029,269.185675
109,0.001373,-1.906062,0.142594,-0.140828,0.0,-55.273098,-41.20047,-9.361473,-39.443046,1.255921,-35.051571,1.480019,-28.320053,-27.904976,0.0,20.975639,8.735584,26.592049,7.999679,25.079732,5.862065,20.922484,2.298276,16.739647,0.0,64.339325,25.257854,90.518532,15.666309,88.550674,6.803009,75.256462,-0.894757,53.515205,0.0,21.861116,31.592771,50.503859,49.271185,64.907575,60.721132,74.8672,66.677675,77.543413,27.107236,304.221034,-52.17219,269.032339
110,-2.124229,-6.195481,0.093338,-0.04094,0.0,-47.64719,-33.991653,-3.791885,-33.266911,1.930572,-30.590344,-1.562965,-25.735565,-28.485935,0.0,12.496752,11.778187,25.625396,16.760581,28.237735,19.630851,29.032673,20.595504,30.97166,0.0,64.211883,24.674286,90.21682,15.164108,88.321312,6.516712,75.369209,-0.874581,53.848823,0.0,22.179982,31.523696,50.308875,49.101643,64.441853,60.580439,74.258254,66.523385,77.414589,24.923224,298.014552,-52.138635,268.980398
111,-1.974426,2.989288,0.097057,-0.11062,0.0,-50.993386,-34.578324,-3.077477,-33.511574,3.830269,-30.394707,0.71109,-25.197579,-23.715969,0.0,13.848889,10.409156,24.112659,13.675728,25.47759,14.661351,24.640551,13.755213,24.244262,0.0,63.996563,24.245464,89.966274,14.77676,87.988278,6.275105,75.369152,-0.892788,54.090077,0.0,22.510594,31.633946,50.359178,49.185105,64.240954,60.662814,74.007313,66.513592,77.474216,22.895794,300.99367,-52.094582,268.859608
112,-1.855088,4.349687,0.161064,0.097393,0.0,-54.772567,-37.611877,-2.757499,-36.13964,6.988472,-32.279216,4.85891,-26.319717,-19.826213,0.0,18.026822,8.090996,23.114711,9.380394,22.886456,8.535006,19.675583,5.845813,17.90962,0.0,63.946759,23.968014,89.729245,14.540119,87.785122,6.120449,75.325436,-0.925174,54.251782,0.0,22.563007,31.730153,50.259154,49.188143,64.034177,60.638731,73.767054,66.441306,77.556109,21.010946,305.347615,-51.963278,268.961259
113,-0.936309,-0.418285,0.006878,0.148275,0.0,-53.454564,-37.559853,-1.488213,-36.35122,8.052589,-32.660363,5.722389,-26.880295,-16.128376,0.0,17.823009,8.770534,22.998002,10.420617,22.971203,9.642858,19.440833,6.912218,17.238615,0.0,64.006851,24.025475,89.728821,14.685471,87.887787,6.331478,75.518624,-0.6362,54.523476,0.0,22.458131,31.812861,50.205098,49.263392,64.001449,60.679968,73.579024,66.416816,77.516996,20.053986,304.94017,-51.977051,269.120374
114,-1.534607,-1.242925,0.154415,0.109088,0.0,-51.440049,-37.124977,0.703399,-35.9748,10.082863,-32.200173,7.469375,-26.463364,-13.051175,0.0,17.633893,10.058229,23.7376,12.638716,24.441159,12.436336,21.371719,10.210752,19.949928,0.0,63.780796,23.875477,89.441059,14.524475,87.747036,6.188027,75.357914,-0.6973,54.407925,0.0,22.43453,31.737884,50.178867,49.256945,63.968129,60.71792,73.503393,66.470317,77.472746,18.50453,303.705603,-51.837485,269.23782
115,0.260582,0.686788,0.206967,0.023601,0.0,-57.003182,-43.551934,-2.538758,-41.978302,10.759918,-37.054997,10.322113,-30.010357,-10.423417,0.0,27.067231,10.175209,27.244443,10.558642,25.921601,8.300948,19.852622,4.217825,16.515309,0.0,63.505623,23.846706,89.202598,14.494125,87.441742,6.130176,75.096565,-0.758183,54.285736,0.0,22.412707,31.648087,50.212545,49.210694,64.028113,60.712499,73.559758,66.529449,77.506203,18.75364,304.404377,-51.64199,269.273407
116,-2.578698,-3.219098,0.23584,0.081474,0.0,-43.596382,-36.687343,3.687607,-36.451698,14.290421,-33.44197,11.064858,-28.434894,-9.842559,0.0,18.887253,10.548576,25.128725,15.086947,27.291916,16.665041,24.912364,15.986243,24.258736,0.0,63.427688,23.770958,89.01567,14.437774,87.249183,6.086517,74.986244,-0.75166,54.321418,0.0,22.413324,31.444038,50.061935,49.052316,63.955902,60.628073,73.50974,66.532314,77.543734,16.166416,301.207898,-51.414676,269.3775
117,-0.531028,0.58222,0.226043,0.040224,0.0,-46.382367,-37.177311,3.208374,-36.653744,14.682243,-33.312435,11.73452,-28.109333,-9.087273,0.0,21.283008,11.029488,25.994243,14.141561,27.182457,14.233322,23.94408,12.285603,21.87081,0.0,63.311508,23.715386,89.00132,14.460526,87.266922,6.180554,75.085785,-0.544395,54.674744,0.0,22.568479,31.334172,49.921775,48.967212,63.861041,60.58775,73.337457,66.578047,77.461125,15.626559,301.819097,-51.197462,269.446703
118,1.227241,-4.427838,0.262974,-0.048907,0.0,-37.591564,-35.703747,5.261307,-36.701523,15.052918,-34.739399,9.982132,-30.72583,-12.102722,0.0,16.811117,12.265534,27.186026,19.1284,31.211313,22.678444,30.751335,23.834498,31.327552,0.0,63.233082,23.804157,88.960957,14.550922,87.239079,6.24575,74.991085,-0.50069,54.679676,0.0,22.872489,31.306348,49.997481,48.961816,63.913048,60.607684,73.28408,66.658755,77.359978,16.851837,297.425358,-50.936451,269.431895
119,0.097252,1.993587,0.119694,-0.119363,0.0,-40.943893,-36.850159,4.157753,-37.823318,14.629829,-35.763668,9.717362,-31.621731,-13.070229,0.0,18.432523,11.339167,27.093241,16.188291,29.786966,17.768632,28.042233,17.190697,26.515059,0.0,63.291,23.962589,89.136932,14.664299,87.299995,6.298004,74.930305,-0.519562,54.624847,0.0,23.174053,31.243115,50.141557,48.91607,64.107796,60.567126,73.351005,66.662633,77.384295,16.956705,299.457301,-50.809141,269.350888
120,0.04953,-1.634014,0.150078,-0.009287,0.0,-32.299358,-34.707539,6.218857,-36.637607,15.921455,-35.424087,9.576714,-31.970478,-13.875641,0.0,15.597314,12.164312,26.730851,18.850313,30.890964,21.910096,30.56796,22.423377,30.57563,0.0,63.375869,24.012519,89.322944,14.66526,87.433227,6.253543,74.948593,-0.60038,54.551239,0.0,23.260651,31.154194,50.075595,48.899731,64.158653,60.579315,73.312509,66.677922,77.313096,17.019155,297.860288,-50.646143,269.378602
