takenoko1/special-research/HandMotion_SimilarSearch_自分用/NewProject/handData/test_key/d4_feature_d3/49.csv
frame,vel_0x_L,vel_0y_L,vel_0x_R,vel_0y_R,posFromWrist_0x_L,posFromWrist_1x_L,posFromWrist_2x_L,posFromWrist_3x_L,posFromWrist_4x_L,posFromWrist_5x_L,posFromWrist_6x_L,posFromWrist_7x_L,posFromWrist_8x_L,posFromWrist_9x_L,posFromWrist_0y_L,posFromWrist_1y_L,posFromWrist_2y_L,posFromWrist_3y_L,posFromWrist_4y_L,posFromWrist_5y_L,posFromWrist_6y_L,posFromWrist_7y_L,posFromWrist_8y_L,posFromWrist_9y_L,posFromWrist_0x_R,posFromWrist_1x_R,posFromWrist_2x_R,posFromWrist_3x_R,posFromWrist_4x_R,posFromWrist_5x_R,posFromWrist_6x_R,posFromWrist_7x_R,posFromWrist_8x_R,posFromWrist_9x_R,posFromWrist_0y_R,posFromWrist_1y_R,posFromWrist_2y_R,posFromWrist_3y_R,posFromWrist_4y_R,posFromWrist_5y_R,posFromWrist_6y_R,posFromWrist_7y_R,posFromWrist_8y_R,posFromWrist_9y_R,posFromBody_0x_L,posFromBody_0y_L,posFromBody_0x_R,posFromBody_0y_R
6,0.863457,-5.240424,0.459148,-0.079275,0.0,-30.556195,-36.191197,8.986976,-39.491249,17.113998,-38.949108,7.754883,-35.715237,-26.446598,0.0,15.689779,10.907284,28.28359,19.740273,34.25856,24.849465,36.200709,27.536509,37.030104,0.0,60.846016,22.597023,88.345116,13.01056,84.55877,4.448044,71.42672,-2.489913,51.09739,0.0,24.884984,30.952073,52.065786,48.010587,65.454004,59.491705,75.299094,65.65557,79.911665,15.725928,300.529866,-49.298853,273.4861
7,-0.892205,2.444167,0.345292,0.076533,0.0,-39.287315,-37.624259,8.758439,-40.14711,17.773407,-39.056522,10.253884,-35.340637,-20.803115,0.0,19.053831,10.40723,28.205897,16.87682,32.755346,19.915966,32.72063,21.039218,31.834536,0.0,60.532058,22.398124,88.167251,12.803409,84.389053,4.263542,71.292343,-2.596058,51.103363,0.0,24.770202,30.877442,52.281258,47.96262,65.394946,59.512886,75.105631,65.75836,79.881494,14.535541,302.931265,-49.251743,273.519865
8,-2.749877,-2.506918,0.271202,0.177434,0.0,-26.546563,-31.475945,13.911483,-35.084542,21.265457,-35.300698,11.402458,-33.018265,-18.510956,0.0,12.615547,10.420481,26.532336,20.169549,33.879067,26.295635,36.469484,30.121307,37.337708,0.0,60.311325,22.19038,88.082336,12.682811,84.385254,4.22604,71.41365,-2.518227,51.376579,0.0,24.54879,30.955617,52.302055,48.018911,65.192244,59.584047,74.82684,65.848256,79.727352,11.437901,300.389162,-49.328304,273.662114
9,1.380409,2.387493,0.264896,0.048795,0.0,-37.59161,-36.496079,10.616798,-39.016159,19.690246,-38.01836,11.505661,-34.511753,-22.788838,0.0,19.778558,10.466473,27.88745,17.370082,32.41783,20.904021,32.966063,22.53196,33.084611,0.0,60.150044,22.025242,87.932522,12.584118,84.49625,4.191868,71.640553,-2.467861,51.57954,0.0,24.59551,31.05075,52.442884,48.052541,65.100458,59.609587,74.82353,65.906573,79.798193,12.469334,302.743207,-49.412384,273.677461
10,0.107506,-4.897968,0.091564,0.048227,0.0,-26.310585,-33.469632,13.167526,-37.668824,20.084129,-38.170956,8.68563,-36.060082,-26.410092,0.0,14.852283,12.277587,28.141675,23.646801,36.048507,31.279733,39.685186,36.420788,42.997417,0.0,60.165688,21.98568,87.941895,12.57946,84.66877,4.206757,71.896385,-2.42752,51.721001,0.0,24.509517,31.099681,52.433016,48.002881,65.095728,59.49935,74.89153,65.751184,79.893659,12.232253,297.813753,-49.665407,273.694202
11,0.335311,0.64502,0.120724,0.202196,0.0,-32.823577,-33.975173,11.781029,-37.189888,18.945557,-37.272239,8.802796,-35.093742,-26.160999,0.0,17.951042,12.862956,28.729564,22.854766,36.022436,29.478325,39.13294,33.979078,42.431449,0.0,60.239468,21.999287,88.051517,12.632606,84.946987,4.315945,72.236629,-2.220737,52.049686,0.0,24.370961,31.044105,52.113655,47.923124,65.053478,59.407922,74.77061,65.659386,79.74111,12.205604,298.436206,-49.906643,273.873831
12,0.92315,-3.019929,0.088726,0.090835,0.0,-26.070157,-33.16792,12.157905,-37.104653,18.329841,-37.694275,6.657074,-35.843754,-28.528965,0.0,15.177424,14.31787,29.549104,26.686416,38.379351,35.267933,42.694457,41.191921,47.798339,0.0,60.38269,22.176109,88.016029,12.816525,85.11422,4.457211,72.481316,-2.154144,52.209595,0.0,24.353572,31.028359,51.952251,47.892224,65.019886,59.367537,74.731682,65.626769,79.665676,12.790942,295.402847,-50.155729,273.951236
13,-1.093483,1.709869,0.172211,-0.091687,0.0,-26.286107,-32.320324,13.6539,-36.474747,19.695762,-37.240288,7.350242,-35.557469,-28.747204,0.0,12.382106,13.406632,28.636395,25.455483,37.110194,33.930036,41.346989,39.869808,46.396987,0.0,60.533478,21.865299,87.682113,12.53619,85.089981,4.292381,72.648353,-2.18327,52.46141,0.0,24.536588,31.022863,52.033515,48.015539,65.073782,59.569881,74.768226,65.82731,79.745593,11.417914,297.100526,-50.263063,273.847359
14,1.451866,-0.620073,0.228813,0.099158,0.0,-26.05156,-32.639843,11.120888,-36.621403,17.151352,-37.300621,5.389801,-35.540234,-27.133347,0.0,12.350058,13.592204,29.210551,25.950117,38.303299,34.925267,42.428449,41.345075,47.15569,0.0,60.658287,21.600426,87.350716,12.306988,85.10939,4.193184,72.861168,-2.104855,52.740234,0.0,24.32681,31.038425,51.844819,48.116835,64.676295,59.724406,74.389956,66.022985,79.556428,12.625695,296.47698,-50.278335,273.943044
15,2.226448,0.335021,0.252216,0.071853,0.0,-28.996788,-34.388249,8.233154,-37.621033,14.787758,-37.675072,5.081932,-35.285786,-25.229576,0.0,13.400284,13.545385,29.840392,24.956145,38.242882,33.247212,41.368651,39.174745,45.983654,0.0,60.817532,21.29068,86.95863,12.019329,85.087452,4.079006,73.061657,-1.96392,53.066906,0.0,24.452225,31.077957,51.88466,48.330442,64.346585,60.037258,74.026271,66.406393,79.405806,14.643013,296.818765,-50.235249,274.021661
16,-0.434784,3.532407,0.261727,-0.121562,0.0,-30.746441,-34.251492,7.809883,-36.905537,15.06205,-36.556595,5.851318,-33.691853,-20.614632,0.0,13.769861,12.138266,27.69012,21.754201,34.77971,28.339907,36.667432,32.670081,39.167644,0.0,60.941722,21.030086,86.565708,11.756034,85.126361,3.898407,73.197727,-2.02557,53.128933,0.0,24.533624,31.28513,52.05414,48.612617,64.132434,60.333166,73.921666,66.694051,79.537927,14.0522,300.354479,-50.129551,273.903406
17,0.384453,0.933531,0.249035,-0.041879,0.0,-28.991124,-32.208504,8.069755,-34.680153,14.876106,-34.478497,6.388046,-31.970135,-17.982422,0.0,10.498817,10.950904,26.035616,20.584216,33.390164,27.428199,35.873729,32.185698,38.42675,0.0,60.974372,20.768726,86.309051,11.487659,85.038963,3.714065,73.264709,-2.073773,53.18724,0.0,24.508924,31.457019,52.097699,48.859767,64.014886,60.590875,73.932682,66.915723,79.684584,14.299382,301.28767,-50.017787,273.861187
18,4.570106,3.605545,0.186172,0.193365,0.0,-43.755432,-39.479461,-0.27095,-39.753021,9.230713,-37.244327,5.00885,-32.401634,-21.58342,0.0,20.133277,10.51213,27.438931,15.636686,31.168829,18.203231,30.330567,19.048717,29.816865,0.0,60.962334,20.886635,86.232857,11.590313,85.141708,3.794071,73.404419,-1.983856,53.197403,0.0,24.18287,31.441174,51.860133,48.794991,63.690796,60.499608,73.723496,66.849811,79.629763,18.747482,304.89186,-49.953621,274.053197
19,0.702965,-1.709202,0.062645,0.133616,0.0,-39.009956,-39.299641,1.060501,-40.392254,9.26223,-38.293648,4.294052,-33.612144,-21.108009,0.0,17.009249,10.571942,27.486886,17.556432,32.402034,21.691622,32.32576,23.765683,32.931692,0.0,60.956612,20.93613,86.372566,11.626591,85.154457,3.823631,73.386612,-1.985607,53.194748,0.0,24.106632,31.256577,51.745487,48.608393,63.729698,60.317234,73.811824,66.668561,79.599257,19.331835,303.177977,-50.009588,274.182132
20,-1.225021,5.823607,0.125622,0.06201,0.0,-48.137581,-40.646256,0.606079,-40.630543,10.785804,-37.56419,7.262374,-32.047463,-24.173767,0.0,20.625613,7.970113,26.142728,10.923722,27.789118,11.333967,25.718095,10.11431,23.242373,0.0,60.920185,20.897346,86.507847,11.617801,85.233181,3.830429,73.430431,-1.973099,53.297115,0.0,23.885343,31.136571,51.521271,48.460056,63.735725,60.199501,73.866151,66.558941,79.612595,18.008967,308.994128,-49.981813,274.236686
21,1.051071,-2.348739,0.150718,0.143347,0.0,-44.355835,-40.638108,0.744301,-40.977883,10.367775,-37.919998,7.133354,-32.27108,-21.611023,0.0,19.027056,8.716972,27.345923,13.186479,30.090729,15.056356,28.373376,14.997212,26.620553,0.0,60.835591,20.790116,86.48473,11.554699,85.089489,3.846909,73.362042,-1.871635,53.396222,0.0,23.763843,30.974908,51.314074,48.30468,63.606877,60.112581,73.794101,66.527683,79.456182,18.971541,306.636732,-49.919592,274.371376
22,0.000549,4.423256,0.200959,0.099554,0.0,-54.554638,-43.691723,-1.523117,-42.732502,10.240196,-38.457207,8.626694,-31.802421,-28.046768,0.0,25.778414,7.402454,27.345676,8.084549,26.877015,6.611543,23.090529,3.67662,19.994932,0.0,60.865322,20.722332,86.487201,11.479591,84.927875,3.819122,73.206196,-1.787144,53.49496,0.0,23.742379,30.87076,51.203479,48.229591,63.553611,60.117299,73.669761,66.599499,79.237178,18.907974,311.051133,-49.782749,274.462075
23,1.146607,-5.415054,0.216362,0.020674,0.0,-46.691231,-43.043313,0.129158,-43.405381,10.182792,-40.09377,7.026832,-34.233857,-24.91745,0.0,22.006711,10.13906,29.235288,14.691362,31.661672,16.574687,29.297644,16.499266,29.101561,0.0,60.959827,20.892723,86.676281,11.595565,84.690342,3.857036,72.915744,-1.841343,53.360469,0.0,23.93325,30.694302,51.28678,48.073128,63.767736,60.028971,73.838747,66.588656,79.293235,19.975651,305.628119,-49.645317,274.474789
24,-1.052971,3.150432,0.307514,-0.043818,0.0,-51.278572,-42.712944,-0.191803,-42.121857,11.004638,-38.252129,8.648254,-32.02295,-24.521279,0.0,24.666511,10.142443,28.615561,11.861204,28.953805,10.947162,25.292944,8.443146,22.79803,0.0,61.085335,21.171707,86.819206,11.868313,84.586899,4.019337,72.68383,-1.819931,53.196922,0.0,23.907697,30.601071,51.183015,48.048267,63.998251,60.079681,73.991369,66.666474,79.322875,18.838761,308.76973,-49.421722,274.42215
25,-0.568314,-5.870204,0.397716,-0.146855,0.0,-39.75293,-39.332645,3.97934,-40.325741,12.844666,-37.918442,7.119232,-33.110619,-23.312141,0.0,17.829023,12.507472,28.666974,19.459926,33.036705,23.108116,32.716406,24.501958,33.378728,0.0,61.14909,21.724068,87.36208,12.39552,84.80769,4.351319,72.603344,-1.76168,52.876248,0.0,23.859816,30.623141,51.1616,48.108487,64.470271,60.131341,74.557547,66.686197,79.550957,18.180479,302.890245,-49.113974,274.266014
26,-7.98349,-3.627528,1.254719,-0.559681,0.0,-26.165394,-30.01981,15.78598,-33.094116,23.070374,-33.546455,14.652878,-31.859367,-18.282349,0.0,13.942354,13.631305,30.489933,22.313005,36.448934,27.376143,38.453414,29.995176,39.762016,0.0,61.175331,22.424046,87.151909,13.094055,84.2948,4.709873,71.76471,-1.985756,51.867119,0.0,23.837759,30.102622,51.895936,47.589227,65.570676,59.695062,75.767904,66.455411,80.71547,10.118111,299.25506,-47.938133,273.698676
27,-7.081329,-9.111557,2.52673,-1.823712,0.0,-6.830429,-18.171776,28.085975,-24.50314,31.401626,-28.89798,18.962974,-31.02974,-11.208195,0.0,12.776518,15.669389,34.766766,28.228867,44.400213,36.95341,48.886541,42.825553,52.2026,0.0,61.6142,23.842746,86.33472,14.435177,82.335148,5.344734,69.221752,-2.682839,48.65958,0.0,22.12847,28.818769,52.534435,45.538299,67.397401,57.441888,77.776818,64.682952,82.08276,2.964043,290.135654,-45.484142,271.867115
28,-3.744873,-6.491438,4.740177,-3.567889,0.0,-15.465832,-16.774521,14.675686,-21.841576,16.216278,-25.848313,7.028835,-28.271382,-19.245896,0.0,5.978712,18.696493,34.355422,33.129861,46.636838,43.367005,53.116234,50.367304,58.280384,0.0,57.16523,24.398483,80.752739,14.916469,69.75753,4.849274,52.321117,-4.743588,33.632778,0.0,26.085338,25.963331,55.105265,41.34694,69.252877,52.653168,78.106392,59.750896,80.697723,-0.789659,283.644405,-40.752794,268.299415
29,-1.902832,-8.317522,8.944954,1.275035,0.0,-14.171872,-13.935288,-0.200226,-18.203717,-1.388123,-21.557408,-8.630516,-23.525769,-26.079518,0.0,-1.882486,20.183221,36.973319,38.165361,53.327113,51.91246,62.708421,61.908432,70.733023,0.0,50.841156,25.647457,66.825714,18.695057,58.295654,10.281063,43.434528,1.388969,31.15543,0.0,23.868275,20.369139,47.161235,26.829208,55.152689,30.73917,56.277843,31.808588,50.918204,-2.632387,275.358764,-31.747736,269.606331
30,1.63948,-4.926571,12.538101,-13.5807,0.0,-23.957084,-14.422348,-21.784664,-16.617107,-24.82109,-18.262069,-26.521488,-18.957676,-33.804657,0.0,3.521799,22.447374,41.664201,40.521151,58.322153,54.43741,68.230463,64.503591,76.748278,0.0,46.691963,26.990295,54.348553,22.078102,46.62212,14.977398,34.172813,6.623898,26.64719,0.0,15.937071,14.151582,37.324511,16.264237,43.05745,17.046158,40.627535,16.060627,32.446809,-1.035771,270.627213,-19.252499,256.220651
31,8.636009,-1.728122,15.350487,-28.288049,0.0,-41.372451,-21.533203,-51.924991,-20.478309,-55.720092,-18.458324,-51.580616,-15.590389,-47.789531,0.0,8.18062,24.22623,42.752416,42.287905,59.573994,55.891706,69.630876,65.421276,77.682018,0.0,44.769287,28.542515,44.533893,25.220672,35.911983,19.19403,25.531128,11.430267,20.84959,0.0,2.331096,8.156111,24.973218,10.506913,32.654556,12.267367,30.933041,12.88163,24.560405,7.371637,269.359885,-4.130613,228.393396
32,8.573227,-0.079918,15.85263,-35.823434,0.0,-60.310054,-31.25386,-83.006664,-26.187515,-86.042427,-19.557586,-75.065071,-12.353908,-58.755878,0.0,8.252449,26.722133,42.998121,44.973455,59.658148,58.191971,70.435768,66.906374,77.45306,0.0,42.518761,29.943615,36.868733,29.831463,28.98666,26.538288,20.864296,21.442578,20.159123,0.0,-11.218123,-0.89861,10.973333,1.896621,20.062462,5.196841,19.330633,7.654217,15.352709,15.71422,270.085786,11.491373,193.375781
33,4.385651,1.19618,19.854138,-31.440296,0.0,-58.578392,-31.102512,-89.482613,-25.769417,-92.545223,-18.500999,-81.488766,-10.393799,-62.030788,0.0,17.998034,26.260227,46.665947,43.742609,61.569508,56.298122,72.885123,64.383598,78.302548,0.0,42.681759,28.137474,33.950134,27.847252,28.190666,25.491749,24.693191,21.804119,25.585132,0.0,-26.654615,-13.93398,-22.465035,-13.156043,1.702805,-10.297949,2.17719,-6.935751,-0.404329,19.756382,272.259262,31.002022,162.912781
34,3.664124,-0.148102,16.869095,-37.294445,0.0,-61.414193,-32.312554,-93.822339,-26.931405,-96.614342,-19.669877,-84.61765,-11.719391,-65.048733,0.0,25.716231,28.493072,48.045031,46.129867,61.456504,58.336219,73.439184,65.846811,78.341846,0.0,49.670505,27.173355,40.441337,24.12117,29.619186,19.712894,23.323036,14.600452,20.200916,0.0,-31.261634,-24.721611,-47.306923,-19.460982,-1.2723,-11.738328,4.780192,-2.798646,8.236535,22.791464,273.464769,47.242075,126.971945
35,0.787056,-0.351508,15.103717,-23.722181,0.0,-62.548348,-33.172554,-95.296967,-27.760964,-97.498341,-20.458375,-85.574536,-12.370812,-66.124924,0.0,26.776979,29.580645,48.33658,47.07119,61.3817,58.921885,73.619088,65.944944,78.145072,0.0,55.069634,26.979172,46.734673,21.888039,31.50499,15.850045,22.775437,9.309815,17.270234,0.0,-28.959344,-34.656467,-69.235074,-29.865673,-7.125738,-22.028348,-0.206722,-11.945061,4.188469,22.986214,274.532196,61.753486,104.668699
36,0.364585,-0.26917,13.096848,-10.652224,0.0,-63.110286,-33.944961,-96.081127,-28.548797,-97.986431,-21.286628,-86.174766,-13.290092,-66.695789,0.0,26.753749,29.799785,48.046526,47.245549,60.688008,59.074877,73.004795,66.091441,77.792008,0.0,57.729515,26.954224,52.673264,20.351257,33.069489,13.18277,22.519272,5.603806,16.667061,0.0,-19.451503,-43.886085,-88.173277,-44.293774,-14.766376,-40.690854,-11.397421,-33.495097,-10.739551,22.822277,275.550871,74.321812,95.30432
37,0.799004,0.011349,12.156876,-4.131405,0.0,-63.731506,-34.486588,-96.504353,-29.275841,-98.365379,-22.146469,-86.634727,-14.230156,-67.210293,0.0,26.495768,29.614127,47.798092,46.892213,60.317284,58.648133,72.653164,65.656274,77.568805,0.0,58.983146,25.462371,58.987014,16.036171,30.738327,6.964485,19.036216,-2.171563,12.793258,0.0,-8.446326,-49.970693,-103.642774,-55.013287,-20.144756,-55.338218,-20.275877,-50.781414,-23.162931,23.085011,276.898455,85.942418,92.50915
38,0.812737,-0.100875,5.207931,-11.274662,0.0,-64.182805,-34.686585,-96.987282,-29.489159,-98.953034,-22.37629,-87.001992,-14.495224,-67.468346,0.0,26.393966,29.394666,47.741676,46.71641,60.46157,58.524076,72.780913,65.530155,77.827848,0.0,59.920876,28.803154,68.109879,20.317108,33.453163,11.813828,22.282654,3.008011,15.290978,0.0,-5.110334,-48.456357,-98.18037,-53.396149,-18.920622,-53.489614,-19.722674,-48.779707,-22.241986,23.394579,277.998805,90.64718,82.435713
39,0.623176,0.253584,-0.355156,-18.206238,0.0,-64.438808,-35.010452,-97.238903,-29.889221,-99.329647,-22.818077,-87.232704,-14.976562,-67.476185,0.0,25.862369,28.866663,47.340632,46.204536,60.449405,58.090626,72.659104,65.187527,77.75586,0.0,55.610253,32.95887,81.100044,27.000801,37.071282,20.212074,27.7015,12.769341,21.891678,0.0,-15.406549,-40.252976,-77.182995,-40.223922,-12.487076,-36.190552,-9.486802,-28.692465,-8.107959,23.450615,279.21999,89.724884,65.197076
40,0.65007,0.066691,-6.337601,-18.410743,0.0,-64.876934,-35.137596,-97.322593,-30.003204,-99.357879,-22.928169,-87.229202,-15.121948,-67.333339,0.0,25.387693,28.343525,47.242807,45.82482,60.695554,57.869806,72.880182,65.114982,77.990115,0.0,52.905716,39.157471,94.748635,36.087731,39.567376,30.796624,31.75454,24.516015,27.082627,0.0,-24.621477,-30.236719,-56.204904,-24.801053,-6.294368,-17.006478,0.084641,-7.47553,4.66993,23.316301,280.113155,82.602899,47.612807
41,0.564835,-0.091317,-10.682395,-17.225179,0.0,-65.327625,-35.102348,-97.521149,-29.979309,-99.648068,-22.935356,-87.570156,-15.169899,-67.540913,0.0,25.193094,28.077011,47.415079,45.742729,61.029661,57.916119,73.221737,65.198432,78.406832,0.0,49.092498,44.587806,106.258461,44.526351,42.655723,40.866851,35.87931,35.847747,32.585289,0.0,-34.240906,-21.580003,-39.692411,-10.676035,-2.110104,0.987025,8.333014,12.854954,15.898286,23.038542,280.720371,71.07791,31.086161
42,0.20684,-0.178706,-14.230088,-15.073695,0.0,-65.608131,-35.184219,-97.77325,-29.945755,-99.892135,-22.876945,-87.68161,-15.189949,-67.616478,0.0,25.213151,28.108442,47.471655,46.029807,61.285135,58.333478,73.418128,65.646592,78.496581,0.0,44.449814,50.175751,114.921158,53.26664,47.659012,51.132798,42.165528,46.927758,39.991928,0.0,-45.613418,-12.027943,-26.48984,4.347587,0.65992,19.299943,14.705366,32.728848,25.387551,22.302085,280.890703,55.904525,16.361504
43,0.139664,-0.130009,-15.627823,-9.161662,0.0,-65.754112,-35.498474,-97.834339,-30.214348,-99.866032,-23.105553,-87.566345,-15.433067,-67.626446,0.0,25.293488,28.054361,47.350154,46.052716,61.448613,58.437453,73.586114,65.859544,78.488565,0.0,40.447609,52.684548,118.891938,58.999466,52.197052,58.621125,47.92772,55.452736,47.149132,0.0,-54.664194,-5.749198,-17.897789,14.307996,1.388359,31.036337,17.994465,45.194639,30.009317,21.523006,281.062141,39.357959,7.501289
44,0.228172,-0.36681,-9.278205,0.014351,0.0,-66.034801,-35.620582,-98.017799,-30.244377,-100.117252,-23.063278,-87.602874,-15.37532,-67.529823,0.0,25.584246,28.241119,47.534356,46.334669,61.929044,58.773042,74.01744,66.148783,78.81998,0.0,34.830116,47.170394,110.552513,53.505523,48.029617,53.658027,44.539077,51.438079,43.481277,0.0,-53.665036,-7.52485,-25.191044,11.166018,0.53737,27.271612,16.431982,41.352157,27.932354,21.181841,280.836974,29.510417,7.657283
45,0.023278,-0.389163,-7.689011,4.629644,0.0,-66.029412,-35.662995,-98.091797,-30.197594,-100.271004,-22.938607,-87.627926,-15.242409,-67.550606,0.0,26.11315,28.548636,48.016663,46.624846,62.413871,59.042508,74.28824,66.363847,78.995857,0.0,25.720436,39.710495,97.28698,46.752457,41.239403,48.020073,39.264198,47.193054,39.167862,0.0,-46.070593,-11.588453,-36.113104,5.179396,-0.032542,21.0144,15.344403,35.661135,26.454043,20.962235,280.449478,21.578522,12.288594
46,0.039482,-0.297094,-11.978989,16.125231,0.0,-65.812042,-35.892563,-98.001847,-30.298897,-100.124096,-22.934395,-87.456917,-15.198807,-67.377194,0.0,26.433968,28.794934,48.385388,46.772158,62.824437,59.148781,74.585198,66.492473,79.249232,0.0,27.51503,33.844322,88.903565,37.559006,34.80249,36.902161,31.832291,34.407864,31.083138,0.0,-38.725301,-20.202672,-49.844346,-8.906175,-4.653931,3.265195,6.735136,15.44376,14.55669,21.039294,280.141655,9.63711,28.403096
47,-0.04866,-0.360597,-12.863228,17.15345,0.0,-65.617665,-35.782197,-97.785851,-30.091301,-99.778176,-22.680428,-87.251347,-14.93715,-67.116143,0.0,26.862898,29.012319,49.078523,46.918852,63.286169,59.261339,74.85643,66.582962,79.537062,0.0,31.595833,28.04654,79.310784,27.584656,27.206486,24.109909,22.021386,19.451809,20.740975,0.0,-29.164522,-29.473787,-63.762364,-23.268729,-9.623055,-13.963572,-1.13459,-3.704741,2.766887,21.188382,279.585695,-3.02837,45.361183
48,0.029136,-0.261427,-19.440536,16.637036,0.0,-65.453041,-35.617607,-97.583427,-29.831772,-99.486122,-22.415108,-87.142261,-14.719894,-67.025345,0.0,27.17774,29.302262,49.747293,47.214563,63.570678,59.530645,75.041842,66.813316,79.871564,0.0,40.152672,25.421356,72.221649,20.608051,20.361751,13.926144,12.938106,6.544453,10.077667,0.0,-18.68686,-37.021903,-74.86949,-36.070669,-12.976954,-30.534208,-8.47525,-23.078487,-8.405873,21.626484,279.083238,-22.05994,61.757189
49,0.018173,-0.148584,-25.322067,14.330598,0.0,-65.158184,-35.420127,-97.379894,-29.521179,-99.147846,-22.044754,-86.763931,-14.385292,-66.883895,0.0,27.381887,29.500531,50.593212,47.382808,63.967079,59.647033,75.290647,66.854961,80.076131,0.0,47.844143,28.26004,73.149376,20.704765,17.136612,11.368618,7.251697,1.42115,4.64138,0.0,-10.626339,-41.443561,-81.459551,-44.249846,-17.786997,-41.972713,-15.559616,-37.569007,-19.662598,22.116714,278.362549,-46.90995,75.515682
50,0.170609,-0.041299,-33.461277,4.518222,0.0,-65.266777,-35.44503,-97.185642,-29.447022,-98.846054,-21.916191,-86.41729,-14.250572,-66.613426,0.0,27.411391,29.724858,51.16139,47.539765,64.106413,59.74035,75.494251,66.85706,80.364654,0.0,56.81488,28.74765,78.433708,19.306778,22.85432,9.221855,9.839813,-1.258725,5.540142,0.0,-7.132574,-42.473391,-76.349284,-44.423407,-19.73466,-41.675094,-16.092911,-36.91804,-20.242489,22.923123,277.291722,-79.735427,79.004376
51,0.007187,-0.095601,-30.178082,-8.815076,0.0,-65.492512,-35.321823,-97.035622,-29.176895,-98.466957,-21.565956,-85.8307,-13.914276,-66.060036,0.0,27.516329,29.822719,51.898825,47.627993,64.64206,59.790206,75.876349,66.784651,80.601516,0.0,51.545506,25.014359,75.930073,17.323883,24.870266,9.138794,13.315075,1.325787,9.863926,0.0,-16.14864,-33.368977,-59.542735,-29.930282,-10.796633,-23.026234,-3.590323,-15.285301,-3.886774,24.076166,275.768702,-108.767653,68.761881
52,0.055641,-0.163837,-36.003954,-9.312573,0.0,-65.688801,-35.276962,-96.837582,-29.054626,-98.248272,-21.371475,-85.391785,-13.68631,-65.719265,0.0,27.613401,30.011577,52.26792,47.777974,65.091814,59.915165,76.269527,66.89968,80.895337,0.0,43.024618,23.225922,78.530497,18.592964,29.20843,13.558239,20.342806,8.971212,17.577856,0.0,-25.937865,-25.079479,-44.628662,-16.687203,-3.762808,-6.294806,6.414793,4.114841,10.520723,25.640253,273.209788,-143.263161,57.054231
53,-0.02916,-0.096441,-36.697128,-9.820779,0.0,-66.033004,-35.098159,-96.675499,-28.765388,-98.037082,-21.006866,-84.888828,-13.334953,-65.286655,0.0,27.68923,30.023433,52.586329,47.87497,65.545629,60.035504,76.571684,66.962035,81.017108,0.0,29.042089,21.917816,83.405771,20.845264,34.047895,19.422798,28.457296,18.399885,27.699526,0.0,-35.593636,-18.361757,-35.031074,-4.835613,0.011513,9.767649,14.361151,23.508175,22.906503,27.119115,270.177149,-178.452267,44.297254
54,-0.084091,-0.177459,-35.641319,-9.395721,0.0,-66.192169,-35.191818,-96.481991,-28.844261,-97.71112,-21.053879,-84.699314,-13.362785,-65.146477,0.0,27.9461,30.032696,52.644746,47.853099,65.706983,60.03585,76.666768,67.067061,81.123579,0.0,16.446413,18.741829,82.832742,21.414779,37.364519,23.580848,35.137144,26.178709,36.048608,0.0,-42.792696,-12.444387,-26.69131,5.81558,2.932413,23.827922,20.434922,40.303096,33.544223,28.716202,267.219542,-212.412408,32.121385
55,-0.188987,-0.251645,-28.904457,-2.349325,0.0,-65.913186,-35.173691,-96.283505,-28.86422,-97.527775,-21.075646,-84.526795,-13.378876,-64.984955,0.0,28.33593,29.872713,52.51239,47.722324,65.937386,59.948584,76.798234,67.083857,81.270446,0.0,4.936368,15.738086,79.309553,20.082962,35.575841,24.031997,37.160528,28.805482,40.585378,0.0,-53.828526,-8.885397,-28.311919,9.741893,2.781612,27.551657,20.322153,43.429352,34.471337,30.37539,264.732408,-239.46869,27.536571
56,-0.145592,-0.190525,-27.629414,1.475637,0.0,-65.849545,-35.220314,-96.103993,-28.998116,-97.605561,-21.221237,-84.684586,-13.452805,-65.060887,0.0,28.612918,29.878703,52.121732,47.761091,65.830657,60.000665,76.794295,67.180916,81.402382,0.0,-2.182371,14.854134,79.138224,21.101074,36.549551,27.173344,39.917559,33.865682,44.504465,0.0,-54.295315,-11.628362,-37.10288,6.473055,-3.466566,23.976969,14.482602,39.625033,28.975439,31.931254,262.773135,-265.396648,27.24346
57,-0.248245,-0.057601,-20.185885,2.065298,0.0,-65.846615,-35.353615,-96.100972,-29.120133,-97.694092,-21.308213,-84.744301,-13.507004,-65.058014,0.0,28.812841,29.800095,51.929701,47.703392,65.682061,59.950734,76.748822,67.13616,81.385685,0.0,-4.432628,12.276684,76.745785,20.045701,37.051014,27.904942,41.36142,36.129502,47.101147,0.0,-54.349964,-13.570048,-42.938569,4.027646,-8.179811,20.978548,9.531782,35.903283,23.794287,33.326426,262.08773,-283.939116,28.680954
58,-0.284592,-0.157327,-11.317211,2.526698,0.0,-65.770798,-35.651138,-96.143131,-29.434685,-97.787235,-21.578705,-84.90778,-13.683037,-65.157166,0.0,29.123198,29.859782,51.836383,47.685582,65.567476,59.900925,76.79501,67.135356,81.546161,0.0,-4.528209,8.777584,71.991989,17.246189,36.208626,26.039372,40.902237,35.274788,47.154969,0.0,-55.716261,-15.13531,-46.011004,2.114593,-11.280566,18.350456,5.612945,32.392456,19.492252,34.75728,261.879907,-293.540881,31.157156
59,-0.437348,-0.088439,-8.133556,3.114629,0.0,-65.76852,-35.784439,-96.047962,-29.620925,-97.885196,-21.801246,-85.040679,-13.855545,-65.232925,0.0,29.279699,29.868094,51.666804,47.672084,65.383374,59.878695,76.769223,67.150424,81.623744,0.0,-4.310532,7.206242,72.170105,16.145428,37.355026,25.849846,42.394043,35.688354,48.625832,0.0,-59.096781,-17.506971,-49.798534,-0.181843,-14.73255,15.818782,1.15354,29.321547,14.673151,35.988681,261.867504,-300.005688,34.347821
60,-0.622993,-0.048091,-3.61702,2.72683,0.0,-65.865166,-35.819916,-96.022522,-29.653336,-97.851265,-21.827499,-85.045967,-13.825745,-65.108105,0.0,29.181305,29.904316,51.576821,47.68694,65.212708,59.895293,76.695925,67.204776,81.566971,0.0,-5.901993,6.951073,73.620186,16.18158,37.996113,26.157612,43.054219,35.953354,49.095795,0.0,-63.516073,-20.694354,-52.421456,-2.901726,-17.199775,13.453519,-2.125912,27.084786,11.06313,36.835035,261.83997,-302.153361,37.095208
61,-0.69001,0.04609,-0.928631,1.686323,0.0,-65.412403,-35.899773,-95.933006,-29.679566,-97.403034,-21.81276,-84.465786,-13.760399,-64.52068,0.0,29.096856,29.699478,51.838693,47.393762,65.359057,59.61717,76.718885,66.993862,81.410224,0.0,-6.477012,7.734913,75.845124,17.24334,39.318833,27.239342,44.442147,36.690674,50.281105,0.0,-67.183787,-21.963979,-53.607582,-3.798021,-19.203205,12.761729,-4.510034,26.436488,8.141798,37.277178,261.816019,-301.949839,38.71149
62,-0.44252,-0.031752,1.534356,0.655709,0.0,-64.877495,-35.969628,-95.802429,-29.785538,-97.144776,-21.906647,-84.105034,-13.783081,-64.076592,0.0,29.084271,29.613966,51.943533,47.240597,65.45272,59.453494,76.807361,66.852972,81.376484,0.0,-8.690586,8.911491,77.212669,18.28292,39.851429,27.928985,45.102195,37.023834,50.338337,0.0,-70.626786,-22.907957,-54.009652,-4.452346,-19.994314,12.327575,-5.505302,26.258073,7.070657,37.701027,261.617652,-299.549114,39.200584
63,-0.44561,0.021823,2.055576,-0.18267,0.0,-64.399098,-35.84887,-95.456017,-29.659012,-96.736931,-21.753823,-83.60273,-13.562943,-63.474747,0.0,28.910974,29.545596,51.93427,47.11775,65.456214,59.296475,76.895268,66.641785,81.248709,0.0,-9.163616,9.807781,78.495632,19.077072,40.753681,28.487926,45.755321,37.410519,50.689487,0.0,-72.51365,-23.329756,-53.579474,-4.738331,-19.636612,12.388572,-5.005309,26.696791,7.328521,37.880785,261.42598,-296.86817,38.804419
64,-0.356346,0.008361,1.907352,-0.685312,0.0,-63.977784,-35.517014,-95.198513,-29.213471,-96.223687,-21.237282,-82.921761,-13.031342,-62.785847,0.0,28.749596,29.585202,52.078296,47.143648,65.63555,59.306133,77.065909,66.593052,81.173534,0.0,-8.344963,10.883286,79.661076,20.033821,41.720581,29.139256,46.526642,37.705742,51.153408,0.0,-73.177252,-23.02792,-52.74304,-4.412339,-19.174275,12.954483,-4.423633,27.547199,7.862143,37.947957,261.222765,-294.5373,37.907531
65,-0.114762,0.110965,1.573071,-0.471822,0.0,-63.472698,-35.347641,-94.955074,-29.016838,-95.925888,-21.05809,-82.587295,-12.923515,-62.563534,0.0,28.714979,29.56569,52.193992,47.120196,65.687248,59.274048,76.966294,66.580912,80.87097,0.0,-7.21669,11.659698,81.197719,20.660934,42.843235,29.533127,47.431778,37.782246,51.9394,0.0,-73.187274,-22.99368,-52.228104,-4.445184,-19.233309,13.008545,-4.410406,27.786147,8.14218,38.131965,261.123223,-292.665459,37.225202
66,0.108811,-0.016364,1.490444,-0.714366,0.0,-63.456379,-35.109558,-94.946366,-28.769028,-96.053936,-20.809342,-82.704277,-12.71949,-62.709023,0.0,28.720216,29.737035,52.120324,47.361171,65.627498,59.516369,76.995354,66.809599,80.78967,0.0,-6.313888,12.353966,82.405014,21.236286,43.001461,29.965576,47.830811,38.123016,52.279335,0.0,-73.130198,-22.892749,-51.494706,-4.210014,-18.557666,13.366148,-3.675786,28.283942,9.141475,38.472296,260.90956,-290.943495,36.313537
67,0.119064,0.000432,1.054173,-0.453298,0.0,-63.665703,-34.898003,-95.014904,-28.497276,-96.108078,-20.544365,-82.824051,-12.514526,-62.866631,0.0,28.64777,29.84784,52.2459,47.521179,65.637045,59.669621,76.982597,66.957491,80.726215,0.0,-4.860032,13.350345,84.247535,22.06319,43.408859,30.580227,48.387039,38.577163,52.792717,0.0,-73.242194,-22.882486,-50.726759,-4.096541,-18.130057,13.704979,-2.968132,28.934181,10.093482,38.803076,260.780486,-289.677606,35.730733
68,0.213272,-0.035568,1.550949,-0.238844,0.0,-63.866386,-34.858475,-95.264442,-28.411423,-96.262699,-20.456085,-82.990059,-12.460968,-63.118343,0.0,28.590589,30.006588,52.411897,47.707455,65.780602,59.857503,76.95839,67.175729,80.664069,0.0,-4.116944,14.196533,85.634914,22.745796,43.382137,31.104423,48.63953,38.943317,53.013668,0.0,-73.297492,-22.569331,-49.833756,-3.643787,-17.551097,14.271446,-2.350573,29.650257,11.045864,39.279694,260.680031,-287.863311,35.427002
69,0.202057,0.055921,1.851436,0.594953,0.0,-63.735317,-35.068131,-95.466728,-28.674934,-96.553425,-20.77787,-83.313732,-12.84343,-63.448666,0.0,28.402448,29.993571,52.271724,47.690041,65.644554,59.846153,76.706387,67.220239,80.48545,0.0,-2.507194,15.218262,87.645928,23.551804,44.0178,31.661511,49.21724,39.295018,53.497376,0.0,-73.520566,-22.712222,-49.007233,-3.770505,-17.295865,14.285933,-1.782975,29.914832,11.80164,39.748541,260.709307,-285.745085,35.99531
70,0.104622,-0.079793,2.695496,1.066182,0.0,-63.885121,-35.085823,-95.705418,-28.647766,-96.756832,-20.731751,-83.382843,-12.800331,-63.493767,0.0,28.19194,30.163705,52.188002,47.910699,65.731843,60.046656,76.828714,67.326461,80.608913,0.0,-0.014065,16.245129,89.180351,24.329704,44.291508,32.171162,49.382458,39.568279,53.563396,0.0,-74.123786,-22.72885,-47.964583,-3.689648,-16.656031,14.560414,-0.818705,30.469827,12.917594,40.118506,260.637084,-282.784246,37.069062
71,0.188621,-0.082054,3.970402,1.877534,0.0,-63.933345,-35.109054,-95.780147,-28.686195,-96.746269,-20.81092,-83.434936,-12.931091,-63.62273,0.0,27.903998,30.312276,52.012483,48.059481,65.555188,60.1676,76.786378,67.413826,80.708653,0.0,2.580471,17.211868,90.604969,24.831447,45.004314,32.251648,49.807377,39.243541,53.696296,0.0,-74.622316,-22.839829,-46.658432,-3.718381,-16.184147,14.704675,-0.124007,30.935332,13.631941,40.613508,260.584189,-278.507463,38.975755
72,-0.069168,0.064998,5.956421,2.773477,0.0,-64.089946,-34.942222,-95.788078,-28.518013,-96.555954,-20.709182,-83.267933,-12.959564,-63.663791,0.0,27.389618,30.433888,51.628544,48.216031,65.298097,60.283457,76.665903,67.436143,80.707986,0.0,5.067318,18.291217,91.573917,25.295047,45.767864,31.952625,50.045517,38.072971,53.380794,0.0,-74.974831,-22.272868,-45.056584,-3.187693,-14.683477,15.272019,1.196926,31.640287,14.512588,40.823106,260.721348,-272.272276,41.821393
73,-0.025062,0.147707,8.089565,3.893838,0.0,-64.49041,-34.440102,-95.788388,-28.146607,-96.439247,-20.57499,-83.666634,-13.174507,-64.288227,0.0,26.621801,30.251799,51.154424,48.049564,64.648729,60.163031,76.33623,67.361215,80.820125,0.0,8.486721,19.524422,92.592522,25.309776,46.222801,30.69659,49.401924,35.668716,51.879375,0.0,-75.111052,-21.180947,-42.063689,-2.242855,-12.426591,16.113159,3.098253,32.416929,15.640194,41.005228,261.097251,-263.975527,45.943427
74,0.063286,0.294784,10.151687,5.456471,0.0,-65.341908,-33.827912,-95.90942,-27.673325,-96.466462,-20.307747,-84.007966,-13.166108,-64.710331,0.0,25.665707,29.982147,50.2935,47.809157,63.656931,59.937976,75.976991,67.089723,81.161716,0.0,12.041829,20.962452,93.166832,24.645218,47.851765,27.732354,49.360692,30.626313,49.021615,0.0,-73.808983,-18.968202,-37.952545,-0.685022,-9.713958,17.254559,6.047718,33.27608,18.27283,41.315684,261.826291,-253.57667,51.834154
75,0.204757,0.458707,12.727719,5.787366,0.0,-66.15644,-33.449775,-96.189823,-27.519813,-96.904049,-20.382362,-84.971935,-13.393982,-65.479191,0.0,24.597943,29.577422,49.485323,47.392379,62.399001,59.529311,75.436588,66.651122,81.684878,0.0,14.760292,22.452736,91.882118,23.377842,51.894779,22.957615,48.83995,22.168808,41.989929,0.0,-70.00267,-15.522461,-32.324353,1.764363,-5.191672,18.842051,10.955362,33.615602,23.440833,41.736219,263.059265,-240.633173,58.395787
76,-0.255523,0.516801,13.373897,11.49989,0.0,-66.953488,-32.98597,-96.331192,-27.250054,-97.246468,-20.32425,-85.787945,-13.472283,-66.044266,0.0,23.59072,29.093435,48.663252,46.920792,61.288803,59.112546,74.94613,66.245818,82.090331,0.0,19.227333,26.671635,93.111088,27.02702,51.715302,25.227322,47.533848,22.887349,40.312912,0.0,-67.881654,-13.457712,-27.330424,4.27839,-1.796943,21.761345,14.978489,36.963111,28.179868,41.542592,264.519122,-227.19738,70.838733
77,-0.234467,0.507157,14.01376,13.178921,0.0,-67.369629,-32.813622,-96.49094,-27.297798,-97.720013,-20.518135,-86.726166,-13.65889,-66.574551,0.0,22.776985,28.671864,47.877947,46.450784,60.236366,58.693025,74.531808,65.878044,82.583247,0.0,24.712852,28.245277,94.92849,27.072315,57.738831,23.868004,51.148602,20.384228,40.846001,0.0,-64.05185,-9.401228,-19.618507,8.356609,1.623647,25.235559,18.205695,39.648501,31.643023,41.050014,265.994408,-213.441731,84.985783
78,-0.578636,0.437921,14.849018,15.932477,0.0,-67.480042,-33.163674,-96.611035,-27.826355,-98.149006,-21.036118,-87.247193,-13.936432,-66.754109,0.0,22.189035,28.382379,47.076032,46.162978,59.379629,58.452545,74.120156,65.654446,82.803326,0.0,29.831326,30.14827,95.622036,26.923691,66.881973,21.281525,54.443504,15.285896,38.265724,0.0,-58.960985,-5.861571,-12.107274,10.677424,7.286647,26.266705,23.119465,38.851284,35.505338,40.073839,267.261788,-198.990252,101.747719
79,-0.998589,0.380395,16.185963,19.366584,0.0,-67.431484,-33.395645,-96.493229,-28.203529,-98.392467,-21.388481,-87.642162,-14.108574,-66.843258,0.0,21.788015,28.108738,46.61057,45.932044,58.860937,58.317188,73.685421,65.587274,82.693361,0.0,34.534858,32.280922,96.602691,28.929703,75.697277,23.173919,61.803886,16.790657,44.33725,0.0,-54.205209,-1.417258,-4.978337,16.014334,11.501089,31.759497,26.57647,43.956543,39.650131,38.487362,268.233656,-183.392177,121.705776
80,-1.328338,0.285608,14.975246,22.189776,0.0,-67.324059,-33.628464,-96.080201,-28.572098,-98.086968,-21.74524,-87.260628,-14.40905,-66.568245,0.0,21.641902,27.949941,46.158161,45.822486,58.70298,58.324808,73.467133,65.703513,82.322759,0.0,41.346863,33.378502,99.829777,30.514286,83.750611,26.281128,72.055149,21.731232,56.482407,0.0,-50.033537,2.765597,2.705372,20.6643,16.69163,36.060456,30.51643,47.996107,41.994831,36.550988,268.752428,-169.024967,144.128716
81,-1.225045,0.25083,15.954529,20.185821,0.0,-66.932212,-33.859817,-95.623226,-28.959388,-97.825687,-22.19918,-86.939792,-14.849006,-66.383148,0.0,21.756758,28.040739,45.825969,45.831267,58.574971,58.237962,73.080897,65.58063,81.832301,0.0,48.002815,32.759708,102.020485,28.613972,96.343117,23.68959,82.194202,18.616253,63.425709,0.0,-41.187068,9.902987,11.507609,27.457827,23.119799,41.435601,35.445341,51.174246,45.278724,34.762333,269.057987,-153.634048,164.369266
82,-1.297851,0.51427,15.662258,20.841159,0.0,-65.734749,-33.938027,-95.286278,-29.208504,-97.408905,-22.521263,-86.475998,-15.283539,-66.189686,0.0,16.321857,27.429496,45.249776,44.99818,58.163726,57.483878,72.161482,65.052873,81.067892,0.0,54.460213,34.165592,103.437939,29.668133,102.449204,24.516838,88.381394,19.251194,68.324478,0.0,-32.237142,15.003312,18.714895,32.717468,30.09678,46.143885,41.993047,54.747384,51.128057,33.136379,269.542842,-138.299893,185.18101
83,-1.539322,6.795238,16.986386,19.488899,0.0,-65.435085,-32.745895,-93.87529,-28.268875,-95.923622,-22.081329,-84.876377,-15.571106,-64.992897,0.0,19.885707,23.691496,41.610317,36.597308,50.452359,45.340487,59.413072,49.885243,65.393353,0.0,59.18724,35.20531,105.172382,32.401039,103.271266,29.48545,94.116073,26.353775,78.096496,0.0,-21.988235,21.963152,24.563746,42.269553,34.748316,56.752149,50.153611,65.957246,61.748807,31.333992,276.281514,-121.576572,204.613343
84,-0.39473,0.788342,14.90253,15.70933,0.0,-67.662231,-29.905975,-92.522918,-25.900016,-95.163299,-20.678054,-85.637867,-15.382621,-66.074443,0.0,16.001051,21.975935,35.483084,35.209295,45.733356,44.213308,56.164174,48.746233,63.379919,0.0,64.786011,34.276474,105.705345,30.791405,103.685829,27.865345,94.642388,25.080345,78.290737,0.0,-9.540019,26.888216,31.2907,47.453685,42.084659,61.198413,58.0567,69.211393,68.204367,30.689415,277.069152,-106.923889,220.321969
85,-1.881271,1.898677,13.049618,13.785372,0.0,-66.704659,-25.342575,-88.473793,-21.253349,-91.662197,-16.696358,-83.347984,-12.449341,-64.607929,0.0,15.683691,21.635319,29.408313,33.545393,38.666626,41.363514,49.136841,44.912137,58.599585,0.0,68.714321,34.731468,105.516346,30.578888,102.894939,26.796181,92.971985,23.275818,76.063328,0.0,2.165883,30.776924,37.507435,51.661074,48.748677,65.125245,64.796831,72.524006,74.077721,28.493591,278.986215,-94.188824,234.125727
86,-2.104855,6.353858,11.197643,10.436165,0.0,-66.140327,-24.446462,-78.076034,-20.60907,-79.275678,-16.43197,-72.591676,-12.689958,-58.766813,0.0,15.632957,18.394936,23.075179,26.388588,29.662231,30.810474,37.407758,31.521227,45.154106,0.0,70.209824,34.139099,103.78022,28.942532,101.463799,24.254345,91.453709,20.008427,72.68478,0.0,10.811176,32.768659,42.730878,53.363521,55.16725,66.400712,71.027905,73.433812,79.247688,25.956442,285.393623,-83.423475,244.615442
87,-2.278015,10.423322,9.776757,7.589817,0.0,-66.529495,-27.212991,-61.018867,-23.973564,-58.008848,-19.956602,-53.416368,-16.081815,-48.510709,0.0,21.754806,13.042829,16.815131,14.584823,19.049718,13.109334,21.423873,8.810845,23.135625,0.0,70.188537,33.532665,101.710624,27.509101,99.539268,21.878093,88.674064,16.661041,69.380916,0.0,18.487259,34.831074,46.758759,55.226889,60.350135,67.913721,76.172468,74.584186,83.043276,23.213196,295.904019,-74.111949,252.292333
88,-0.855995,-0.372602,5.674518,5.44388,0.0,-64.283798,-30.490648,-44.047806,-27.353176,-37.73818,-22.883085,-34.791544,-18.167021,-41.607668,0.0,20.5896,12.472762,16.867644,15.307019,20.763391,15.046297,24.601179,12.100302,27.34236,0.0,70.850109,32.627724,100.191799,24.725304,99.898693,17.098801,87.236767,10.101139,65.183807,0.0,23.27268,34.67356,51.004247,53.709681,64.685717,65.332022,77.37749,71.236288,81.26122,21.902956,295.662946,-68.891676,257.867742
89,-1.968155,10.360002,3.97213,4.235423,0.0,-60.93251,-36.649011,-26.526821,-34.141354,-16.215963,-29.152147,-14.476164,-23.30211,-30.290926,0.0,25.175174,8.991879,17.886563,4.707203,15.965508,-1.896065,12.179442,-9.984461,7.143146,0.0,69.621334,32.848263,99.25185,24.51218,99.010448,16.047409,85.737957,8.146843,63.316727,0.0,24.350695,34.484827,53.126473,52.854475,67.15056,63.964041,78.788882,69.575116,81.613408,19.527752,306.178976,-65.326595,262.259193
90,0.610909,0.696965,3.576485,2.692022,0.0,-55.214585,-41.961657,-11.293042,-41.016518,1.749464,-36.440215,1.366178,-30.357851,-25.08993,0.0,25.092663,6.991338,22.2362,3.51852,21.144613,-2.088171,15.472418,-9.052932,7.451823,0.0,68.149211,32.287822,98.282238,23.736316,97.670688,15.032146,84.165607,6.871307,62.203525,0.0,24.416965,34.396363,53.907566,52.698543,67.790701,63.743505,78.850003,69.280356,81.450522,19.784672,307.055631,-62.104099,265.130905
91,-0.454388,-4.757672,2.554332,1.775016,0.0,-49.394772,-43.798668,-1.839569,-44.432373,11.133499,-40.943653,9.490288,-35.772915,-19.224506,0.0,24.178275,8.4305,27.932107,8.976769,29.911455,7.006461,24.786406,3.220642,17.567054,0.0,67.043061,31.608525,96.926194,22.910157,96.158112,14.109307,82.502907,5.904099,61.545685,0.0,24.576207,34.255065,54.820867,52.330448,68.268711,63.245093,79.140229,68.724614,81.727102,19.106535,302.469446,-59.773516,267.077408
92,-0.211441,-4.508299,1.877278,1.258646,0.0,-48.123631,-42.698776,0.140877,-43.732109,11.686363,-40.865307,9.90152,-36.399994,-17.046581,0.0,24.985736,10.353519,32.291835,14.773836,36.631345,16.299689,33.242668,15.443531,28.679349,0.0,65.71899,30.875381,95.629932,22.02444,94.578541,13.110191,80.607387,4.90821,60.389087,0.0,23.748801,33.592644,55.475594,51.444132,68.773237,62.389146,79.182059,68.031306,81.687026,18.743774,298.128374,-58.047558,268.503281
93,-0.437576,-1.867258,1.580452,0.697014,0.0,-41.030915,-39.891358,2.762512,-42.449124,12.428741,-41.018658,7.880172,-37.761235,-17.515023,0.0,18.448553,11.079111,32.293564,18.484838,39.128482,22.518967,37.783299,23.709874,33.819997,0.0,64.619579,30.045993,94.121349,21.096656,92.775707,12.181308,78.674663,4.10519,59.219204,0.0,23.33343,33.227588,56.000448,51.030281,69.278256,62.056669,79.21002,67.773893,81.572739,18.200993,296.396275,-56.572311,269.335454
94,0.099495,-3.171415,1.538761,0.558767,0.0,-41.45335,-39.555714,2.331207,-41.936783,12.480606,-40.516823,8.536697,-37.356148,-16.202271,0.0,19.273193,12.131079,34.857355,22.233026,43.408613,28.826871,43.424496,32.532452,42.096985,0.0,63.663826,29.138157,92.647407,20.042816,91.20227,11.091591,77.060921,3.048019,57.618736,0.0,23.305618,32.974979,56.648037,50.74345,69.715029,61.910407,79.197102,67.730976,81.190677,18.242821,293.315225,-55.091217,269.984586
95,0.544006,-0.314964,1.479435,0.451593,0.0,-40.911644,-39.292774,1.469353,-41.494995,11.723099,-40.041802,7.768318,-36.726151,-13.775585,0.0,18.232748,12.384552,36.014038,22.494391,44.375118,29.22605,44.285284,33.147016,42.722171,0.0,62.797519,28.520885,91.311664,19.190826,89.353054,10.025242,75.163936,1.778847,55.562977,0.0,23.485707,32.566352,56.776651,50.276605,69.756909,61.532137,78.99293,67.43061,80.688312,18.766966,293.060866,-53.631643,270.496784
96,0.877052,2.994006,1.202923,0.341085,0.0,-45.755905,-40.940769,0.669411,-42.571163,11.664688,-40.505447,7.792671,-36.514286,-15.343197,0.0,20.718189,10.792082,35.296486,19.202773,42.171147,24.707365,41.153982,27.839679,38.550461,0.0,62.208892,27.963832,90.319267,18.485355,88.122688,9.20121,74.068084,0.857036,54.237831,0.0,23.700882,32.360105,56.899336,50.036655,69.86549,61.355567,78.661231,67.297142,79.719164,19.638674,296.095115,-52.434064,270.878112
97,2.659561,-3.636185,0.637241,0.259067,0.0,-40.18008,-41.005668,0.679299,-43.501854,10.539734,-41.970886,4.751496,-38.08667,-21.086116,0.0,16.684059,12.568716,36.158447,23.451559,44.509956,31.400171,45.813322,36.856474,45.47015,0.0,62.019482,27.356243,89.925075,17.759571,87.375881,8.543827,73.454853,0.400566,53.564266,0.0,23.879206,31.856741,56.563489,49.687321,69.515354,61.202427,78.24228,67.244803,79.0819,22.330015,292.500531,-51.765043,271.17878
98,-1.224128,4.830142,0.241161,0.275024,0.0,-47.599606,-44.206101,-0.402695,-45.637688,11.407699,-42.94051,8.091751,-38.033902,-14.421913,0.0,22.259022,10.980236,35.873864,17.26166,40.984464,20.919557,38.640974,22.572529,34.895207,0.0,61.749092,26.887802,89.596001,17.228966,86.795151,8.078579,73.070801,0.111237,52.986557,0.0,23.870499,31.387253,56.073166,49.262305,69.06796,60.85592,77.732086,66.948228,78.554107,21.172657,297.371268,-51.457112,271.494399
99,-0.496331,-4.156544,0.15073,0.1174,0.0,-38.035926,-41.148731,1.510346,-43.599151,11.305848,-41.995719,6.134469,-38.007179,-15.838371,0.0,18.008544,12.747261,35.949348,22.507284,43.737483,29.384674,44.089473,33.791097,43.48322,0.0,61.459958,26.421708,89.370678,16.744469,86.373539,7.683827,72.92783,-0.108387,52.835301,0.0,23.853357,30.981096,55.621017,48.876884,68.655133,60.499608,77.274182,66.602648,78.251987,20.781486,293.254158,-51.201222,271.651233
100,-2.426559,8.472045,-0.252777,0.119845,0.0,-43.710091,-43.475647,2.565971,-45.474003,13.568184,-43.08997,9.25145,-38.386562,-12.808411,0.0,19.960018,9.262056,32.0692,13.09977,36.125004,14.394231,32.547803,13.858744,26.618639,0.0,61.426976,25.959927,89.412884,16.393902,86.529477,7.596897,73.321621,0.176159,53.371708,0.0,23.530847,30.535381,54.839751,48.471196,68.104703,60.202824,76.901283,66.424066,78.131327,18.488777,301.75831,-51.320149,271.803185
101,-0.360741,-0.310864,-0.236824,-0.010781,0.0,-39.453197,-41.931953,2.542946,-43.77483,13.07705,-41.280704,9.047791,-36.328308,-10.890518,0.0,17.813068,9.559816,31.753841,13.426182,35.874433,14.733513,32.654693,14.144068,27.515058,0.0,61.136868,25.721764,89.326069,16.178639,86.388829,7.5042,73.393307,0.269188,53.478504,0.0,23.487535,30.25475,54.257506,48.22822,67.722788,60.014447,76.72669,66.283621,78.101192,18.293317,301.46791,-51.391692,271.812868
102,-4.26963,6.934954,-0.030006,-0.019513,0.0,-43.801872,-42.016914,4.599518,-43.022896,16.720344,-39.716629,14.289734,-34.281681,-4.43747,0.0,21.855954,6.850702,29.250207,5.281031,30.139018,1.412875,23.077698,-3.714867,13.299495,0.0,60.648365,25.65984,88.935161,16.143917,86.215473,7.419536,73.297382,0.092239,53.233417,0.0,23.400899,30.196964,53.93854,48.052182,67.59431,59.787391,76.530089,66.08408,77.907518,14.196287,308.405661,-51.249098,271.796152
103,-0.476944,-5.693635,-0.086128,0.010485,0.0,-33.77758,-38.980259,6.912094,-41.240376,17.663338,-39.094151,13.317764,-34.557472,-6.103981,0.0,17.273381,9.661334,30.822175,12.26031,34.584677,12.43147,30.791349,10.921178,24.664115,0.0,60.386272,25.44968,88.699527,16.045086,86.282444,7.436485,73.422168,0.202297,53.479717,0.0,23.216228,30.147786,53.928401,47.940204,67.440107,59.670436,76.220077,66.003434,77.651427,13.900463,302.697219,-51.154106,271.79183
104,-0.59539,5.724177,-0.307846,-0.063282,0.0,-42.810025,-41.940548,5.567504,-43.000649,17.747818,-39.469975,15.558265,-33.664925,-3.913124,0.0,21.158396,6.697104,29.541521,4.516178,30.067832,0.272221,22.886531,-5.048281,12.251838,0.0,60.137455,25.509693,88.596302,16.165077,86.493564,7.551967,73.480739,0.257354,53.404117,0.0,23.128098,30.02489,53.663949,47.770045,67.447307,59.480973,76.253472,65.870721,77.684674,13.517922,308.38123,-51.249103,271.688382
105,1.764358,-8.589346,-0.201073,-0.165269,0.0,-36.78519,-40.080139,4.664635,-41.926746,15.074501,-39.341045,11.967224,-34.375225,-6.972931,0.0,19.244479,9.950696,33.177409,13.771824,37.582684,15.260947,34.330129,15.073004,29.348649,0.0,59.956867,25.527134,88.4389,16.158153,86.411648,7.486702,73.257923,0.113068,53.163814,0.0,23.283005,30.049319,53.736777,47.791966,67.573958,59.469019,76.207443,65.828669,77.649723,15.506395,299.729655,-51.226061,271.460884
106,-0.078552,4.692858,-0.276993,-0.017166,0.0,-41.997814,-42.441513,3.444626,-44.110142,14.914513,-41.191601,12.45591,-35.818932,-7.634308,0.0,21.052185,7.80051,31.790187,8.277136,33.778439,6.573122,28.23051,3.600815,19.62932,0.0,59.931965,25.319836,88.439175,15.989296,86.590107,7.431233,73.396992,0.232544,53.424053,0.0,23.168347,29.905724,53.815027,47.71973,67.603264,59.509045,76.034677,65.963716,77.505696,15.646603,304.339894,-51.284294,271.361099
107,3.351425,-7.070299,-0.291046,-0.097331,0.0,-39.815392,-42.311897,0.243118,-44.188591,10.583267,-41.639637,7.89299,-36.536304,-11.510056,0.0,19.721217,10.552874,35.154522,15.917441,40.164197,18.930108,37.719523,20.087694,33.536229,0.0,60.102962,25.033619,88.425854,15.731163,86.590153,7.313496,73.49786,0.304985,53.686901,0.0,23.236507,29.970105,53.97433,47.841341,67.66331,59.663865,76.008705,66.095665,77.566569,19.231785,297.171171,-51.341583,271.165344
108,2.859306,-1.236848,-0.370354,-0.209483,0.0,-44.037986,-42.616802,-3.150352,-44.073463,6.622857,-41.295799,4.828514,-35.993545,-13.559532,0.0,21.231842,10.478057,35.140999,16.045314,40.462007,19.38958,38.051654,20.888287,34.04609,0.0,60.302571,25.135769,88.4912,15.786061,86.584545,7.321312,73.507885,0.244309,53.602078,0.0,23.375458,29.96855,54.02325,47.887556,67.819058,59.774387,76.221634,66.264108,77.875223,22.381776,295.848274,-51.421252,270.869812
109,0.815186,-6.418708,-0.310787,-0.028306,0.0,-41.916573,-41.77462,-3.165894,-44.177914,5.752716,-42.499111,2.96656,-38.50827,-15.355042,0.0,21.64594,12.998214,37.885162,23.139991,46.093409,30.873637,46.439372,36.157324,46.069981,0.0,60.540939,25.05978,88.775093,15.744164,86.652855,7.32423,73.595604,0.342602,53.907188,0.0,23.33164,30.34146,54.246169,48.245313,67.753404,60.088017,75.930591,66.476171,77.554244,23.497879,289.360921,-51.431122,270.772861
110,-0.437347,1.327881,-0.390839,-0.024626,0.0,-40.927048,-41.346978,-2.035676,-43.994351,7.128959,-42.506527,3.46479,-38.593174,-15.846634,0.0,19.851127,12.151962,35.388457,22.540493,43.858872,30.398875,44.922165,35.760762,44.323951,0.0,60.490242,25.293812,89.038926,15.98798,86.827012,7.515645,73.875504,0.499592,54.124558,0.0,23.028235,30.419364,54.32327,48.30878,67.727741,60.192647,75.987204,66.614615,77.626863,23.407254,290.617416,-51.475239,270.676849
111,0.118125,-3.103428,-0.326557,-0.098492,0.0,-32.180248,-37.677234,-0.111122,-41.223369,7.043084,-40.636734,1.181237,-37.644275,-24.505954,0.0,13.049702,12.486366,33.023392,27.105393,44.554071,39.00776,49.421732,48.103188,52.877187,0.0,60.597576,25.408951,89.155094,16.138172,86.757466,7.614395,73.823124,0.522583,54.12505,0.0,22.911194,30.706665,54.30966,48.543456,67.619875,60.349295,75.964937,66.657211,77.540104,23.947889,287.460793,-51.379286,270.525162
112,-1.382881,-0.200034,-0.425468,-0.02964,0.0,-33.397121,-38.105243,1.395447,-42.424381,8.376709,-42.367618,2.096375,-40.019714,-23.541057,0.0,13.879875,12.427357,32.684369,27.607189,44.835591,39.847232,49.603315,49.125725,52.738236,0.0,60.523121,25.761658,89.353603,16.509556,86.810428,7.903747,73.867184,0.677833,54.059269,0.0,22.706528,30.797067,54.196323,48.632463,67.496893,60.460631,76.009002,66.785812,77.49305,23.024969,287.220686,-51.344793,270.455449
113,-1.577408,1.981496,-0.19661,0.0546,0.0,-32.013965,-38.43758,3.12703,-43.284084,10.392449,-43.53226,2.801331,-41.431926,-24.876903,0.0,11.414095,11.176714,31.285748,26.681773,43.460212,38.999585,48.522498,48.30489,51.403896,0.0,60.404194,25.691128,89.537831,16.464764,86.879986,7.880001,73.920285,0.719776,54.197216,0.0,22.701279,31.007673,53.939528,48.821394,67.432289,60.588071,75.889008,66.812537,77.255211,21.899047,289.177299,-51.089917,270.485166
114,0.063584,-1.598965,-0.385872,-0.189821,0.0,-29.116596,-38.360195,3.736404,-43.933811,10.25766,-44.709446,1.781364,-42.963467,-25.97295,0.0,8.736473,12.274414,31.483645,28.652562,44.72076,41.564104,50.15019,51.290164,53.476586,0.0,60.392567,25.901356,89.409543,16.636643,86.854237,7.988915,73.922596,0.74302,54.111912,0.0,22.974414,30.858262,53.783621,48.698919,67.492113,60.520381,76.208443,66.810735,77.702914,22.417282,287.566954,-51.021138,270.283965
115,-1.540604,0.576959,-0.334911,-0.125156,0.0,-27.53136,-37.59946,4.659302,-43.504394,11.299988,-44.507881,2.58593,-42.968559,-25.540294,0.0,8.068704,11.885102,31.507543,28.126708,44.609794,40.910154,49.566129,50.50912,52.667803,0.0,60.38118,25.977699,89.470551,16.680039,86.715523,7.991993,73.66452,0.696385,54.059281,0.0,23.258663,31.056666,54.052717,48.864744,67.65679,60.593876,76.285101,66.792123,77.722601,21.307274,288.175199,-50.925453,270.190095
116,-0.409538,-3.982976,-0.408989,-0.059231,0.0,-31.732418,-39.685215,3.802071,-45.670761,11.377785,-46.80003,3.438995,-45.540802,-18.099747,0.0,13.365507,14.672627,36.622416,31.356724,50.124773,44.386073,53.795922,53.881224,56.456611,0.0,60.281937,26.106835,89.626122,16.784763,86.847038,8.064491,73.779762,0.725464,54.032799,0.0,23.370814,31.101756,54.046937,48.880885,67.75911,60.555369,76.415098,66.716751,77.914422,21.284357,284.231292,-50.947821,270.169933
117,-0.611893,1.519048,-0.269451,-0.011288,0.0,-26.347515,-37.45673,5.032036,-43.392425,12.659958,-44.529007,3.749382,-43.009849,-17.927055,0.0,8.836484,13.393319,33.872312,30.098337,47.429355,43.318729,52.162821,53.210664,55.296926,0.0,60.351299,26.078156,89.745129,16.764713,86.983028,8.065109,73.861874,0.771858,54.195316,0.0,23.526747,31.158678,54.00512,48.949651,67.861665,60.596803,76.412183,66.721938,77.989363,21.038807,285.80071,-50.850929,270.209015
118,-0.602028,-1.211876,-0.353348,-0.079312,0.0,-31.928283,-39.48555,4.144913,-44.859821,12.422905,-45.51876,4.705559,-43.895851,-15.659408,0.0,13.999411,14.48635,36.285381,30.651966,49.468489,43.305811,52.882608,52.548847,55.498911,0.0,60.263684,26.295307,89.819699,16.972458,87.010838,8.20277,73.777348,0.800446,54.037594,0.0,23.610356,31.18486,54.063881,48.971226,67.9494,60.59605,76.583515,66.730521,78.113567,20.749305,284.619184,-50.891751,270.160053
119,-1.298744,2.673484,-0.208637,0.105778,0.0,-28.38557,-36.843899,5.820923,-41.928898,14.429627,-42.414116,5.955414,-40.409523,-14.577644,0.0,10.680425,12.835601,33.442504,28.618352,46.01574,41.02953,50.298785,50.226068,52.865701,0.0,60.062233,26.228371,89.942802,16.959332,87.047905,8.252106,73.740646,0.892639,53.983292,0.0,23.387006,31.185416,53.948396,48.949515,67.896011,60.556925,76.486518,66.709502,77.938468,19.711126,287.303644,-50.839823,270.276807
120,-1.480751,0.266292,-0.106464,0.128886,0.0,-34.461719,-38.705086,6.013504,-42.937363,15.851029,-42.668678,9.144196,-40.32082,-9.536865,0.0,16.565635,13.838799,35.758219,27.558925,46.642902,37.862216,48.86278,45.124781,49.940782,0.0,59.946132,25.976989,89.951099,16.790119,87.175151,8.202198,73.915592,0.952171,54.031551,0.0,23.212251,31.100669,53.432804,48.873673,67.70309,60.492284,76.374453,66.646145,77.82644,18.447149,287.555783,-50.729513,270.39154
