takenoko1/special-research/HandMotion_SimilarSearch_自分用/NewProject/handData/test_key/d4_feature_d3/5.csv
frame,vel_0x_L,vel_0y_L,vel_0x_R,vel_0y_R,posFromWrist_0x_L,posFromWrist_1x_L,posFromWrist_2x_L,posFromWrist_3x_L,posFromWrist_4x_L,posFromWrist_5x_L,posFromWrist_6x_L,posFromWrist_7x_L,posFromWrist_8x_L,posFromWrist_9x_L,posFromWrist_0y_L,posFromWrist_1y_L,posFromWrist_2y_L,posFromWrist_3y_L,posFromWrist_4y_L,posFromWrist_5y_L,posFromWrist_6y_L,posFromWrist_7y_L,posFromWrist_8y_L,posFromWrist_9y_L,posFromWrist_0x_R,posFromWrist_1x_R,posFromWrist_2x_R,posFromWrist_3x_R,posFromWrist_4x_R,posFromWrist_5x_R,posFromWrist_6x_R,posFromWrist_7x_R,posFromWrist_8x_R,posFromWrist_9x_R,posFromWrist_0y_R,posFromWrist_1y_R,posFromWrist_2y_R,posFromWrist_3y_R,posFromWrist_4y_R,posFromWrist_5y_R,posFromWrist_6y_R,posFromWrist_7y_R,posFromWrist_8y_R,posFromWrist_9y_R,posFromBody_0x_L,posFromBody_0y_L,posFromBody_0x_R,posFromBody_0y_R
6,3.524208,0.250336,0.284077,0.194106,0.0,-17.778534,-27.663105,30.490597,-36.732937,34.089191,-40.937542,23.091328,-41.514256,-9.04493,0.0,10.044346,13.822385,38.871291,30.128211,50.703633,42.986684,56.343348,53.375771,60.458704,0.0,68.72533,25.829006,88.885151,16.766384,87.579128,7.672004,74.758014,-0.418602,56.278003,0.0,11.116556,27.900121,56.193382,46.138056,69.604472,58.976312,77.564656,66.915451,81.186564,-0.844482,293.499878,-53.450065,280.059505
7,-3.319428,3.029635,-0.221821,0.023293,0.0,-12.58834,-25.446304,33.155445,-33.935543,37.353436,-37.39048,27.233334,-37.388351,-2.122398,0.0,7.58489,11.498187,37.462283,27.64088,48.588596,40.585767,53.674335,51.263266,55.978601,0.0,68.669929,25.881569,88.834396,16.900577,88.022735,7.810684,75.183975,-0.342716,56.311912,0.0,11.164005,27.954041,56.001288,46.242648,69.781905,59.039284,77.766171,66.908967,81.375866,-4.828783,296.243896,-54.336759,279.797181
8,3.84565,-3.913111,-0.164417,0.035741,0.0,-10.924187,-27.925243,30.956921,-37.93222,32.532635,-42.954277,20.941692,-44.17773,-12.479324,0.0,4.330026,12.92961,39.593982,30.787582,51.826133,44.742002,58.077992,56.042303,61.661739,0.0,68.833271,25.971691,89.041797,17.055107,88.275135,7.991649,75.460224,-0.14835,56.574817,0.0,11.228386,28.112801,56.040104,46.380932,69.714511,59.123401,77.69443,66.940472,81.46659,-1.245506,292.057379,-54.763549,279.559516
9,-4.527969,2.886832,-0.088292,-0.009856,0.0,-8.587086,-24.634758,33.938129,-33.447464,37.646587,-37.265511,26.852405,-37.567326,-3.33569,0.0,7.023652,11.639804,38.324121,28.457616,49.943461,41.876622,55.312734,52.944309,57.769252,0.0,68.962944,26.142243,89.230477,17.269318,88.490342,8.18985,75.671814,0.016514,56.78183,0.0,11.328225,28.273946,56.039833,46.538828,69.712029,59.231452,77.692479,66.999753,81.614001,-5.867202,294.740749,-54.945568,279.346198
10,1.967617,-3.603309,-0.087501,-0.000407,0.0,-5.362599,-23.695359,33.461151,-34.226704,34.712219,-40.218407,22.033104,-42.828747,-10.82444,0.0,5.172412,12.24192,39.320217,30.686484,52.177208,45.293494,59.340281,57.279089,63.153949,0.0,69.027145,26.236484,89.359222,17.386757,88.729385,8.320015,75.883598,0.148189,57.001694,0.0,11.366979,28.302227,55.943329,46.624908,69.610152,59.32514,77.661035,67.100999,81.681728,-3.904644,290.944826,-55.038128,279.153177
11,-3.523613,3.629331,-0.157482,-0.125625,0.0,-2.430645,-20.231678,35.26252,-29.785103,37.239578,-34.577214,25.903335,-36.186802,-3.076149,0.0,5.239522,10.981643,36.883163,28.706346,49.462178,42.844399,55.684014,54.45586,57.661843,0.0,69.220653,26.316627,89.484729,17.47641,88.884212,8.423252,76.049709,0.256221,57.1394,0.0,11.486058,28.381564,55.957284,46.714804,69.646079,59.393473,77.812497,67.139123,81.891605,-7.385582,294.400215,-55.152935,278.85361
12,3.270698,-3.031056,-0.024903,-0.043386,0.0,-6.981846,-22.180835,32.746216,-32.456955,33.620385,-38.139919,21.770874,-40.544563,-9.241481,0.0,6.886406,13.000734,38.247637,31.030458,51.648427,45.208736,58.559842,56.678937,61.829329,0.0,69.242649,26.268986,89.553212,17.397503,88.819714,8.34573,75.965321,0.187237,57.082844,0.0,11.55118,28.41733,55.967585,46.731798,69.687983,59.379394,77.892501,67.110792,81.988109,-4.058831,291.235966,-55.121785,278.677031
13,-3.502189,3.111084,-0.135967,-0.213212,0.0,-3.389134,-19.267388,35.706711,-28.647652,38.06932,-33.423054,27.003318,-35.217373,-1.427456,0.0,5.946775,11.438807,36.993141,28.66485,49.940782,42.533943,55.838341,53.799701,57.893136,0.0,69.214623,26.495773,89.608132,17.620251,88.661614,8.543987,75.786713,0.301323,56.905655,0.0,11.664357,28.541646,56.110821,46.76933,69.773112,59.370946,78.204044,67.104482,82.174595,-7.494804,294.269291,-55.191536,278.38606
14,5.245742,-2.286877,0.072876,0.053822,0.0,-9.80619,-23.592853,31.349488,-33.531829,32.50953,-38.756023,20.814126,-40.801231,-14.016963,0.0,6.684013,13.597564,37.667183,31.472567,51.251607,45.45286,57.69136,56.549175,61.390284,0.0,68.966766,26.563671,89.599663,17.708565,88.297829,8.636295,75.416931,0.353005,56.563202,0.0,11.488701,28.629948,56.121923,46.702083,69.703013,59.264402,78.309093,67.062837,82.13221,-2.190114,291.928457,-55.059712,278.385925
15,-0.744323,2.940196,-0.03471,-0.132924,0.0,-7.85669,-24.245636,30.602554,-33.569664,33.938713,-37.623688,23.479088,-38.334172,-8.420002,0.0,2.373674,11.731294,35.682896,29.275895,49.433898,43.20044,55.069092,54.148875,57.993023,0.0,68.789417,26.603771,89.550877,17.769459,88.102627,8.69054,75.14066,0.342522,56.18652,0.0,11.50483,28.643978,56.15743,46.602727,69.755587,59.150114,78.576053,67.00368,82.323315,-2.877823,294.842193,-55.037808,278.226541
16,-1.15147,0.515481,0.103489,0.022946,0.0,-5.781933,-23.253914,32.682025,-32.478791,36.580478,-37.050305,26.379833,-38.123257,-11.480484,0.0,-2.239713,11.119816,35.659825,28.744359,49.982154,42.575871,55.272843,53.270981,59.728802,0.0,68.537087,26.428608,89.426262,17.627106,87.839539,8.614529,74.949829,0.332462,55.961609,0.0,11.385405,28.744261,56.161876,46.652659,69.671138,59.214632,78.598012,67.098554,82.324612,-3.967626,295.354249,-54.872652,278.246062
17,2.779678,1.151188,-0.232635,-0.073013,0.0,-10.816143,-26.722572,29.293865,-35.705086,33.618496,-39.542862,24.160984,-39.787296,-15.319496,0.0,-1.783142,10.560358,35.940432,27.862687,49.789271,41.441368,54.540261,51.976816,58.497981,0.0,68.412872,26.707855,89.383667,17.951946,87.672111,8.903732,74.790412,0.518703,55.818832,0.0,11.28753,28.820732,56.099668,46.646051,69.552094,59.190042,78.718276,67.103542,82.471059,-1.100778,296.520146,-55.018117,278.187758
18,-0.310089,-0.21814,-0.019169,0.140124,0.0,-12.996815,-26.844864,28.321758,-35.352848,33.494327,-38.892792,24.794071,-38.928303,-12.765152,0.0,-1.602682,10.87862,35.079471,28.091658,49.912241,41.533142,54.688783,51.783315,58.702844,0.0,68.294162,26.613544,89.355365,17.91814,87.615268,8.912155,74.79887,0.564274,55.893871,0.0,11.133537,28.754474,55.94943,46.584313,69.326681,59.176963,78.476696,67.148645,82.338839,-1.32633,296.312007,-54.952749,278.337883
19,0.404823,0.641538,-0.267987,-0.120599,0.0,-14.764297,-27.552601,27.855847,-35.928646,33.39584,-39.170025,24.818859,-38.928875,-15.996998,0.0,-0.112596,10.191448,35.090165,27.100292,49.331922,40.343964,54.066017,50.484086,58.156414,0.0,68.342537,26.808793,89.301659,18.166008,87.784424,9.14169,74.893044,0.727753,56.022355,0.0,11.159917,28.574324,55.810257,46.462418,69.361546,59.091748,78.4672,67.105655,82.445445,-0.828489,296.961032,-55.127718,278.224771
20,0.884697,-0.900321,-0.027339,0.094009,0.0,-19.896881,-29.014812,26.735104,-37.009815,32.01305,-39.714226,24.054051,-39.048935,-16.087452,0.0,4.173167,12.209662,36.908394,28.456405,50.457262,40.971275,54.721609,50.493423,58.53734,0.0,68.246234,26.614139,89.107418,17.952461,87.608081,8.945549,74.768863,0.575008,55.89838,0.0,11.086076,28.482155,55.684953,46.391565,69.225151,59.034542,78.227571,67.042286,82.236692,0.152687,296.062212,-55.058578,278.320281
21,6.27277,-3.986051,-0.146863,-0.095367,0.0,-28.830654,-35.611004,20.311043,-44.338852,25.104607,-46.952225,16.60714,-46.387608,-17.963654,0.0,8.250065,14.029014,38.552733,31.139967,52.525011,44.478179,57.767646,54.721128,61.060153,0.0,68.141098,26.758358,89.030251,18.054017,87.523659,8.959752,74.619462,0.488789,55.808831,0.0,11.030364,28.32479,55.53196,46.265508,69.141528,58.937038,78.240637,66.992947,82.282399,6.517731,292.072048,-55.113167,278.220801
22,-5.140686,3.235919,-0.028495,0.03563,0.0,-26.008175,-30.774559,24.796623,-38.291451,30.862541,-40.13752,23.244575,-39.045044,-10.274334,0.0,7.410272,13.122049,36.726749,28.773963,50.417915,41.036594,54.717966,50.266626,57.105991,0.0,68.156707,26.580505,89.072525,17.888981,87.541259,8.826645,74.69609,0.408222,55.825172,0.0,10.943926,28.116456,55.504259,46.142834,69.069206,58.918179,78.046605,67.055266,82.075424,1.456913,295.286759,-55.061794,278.235223
23,4.98111,-2.599001,-0.210434,-0.180275,0.0,-31.598042,-35.641617,20.210655,-43.892739,24.972015,-46.008706,17.193603,-45.007485,-17.88992,0.0,9.707943,14.050751,38.414178,30.572864,52.168132,43.397733,56.920653,53.11852,59.817414,0.0,68.200493,26.588779,89.194473,17.870773,87.61924,8.776336,74.757225,0.344627,55.836364,0.0,10.951942,27.973925,55.61583,46.064585,69.197426,58.917995,78.130141,67.127626,82.17998,6.511677,292.654184,-55.198574,278.021374
24,-4.83918,2.468387,-0.044266,-0.074693,0.0,-22.358529,-29.63284,24.859977,-37.8704,30.029892,-40.440754,22.227928,-40.055901,-4.468232,0.0,1.616897,11.759229,35.113816,28.24197,50.471217,41.446827,55.30084,51.334599,57.091071,0.0,68.158241,26.312233,89.312393,17.558933,87.564125,8.483551,74.836533,0.121239,55.805237,0.0,11.003108,27.855006,55.706899,46.005156,69.138799,58.953983,78.077233,67.215571,82.201543,1.757916,295.077358,-55.157421,277.901468
25,-0.948098,0.347778,-0.329075,-0.144224,0.0,-18.258751,-27.682857,27.094643,-36.106075,30.379876,-39.127979,22.421357,-38.826873,-7.608078,0.0,-1.637436,11.045173,34.587863,27.841322,49.789456,41.191798,55.20246,51.176778,58.561744,0.0,68.199337,26.539478,89.700886,17.785332,87.836643,8.646092,75.210949,0.218376,55.986134,0.0,10.968392,27.81404,55.78505,45.886447,69.281282,58.796816,78.253963,67.029146,82.329848,0.888187,295.376127,-55.408127,277.708235
26,0.156441,0.349779,-0.285931,-0.047523,0.0,-19.099205,-27.806179,26.791031,-36.313156,29.756172,-39.440712,21.427208,-39.119465,-10.228683,0.0,-0.393894,10.907469,35.017386,27.4209,49.815774,40.456252,55.008872,50.250336,58.403824,0.0,68.45485,26.479191,89.975808,17.722699,88.053498,8.597798,75.595231,0.215127,56.095574,0.0,11.036429,27.636397,55.829906,45.682769,69.396422,58.595139,78.302153,66.803522,82.316535,1.126745,295.666502,-55.611941,277.601308
27,-1.216988,-0.967716,-0.23616,-0.152549,0.0,-16.90789,-26.56565,27.380677,-35.168334,30.700356,-38.606792,22.240357,-38.802749,-5.337638,0.0,-3.036737,11.061759,34.152461,28.311737,49.785257,42.036519,55.607877,52.335895,59.613428,0.0,68.583275,26.482601,90.130829,17.679943,88.189934,8.514096,75.826149,0.102333,56.141968,0.0,11.168983,27.595025,55.895942,45.631838,69.608548,58.542059,78.512698,66.723186,82.547087,0.002077,294.63326,-55.755781,277.383233
28,-0.556205,-0.117152,-0.246792,-0.106272,0.0,-15.41605,-25.804951,28.450607,-34.79488,31.102981,-38.704823,21.821434,-39.212929,-8.216835,0.0,-3.254692,11.232968,34.505475,28.47099,49.953551,42.066863,55.839452,52.323371,60.122893,0.0,68.694386,26.508076,90.193074,17.679005,88.276005,8.459153,75.929867,-0.024456,56.085995,0.0,11.314639,27.526617,55.79335,45.52191,69.799689,58.392363,78.680288,66.531932,82.68206,-0.437576,294.443221,-55.886021,277.204074
29,-1.505104,-0.823294,-0.269085,-0.128651,0.0,-12.540768,-25.464707,29.115211,-34.23246,32.418205,-38.016095,23.44638,-38.419819,-5.622208,0.0,-1.165749,12.223371,35.638472,29.413463,50.555939,42.940804,56.138461,53.265609,60.778349,0.0,68.852898,26.475209,90.286606,17.653027,88.432686,8.436356,76.060639,-0.041805,56.196167,0.0,11.435608,27.735926,55.849716,45.64504,69.975925,58.408863,78.801986,66.454781,82.745972,-1.798851,293.543267,-56.011277,276.998763
30,2.271125,-2.788525,-0.1856,-0.149436,0.0,-16.580417,-28.257225,26.467186,-37.674488,30.29876,-42.127761,20.377053,-43.305873,-10.055946,0.0,3.403646,13.547151,37.556502,31.171299,52.806013,45.035008,58.478418,55.740133,62.48413,0.0,69.068298,26.358788,90.348885,17.568695,88.530579,8.425118,76.108772,0.018849,56.34906,0.0,11.648413,27.621873,55.699106,45.660638,70.064883,58.53618,78.833343,66.689951,82.86289,0.630809,290.674791,-56.038342,276.769376
31,-5.96783,2.021894,-0.179787,-0.06364,0.0,-8.230042,-22.868351,32.177913,-31.563835,37.175022,-35.594582,27.376888,-36.669731,-0.439282,0.0,2.34507,12.881049,36.503311,29.955853,51.102109,43.652169,56.488523,54.248589,59.92544,0.0,69.16745,26.306511,90.388596,17.560399,88.632615,8.47649,76.033974,0.12941,56.409348,0.0,11.763071,27.762454,55.633342,45.819633,69.955708,58.675341,78.685438,66.819244,82.7756,-5.16984,292.624977,-56.050948,276.634028
32,0.693146,-3.741075,-0.211738,-0.174828,0.0,-6.22641,-22.431542,33.021869,-32.302746,36.3567,-37.89608,25.011211,-40.451912,-6.551766,0.0,3.884484,14.09284,38.896683,32.236469,53.522886,46.640815,60.08488,57.977832,64.362726,0.0,69.13195,26.395134,90.429977,17.732094,88.799835,8.695392,76.063911,0.319565,56.448646,0.0,11.73122,27.686773,55.384637,45.74846,69.994364,58.642848,78.712831,66.883329,82.911254,-4.324298,288.816597,-56.11029,276.391895
33,-6.079651,5.176821,-0.044838,-0.117103,0.0,-8.710728,-18.96658,36.128299,-26.339493,41.947551,-29.913803,33.047046,-30.916809,4.633644,0.0,10.338822,13.896152,37.751547,27.635582,48.997174,38.299335,53.252012,46.766946,54.768565,0.0,68.928978,26.399425,89.903366,17.903023,88.76001,8.98661,75.883873,0.6282,56.072891,0.0,11.546117,27.679128,55.307954,45.657563,69.825192,58.517395,78.580413,66.809154,83.238629,-10.268131,293.933455,-56.01931,276.214829
34,-2.906468,-4.615028,-0.053204,-1.222201,0.0,-5.180786,-14.68452,40.666695,-22.852684,44.63823,-28.28326,33.5858,-31.304455,-4.607654,0.0,12.25537,16.374233,43.005766,30.592229,54.58072,40.864051,59.041236,49.03552,60.743868,0.0,68.558476,27.189743,89.210186,18.831826,88.390263,9.775177,75.26817,1.012207,55.039845,0.0,11.730948,28.440683,57.614962,46.163682,72.614088,58.797025,80.868833,67.048387,85.132625,-13.059042,289.252533,-55.956957,274.926734
35,2.299553,-1.095428,0.830269,-3.742557,0.0,-6.959827,-15.85413,35.994049,-24.48032,38.941544,-30.014557,26.481972,-33.277702,-17.059559,0.0,12.909085,17.468019,48.263777,30.637492,58.621445,39.701329,61.278615,47.172894,61.71934,0.0,66.928311,27.600598,86.644741,19.001553,85.200932,9.148888,71.115658,-0.785969,49.547116,0.0,12.550512,29.202906,61.8606,46.454675,78.0779,58.803596,85.65885,67.009065,87.995646,-10.649574,288.083178,-55.016773,271.11025
36,3.802105,-1.740497,2.422566,-3.925301,0.0,-16.657162,-20.10189,11.464748,-26.278404,12.572365,-29.685413,5.177582,-30.593582,-29.526443,0.0,7.921331,18.857143,48.174065,31.593722,59.172308,40.144882,63.377412,47.253836,64.675035,0.0,59.938751,27.725532,79.304695,19.329082,69.27388,9.06118,51.387737,-1.914849,32.546516,0.0,19.888413,26.440897,63.440002,41.981463,81.227036,53.76927,87.537199,62.012901,87.649844,-6.696304,286.270689,-52.443042,267.112957
37,2.92424,0.696545,-1.94513,-17.117498,0.0,-26.253731,-22.533256,-12.903053,-25.33263,-12.534874,-25.183342,-14.510822,-22.719738,-37.218097,0.0,9.772287,19.193448,48.107646,30.867783,58.968185,38.685065,63.314068,45.062894,64.652051,0.0,58.158554,31.449509,76.337769,23.425598,64.591645,12.895638,47.134678,0.986241,29.931748,0.0,17.306615,25.635474,66.845723,41.005979,83.541774,52.972184,88.574075,61.352122,86.331683,-3.563296,287.065189,-54.179404,250.093414
38,6.880051,-7.373543,-4.705696,-30.027224,0.0,-29.980854,-24.618004,-37.865044,-26.519451,-40.480156,-25.575668,-39.89122,-22.269665,-53.617722,0.0,5.138314,21.466531,51.129835,37.047074,65.126456,48.234976,72.878071,56.99736,77.141641,0.0,56.309372,34.420235,77.449219,26.240971,64.854881,15.460201,47.618031,3.077763,31.736023,0.0,10.457321,22.35481,66.874547,37.93492,82.817466,50.928825,87.353503,60.644499,84.390681,3.491913,280.349198,-58.709942,220.723742
39,8.617229,-0.961775,-9.138656,-39.754076,0.0,-47.500373,-32.255642,-68.180912,-30.608081,-71.293705,-25.238022,-64.028125,-17.448303,-58.864895,0.0,9.650058,22.881097,50.956798,38.05116,64.251156,49.276792,73.151292,57.795434,77.358039,0.0,53.989299,38.512207,80.279159,31.878307,67.387207,22.368232,51.25439,10.813934,38.545692,0.0,-0.698663,15.475425,58.607674,31.823791,73.714394,46.45938,79.178132,58.301442,76.363005,12.258779,280.298733,-67.698961,181.880976
40,0.361313,-1.207406,-8.958321,-48.786012,0.0,-53.754421,-31.191307,-86.909855,-25.643051,-89.750931,-17.067421,-76.055111,-6.331077,-52.844604,0.0,10.973963,23.777725,47.620251,39.640146,62.145195,51.732791,73.877082,60.37675,79.206365,0.0,50.855713,41.483665,82.560677,36.821926,71.05236,29.040562,56.254967,19.03117,46.447895,0.0,-14.199254,7.110536,35.213469,23.495989,50.244489,39.120584,58.75766,52.790854,60.384055,12.903917,280.06853,-76.373457,134.072167
41,2.409828,-3.162559,-12.974127,-56.551237,0.0,-57.493309,-30.194698,-89.129127,-24.292293,-91.654655,-15.527343,-78.264873,-4.986099,-54.643867,0.0,20.118617,25.671301,51.367376,42.002346,65.594239,54.293741,77.294831,62.675692,82.392648,0.0,52.229519,47.828739,94.991678,44.844006,90.948343,38.244158,78.061998,29.264769,68.093863,0.0,-33.490787,1.095212,14.677323,18.421531,29.9345,35.110306,41.938496,50.339507,47.412108,15.476801,277.919357,-89.184528,78.534316
42,2.045517,-2.808088,-10.914734,-51.068171,0.0,-58.912582,-31.145256,-90.937671,-25.120353,-93.245201,-16.245185,-79.722747,-5.603256,-55.866027,0.0,22.946947,27.883115,54.257827,44.657836,68.281062,56.976994,80.163335,65.093592,84.808806,0.0,47.658108,53.486618,108.357554,52.118477,102.932276,46.418833,85.417219,38.12998,77.554865,0.0,-42.090606,-7.688099,-7.279401,8.63942,10.870487,25.292212,26.254367,41.578087,34.6795,17.501346,275.99074,-100.120234,28.345616
43,0.697403,-0.796963,-11.398372,-41.342586,0.0,-59.46595,-31.353515,-91.468826,-25.081512,-93.742881,-16.074119,-80.246807,-5.446815,-56.095916,0.0,24.253833,28.59769,54.963856,45.46011,68.840298,57.680986,80.85326,65.523856,85.398696,0.0,43.789283,56.023143,113.66926,58.192279,110.590833,55.365537,94.187971,49.3593,87.095243,0.0,-49.507035,-14.095026,-25.55422,1.896892,-7.400164,18.320905,9.430146,35.012857,19.931952,18.015741,275.821877,-111.701614,-12.36887
44,0.625168,-0.320682,-3.679196,-35.707812,0.0,-60.068802,-31.686367,-92.121803,-25.21962,-94.188606,-16.158302,-80.740928,-5.707786,-56.643505,0.0,24.991194,28.912419,55.340101,45.857189,68.963959,58.058824,80.997459,65.793051,85.581032,0.0,38.646778,56.538048,119.203543,60.584461,117.569521,59.310225,101.229029,54.711176,92.578898,0.0,-54.727911,-15.65184,-36.208549,-0.672135,-19.285395,14.585889,-1.620776,30.095419,10.808897,18.123693,275.970026,-115.898026,-47.607851
45,0.707199,-0.506774,-5.720958,-24.534915,0.0,-60.51543,-32.103447,-92.897873,-25.485374,-94.859356,-16.334793,-81.470752,-5.971801,-57.33522,0.0,25.585049,29.257494,55.729624,46.327568,69.175554,58.567006,81.199878,66.256809,85.881473,0.0,36.7733,57.273124,124.674905,62.592384,125.043371,62.740224,109.591066,59.403963,100.102998,0.0,-59.512635,-16.615739,-32.621121,-1.286934,-17.323602,14.01077,-1.560803,29.269198,9.972945,18.106367,276.100692,-122.343509,-71.505326
46,0.738945,-0.521704,-3.279208,-17.809955,0.0,-61.080024,-32.445053,-93.516689,-25.723114,-95.504791,-16.527511,-82.133079,-6.239021,-57.831985,0.0,26.23985,29.55581,56.002264,46.748841,69.345033,59.025354,81.291033,66.691742,86.114556,0.0,35.752007,54.660267,124.389977,61.171898,128.951374,62.890835,116.846249,61.078148,105.679619,0.0,-63.70652,-15.989466,-29.390905,0.084351,-16.081629,15.663851,-1.704848,30.760696,10.520017,18.002077,276.297921,-126.465952,-88.596348
47,0.824616,-0.529263,-0.98608,-10.966274,0.0,-61.71896,-32.843308,-94.257202,-26.008965,-96.158913,-16.763237,-82.807823,-6.51693,-58.318222,0.0,26.766852,29.582115,56.14534,46.840738,69.445156,59.189882,81.34278,66.94477,86.442821,0.0,36.012142,48.724274,118.791149,56.236324,129.461929,59.638401,123.125462,59.68618,109.150967,0.0,-67.737753,-14.151941,-25.975088,2.950398,-14.858168,19.039937,-1.641017,34.196761,12.068667,17.83968,276.557751,-128.439045,-98.773529
48,0.557579,-0.274061,1.492024,-8.352466,0.0,-62.228474,-33.061066,-94.78624,-26.186211,-96.513268,-16.949341,-83.034714,-6.802185,-58.644951,0.0,26.957464,29.452193,56.341706,46.726216,69.640608,59.115214,81.350314,66.90304,86.428582,0.0,35.953468,46.621582,117.580776,53.460754,129.423648,56.358593,123.447589,56.101696,108.238346,0.0,-68.308568,-12.368366,-22.416875,4.85236,-10.287001,20.966297,2.895718,35.793966,16.78706,17.431092,276.857743,-127.913188,-106.551942
49,0.448883,-0.071704,-3.368763,-3.705809,0.0,-62.767285,-32.994415,-95.107018,-26.144188,-96.819809,-16.958016,-83.19413,-6.918961,-58.839523,0.0,26.769137,29.172204,56.19537,46.428912,69.657305,58.860036,81.360515,66.680466,86.490122,0.0,37.416297,44.823875,114.62305,50.935924,127.967651,53.329856,122.706047,52.732898,107.102005,0.0,-66.207757,-12.797093,-19.862841,4.803509,-6.144987,21.564486,6.586404,37.163541,20.725921,17.225722,277.470296,-131.936204,-109.573494
50,0.28315,0.010868,3.55854,-6.443791,0.0,-63.092125,-32.909317,-95.266114,-26.060212,-97.035908,-16.886605,-83.287537,-6.929032,-59.030251,0.0,26.569449,28.968477,56.021802,46.247082,69.583699,58.716058,81.307904,66.563498,86.421542,0.0,30.461071,45.032272,104.518982,52.40181,118.266758,55.645294,115.166725,55.902088,102.190201,0.0,-59.841157,-10.074203,-15.382935,6.649735,-2.633735,22.289917,10.199976,36.624373,23.559592,16.904131,278.10396,-128.982405,-115.394489
51,0.350349,0.108705,5.92115,-6.47781,0.0,-63.124043,-32.730858,-95.341129,-25.964149,-97.196972,-16.849686,-83.275612,-6.971443,-59.136326,0.0,26.296599,28.711546,55.730599,45.951137,69.473178,58.441245,81.223516,66.373221,86.392569,0.0,22.800442,39.194618,91.490696,46.431713,104.577255,49.878845,102.591259,50.630493,90.92894,0.0,-54.551965,-7.918307,-11.931207,8.331891,0.833341,23.363639,14.006618,37.193268,26.966467,16.753166,278.797759,-123.562569,-121.287205
52,0.242615,0.237517,3.117794,-6.393569,0.0,-63.148487,-32.490418,-95.270977,-25.841767,-97.32003,-16.841881,-83.446266,-7.062081,-59.447903,0.0,25.938681,28.448514,55.545373,45.629467,69.180518,58.128269,81.048503,66.105076,86.168797,0.0,19.287335,33.515453,80.646687,39.773186,92.114399,42.867085,90.592667,43.869084,79.838677,0.0,-47.863217,-5.833657,-9.345088,9.553968,3.123379,23.791081,15.665196,37.172482,28.669154,16.902283,279.645114,-120.538273,-127.070936
53,0.17221,0.154796,-9.290382,-3.450965,0.0,-62.97686,-32.167625,-94.963852,-25.673469,-97.353412,-16.794616,-83.693401,-7.061004,-59.67889,0.0,25.485334,28.215048,55.222356,45.275921,68.867888,57.781318,80.906329,65.869276,86.201278,0.0,17.490097,35.248398,80.158367,41.178783,90.379852,44.190994,89.17202,45.429359,80.56739,0.0,-47.894611,-7.468784,-13.243244,7.444401,-1.277956,21.509792,12.02504,34.704744,25.277037,17.359342,280.407466,-129.543806,-129.914345
54,0.106408,0.002952,-8.997677,-2.549428,0.0,-62.736557,-32.05188,-94.710629,-25.685028,-97.342106,-16.908486,-83.936783,-7.15178,-59.749031,0.0,25.307159,28.34544,55.174549,45.361852,68.684156,57.81843,80.740108,65.886985,86.092708,0.0,16.853863,35.569473,80.924034,41.580849,90.56884,44.920772,89.31459,46.606956,80.970943,0.0,-49.658971,-9.925437,-16.739508,4.645144,-5.482735,18.742294,8.152129,32.115544,21.453205,17.814852,280.833171,-138.192381,-132.04102
55,0.105972,0.029973,-14.817226,0.719479,0.0,-62.497101,-31.885506,-94.480099,-25.645683,-97.254021,-17.021645,-84.12664,-7.319824,-59.796925,0.0,25.111793,28.303042,54.93681,45.353665,68.423162,57.834152,80.575804,65.939499,86.01851,0.0,22.630142,34.386623,90.928676,38.829093,100.03585,41.472381,96.998519,42.770198,86.296806,0.0,-54.012391,-14.464312,-23.036745,0.594249,-11.016551,15.97527,2.767623,30.809923,17.475521,18.341068,281.113242,-152.589363,-131.071443
56,-0.250282,-0.023551,-16.951882,1.983281,0.0,-62.205105,-31.77253,-94.244523,-25.541794,-97.078206,-16.989235,-84.155297,-7.309868,-59.704445,0.0,24.832866,28.296706,54.768774,45.397433,68.269403,57.894914,80.510101,65.973708,85.933528,0.0,29.103344,39.092205,103.547539,43.197865,113.021793,45.70483,109.321266,46.986546,97.08411,0.0,-58.526716,-18.765972,-27.711615,-3.769949,-15.799179,12.347248,-2.487467,28.106515,12.487755,18.659443,281.184413,-168.972588,-128.99344
57,-0.326432,-0.058885,-13.605034,2.732036,0.0,-61.982288,-31.653213,-93.934765,-25.388168,-96.753536,-16.847717,-83.861675,-7.169357,-59.404197,0.0,24.729113,28.323357,54.516227,45.534,68.202082,58.075657,80.547015,66.153945,85.923821,0.0,30.897938,43.703533,113.600132,48.623543,124.817906,51.760529,120.7836,53.409909,107.802567,0.0,-64.906049,-22.721901,-31.141752,-7.113703,-19.490316,9.920951,-5.908996,26.404266,9.103746,18.767881,281.022828,-182.142752,-126.364104
58,-0.218605,0.019192,-0.296299,0.33825,0.0,-61.864883,-31.755707,-93.850857,-25.424881,-96.56987,-16.878982,-83.579658,-7.23571,-59.220474,0.0,24.684146,28.402917,54.333891,45.788955,68.176246,58.382878,80.545298,66.418348,85.749438,0.0,30.890042,40.900532,113.228714,46.386475,125.842163,50.144829,121.587261,52.312763,106.943207,0.0,-64.727473,-22.791218,-28.60275,-6.966076,-17.219698,10.236601,-4.860511,27.039505,9.846036,18.801069,280.828135,-182.187258,-126.239739
59,-0.16246,-0.015759,1.113384,-0.165022,0.0,-61.774281,-31.716499,-93.728394,-25.344749,-96.391686,-16.799698,-83.289173,-7.227104,-59.206318,0.0,24.821813,28.408549,54.022817,45.889448,68.149175,58.549135,80.601578,66.627003,85.731234,0.0,29.922616,39.479336,111.532872,45.100777,124.887612,49.010903,120.755837,51.335084,106.24014,0.0,-63.524019,-21.85113,-27.285815,-5.930355,-15.526681,11.155663,-3.662559,27.757675,11.104886,18.878174,280.571951,-180.834309,-126.645186
60,-0.133919,0.098776,1.229622,-0.566498,0.0,-61.679821,-31.778274,-93.785717,-25.356628,-96.407558,-16.755432,-83.307186,-7.134064,-59.079151,0.0,24.790135,28.408783,53.92577,45.892832,68.180779,58.556755,80.625858,66.64365,85.70168,0.0,29.735173,38.667275,109.982689,44.551197,123.899598,48.522869,119.816288,50.767228,105.413395,0.0,-62.412765,-20.652354,-25.649599,-4.649929,-13.766004,12.258741,-1.865498,28.685166,12.625304,18.944166,280.439802,-179.404776,-127.442609
61,0.094666,0.093651,0.96135,-0.647107,0.0,-61.69384,-31.83442,-93.748352,-25.433052,-96.426819,-16.810822,-83.387055,-7.14386,-59.066437,0.0,24.731064,28.376364,53.862031,45.879839,68.104875,58.559607,80.62713,66.702572,85.832084,0.0,29.636295,37.993366,109.095566,44.129997,123.339603,48.156246,118.99237,50.337685,105.007908,0.0,-61.438251,-19.620477,-24.612995,-3.387405,-12.552306,13.460972,-0.543064,29.742246,13.706455,19.174101,280.338405,-178.308157,-128.284764
62,0.260856,0.148818,0.51543,-0.565041,0.0,-61.589916,-31.877472,-93.775932,-25.555687,-96.560543,-16.995277,-83.575493,-7.336166,-59.200779,0.0,24.38525,28.403485,53.820251,45.887065,67.972902,58.535179,80.532862,66.649097,85.848893,0.0,29.960335,37.76762,108.879502,43.92025,123.029515,47.814995,118.950199,49.730233,104.936028,0.0,-60.652678,-18.927625,-24.080104,-2.625115,-11.719552,14.20822,0.762951,30.544532,14.693739,19.558508,280.338645,-177.669176,-128.998383
63,0.183976,0.15629,0.581509,-0.571692,0.0,-61.409203,-31.708008,-93.772831,-25.409043,-96.632676,-16.845086,-83.612561,-7.127312,-59.028752,0.0,24.116957,28.426062,53.734036,45.87117,67.932098,58.458374,80.637072,66.492523,85.988178,0.0,30.029228,37.662746,108.379909,43.662357,122.59536,47.318035,118.791367,48.874065,104.657547,0.0,-59.621946,-18.054755,-23.438366,-1.744517,-10.888647,15.047736,2.074506,31.367487,16.123157,19.839638,280.358711,-176.990513,-129.706299
64,0.282623,0.147744,0.7034,-0.33373,0.0,-61.363186,-31.741539,-93.919315,-25.442688,-96.867211,-16.880631,-83.954933,-7.120308,-59.094155,0.0,23.734438,28.429026,53.676336,45.937095,67.874349,58.526399,80.672678,66.538552,86.101663,0.0,30.180244,37.37249,107.997985,43.105751,122.118839,46.494712,118.395687,47.764858,104.053871,0.0,-58.969954,-17.412035,-22.745702,-0.951518,-10.06582,15.884658,3.118643,32.233845,17.194921,20.187275,280.34825,-176.222099,-130.198234
65,0.272552,0.046671,0.551433,0.169629,0.0,-61.421951,-31.762024,-93.96849,-25.45095,-96.93386,-16.892326,-84.050457,-7.141296,-59.34906,0.0,23.457179,28.407475,53.576325,45.980049,67.894171,58.610157,80.695501,66.686444,86.168205,0.0,30.347408,37.215901,107.607193,42.895352,121.611935,46.186993,118.191982,47.330395,103.880882,0.0,-58.461267,-17.010967,-22.405236,-0.57728,-9.633796,16.211008,3.674884,32.566599,17.732446,20.510313,280.233564,-175.62018,-130.189962
66,0.268708,-0.018698,0.542153,0.859356,0.0,-61.424321,-32.003403,-94.116589,-25.664681,-97.044938,-17.053414,-84.137455,-7.227036,-59.565491,0.0,23.34152,28.420986,53.552032,46.022891,67.934432,58.705784,80.717916,66.859654,86.12372,0.0,30.618862,37.227813,107.490062,42.985839,121.523311,46.251205,118.764724,47.309864,104.097725,0.0,-57.868251,-16.647597,-22.069033,-0.341085,-9.49488,16.315891,3.955015,32.559121,17.928701,20.820958,280.108239,-175.03609,-129.437233
67,0.206405,-0.122327,0.83337,1.827577,0.0,-61.531173,-32.323539,-94.138492,-25.9617,-96.9505,-17.25579,-83.941246,-7.304329,-59.56176,0.0,23.468429,28.549179,53.576226,46.187678,68.085769,58.900186,80.856026,67.092662,86.217148,0.0,30.594578,36.937328,107.111572,42.556881,120.801052,45.642677,118.274998,46.54422,103.314674,0.0,-57.484558,-16.185518,-22.189538,0.030079,-9.716205,16.675304,3.699393,32.978783,17.752225,21.119568,279.963808,-174.110515,-127.63176
68,0.462296,-0.137617,0.96223,3.50118,0.0,-61.744904,-32.554825,-94.172734,-26.304245,-97.101288,-17.634773,-84.202034,-7.660538,-59.958492,0.0,23.478383,28.582858,53.385652,46.18396,67.991131,58.880957,80.643988,67.142915,86.141602,0.0,31.499531,36.446309,107.122319,41.685711,120.086689,44.440957,117.819123,45.103993,102.655655,0.0,-57.231467,-15.804517,-22.428709,0.228922,-10.000809,16.937694,3.562159,33.486953,17.98219,21.744135,279.841771,-172.986014,-124.115
69,0.383331,0.075237,1.588154,6.069208,0.0,-61.705101,-32.629257,-94.001953,-26.480278,-96.974041,-17.853676,-83.925911,-7.876854,-59.86338,0.0,23.443148,28.474757,53.290877,45.976948,67.844473,58.624766,80.489858,66.860332,86.004207,0.0,32.651573,35.925499,106.427468,40.554245,118.752858,42.78352,116.618489,43.024361,101.053471,0.0,-56.724772,-15.551258,-22.46594,0.001963,-10.283874,16.730903,3.624736,33.621364,18.797906,22.355879,280.222712,-171.169447,-117.740088
70,0.436226,0.19255,2.416718,9.113768,0.0,-61.767517,-32.559174,-93.844528,-26.514153,-96.861168,-17.930786,-83.627152,-7.936157,-59.713383,0.0,23.373136,28.344402,53.181282,45.683856,67.564238,58.232157,80.415474,66.359104,85.839136,0.0,35.110016,35.945881,105.828907,39.53072,117.33593,40.881065,115.065777,40.39262,98.985512,0.0,-55.425487,-14.777766,-21.393248,0.275586,-9.51551,16.926856,4.492626,34.028849,20.708179,23.008581,280.721554,-168.536253,-108.320028
71,0.388985,0.254967,3.763,12.085173,0.0,-61.734764,-32.225808,-93.570946,-26.33519,-96.825142,-17.884186,-83.51199,-7.980194,-59.631352,0.0,23.159443,28.215739,53.091967,45.394568,67.403205,57.831978,80.328678,65.842982,85.700754,0.0,38.446381,36.118744,105.361485,37.942543,115.920502,37.891445,111.912804,36.183197,94.652001,0.0,-53.21854,-13.234991,-17.715233,1.20007,-5.935326,17.464078,7.761563,34.292844,23.85222,23.616927,281.129974,-164.553892,-96.081402
72,0.496902,0.274802,5.281477,17.054482,0.0,-61.904983,-31.833389,-93.579265,-25.984932,-96.987923,-17.608497,-83.711426,-7.776947,-59.672356,0.0,22.637355,27.981199,52.993783,45.015556,67.259709,57.397378,80.218676,65.374704,85.679055,0.0,42.458411,37.635882,104.920681,37.89049,113.551552,36.35182,108.111214,33.250483,90.940293,0.0,-50.042908,-12.037554,-11.988299,2.062664,0.241524,18.28601,13.279682,35.185687,28.273182,24.272009,281.061567,-159.114235,-79.370129
73,0.281525,0.270084,6.634781,21.27813,0.0,-62.140354,-31.955773,-93.548905,-26.053757,-96.777191,-17.677918,-83.36784,-7.847374,-59.479923,0.0,22.552967,28.145665,53.378884,45.306808,67.512281,57.745836,80.327937,65.674972,85.831195,0.0,46.439696,40.650221,104.710957,39.543886,110.280853,36.409876,103.51981,31.733191,87.56266,0.0,-46.168588,-11.11417,-4.432433,3.129143,8.609304,19.759159,20.585102,37.158119,33.335296,24.627531,280.530523,-152.405457,-58.893127
74,0.230461,0.184473,6.965298,23.076993,0.0,-62.434136,-32.013657,-93.765621,-26.06781,-96.719971,-17.692017,-83.354084,-7.851814,-59.606026,0.0,22.437901,28.320579,53.521713,45.616894,67.670547,58.143854,80.53958,66.126466,86.060129,0.0,51.204225,41.806967,105.670166,39.037966,109.06533,34.422747,101.957336,28.527986,85.859905,0.0,-41.860746,-8.14345,5.436327,6.37293,17.757801,22.858795,28.702255,40.009586,38.600019,24.853478,279.359478,-145.444673,-37.171652
75,0.157059,0.073829,5.755005,29.698175,0.0,-62.46745,-32.143914,-93.937569,-26.145974,-96.661263,-17.796547,-83.29572,-8.040871,-59.793904,0.0,22.348832,28.585575,53.794044,46.104623,68.069381,58.780192,80.753385,66.856492,86.402448,0.0,55.632173,42.933603,107.300594,40.205068,109.523426,35.206323,102.013023,28.78985,86.813244,0.0,-39.333555,-6.475484,11.05115,9.085169,23.862589,26.272803,34.520966,43.522259,42.795015,25.017083,278.093271,-139.683122,-8.813513
76,0.083725,-0.043213,5.799923,30.129731,0.0,-62.608727,-32.433426,-94.163178,-26.291314,-96.433777,-17.899475,-82.932507,-8.243752,-59.840596,0.0,22.456661,28.836615,54.08968,46.622413,68.513786,59.472464,81.014503,67.640796,86.679177,0.0,58.933073,43.89287,108.346744,40.475218,110.08691,34.87932,102.598766,28.019491,86.74546,0.0,-35.126099,-3.081411,18.271508,12.609313,31.084694,29.592344,40.781018,46.414345,47.424134,24.949334,276.840068,-134.034673,20.106228
77,-0.148865,-0.158069,5.044355,32.1314,0.0,-62.439812,-32.687096,-94.01112,-26.467323,-96.03455,-18.035568,-82.283295,-8.422394,-59.480347,0.0,22.934684,28.994498,54.533864,46.959632,69.085348,59.937556,81.417177,68.189708,87.055817,0.0,62.414526,43.573654,110.055851,39.833336,112.011601,33.990601,104.674027,27.033039,88.016367,0.0,-31.118845,0.411249,23.933525,16.310381,36.478179,33.04063,45.753005,49.217215,52.10974,24.521261,275.814665,-129.269526,51.370294
78,-0.088852,-0.266194,4.288788,34.133072,0.0,-62.278164,-32.506943,-93.940544,-26.227753,-95.8274,-17.765694,-81.981285,-8.216927,-59.306465,0.0,23.10882,28.831045,54.772789,46.765242,69.340971,59.795357,81.823829,68.095502,87.29867,0.0,66.076532,41.975956,112.427914,38.279423,115.297497,32.540165,108.238804,25.830494,90.625963,0.0,-27.311797,4.002492,28.037197,20.188368,40.043042,36.617658,49.436923,51.930867,56.851832,23.997568,275.009214,-125.415579,84.964109
79,0.006523,-0.430054,4.9575,34.242345,0.0,-62.247002,-32.361076,-93.82909,-26.042084,-95.549046,-17.532486,-81.629368,-8.009903,-59.138695,0.0,23.497452,28.863266,54.862759,46.770799,69.480958,59.750464,81.934226,67.969728,87.3898,0.0,67.948706,41.136544,111.45591,37.419068,114.922955,31.866074,106.947854,25.336384,89.048773,0.0,-22.520163,7.45634,31.149813,23.285916,43.72491,39.020613,53.069427,53.223155,60.607547,23.469789,274.218287,-120.992381,118.845581
80,0.257149,0.254955,8.806538,30.097731,0.0,-60.484612,-32.549263,-93.667729,-26.600258,-95.691673,-18.251129,-82.176052,-8.778351,-59.594799,0.0,20.719066,28.052656,54.004131,45.632011,68.618009,58.554099,80.615867,66.964357,86.430977,0.0,65.309984,41.404266,102.123207,37.245838,102.847641,30.634014,95.247929,23.121941,79.853079,0.0,-12.73873,13.509684,49.259585,29.165636,63.976131,44.570969,71.079429,58.249466,73.545864,23.052183,273.903826,-112.860598,148.373896
81,0.385299,0.45494,6.159805,29.728303,0.0,-60.099803,-31.852821,-93.148166,-26.259498,-95.349712,-18.267288,-82.285091,-9.017189,-59.392478,0.0,16.552828,28.308142,51.432993,44.761404,66.740463,56.862089,78.626058,64.802957,84.952907,0.0,66.720629,39.611916,100.745842,35.754708,100.530579,29.553223,92.830136,22.54604,78.666659,0.0,-6.613244,17.387764,53.923167,34.384676,68.847202,49.996193,76.571054,62.989366,78.864761,22.862554,273.593104,-107.275721,177.336537
82,1.074532,-0.569845,5.936634,25.033901,0.0,-58.330147,-31.72982,-93.173687,-26.806183,-96.371029,-19.339233,-83.915428,-10.191994,-60.718815,0.0,15.15959,28.725155,46.709543,44.336153,63.99,55.891878,77.048385,63.628106,84.461732,0.0,66.627102,37.94648,97.560162,33.41264,96.59182,26.920762,87.619355,19.772965,72.427414,0.0,-0.843721,21.821534,58.967074,39.16405,74.161405,54.008837,82.003176,65.468355,82.883725,23.439703,272.175565,-101.83647,201.522744
83,1.94355,-0.202332,5.553074,19.97327,0.0,-58.037338,-31.508835,-93.079033,-27.521622,-97.153461,-20.993088,-86.246544,-12.508461,-63.241173,0.0,11.942172,29.062708,40.024061,44.103874,57.523226,55.424503,72.787162,63.148084,84.01645,0.0,66.31865,35.679817,93.83757,29.917786,93.02853,23.098721,82.513264,16.114048,65.838158,0.0,4.399729,26.767803,64.407272,44.136452,80.194395,57.712243,87.289382,67.200392,86.410365,24.999521,271.165285,-96.667128,220.688066
84,0.61013,0.167999,4.761738,17.312493,0.0,-58.81311,-32.666313,-82.979015,-28.957649,-85.297519,-22.884452,-76.018512,-14.563613,-57.585983,0.0,8.116338,28.728477,39.832831,42.869383,57.065395,53.840048,71.118579,61.783448,82.360019,0.0,67.753864,34.370796,92.373585,28.148998,91.311562,21.067314,79.595444,14.109512,62.364281,0.0,8.659928,30.091507,67.890046,48.100434,85.254929,61.309934,92.231799,69.713227,90.566538,25.262712,270.606565,-92.252329,237.27384
85,0.516381,-1.181027,1.758202,12.80054,0.0,-57.459893,-32.248352,-73.237038,-28.47329,-73.325798,-22.413414,-64.286488,-14.031258,-49.712952,0.0,8.329057,29.187024,40.193961,43.22398,57.62693,54.10297,71.341746,62.121001,82.452744,0.0,72.09256,31.446235,98.86655,23.853355,100.39619,16.997646,86.71661,10.872768,65.376903,0.0,8.24941,31.639256,60.03785,49.500377,75.597213,61.410402,84.024415,68.133502,85.682142,25.494547,268.888593,-90.778673,249.537435
86,0.409538,-1.063873,4.372925,9.286162,0.0,-56.066711,-31.815285,-61.559532,-27.764374,-59.473881,-21.500175,-51.0993,-12.980026,-40.718651,0.0,10.375515,29.179417,43.683946,43.746129,60.329461,54.969353,73.121121,63.26641,83.81402,0.0,72.115654,30.736621,97.543247,22.318325,98.74213,14.729541,84.157253,8.069549,62.688983,0.0,9.239258,33.125737,61.857574,50.441158,78.233388,61.71866,86.196968,67.961306,87.081271,25.604135,267.511652,-86.705698,258.510529
87,0.10405,0.865729,4.411857,6.57516,0.0,-55.849961,-30.894654,-47.694901,-26.380348,-41.778649,-20.000611,-34.667885,-11.81044,-29.366249,0.0,9.535572,28.046753,48.469664,42.809374,62.837219,54.250244,72.992692,62.792882,82.348373,0.0,72.420364,30.256405,98.25658,21.687836,99.1833,13.960968,84.454067,7.378384,64.22485,0.0,10.410736,34.192907,62.28412,51.466967,78.847063,62.596121,86.401806,68.800678,87.433569,25.450545,268.263686,-82.551481,264.971994
88,-1.143494,2.254452,4.584561,3.93192,0.0,-53.315323,-32.388605,-33.099998,-27.777145,-23.49416,-21.25847,-17.20134,-13.033716,-17.522793,0.0,11.599228,26.973426,54.694038,40.918033,67.767347,51.559099,73.4487,59.58501,78.107553,0.0,72.036163,30.144538,97.987678,21.54998,98.502571,13.628997,83.581855,6.821834,63.990909,0.0,11.362681,35.039851,62.645348,52.145148,78.360742,63.146564,86.091152,69.321247,87.153791,24.094431,270.484854,-78.17954,268.87063
89,-0.211601,3.666789,3.969234,1.976692,0.0,-48.874088,-34.886999,-27.676369,-31.450058,-17.140766,-25.658804,-12.05571,-18.101469,-14.677769,0.0,15.261027,26.437259,54.266688,39.121269,65.597228,48.420535,69.468083,55.148329,72.391304,0.0,70.404407,30.474564,97.656063,21.686039,97.515369,13.360165,82.549908,6.134674,63.558346,0.0,12.499556,35.492618,63.499629,52.539313,77.912175,63.447166,85.260733,69.568323,86.375192,23.734251,274.175186,-74.358885,270.870865
90,0.295463,3.8883,3.579517,0.633572,0.0,-46.836513,-35.692457,-21.122154,-33.959312,-10.630794,-29.780897,-9.124878,-23.82221,-16.037143,0.0,17.605406,23.958968,52.668649,36.380156,62.793784,45.621809,65.825266,52.481736,68.134404,0.0,69.263054,30.455075,96.990578,21.485745,96.131905,12.78487,80.849121,5.111195,62.063599,0.0,14.465577,35.896614,63.620733,52.913014,77.633569,63.677852,84.819613,69.616698,85.778658,23.941703,278.100162,-70.867379,271.541113
91,-0.703994,3.863179,2.315106,0.490891,0.0,-42.796852,-36.222067,-15.875588,-36.007828,-6.048604,-33.119002,-6.363831,-28.323012,-15.711285,0.0,16.242279,21.110731,48.087313,33.528412,58.441294,43.070024,61.181179,50.356276,63.414537,0.0,68.388897,30.106087,96.362606,21.061294,95.270839,12.294273,80.033306,4.591553,61.326542,0.0,16.088119,35.685711,63.256319,52.757527,76.699928,63.523316,83.780045,69.351394,85.084436,23.211176,281.988817,-68.578806,272.05748
92,-0.896668,4.764119,1.606968,-0.025453,0.0,-42.275619,-39.934988,-13.759918,-40.996056,-3.472927,-39.063555,-5.343018,-34.958147,-17.415379,0.0,19.569502,19.495327,45.979326,30.349981,54.067512,38.607568,55.68654,44.670421,56.73224,0.0,67.727668,29.374489,94.502289,20.135627,93.543228,11.237308,78.4086,3.430034,59.582451,0.0,17.304194,35.535139,63.88332,52.637644,77.019757,63.395294,84.107272,69.158423,85.476785,22.296427,286.768673,-66.989919,272.047764
93,0.009453,0.281316,0.788692,-0.185881,0.0,-40.832954,-39.375492,-11.376869,-41.224709,-2.030731,-40.006828,-6.170403,-36.489052,-21.731667,0.0,17.828999,19.258669,45.097783,31.124431,53.359025,40.33122,55.752829,47.255824,57.08707,0.0,66.883724,28.946686,93.405453,19.555275,92.445294,10.476357,77.55312,2.476662,58.52441,0.0,18.580748,35.134823,63.821928,52.315554,77.231561,63.12978,84.44412,68.914645,85.624072,22.28484,287.061999,-66.222267,271.873893
94,-0.175987,-0.602492,0.319588,-0.081165,0.0,-40.568121,-37.767901,-9.720646,-39.998841,-1.025826,-39.209736,-6.501709,-36.200037,-23.717663,0.0,16.512356,18.591493,44.600235,31.81685,53.449242,42.392244,57.06019,50.549375,59.351099,0.0,66.533741,28.294258,92.941234,18.901657,92.30698,9.925094,77.721805,2.056778,58.535625,0.0,19.276379,35.038987,63.531677,52.280097,77.143431,63.143822,84.481751,68.927045,85.738014,22.096093,286.469366,-65.915439,271.802587
95,-1.339234,0.607685,0.321693,0.119326,0.0,-42.338258,-40.344595,-8.894451,-42.613403,0.435128,-41.67699,-4.582969,-38.467191,-21.56567,0.0,17.252954,19.454085,45.474893,32.117353,53.480044,42.190815,56.758527,49.755574,58.594608,0.0,66.199688,27.973057,92.495945,18.428582,91.717999,9.355236,77.292721,1.446705,58.043919,0.0,19.683463,34.943002,63.468852,52.203502,77.22041,63.087247,84.548331,68.832184,85.619849,20.765035,287.08765,-65.58557,271.932512
96,0.307503,0.497178,0.267266,-0.004989,0.0,-43.18796,-42.315748,-8.564724,-45.159004,0.804566,-44.579372,-6.279259,-41.559179,-30.334293,0.0,19.835776,19.978185,47.073524,32.583271,53.444722,42.457983,56.600631,49.878654,58.045263,0.0,65.888179,27.912849,92.091602,18.217243,91.153713,8.984802,76.94411,0.920105,57.554958,0.0,20.185604,35.220335,63.629761,52.424939,77.41291,63.210105,84.741128,68.783364,85.561581,21.088343,287.585161,-65.302499,271.927856
97,-0.864647,-0.315718,0.213249,0.084783,0.0,-38.228697,-40.426535,-4.938137,-44.358742,2.164444,-44.598278,-7.021568,-42.280947,-34.989841,0.0,14.566626,19.57456,45.542707,34.15251,53.588144,45.514889,58.076652,54.327191,60.187756,0.0,65.489673,27.780647,91.932323,17.977592,90.822498,8.63752,76.733951,0.422046,56.925007,0.0,20.590786,35.146075,63.466493,52.350579,77.566064,63.114726,84.976422,68.637399,85.626357,20.252827,287.218722,-65.060119,271.961918
98,-6.437851,4.807307,0.196266,0.169591,0.0,-29.413061,-36.247427,3.046818,-40.924747,9.084961,-41.801285,-0.380127,-40.181539,-29.5032,0.0,8.913141,16.460004,40.379718,30.687262,49.054638,41.687573,53.714503,50.18706,55.711864,0.0,65.36832,27.603687,91.810192,17.76685,90.580273,8.408123,76.492458,0.125782,56.513248,0.0,20.839381,35.014719,63.190556,52.210554,77.54949,63.002945,84.970395,68.578859,85.659468,13.862589,291.939377,-64.81624,272.044857
99,-0.150627,3.568352,0.29789,0.197664,0.0,-32.811905,-38.192161,3.271751,-43.000076,9.796532,-43.634663,1.448044,-41.7617,-27.091667,0.0,12.258519,14.367567,39.59182,26.740819,46.700417,36.25594,49.968619,43.49252,50.875535,0.0,65.205379,27.538021,91.66428,17.649032,90.256748,8.198684,76.067173,-0.242729,55.828411,0.0,20.942948,34.865492,63.010552,52.037689,77.689304,62.836354,85.098316,68.456617,85.742707,13.779859,295.397879,-64.450453,272.132671
100,1.344841,-0.725382,0.226158,0.080979,0.0,-31.221828,-36.728313,3.190338,-41.405937,9.241264,-41.94009,0.72551,-39.832741,-28.036034,0.0,10.363201,14.416017,39.445558,27.580044,47.625339,37.727995,51.355447,45.506892,52.214815,0.0,65.054455,27.436443,91.630909,17.530186,90.262218,8.058437,76.001461,-0.443333,55.47694,0.0,21.079145,34.72758,62.941849,51.91304,77.801184,62.686696,85.183323,68.295536,85.87836,15.201405,294.538742,-64.14759,272.079895
101,-0.210319,1.312814,0.267219,0.054353,0.0,-29.751057,-34.518277,3.45433,-38.818337,9.700561,-39.145535,3.023963,-36.879433,-18.733613,0.0,6.388908,13.507754,36.964587,26.186077,46.334212,36.017348,50.050697,43.517405,50.964863,0.0,64.952168,27.281193,91.533223,17.330658,90.299984,7.819039,75.865712,-0.706672,55.151974,0.0,21.255615,34.633348,62.916297,51.837383,77.882843,62.628441,85.234834,68.297302,86.082976,15.086867,295.692039,-63.78459,271.974731
102,0.533935,3.831872,0.276215,0.062948,0.0,-37.356457,-37.523495,0.147926,-40.61935,8.703713,-39.628567,4.982849,-36.160892,-12.950111,0.0,13.055692,12.266399,37.787634,21.127039,44.151866,27.830565,45.300547,32.654026,44.291039,0.0,64.898586,27.137615,91.392895,17.205082,90.20026,7.724167,75.785534,-0.731884,55.294384,0.0,21.422317,34.693049,62.905849,51.96638,77.806655,62.823461,85.154658,68.537746,86.188977,15.724646,299.386399,-63.404531,271.900167
103,6.279396,-3.583475,0.240898,0.028603,0.0,-45.446468,-43.348251,-7.503937,-46.026604,2.580345,-44.470676,-0.208511,-40.239635,-18.133919,0.0,20.644534,14.147501,42.753343,23.493167,48.254514,30.68646,49.128035,35.903839,48.022678,0.0,64.898907,26.961926,91.270603,16.995495,90.124592,7.476425,75.686657,-0.975494,55.212628,0.0,21.774714,34.910027,63.02557,52.168946,77.830639,63.002624,85.200946,68.650279,86.33892,22.11066,295.669513,-63.057015,271.795359
104,0.379646,-2.306304,0.073082,-0.065369,0.0,-39.537071,-40.390651,-7.66983,-42.930004,1.174439,-41.700805,-1.948013,-37.754081,-20.233612,0.0,15.505936,15.228862,41.252635,26.687973,49.283251,35.564286,52.064811,42.208593,52.45348,0.0,64.675312,26.81852,91.172093,16.839443,89.931553,7.325958,75.54134,-1.086525,55.001827,0.0,22.188479,35.064761,63.244772,52.361459,77.991326,63.180082,85.450381,68.769717,86.663714,22.608633,293.235821,-62.865606,271.602602
105,-1.379516,5.016394,0.014053,0.055538,0.0,-44.394104,-42.632973,-7.468025,-45.100559,2.136795,-43.562428,0.467125,-39.364964,-17.751984,0.0,20.009665,12.788325,40.357179,21.206647,45.778359,27.501287,46.380883,31.988158,45.541423,0.0,64.611683,26.666199,90.960446,16.694905,89.767491,7.187451,75.441868,-1.184623,54.950787,0.0,22.439841,35.147804,63.384353,52.460606,78.116075,63.298409,85.677412,68.881276,86.972887,21.353811,298.134407,-62.726859,271.540332
106,0.469185,-1.566065,-0.052173,0.193971,0.0,-46.296135,-45.166489,-7.977791,-47.639145,1.884681,-45.942364,-0.071846,-41.459942,-19.429413,0.0,23.170163,14.377015,43.787329,22.996125,48.517892,29.457899,48.864287,34.041311,47.524945,0.0,64.369263,26.647144,90.787102,16.740234,89.617218,7.253208,75.372368,-1.146126,54.897835,0.0,22.538233,35.097649,63.310375,52.411415,78.091781,63.234348,85.808422,68.821809,87.117209,21.946009,296.481675,-62.656019,271.647636
107,0.060287,-3.031611,-0.179283,0.133072,0.0,-41.418972,-40.408516,-6.470672,-43.191776,1.865799,-42.187752,-0.791908,-38.388794,-19.183113,0.0,14.378731,15.518286,41.691667,27.217815,50.053537,36.375833,53.026252,43.365165,54.216725,0.0,64.344886,26.609424,90.682754,16.720859,89.640495,7.245174,75.381294,-1.135105,54.823723,0.0,22.578742,35.161635,63.217552,52.466756,78.136662,63.237362,85.92886,68.749488,87.260656,22.113973,293.39712,-62.727625,271.727764
108,-1.20932,3.792068,-0.188496,0.078633,0.0,-45.036804,-41.650543,-6.480606,-44.313778,2.41095,-43.096035,0.856476,-39.184238,-14.789451,0.0,17.719713,13.988691,41.045079,23.038943,47.797511,30.01065,48.87182,35.146321,49.089675,0.0,64.183056,26.622883,90.566174,16.748154,89.551289,7.295677,75.25375,-1.070549,54.575832,0.0,22.660721,35.03233,63.209068,52.380466,78.254086,63.149701,86.126807,68.659838,87.549697,20.997053,297.18041,-62.823721,271.797619
109,0.141083,-1.336514,-0.186115,0.138308,0.0,-46.427582,-42.297661,-6.451355,-44.887631,2.778534,-43.483372,1.232094,-39.321819,-13.305565,0.0,19.451812,14.979897,43.298537,24.315151,50.041855,31.536355,51.022711,36.864218,50.910152,0.0,64.361389,26.546001,90.348678,16.701164,89.541984,7.287449,75.168228,-1.011429,54.550003,0.0,22.55876,34.919883,63.207685,52.232253,78.197437,63.005045,86.055424,68.545107,87.666776,21.197388,295.87193,-62.950584,271.963961
110,0.39695,-5.010762,-0.180485,0.151882,0.0,-41.687239,-41.086367,-5.640221,-44.09907,2.490726,-43.077135,-0.093155,-39.249035,-14.265381,0.0,16.221549,17.468877,44.656274,30.130916,54.137235,40.192973,57.287778,47.862139,58.586988,0.0,64.672085,26.589363,90.273571,16.763844,89.493885,7.379448,74.996098,-0.851589,54.506619,0.0,22.391625,34.996712,63.28607,52.23224,78.05583,62.957743,85.853067,68.489568,87.698342,21.620774,290.933623,-63.104633,272.188298
111,-1.070504,-0.439193,-0.179089,0.048548,0.0,-41.4339,-43.167348,-4.142257,-47.180276,3.775257,-46.502843,0.869065,-43.02135,-13.647766,0.0,18.761763,16.682188,45.076448,30.187244,54.676982,41.05707,57.869306,49.440973,59.360708,0.0,64.952568,26.638321,90.253853,16.771752,89.440751,7.366551,74.796479,-0.840557,54.319611,0.0,22.400394,35.077,63.422514,52.242973,78.118556,62.924732,85.844089,68.423198,87.938366,20.53771,290.583505,-63.296282,272.325921
112,-1.300735,-1.343195,-0.266658,0.071643,0.0,-38.126227,-45.62697,-1.763031,-50.498057,5.662342,-50.26193,0.878815,-47.042793,-17.300194,0.0,21.131534,17.023779,47.53924,31.682284,56.663505,43.195932,59.807231,51.993847,60.675003,0.0,65.292263,26.645805,90.203121,16.771946,89.434536,7.36037,74.709835,-0.830201,54.245098,0.0,22.536689,34.997083,63.622326,52.116014,78.204142,62.777741,85.925414,68.303341,88.073488,19.198116,289.328638,-63.601799,272.485892
113,-0.051933,-3.063587,-0.240624,0.122735,0.0,-35.988482,-45.819907,-0.903031,-50.915846,6.068126,-50.685465,0.659271,-47.497582,-17.825592,0.0,19.965378,19.206052,49.131389,35.681525,59.478226,48.63812,63.771448,58.570155,65.168718,0.0,65.78484,26.451576,90.106739,16.600216,89.427166,7.249718,74.610455,-0.82719,54.278538,0.0,22.388291,35.031391,63.774813,52.091758,78.180702,62.714743,85.820216,68.227993,88.176414,19.070521,286.350575,-63.918085,272.694151
114,-0.230988,0.425004,-0.175724,0.133232,0.0,-36.277216,-46.707556,-0.234558,-52.220209,6.334316,-52.154314,0.007897,-49.135231,-19.980789,0.0,18.70047,18.529625,49.382552,35.367808,59.572222,48.587645,63.834568,58.762421,65.146549,0.0,65.850861,26.357563,90.055618,16.475956,89.375519,7.106781,74.478928,-0.979305,54.164704,0.0,22.401481,35.135824,63.946269,52.184039,78.301388,62.769455,85.860688,68.232823,88.145441,18.741068,286.871688,-64.192274,272.923492
115,-0.948463,1.996971,-0.214645,-0.033098,0.0,-35.233189,-43.665184,0.467376,-49.149777,6.226684,-49.412407,0.168617,-46.834545,-19.110421,0.0,13.623327,17.310703,46.294148,33.91077,57.125492,46.731502,61.696763,56.619496,63.459577,0.0,65.611336,26.178451,90.018608,16.252281,89.321869,6.878093,74.435577,-1.224575,53.963928,0.0,22.707146,35.172627,64.130236,52.292386,78.666246,62.890893,86.231326,68.311307,88.280958,17.661707,288.952865,-64.537817,272.9746
116,0.45504,1.478046,-0.047127,0.138988,0.0,-37.273201,-44.795906,-0.88147,-50.103047,5.159958,-50.170773,-0.582871,-47.450066,-19.826866,0.0,12.243488,17.013708,45.960819,32.572058,56.194529,44.433818,60.135033,53.53279,61.193176,0.0,65.439125,25.963051,89.792496,16.034317,89.076691,6.684597,74.304909,-1.398228,53.906868,0.0,22.920851,35.232451,64.394775,52.409662,78.893154,63.057038,86.466064,68.485801,88.242932,17.963271,290.51294,-64.73842,273.195617
117,1.1502,-0.484568,-0.01284,0.146608,0.0,-40.073616,-45.523121,-3.67907,-50.158837,2.786682,-49.703087,-1.491303,-46.473141,-20.105874,0.0,16.451903,17.838261,47.352859,32.779045,57.199579,44.394322,60.647253,53.290828,61.658428,0.0,65.130867,25.747982,89.620079,15.748901,88.835334,6.416553,74.194793,-1.634995,53.75988,0.0,23.03998,35.287742,64.528501,52.549452,78.968193,63.223221,86.582463,68.582749,88.134856,18.922188,290.10112,-64.942543,273.414973
118,0.178276,0.344802,0.066593,0.142335,0.0,-37.216347,-42.136906,-3.676484,-46.807583,1.131294,-46.872666,-3.567559,-44.246979,-22.693039,0.0,11.146394,16.843005,44.204761,32.716393,55.623968,45.088459,60.326373,54.711075,62.084827,0.0,64.549908,25.595295,89.386402,15.500015,88.474926,6.153889,74.077022,-1.901058,53.645954,0.0,23.221168,35.316456,64.649371,52.683006,79.095275,63.413498,86.831552,68.735519,87.941083,18.870581,290.505449,-65.105833,273.616835
119,-0.853524,0.359844,0.078346,0.04304,0.0,-37.876258,-43.993698,-3.227668,-49.340538,1.949044,-49.623767,-2.001548,-47.30278,-20.532577,0.0,13.37162,16.436008,44.358717,31.957839,55.596835,44.059487,59.594001,53.460086,61.221545,0.0,64.122448,25.416321,89.191143,15.306839,88.212399,6.033669,74.0816,-1.937004,53.733662,0.0,23.298788,35.384332,64.697574,52.83837,79.160446,63.622832,87.082147,68.926143,87.978541,17.743446,290.885566,-65.301098,273.680148
120,0.682709,-0.602128,0.191254,0.242172,0.0,-38.608314,-47.333038,-3.59024,-52.931774,1.969414,-53.108929,-3.167152,-50.626579,-24.440872,0.0,14.534034,16.434773,46.143193,32.625546,56.694486,45.366101,60.542636,55.224517,61.875197,0.0,63.747677,25.215786,88.957912,15.03669,87.753559,5.766838,73.83054,-2.192162,53.587383,0.0,23.334493,35.362399,64.718853,52.862799,79.016569,63.672542,87.044196,68.949004,87.766627,18.124266,290.258593,-65.411733,273.897475
