takenoko1/special-research/HandMotion_SimilarSearch_自分用/NewProject/handData/test_key/d4_feature_d3/55.csv
frame,vel_0x_L,vel_0y_L,vel_0x_R,vel_0y_R,posFromWrist_0x_L,posFromWrist_1x_L,posFromWrist_2x_L,posFromWrist_3x_L,posFromWrist_4x_L,posFromWrist_5x_L,posFromWrist_6x_L,posFromWrist_7x_L,posFromWrist_8x_L,posFromWrist_9x_L,posFromWrist_0y_L,posFromWrist_1y_L,posFromWrist_2y_L,posFromWrist_3y_L,posFromWrist_4y_L,posFromWrist_5y_L,posFromWrist_6y_L,posFromWrist_7y_L,posFromWrist_8y_L,posFromWrist_9y_L,posFromWrist_0x_R,posFromWrist_1x_R,posFromWrist_2x_R,posFromWrist_3x_R,posFromWrist_4x_R,posFromWrist_5x_R,posFromWrist_6x_R,posFromWrist_7x_R,posFromWrist_8x_R,posFromWrist_9x_R,posFromWrist_0y_R,posFromWrist_1y_R,posFromWrist_2y_R,posFromWrist_3y_R,posFromWrist_4y_R,posFromWrist_5y_R,posFromWrist_6y_R,posFromWrist_7y_R,posFromWrist_8y_R,posFromWrist_9y_R,posFromBody_0x_L,posFromBody_0y_L,posFromBody_0x_R,posFromBody_0y_R
6,1.072219,-1.217385,0.181068,0.166059,0.0,4.560196,-14.079666,47.72287,-21.711422,52.976532,-25.822506,40.07721,-27.104061,-11.14389,0.0,47.349018,22.790842,52.607831,35.530866,59.902037,44.259867,64.524945,50.926899,76.936765,0.0,63.087044,23.618706,83.397378,14.195332,83.686776,4.831891,70.055947,-3.833312,49.752663,0.0,20.7287,28.398409,56.768722,45.650104,70.295261,57.429699,78.726206,64.457106,85.123882,-14.500002,284.969515,-44.076914,277.127645
7,-3.472927,5.77396,0.217736,0.023453,0.0,5.516682,-11.933773,51.485104,-18.240486,57.321293,-20.998512,46.340481,-20.990661,3.364621,0.0,48.22948,22.731438,51.71292,31.37347,55.083603,36.299622,57.105052,39.562835,66.010091,0.0,62.813507,23.536766,83.266845,14.143616,83.462883,4.728653,69.998337,-4.028446,49.637054,0.0,20.742136,28.258335,56.649346,45.466594,70.17139,57.249449,78.509721,64.269965,85.073641,-18.033995,290.688422,-43.920244,277.096045
8,2.606461,-0.371997,0.20232,0.074841,0.0,-3.209164,-13.602493,46.836513,-19.963841,53.169582,-23.257897,42.712063,-24.143269,-6.675591,0.0,52.213876,22.483819,50.743228,31.024914,54.591094,35.756255,57.043425,39.022099,67.306764,0.0,62.792736,23.405468,83.339939,14.022423,83.331562,4.580532,69.928059,-4.19466,49.528667,0.0,20.661392,28.10717,56.53296,45.290815,70.043802,57.098025,78.276996,64.116219,84.858899,-15.474695,290.24699,-43.765085,277.101451
9,-2.831658,5.477002,0.120872,0.064999,0.0,-3.016067,-11.792129,49.841115,-16.954731,57.24741,-18.968261,48.36208,-18.585205,7.423279,0.0,53.927697,20.616882,49.808019,26.037617,50.561942,28.172638,50.991465,29.292383,57.654149,0.0,62.814251,23.354508,83.45335,13.972607,83.269375,4.489186,69.832661,-4.326839,49.426747,0.0,20.648967,28.057214,56.531526,45.186864,70.054842,56.975907,78.194188,63.97539,84.779685,-18.341481,295.667024,-43.679341,277.109482
10,3.967988,-5.344275,0.081494,-0.050265,0.0,-1.932026,-12.850823,45.952411,-19.800007,52.426105,-23.884106,40.752925,-25.44096,-10.01286,0.0,50.443034,21.079676,50.263192,30.894039,54.561639,37.005737,58.783811,41.723407,70.674803,0.0,62.732734,23.271011,83.607788,13.880459,83.350479,4.386257,69.999435,-4.396397,49.530853,0.0,20.770023,28.108751,56.631167,45.232696,70.085569,57.020219,78.228238,63.988902,84.854835,-14.39792,290.265506,-43.622274,277.001974
11,-1.206654,-1.214211,0.07624,-0.099702,0.0,2.702339,-10.805843,47.442581,-18.068047,53.288429,-22.66824,40.631241,-24.679127,-10.020138,0.0,47.090963,21.502926,49.76609,32.486373,55.542371,39.546964,60.494137,44.917571,72.430874,0.0,62.72612,23.106297,83.772332,13.684799,83.385269,4.207409,70.092614,-4.496143,49.508469,0.0,20.91274,28.274921,56.869289,45.340302,70.26241,57.078746,78.432397,63.983047,84.877596,-15.621637,289.00124,-43.563097,276.852217
12,2.698986,-5.262741,0.068688,-0.017068,0.0,1.182266,-12.12521,43.719097,-20.363514,48.53104,-26.280315,34.415577,-29.623615,-23.989666,0.0,46.339115,22.459885,50.668498,36.831626,60.012138,47.046997,67.101024,55.40436,82.729781,0.0,62.716621,22.974312,83.921745,13.564384,83.481811,4.123146,70.230606,-4.524353,49.453399,0.0,20.955533,28.250875,56.966805,45.264324,70.368361,56.976278,78.553218,63.890681,84.823651,-12.942421,283.697762,-43.514179,276.794412
13,-2.906193,1.450802,0.088852,0.067765,0.0,8.355412,-9.15192,48.507935,-17.068817,52.912491,-22.373577,37.958405,-24.906898,-14.175831,0.0,42.024675,21.120481,50.761061,35.619811,59.930652,45.932167,66.836287,54.365359,80.547521,0.0,62.531845,22.97715,84.035408,13.483532,83.389366,3.993816,70.158554,-4.675736,49.352852,0.0,20.750028,28.140898,56.97839,45.159459,70.374116,56.873154,78.546944,63.790831,84.728024,-15.879736,285.119103,-43.456449,276.832716
14,3.348473,-3.650882,0.177337,0.009658,0.0,4.811622,-11.673042,45.068138,-20.709538,48.505394,-27.308064,32.636947,-31.128788,-27.185795,0.0,42.856342,22.21718,51.510563,38.193803,62.682917,49.896642,71.061015,59.748723,87.613769,0.0,62.285752,23.01178,83.934151,13.448216,83.158402,3.902092,69.948487,-4.818145,49.110581,0.0,20.578016,27.977259,56.977031,45.028363,70.384873,56.765795,78.588526,63.68767,84.618701,-12.573492,281.443969,-43.321341,276.818122
15,-2.360596,4.600887,0.179627,-0.003594,0.0,4.566914,-10.282551,48.990486,-18.471382,53.563683,-23.816036,37.925034,-26.338016,-18.202297,0.0,43.863837,19.24254,50.670313,33.412407,59.159105,43.806137,66.845056,52.577265,80.763203,0.0,62.140846,23.117821,83.938843,13.468551,82.864494,3.824981,69.544418,-4.994854,48.845238,0.0,20.386046,27.822451,56.996507,44.905011,70.459789,56.67312,78.620624,63.628341,84.545354,-14.989672,286.025787,-43.197298,276.795459
16,2.047085,3.082074,0.127041,0.016747,0.0,-1.295071,-13.23856,46.849743,-21.298691,52.154812,-26.225899,37.65105,-28.250473,-17.3493,0.0,48.156664,17.830036,50.58968,29.397692,56.795399,37.722277,63.168844,44.967045,75.775598,0.0,62.10577,23.313835,84.074146,13.579662,82.782314,3.828197,69.305454,-5.097119,48.750126,0.0,20.18017,27.652723,56.905178,44.799306,70.471645,56.612197,78.53978,63.613397,84.467116,-13.025688,289.093409,-43.153358,276.797754
17,0.125359,1.615465,-0.011341,0.025638,0.0,-2.453866,-13.351525,47.467426,-21.671334,53.253513,-26.839486,38.866825,-29.056321,-14.816689,0.0,49.476493,16.561226,50.482357,26.823045,55.65887,34.106185,61.552737,40.46754,72.753545,0.0,62.113014,23.552124,84.223526,13.786823,82.909835,3.962471,69.298439,-5.079575,48.908042,0.0,19.978346,27.510809,56.753557,44.692133,70.315318,56.534861,78.390777,63.576174,84.417346,-13.004442,290.709806,-43.268812,276.824324
18,1.342208,0.319064,0.181469,-0.060849,0.0,-8.637817,-14.443405,44.788777,-23.104511,51.115208,-29.309612,37.425442,-32.870292,-19.57576,0.0,54.59333,16.446136,49.418806,25.461486,54.102686,31.822519,59.8505,37.389369,71.367533,0.0,62.179721,23.573398,84.146541,13.864952,82.896686,4.04758,69.169727,-5.032906,48.902355,0.0,19.989152,27.499521,56.59429,44.657022,70.178936,56.508482,78.303104,63.613818,84.446134,-11.794264,291.035465,-43.219373,276.77007
19,-1.520038,-1.322533,0.101474,0.011177,0.0,-4.85804,-12.273422,47.013771,-21.0397,52.956276,-27.639954,38.713211,-31.683083,-17.670777,0.0,52.808335,16.374653,49.394463,26.681415,54.879938,34.009274,61.36241,40.180166,72.618867,0.0,62.2286,23.569966,84.291642,13.883457,83.112465,4.105122,69.321419,-4.926944,49.096894,0.0,20.005343,27.520331,56.414164,44.693145,70.01258,56.561315,78.185568,63.713026,84.394832,-13.474846,289.726671,-43.278443,276.794986
20,2.036041,-4.559119,0.056465,0.064653,0.0,-4.907101,-13.603798,44.136681,-23.250698,49.291809,-31.108726,34.787224,-36.463154,-24.498035,0.0,52.834418,18.668903,50.376912,30.804008,58.369626,39.396701,65.745737,46.527453,78.61188,0.0,62.280671,23.635872,84.515465,13.942978,83.387948,4.149411,69.457535,-4.897647,49.099457,0.0,20.065401,27.651847,56.212944,44.823513,69.903776,56.647284,78.174885,63.761648,84.347049,-11.615845,285.177019,-43.399018,276.869106
21,-3.702026,-0.559286,0.171101,0.038853,0.0,4.29134,-9.150353,50.358329,-19.04329,53.704857,-27.080544,38.161995,-32.563145,-16.694699,0.0,47.494576,17.537389,51.253348,31.58988,60.318506,41.759371,67.931937,50.094849,79.813692,0.0,62.155117,23.724712,84.60648,14.114674,83.46381,4.360291,69.588329,-4.688049,49.169506,0.0,20.134932,27.755366,56.248228,44.887091,69.789859,56.668452,78.19535,63.763204,84.409047,-15.497858,284.629675,-43.407904,276.919901
22,1.044239,-1.89906,0.253624,-0.019982,0.0,4.796791,-9.777352,49.761348,-19.755329,52.753658,-27.725624,37.10432,-33.099827,-17.639443,0.0,46.387786,18.16712,51.97836,33.668091,61.9491,44.992499,70.225323,54.229582,82.499897,0.0,62.206295,23.818108,84.606022,14.168015,83.404575,4.3946,69.486179,-4.651222,49.020779,0.0,20.077665,27.894452,56.215327,45.049618,69.810631,56.83419,78.307093,63.923508,84.378171,-14.640781,282.741801,-43.341442,276.911105
23,-1.345997,-1.627037,0.107906,0.016117,0.0,14.09753,-8.322579,53.215782,-18.478455,55.307785,-25.782177,39.224945,-30.025635,-11.146305,0.0,39.860731,18.143148,53.533013,36.014928,64.649063,49.426228,72.819075,60.142123,84.721664,0.0,62.190903,23.909649,84.696305,14.297654,83.582863,4.566067,69.805321,-4.452587,49.213486,0.0,19.933551,28.098598,56.25239,45.234819,69.786808,56.974178,78.364422,63.996953,84.368056,-16.156151,281.130724,-43.402909,276.943182
24,-4.293183,-0.592038,0.124684,-0.02701,0.0,23.970006,-3.099151,56.969513,-13.068557,59.376915,-20.893775,43.078949,-25.883068,-7.613433,0.0,30.273769,18.09166,52.36178,37.244156,64.660659,51.269564,73.233741,62.184666,85.109086,0.0,62.421055,23.852565,84.938015,14.219799,83.703609,4.498535,69.839115,-4.508595,49.216312,0.0,19.645387,28.233548,56.751642,45.308081,70.287221,56.991629,78.864242,63.967845,84.657888,-20.604556,280.550743,-43.433447,276.928229
25,-3.919395,-0.440157,0.024318,0.032333,0.0,35.847244,2.175991,62.394997,-8.381149,64.146011,-17.28043,46.384392,-23.410046,-5.078716,0.0,21.098449,18.237675,52.722613,38.00024,66.866384,52.145568,75.156451,62.930709,84.477342,0.0,62.788628,23.893959,84.445267,14.45382,83.699181,4.881524,69.764031,-4.098575,49.337838,0.0,19.234685,28.024708,58.108422,45.034427,71.774615,56.76351,80.146563,63.943897,85.488826,-24.701351,280.133869,-43.586529,276.983845
26,-0.587471,-2.529038,-0.114303,-0.102741,0.0,41.110497,4.251812,62.859169,-6.917633,64.980263,-16.989933,45.324738,-24.520466,-10.248264,0.0,16.834237,19.802777,53.858265,40.529624,69.674077,55.049653,78.428248,65.831633,86.552527,0.0,63.032982,24.074547,83.70385,14.75338,83.483894,5.180099,69.008194,-3.933289,48.766914,0.0,18.699828,27.933021,59.870038,44.898552,74.19895,56.667946,81.787754,64.014158,86.429397,-25.481043,277.628231,-43.893053,276.904504
27,3.27943,7.490585,0.815483,-1.915695,0.0,30.201485,-0.096565,43.106518,-7.627704,47.81535,-14.349048,34.936501,-18.8642,-8.679817,0.0,16.12507,18.301945,50.701386,33.364995,62.369731,43.055079,66.183807,49.395735,69.464594,0.0,61.893791,23.204876,77.083809,13.381531,74.501907,3.321144,58.631939,-6.174786,37.402382,0.0,19.951163,26.115311,61.153421,43.212691,77.487257,55.540753,85.612475,63.38807,88.066881,-22.458195,285.148215,-43.334152,275.018208
28,9.442624,-1.240121,1.818352,-2.943494,0.0,12.515281,-6.871399,12.239147,-11.132481,16.484218,-14.99405,9.703731,-16.968647,-22.614338,0.0,11.005245,22.113254,52.003158,35.438302,64.920295,43.379133,69.540844,48.287451,71.752855,0.0,55.736572,25.230846,62.315048,15.105926,55.238502,4.226532,39.022979,-6.533947,21.215263,0.0,23.004659,29.61856,69.723749,44.006406,82.99227,53.882088,88.436766,59.653862,87.608903,-13.337556,283.960996,-41.837785,272.127616
29,11.99612,-1.105604,-2.765087,-10.783351,0.0,-10.133801,-16.640671,-18.953281,-17.48632,-15.332039,-17.046261,-15.667316,-14.852703,-30.802689,0.0,18.213358,24.267195,57.249239,35.971763,70.113863,42.997997,73.723026,47.102732,73.159072,0.0,51.975883,27.716903,53.726005,19.285446,45.194938,9.298965,30.096954,-1.125756,16.596199,0.0,22.56281,23.627276,63.814,35.754971,76.011608,44.999575,80.780913,51.381765,79.630355,-1.746094,282.925392,-45.00753,261.414265
30,11.228989,-1.093921,-6.038132,-21.570691,0.0,-33.766217,-25.829647,-51.120358,-22.543946,-47.668797,-17.511681,-40.460759,-11.000599,-37.811795,0.0,24.64675,26.277122,60.280455,36.930661,72.318118,43.479045,75.860541,47.080564,75.291573,0.0,46.77705,30.195236,47.123451,23.823658,37.115661,15.197845,23.662422,5.45113,13.502712,0.0,12.324629,18.496681,50.843647,30.192518,63.423502,39.918999,69.589392,47.374015,70.015618,9.067097,282.004595,-51.46146,240.016698
31,9.879169,-1.520431,-3.628933,-24.398909,0.0,-56.517162,-34.334003,-82.165626,-26.611874,-78.337704,-16.80526,-62.644134,-5.778202,-43.727268,0.0,29.650646,29.023657,62.525873,38.718521,74.426487,44.724551,78.125102,47.690633,77.521146,0.0,40.055832,27.698021,34.497208,20.682232,22.284977,11.76305,10.903564,2.043033,3.057072,0.0,3.976393,4.181201,19.252358,11.862655,28.35976,19.482662,34.406737,26.448109,36.449885,18.309997,280.769376,-55.726662,215.903001
32,2.058403,-9.295981,-5.107372,-31.793608,0.0,-55.143402,-32.150036,-87.151028,-24.370365,-86.718063,-14.440658,-71.87154,-3.374725,-48.801464,0.0,26.871111,32.896099,68.699544,48.1609,86.032156,58.808449,94.549686,65.595795,96.360986,0.0,32.721473,24.648651,25.129692,17.414486,13.751873,8.453704,6.30336,-1.088837,2.132503,0.0,-10.525536,-10.977463,-16.476621,-6.701741,-12.615627,-0.441497,-3.262824,7.374766,8.019884,19.799372,271.917211,-61.403062,184.553209
33,-0.419998,-1.387236,-6.5308,-39.435764,0.0,-57.47818,-31.567463,-86.762718,-23.366215,-85.978581,-13.099571,-71.038387,-1.980446,-48.057289,0.0,34.39435,32.395934,70.212368,48.508036,87.508831,59.921933,95.815966,67.090427,97.368741,0.0,28.116462,17.555443,22.60794,9.356483,13.980972,0.41946,10.510917,-8.081223,4.423107,0.0,-26.953555,-31.602854,-60.465485,-27.582754,-56.49757,-19.529309,-26.063577,-8.643835,-12.306851,19.002829,271.075682,-68.310407,145.663152
34,-0.514389,-0.150535,-2.799397,-37.923966,0.0,-57.341251,-31.414661,-86.057304,-23.277306,-85.535133,-13.080849,-70.88879,-1.897636,-47.596001,0.0,34.591753,32.698239,69.930403,48.847009,87.09803,60.237342,95.432224,67.323955,97.142722,0.0,20.573925,10.259789,13.64502,-0.891025,5.16235,-11.640838,5.395924,-20.917007,-2.012329,0.0,-40.18455,-43.172078,-91.269215,-39.854766,-89.574055,-31.773959,-40.294639,-20.521169,-25.717472,18.297855,271.620997,-71.300389,108.435036
35,-0.240509,-0.215015,-0.230118,-30.846925,0.0,-57.644383,-31.140839,-85.807057,-23.072479,-85.366734,-12.972496,-70.795635,-1.866646,-47.512653,0.0,34.581071,32.784776,69.971121,48.930261,87.085174,60.298685,95.443771,67.329167,97.197026,0.0,14.866139,2.913094,3.940133,-11.394641,-5.233383,-24.508884,-1.665447,-35.040721,-9.504947,0.0,-45.759414,-54.873787,-115.429013,-54.37585,-118.979285,-47.829893,-53.526313,-37.357369,-39.853468,17.847307,272.118751,-71.740546,78.30088
36,-0.056053,-0.26938,-2.739383,-31.177177,0.0,-57.753079,-31.197407,-85.758671,-23.241097,-85.359478,-13.253792,-70.867459,-2.221665,-47.669781,0.0,34.451481,32.85301,70.142602,49.056837,87.228076,60.41007,95.642768,67.378357,97.359047,0.0,10.99316,0.478306,0.620269,-14.124024,-7.93039,-27.775395,-2.003094,-38.837609,-8.941864,0.0,-53.284474,-57.086916,-120.701141,-55.902759,-126.44593,-48.471974,-44.324236,-37.328847,-31.31369,17.572735,272.549485,-74.698448,47.823817
37,-0.165734,-0.271418,-2.000748,-24.130017,0.0,-58.033504,-31.209457,-85.777324,-23.293876,-85.248756,-13.320808,-70.963142,-2.293899,-47.746616,0.0,34.258931,32.645554,70.168513,48.908303,87.306265,60.31411,95.717832,67.369502,97.509088,0.0,8.85957,-0.269485,0.089024,-14.880547,-8.247116,-28.75835,-0.882214,-40.147648,-6.786266,0.0,-56.326127,-57.175775,-122.276814,-56.061742,-130.04275,-49.00367,-34.75596,-39.012021,-29.078702,17.07304,272.893546,-77.033157,24.309279
38,-0.123779,-0.245186,-1.255245,-16.673995,0.0,-58.417316,-31.0364,-85.707573,-23.13834,-85.091789,-13.230102,-70.859917,-2.333107,-47.783615,0.0,34.333933,32.705377,70.370436,49.063543,87.449575,60.474723,95.85451,67.485692,97.77995,0.0,8.759228,0.00943,0.701099,-14.17812,-8.215244,-27.931641,0.757816,-39.388561,-2.871494,0.0,-59.378684,-57.765429,-123.76766,-56.960846,-133.609703,-50.322133,-39.494748,-41.055484,-33.789825,16.334913,273.174023,-78.90275,8.160947
39,-0.326179,-0.130787,0.351402,-11.026289,0.0,-58.250027,-30.904118,-85.685383,-22.969895,-84.830624,-13.020264,-70.522911,-2.090699,-47.471386,0.0,34.172406,32.431711,70.250726,48.760373,87.484525,60.170849,95.968032,67.210149,97.864782,0.0,8.323448,-0.230186,1.05558,-13.882313,-8.632667,-27.34568,1.29649,-38.645267,-1.771957,0.0,-61.679461,-57.928809,-123.922651,-57.451867,-135.068362,-51.119424,-42.928708,-42.320837,-38.48537,15.128128,273.452202,-79.431954,-2.456376
40,-0.133919,0.009707,1.320992,-6.982403,0.0,-58.087864,-30.886437,-85.539768,-22.928169,-84.472916,-12.947205,-70.009541,-2.004479,-47.131199,0.0,34.091637,32.368158,70.231609,48.704365,87.476708,60.088511,95.960214,67.084993,97.900783,0.0,7.56784,-0.387143,0.849037,-13.752537,-8.578194,-26.88834,1.849708,-37.93681,-1.402005,0.0,-61.97259,-58.482716,-123.932722,-57.971553,-134.926571,-51.625691,-45.031704,-42.968592,-41.212744,14.137699,273.801385,-78.967472,-9.099303
41,0.007713,-0.027924,1.908737,-3.137273,0.0,-58.053131,-30.880257,-85.586265,-22.887108,-84.349308,-12.851646,-69.827774,-1.845405,-46.878422,0.0,34.132714,32.162653,70.160164,48.518127,87.359259,59.95203,95.822771,67.011943,97.969672,0.0,6.672855,-0.664467,0.265091,-13.948803,-9.573178,-26.907292,2.56113,-37.659451,-1.176499,0.0,-61.734882,-59.425682,-125.051491,-58.783768,-135.327658,-52.182915,-45.616771,-43.419815,-42.666139,13.544105,274.029229,-77.660042,-11.980808
42,0.247971,-0.094638,1.923008,0.027411,0.0,-58.062928,-30.810826,-85.525738,-22.837326,-84.267735,-12.847458,-69.63461,-1.89029,-46.73505,0.0,34.292041,32.396847,70.331002,48.791878,87.574459,60.181939,96.099696,67.116411,98.274373,0.0,6.526359,-1.091847,0.172508,-14.116574,-10.071236,-26.766472,3.301895,-37.272686,-1.156586,0.0,-61.003214,-59.524816,-124.105234,-58.942059,-134.155716,-52.325601,-46.13624,-43.510131,-43.604288,13.329323,274.108406,-76.199787,-11.779582
43,0.552749,-0.077583,1.784008,2.100205,0.0,-58.04235,-30.851577,-85.685051,-22.906974,-84.466598,-12.919944,-69.777637,-1.914711,-46.81874,0.0,34.302934,32.352757,70.162003,48.695139,87.552031,60.03028,96.152962,66.945684,98.251796,0.0,6.441685,-1.272183,0.255855,-14.056298,-9.748512,-26.610981,3.66402,-37.263886,-1.580235,0.0,-60.297159,-59.241888,-123.072643,-58.674679,-132.77288,-51.908717,-46.771386,-42.886951,-43.379065,13.608495,274.17099,-74.689356,-9.53921
44,0.742585,-0.160934,0.961818,2.963316,0.0,-58.326931,-30.794621,-85.828446,-22.843071,-84.667706,-12.887787,-69.925141,-1.942109,-46.9567,0.0,34.567831,32.584185,70.499148,48.9816,87.874998,60.260325,96.435247,67.068604,98.353685,0.0,7.147946,-1.121131,0.948327,-13.728252,-9.393093,-26.201385,4.029454,-36.940704,-1.509269,0.0,-60.353284,-58.705406,-122.523692,-58.056058,-132.260373,-51.237534,-46.522779,-42.232675,-42.756683,14.275847,274.096716,-73.802771,-6.489234
45,0.651008,-0.116363,0.499695,2.650464,0.0,-58.44881,-30.7462,-86.164432,-22.763099,-85.035118,-12.804588,-70.285023,-1.881752,-47.09024,0.0,34.596533,32.666993,70.647733,49.069619,88.01385,60.307552,96.5648,67.065468,98.282289,0.0,7.689057,-1.23508,1.417008,-13.795177,-9.832122,-26.212932,4.249798,-36.838039,-0.888736,0.0,-60.22485,-58.296774,-122.814925,-57.615876,-132.593035,-50.682855,-45.677188,-41.540805,-42.372201,14.933155,273.997711,-73.296776,-3.821412
46,0.556984,-0.061997,0.037663,1.899257,0.0,-58.603077,-30.541328,-86.381847,-22.519707,-85.284862,-12.56179,-70.608501,-1.681801,-47.345238,0.0,34.616046,32.722951,70.778421,49.094813,88.158358,60.311429,96.707209,67.074014,98.163135,0.0,8.011104,-1.607769,1.775413,-14.134701,-10.177426,-26.421066,4.370212,-36.915058,-0.675064,0.0,-60.278047,-58.052847,-122.827849,-57.287463,-132.682184,-50.232194,-45.150697,-40.943561,-42.003155,15.560497,273.94113,-73.188755,-1.916739
47,0.377449,-0.12486,-0.28497,0.60747,0.0,-58.526047,-30.369964,-86.49242,-22.295013,-85.42464,-12.326362,-70.743118,-1.478805,-47.414921,0.0,34.663508,32.772253,70.949371,49.148413,88.209501,60.391125,96.743741,67.21746,98.086108,0.0,7.614098,-1.919208,1.443535,-14.619792,-10.996215,-26.958778,4.346272,-37.347415,-0.545185,0.0,-60.712647,-58.104785,-123.644752,-57.129851,-133.025467,-49.753011,-44.423753,-40.204823,-41.674415,16.059105,273.824424,-73.352566,-1.301115
48,0.041245,-0.144014,-0.623153,-0.263823,0.0,-58.409203,-30.037388,-86.441552,-21.872864,-85.322502,-11.876107,-70.581608,-1.075699,-47.198777,0.0,34.783316,32.90577,71.368212,49.331626,88.503543,60.606436,97.040785,67.442046,98.225541,0.0,7.64693,-2.053482,1.329002,-14.916344,-11.522862,-27.285828,4.673366,-37.533337,-0.267758,0.0,-60.894397,-58.106514,-123.912501,-57.004084,-133.014636,-49.487224,-43.090456,-39.861249,-41.49958,16.23044,273.678842,-73.845629,-1.566506
49,-0.096108,0.051512,-0.57399,-0.30183,0.0,-58.46569,-29.850105,-86.425838,-21.638717,-85.267811,-11.587074,-70.397472,-0.76783,-46.925377,0.0,34.662347,32.80508,71.441127,49.162628,88.559304,60.465794,97.158988,67.372145,98.353833,0.0,7.594711,-1.960087,1.242096,-14.962429,-11.785721,-27.360088,5.031898,-37.609154,-0.28315,0.0,-60.803432,-58.204129,-124.08439,-57.07522,-133.252856,-49.559775,-43.116897,-39.981008,-41.777556,16.301256,273.729174,-74.252695,-1.869516
50,-0.191185,-0.004829,-0.285175,-0.485154,0.0,-58.57505,-29.578148,-86.209625,-21.324371,-85.027691,-11.265564,-70.115593,-0.474815,-46.683609,0.0,34.707882,32.757729,71.552599,49.118797,88.599603,60.502881,97.289565,67.510244,98.711924,0.0,7.411102,-1.860398,1.234794,-15.015541,-11.985203,-27.494145,5.109192,-37.844033,-0.678532,0.0,-60.509161,-58.471928,-124.353313,-57.265893,-133.443215,-49.641119,-43.257973,-39.971665,-41.814403,16.325535,273.737825,-74.322406,-2.34119
51,-0.196518,0.094479,-0.306576,-0.136783,0.0,-58.511101,-29.415527,-85.948688,-21.142639,-84.713127,-11.056137,-69.726047,-0.244697,-46.134842,0.0,34.673078,32.653938,71.576199,48.961123,88.714408,60.354247,97.4081,67.408009,98.983996,0.0,7.450481,-1.48336,1.457794,-14.754467,-12.026035,-27.385666,5.209282,-37.932244,-0.867142,0.0,-60.569392,-58.645318,-124.692471,-57.476913,-133.829001,-49.86168,-43.364067,-40.235612,-42.1859,16.318359,273.840181,-74.43964,-2.470096
52,-0.294639,0.140976,-0.130783,0.252831,0.0,-58.379471,-29.361191,-85.658661,-21.040581,-84.377278,-10.851586,-69.387143,0.101394,-45.617157,0.0,34.654837,32.468823,71.531936,48.673403,88.7141,60.05351,97.385636,67.141791,99.072608,0.0,7.340435,-1.31321,1.472419,-14.677815,-12.264668,-27.41613,5.320976,-38.160462,-1.250656,0.0,-60.756144,-58.845809,-125.245156,-57.70087,-134.331359,-50.117882,-43.701391,-40.521504,-42.537346,16.182381,273.98384,-74.411762,-2.214582
53,-0.169098,0.212211,-0.072453,0.178928,0.0,-58.394852,-29.479534,-85.493225,-21.19542,-84.176422,-10.97097,-69.249893,0.070747,-45.410271,0.0,34.466561,32.379224,71.361765,48.491685,88.549671,59.85896,97.19894,66.979882,99.004473,0.0,7.026627,-1.365085,1.204457,-14.792244,-12.519916,-27.578316,5.145687,-38.405994,-1.508606,0.0,-60.854198,-58.940577,-125.641687,-57.761361,-134.677174,-50.182226,-44.079019,-40.54671,-43.080311,16.161284,274.193578,-74.336214,-2.038127
54,-0.117073,0.159625,-0.085212,0.06861,0.0,-58.204239,-29.450054,-85.268818,-21.221924,-84.053891,-11.052338,-69.192044,-0.009064,-45.380024,0.0,34.312864,32.46434,71.372621,48.583779,88.386539,59.950289,97.067671,67.068135,98.964199,0.0,6.792652,-1.538659,0.811981,-15.030888,-12.689953,-27.889676,4.959159,-38.737256,-1.681618,0.0,-60.777589,-59.146817,-125.978349,-57.944919,-134.863313,-50.339442,-43.687305,-40.623595,-42.983652,16.151024,274.346762,-74.314613,-1.975958
55,-0.106087,0.237356,-0.109051,0.157427,0.0,-57.97261,-29.491058,-85.136135,-21.270927,-83.944004,-11.054398,-69.101269,0.086632,-45.297718,0.0,34.197057,32.390302,71.249651,48.470875,88.34818,59.801989,96.981159,66.899087,98.789902,0.0,6.617843,-1.685383,0.549602,-15.169773,-12.843292,-28.037636,4.86605,-38.869744,-1.702664,0.0,-60.939314,-59.147669,-126.01222,-57.962864,-135.070641,-50.428227,-43.256682,-40.796978,-43.188115,16.087601,274.571052,-74.381,-1.831597
56,0.01886,0.081548,-0.105767,0.028065,0.0,-58.036812,-29.597294,-85.125401,-21.417618,-83.966572,-11.225464,-69.15984,-0.073837,-45.577091,0.0,34.240344,32.455621,71.28302,48.524499,88.290912,59.839768,96.973983,66.914463,98.812095,0.0,6.415753,-1.773159,0.518132,-15.249687,-12.820438,-28.095714,4.707962,-38.890811,-1.733448,0.0,-61.034706,-59.129866,-125.892065,-57.967001,-135.030237,-50.464949,-43.06683,-40.851485,-43.052961,16.143276,274.63995,-74.449952,-1.816182
57,0.115906,0.084968,-0.12537,0.038144,0.0,-58.300152,-29.68443,-85.22374,-21.543503,-84.140133,-11.404335,-69.365101,-0.296402,-45.955216,0.0,34.345888,32.754259,71.4495,48.817554,88.415117,60.061353,97.212464,67.019056,98.918862,0.0,6.584965,-1.655948,0.841027,-15.160572,-12.37413,-28.028194,4.599781,-38.757797,-1.482822,0.0,-61.032446,-59.246643,-125.880932,-58.121365,-135.219262,-50.640723,-42.815464,-41.011073,-42.827517,16.30513,274.706411,-74.529374,-1.796545
58,0.144264,0.029221,0.043122,0.111212,0.0,-58.52076,-29.787827,-85.286568,-21.620773,-84.223561,-11.484146,-69.518704,-0.381226,-46.211827,0.0,34.473686,32.861741,71.560761,48.943277,88.585313,60.169465,97.43516,67.092069,99.107571,0.0,6.658287,-1.61689,0.913318,-15.115402,-12.01585,-28.024807,4.622783,-38.784897,-1.616192,0.0,-61.050811,-59.432542,-125.816606,-58.379469,-135.262937,-50.927139,-42.467259,-41.266936,-42.390169,16.495743,274.713103,-74.439903,-1.707862
59,0.128288,0.018574,0.007187,0.13884,0.0,-58.73893,-29.897987,-85.319778,-21.701317,-84.323971,-11.565079,-69.727158,-0.492508,-46.557781,0.0,34.577983,32.952157,71.567369,49.031655,88.657117,60.257225,97.578965,67.171938,99.265924,0.0,6.647712,-1.574982,0.99757,-15.032513,-11.632531,-27.956726,4.578518,-38.741501,-1.710984,0.0,-61.154669,-59.597194,-125.947703,-58.585086,-135.39144,-51.126254,-42.255819,-41.383953,-42.302997,16.674448,274.708193,-74.382299,-1.592506
60,0.169991,0.06238,0.084366,0.200269,0.0,-58.995839,-30.014775,-85.443272,-21.819626,-84.474793,-11.732552,-69.966694,-0.726975,-46.934143,0.0,34.614169,33.128788,71.670814,49.229911,88.758659,60.440933,97.675641,67.334687,99.313028,0.0,6.825096,-1.528107,1.102146,-14.900986,-11.204957,-27.769249,4.464191,-38.497445,-1.803097,0.0,-61.066607,-59.74361,-126.114793,-58.770967,-135.567059,-51.322101,-42.165429,-41.472843,-42.38628,16.905104,274.747562,-74.237268,-1.415248
61,0.063629,0.098184,-0.029767,0.218491,0.0,-58.777336,-29.869663,-85.393353,-21.700241,-84.561058,-11.630448,-70.015171,-0.647919,-46.810444,0.0,34.718057,33.145818,71.577286,49.329217,88.796931,60.560049,97.71442,67.417062,99.264997,0.0,7.076134,-1.506729,1.211163,-14.728717,-10.684364,-27.489177,4.61467,-38.12527,-1.57434,0.0,-60.809792,-59.793665,-126.323028,-58.790468,-135.633242,-51.277141,-42.115411,-41.312964,-42.232095,17.038508,274.81412,-74.19726,-1.228383
62,-0.095741,0.088031,0.008332,0.289536,0.0,-58.37819,-29.730183,-85.290322,-21.543686,-84.413052,-11.428849,-69.800023,-0.399422,-46.435559,0.0,34.749489,32.923615,71.429666,49.185166,88.74579,60.48191,97.663488,67.365908,99.215091,0.0,7.310863,-1.421517,1.478233,-14.542626,-10.391407,-27.199448,5.077423,-37.751038,-1.200508,0.0,-60.681056,-59.802675,-126.493379,-58.805072,-135.718205,-51.262432,-42.422521,-41.235332,-42.278346,17.000227,274.872199,-74.131468,-0.968799
63,-0.08947,-0.014647,0.076149,0.588765,0.0,-58.03426,-29.713795,-85.331875,-21.468613,-84.365124,-11.246659,-69.521325,-0.10595,-45.957688,0.0,35.032886,32.942931,71.644063,49.261453,88.963547,60.552935,97.866005,67.35588,99.202691,0.0,7.608856,-1.172699,1.814529,-14.204499,-9.975941,-26.807751,5.199978,-37.326004,-0.850445,0.0,-60.457988,-59.815975,-126.733353,-58.788127,-136.029822,-51.194204,-42.902426,-41.105069,-42.273041,16.982317,274.829826,-73.983759,-0.40776
64,-0.158616,0.061145,0.152309,0.52783,0.0,-57.731426,-29.579647,-85.271564,-21.269004,-84.212127,-10.943824,-69.174865,0.284478,-45.465442,0.0,35.285248,32.892036,71.711964,49.283127,89.077501,60.599063,97.993581,67.369872,99.202272,0.0,7.835999,-0.9566,2.040093,-13.957683,-9.872257,-26.520504,5.472782,-36.964451,-0.383091,0.0,-60.265327,-59.733983,-126.997324,-58.692433,-136.273662,-51.029213,-43.1836,-40.888813,-42.061558,16.91871,274.854069,-73.736441,0.083168
65,-0.001052,0.044226,0.207928,1.127612,0.0,-57.540997,-29.635872,-85.325913,-21.334763,-84.14058,-10.944397,-68.968621,0.390152,-45.06427,0.0,35.422815,32.575997,71.589315,49.070767,89.097162,60.497792,98.119626,67.340936,99.308889,0.0,8.290603,-0.631325,2.495933,-13.519329,-9.192639,-26.057259,5.773029,-36.569275,-0.015999,0.0,-59.90849,-59.599645,-127.044742,-58.568444,-136.304772,-50.890175,-43.526556,-40.749078,-41.563091,17.054942,274.861146,-73.391229,1.173631
66,0.015335,0.007558,0.527138,1.711641,0.0,-57.866215,-29.968746,-85.655674,-21.662476,-84.207722,-11.21608,-68.915016,0.237442,-45.162827,0.0,35.213271,32.446433,71.358257,48.942092,88.762315,60.465336,98.078192,67.423805,99.50433,0.0,8.999942,-0.303086,3.243187,-13.189396,-8.479168,-25.754483,6.075576,-36.275265,0.346241,0.0,-59.352501,-59.451944,-127.086775,-58.482358,-136.397947,-50.887014,-43.464744,-40.816213,-41.412846,17.269821,274.847879,-72.664547,2.864447
67,0.273514,-0.032876,0.812919,2.465169,0.0,-58.530236,-30.346116,-86.228966,-22.055604,-84.663975,-11.601426,-69.375287,-0.101487,-45.783028,0.0,34.84477,32.260626,70.79418,48.774205,88.166818,60.392805,97.774701,67.476639,99.47117,0.0,9.516518,-0.128334,3.801338,-13.007652,-7.609978,-25.653156,6.460648,-36.191963,0.916649,0.0,-58.74045,-59.204164,-127.035294,-58.257222,-136.113037,-50.703917,-43.279684,-40.64041,-40.86297,17.80461,274.809266,-71.590353,5.323879
68,0.606216,0.084326,0.989342,3.751869,0.0,-59.468216,-30.574608,-86.954269,-22.423164,-85.502037,-12.1241,-70.492836,-0.768036,-47.248867,0.0,33.961727,31.702921,69.372352,48.253291,86.482502,60.039654,96.605679,67.343975,98.805303,0.0,10.104595,0.040157,4.901539,-12.823986,-6.561115,-25.465599,7.091663,-35.939655,1.395229,0.0,-57.996141,-58.850471,-126.758708,-57.966791,-135.893131,-50.55208,-42.31489,-40.643708,-40.879588,18.805927,274.895732,-70.20591,9.077888
69,0.798134,-0.187709,1.99522,5.186639,0.0,-60.170895,-30.829331,-87.908798,-22.879006,-86.937561,-12.785248,-72.205639,-1.660057,-49.417065,0.0,32.985305,31.127247,67.455694,47.700576,84.006125,59.667052,94.764295,67.203443,97.706356,0.0,10.366528,-0.398243,5.086956,-13.291923,-4.801231,-25.987873,7.081123,-36.451343,0.960949,0.0,-56.234272,-58.332069,-125.779377,-57.436516,-134.707146,-50.161471,-40.546987,-40.292255,-39.398986,20.009342,274.682693,-67.805409,14.239197
70,1.20076,-0.430844,2.527851,6.865646,0.0,-61.001999,-31.332402,-89.326493,-23.637406,-88.937394,-13.797043,-74.444882,-2.981461,-52.143963,0.0,31.778849,30.822989,65.383892,47.421167,80.825287,59.492384,92.351088,67.139913,96.052407,0.0,10.503102,-0.699371,5.697407,-13.724327,-3.80357,-26.511451,7.315911,-36.73621,1.307121,0.0,-53.528709,-58.121668,-125.092558,-57.068082,-133.281176,-49.658095,-38.086456,-39.3891,-36.885985,21.678692,274.221832,-64.808968,21.074826
71,1.638107,-0.468698,2.976723,8.81568,0.0,-62.176701,-31.750923,-91.033344,-24.28553,-91.140461,-14.717766,-76.950039,-4.281303,-54.965458,0.0,30.53091,30.401358,63.214353,47.206201,78.091176,59.428016,90.051897,67.186177,94.434201,0.0,10.899284,-0.795101,6.975929,-14.056835,-1.95924,-26.876106,7.219356,-36.781036,1.46505,0.0,-49.932742,-57.327094,-123.215426,-55.999256,-130.344492,-48.382726,-33.865698,-37.436385,-32.734437,23.754175,273.688481,-61.394869,29.825853
72,1.358047,-0.510837,3.16087,10.450887,0.0,-63.099563,-32.126106,-92.39986,-24.915161,-93.023952,-15.628395,-79.20639,-5.549148,-57.514034,0.0,29.361419,30.078107,61.530828,47.071882,75.706635,59.44932,88.062806,67.324177,92.959441,0.0,11.841396,-0.782788,8.504493,-14.310128,-0.258225,-27.154644,6.830944,-36.677021,1.196285,0.0,-46.302534,-56.724447,-121.982697,-55.168158,-128.548087,-47.325497,-29.669733,-35.81351,-28.46807,25.495496,273.05691,-57.850725,40.156006
73,1.253357,-0.342641,3.159095,14.429055,0.0,-63.744392,-32.786739,-93.405647,-25.730712,-94.292495,-16.625038,-80.599651,-6.772956,-58.918418,0.0,28.581364,30.027781,60.20785,47.18291,74.094394,59.599843,86.786722,67.432451,92.137531,0.0,14.368235,-0.607469,12.248904,-14.041677,2.88901,-26.160736,7.055872,-34.545501,2.367817,0.0,-41.750985,-55.305775,-117.739847,-53.16176,-116.841712,-44.602539,-24.14041,-32.014489,-21.404502,26.824087,272.492709,-54.616396,54.363501
74,1.265213,-0.162835,2.488804,18.590999,0.0,-64.406696,-33.366806,-94.273841,-26.470161,-95.044487,-17.518089,-81.304573,-7.739433,-59.262325,0.0,28.015927,30.012812,59.612341,47.344324,73.607306,59.785526,86.428618,67.506933,91.736869,0.0,18.877676,0.376402,19.423136,-12.540212,7.143626,-23.092907,8.410269,-29.582714,5.300388,0.0,-36.918713,-53.318906,-110.935149,-50.266413,-96.338192,-40.541097,-17.693074,-26.518381,-13.526354,28.009929,272.126418,-52.206963,72.751044
75,0.978562,0.126415,0.262699,16.255944,0.0,-64.661762,-33.599659,-94.562954,-26.737107,-95.174893,-17.842987,-81.392246,-8.044647,-58.910122,0.0,27.79512,29.932895,59.27937,47.354205,73.828286,59.795764,86.534508,67.4531,91.773759,0.0,26.26747,3.447413,31.136668,-8.572523,19.883692,-17.320964,15.054846,-21.97483,11.43663,0.0,-27.2598,-47.889038,-92.950354,-42.434701,-72.572953,-30.545533,-7.298158,-14.772001,-0.021576,28.674671,272.040523,-52.258084,88.794678
76,0.695114,0.271455,0.752484,18.875224,0.0,-64.464237,-33.940785,-94.479801,-27.160469,-95.161263,-18.328674,-81.392281,-8.472153,-58.526161,0.0,27.854042,29.880703,59.248606,47.324898,74.006016,59.727184,86.815633,67.276814,91.740784,0.0,36.969537,7.809637,42.120008,-1.651732,29.378076,-8.214569,21.116438,-11.557457,16.578037,0.0,-18.139542,-41.185351,-69.476645,-32.699391,-46.201637,-18.891557,1.576562,-2.336191,11.233412,28.862423,272.087024,-52.012962,107.444948
77,0.79232,0.47386,1.04096,21.757066,0.0,-64.030426,-34.176624,-94.435421,-27.462181,-95.160015,-18.675476,-81.213947,-8.826393,-57.949962,0.0,27.869912,29.771652,58.981462,47.24729,74.04981,59.644402,86.724625,67.146904,91.537601,0.0,47.321525,12.820261,54.276649,5.180117,40.010239,0.122915,27.534279,-2.596115,22.030483,0.0,-6.143882,-32.387011,-41.574475,-20.683927,-16.011447,-4.823732,12.945739,12.712594,23.670013,29.066471,272.359451,-51.560274,129.000581
78,0.594704,0.315137,1.467876,21.617698,0.0,-63.778576,-33.852745,-94.400368,-27.256851,-95.240639,-18.581886,-81.187374,-8.83255,-57.734196,0.0,27.712251,29.534654,58.842783,46.991162,74.165246,59.452482,86.706026,67.018253,91.369578,0.0,56.291399,18.363957,65.414984,11.378094,50.186457,6.306582,33.72357,2.837345,26.661965,0.0,7.541177,-22.439717,-13.09176,-7.750399,7.256094,9.85549,24.745941,28.020108,35.204676,29.18664,272.578511,-50.566933,150.522202
79,-0.957367,2.500707,1.231499,20.130437,0.0,-61.23341,-32.514633,-93.107094,-26.308662,-94.173935,-17.936119,-80.443005,-8.317726,-56.655109,0.0,26.288224,27.320518,56.304828,44.138601,71.603801,56.584459,83.737782,64.558586,88.901413,0.0,62.176603,23.05093,74.923937,16.309445,64.56978,10.540609,47.022715,5.561646,34.334004,0.0,17.188523,-11.725952,12.67179,4.194743,23.580364,22.006464,37.008356,39.651699,44.974146,27.858805,275.006121,-49.705902,170.579542
80,-2.042152,5.431529,10.35442,29.520655,0.0,-59.914628,-31.014565,-90.982064,-25.136101,-91.61467,-17.034348,-77.45216,-7.497048,-54.073311,0.0,29.576805,24.125416,50.708969,39.303124,66.370862,50.91955,77.49757,58.751713,82.795199,0.0,56.917207,25.316826,62.797994,17.554836,47.786722,9.514978,30.566797,1.543831,18.508736,0.0,24.086705,-3.170229,32.12806,10.803303,41.082642,26.258393,48.548365,41.308074,52.386746,25.532027,280.426624,-39.636108,200.089171
81,-0.572663,11.699356,5.375988,24.563808,0.0,-59.131988,-29.399437,-89.697521,-23.503006,-86.248604,-15.27539,-70.285045,-5.716026,-47.699375,0.0,31.069251,20.402645,41.10494,28.710817,47.957001,33.905558,53.226435,36.111962,54.331446,0.0,55.692243,27.358509,61.390543,17.146042,46.263983,6.463926,26.979063,-4.342301,12.990097,0.0,29.404156,4.030326,42.41511,17.740936,51.234681,32.816101,58.490737,47.27814,61.457708,24.783651,292.179564,-34.435833,224.706563
82,-0.923332,12.007331,2.802561,21.171629,0.0,-58.602459,-31.978306,-73.048954,-27.047939,-66.688488,-19.344109,-52.853313,-10.027107,-37.470451,0.0,32.13857,14.653397,32.845192,16.16564,35.175912,15.343965,34.926181,12.618153,31.457685,0.0,55.804229,25.791675,60.835258,13.2537,48.387874,1.05122,30.342624,-10.5901,14.047336,0.0,31.117057,8.897147,48.981698,22.026866,58.936729,36.255568,65.644775,49.552927,67.930294,23.733376,304.273037,-31.760215,245.964334
83,-0.485413,11.388221,-1.071373,16.781823,0.0,-54.325412,-34.571411,-56.459919,-30.871593,-47.586307,-23.903297,-36.070884,-14.906685,-27.84716,0.0,34.834877,10.18552,27.437313,5.161099,24.482136,-1.561298,18.225041,-9.402698,9.732927,0.0,55.74321,24.158294,61.284004,11.606403,52.730129,-0.33997,36.819523,-11.607846,18.754841,0.0,28.167079,13.621893,52.073504,26.569856,64.790755,39.672182,71.837909,51.255768,74.251968,23.178989,315.738394,-32.900562,262.823293
84,-0.689415,4.01282,-1.159802,13.880158,0.0,-48.6916,-37.481203,-37.786331,-35.968259,-27.148441,-30.564439,-18.778381,-22.846985,-18.955398,0.0,37.011504,9.294215,27.41181,2.04513,22.403222,-7.045445,12.839133,-17.182991,1.105647,0.0,57.487896,23.104935,60.761616,10.656635,51.236595,-1.122734,35.303536,-12.021732,19.282311,0.0,27.561222,18.017165,55.046084,31.881071,67.512985,44.421678,75.52746,54.518538,80.069821,22.425939,319.827043,-34.123999,276.77928
85,-1.528221,-4.236795,-8.717937,5.047281,0.0,-38.115944,-39.603647,-16.507576,-41.654817,-5.792438,-38.927038,-2.435886,-33.533661,-11.249004,0.0,32.735931,11.007431,33.542688,6.253569,29.060571,-0.889694,19.344984,-9.62395,6.970269,0.0,66.671631,22.189968,76.835243,10.68473,72.54998,0.417755,58.148643,-8.670307,39.239273,0.0,23.840217,21.371336,53.148259,37.691711,65.425007,50.946264,75.09254,60.785451,81.323823,20.894491,315.633788,-42.845163,281.870101
86,-7.071281,-6.97256,-4.687271,4.999808,0.0,-22.42598,-39.352003,8.670513,-44.528246,17.013359,-44.027979,14.197311,-40.193676,-2.452389,0.0,30.167324,10.794626,39.560673,13.686145,43.901381,14.092463,39.168447,12.273314,30.861133,0.0,67.59526,20.256088,81.983184,9.554351,80.89096,0.583339,68.793731,-6.623177,49.782486,0.0,20.954879,24.71207,53.817781,41.135926,66.553346,53.236759,76.171862,61.302944,81.481348,13.895525,308.684514,-47.460119,286.893195
87,-7.857914,-4.429147,-3.008561,2.775162,0.0,-6.208431,-31.330771,18.362137,-38.420878,25.117138,-40.032709,19.283672,-38.245777,1.748153,0.0,24.237604,11.902355,41.300503,21.523458,49.644824,28.540108,50.12192,32.567414,46.643698,0.0,67.088997,21.66663,85.255692,12.512227,84.691773,4.422924,72.481934,-2.380279,53.695816,0.0,18.829701,28.562703,54.440262,45.299892,67.475009,56.648976,77.821636,63.480733,82.85343,6.154558,304.269159,-50.351733,289.682149
88,-9.33094,-2.060179,0.12806,1.547231,0.0,6.982692,-21.730254,31.349327,-30.114905,36.214382,-33.631159,28.252819,-33.945443,7.593223,0.0,12.689166,11.390703,39.767883,27.021159,52.501139,39.919511,57.592028,49.486928,59.666193,0.0,66.339706,22.532604,85.863121,13.474251,85.111656,5.228473,72.768333,-1.802101,53.776039,0.0,18.4097,30.825126,54.477078,47.320057,67.047856,57.982229,77.772075,64.009736,82.812996,-3.064029,302.226888,-50.11132,291.247288
89,-0.642517,-4.907485,0.24123,0.376677,0.0,9.809841,-21.815403,33.636051,-31.016762,37.619899,-35.29612,28.384723,-36.397213,7.448604,0.0,11.754969,12.748151,42.609168,31.679456,57.89794,47.822866,65.057468,60.589171,69.484022,0.0,65.388851,23.417862,86.613842,14.382751,85.390217,5.957508,73.08498,-1.25988,53.720363,0.0,18.425064,31.629401,54.123829,48.250648,66.993084,58.831569,77.707521,64.555153,82.681949,-3.575099,297.353857,-49.738643,291.658419
90,-2.606141,4.023657,0.216694,-0.604129,0.0,13.427456,-19.087932,34.413586,-27.192386,40.327023,-30.748409,31.35822,-31.2453,10.771351,0.0,11.626714,10.451751,37.770554,28.626985,52.193474,44.230202,59.170282,56.677813,63.847049,0.0,64.993675,24.290233,87.219795,15.344055,85.86882,6.740638,73.679123,-0.770817,54.044471,0.0,18.224906,32.238371,53.874221,49.056726,66.81139,59.725752,77.738607,65.353759,82.802116,-6.067086,301.408204,-49.407795,291.08498
91,-0.342613,-1.655355,0.201061,-0.879992,0.0,13.258083,-16.178501,35.871929,-24.386661,40.853634,-29.146728,30.895809,-31.558525,10.155338,0.0,8.905792,10.856611,38.440421,29.111145,53.746718,44.798417,60.395496,57.450496,64.997458,0.0,64.64114,24.956703,87.827511,16.075802,86.290867,7.360897,74.337604,-0.327404,54.499065,0.0,18.172145,32.26454,53.319652,49.2308,66.676563,60.038147,77.642572,65.778379,82.905707,-6.317076,299.790035,-49.114111,290.242174
92,-1.405598,-4.198374,0.159908,-1.1853,0.0,15.611664,-17.134346,37.739663,-25.326026,43.868203,-29.481834,34.518837,-31.174861,13.925744,0.0,12.156409,11.487936,41.154698,31.108882,57.769425,47.681161,63.51882,61.084323,67.922798,0.0,64.228272,25.046997,87.786324,16.191399,86.526146,7.419411,74.68982,-0.390838,54.655609,0.0,17.660643,32.199963,53.141899,49.320981,66.665115,60.268464,77.679499,66.16038,83.373776,-7.63591,295.630082,-48.867439,289.095295
93,-0.552463,-5.172251,-0.117645,-1.160611,0.0,16.734867,-18.63184,36.766331,-27.037216,43.847042,-30.81855,34.487286,-32.074116,16.263554,0.0,18.481873,13.119097,44.132846,33.915512,62.289863,51.250112,68.192993,65.186575,72.378139,0.0,64.365807,25.234634,88.176681,16.340778,86.936966,7.477615,75.170769,-0.426968,55.062515,0.0,16.460005,32.017811,53.314602,49.277483,66.885774,60.43887,77.933688,66.513703,83.909621,-8.101644,290.490892,-48.898355,287.967745
94,-8.499046,3.881655,-0.230999,-0.993268,0.0,26.805873,-10.096974,45.998119,-18.053948,53.514324,-21.775383,43.355472,-22.989979,23.511623,0.0,14.47489,9.750242,39.373619,30.444781,57.35771,47.89178,63.958286,61.957153,69.350418,0.0,64.411182,25.497631,88.332973,16.627842,87.402592,7.721672,75.702244,-0.280495,55.592983,0.0,15.259071,31.904623,53.475758,49.221106,67.158254,60.492359,78.219556,66.732608,84.141816,-16.503038,294.383242,-49.031702,286.985172
95,4.951423,0.34432,-0.362457,-0.473131,0.0,13.76334,-16.692867,41.214329,-24.287876,47.782002,-27.166534,38.249554,-27.434681,19.13863,0.0,16.805227,9.428856,40.992332,29.050766,57.057653,45.5495,62.600901,58.93657,67.091317,0.0,64.679226,25.70692,88.367946,16.794548,87.627033,7.874061,75.935291,-0.123379,56.001217,0.0,14.279955,31.994617,53.433965,49.355091,66.989675,60.651254,78.150778,66.936014,84.245877,-11.437323,294.734898,-49.279867,286.519377
96,5.52649,2.024167,-0.349881,-0.333798,0.0,8.606609,-21.716126,34.198963,-28.746426,41.422336,-30.308579,32.849636,-28.732613,14.939357,0.0,20.164992,10.353098,40.801164,28.304906,55.093754,43.219829,60.007889,55.209722,64.613173,0.0,65.334458,25.862481,88.386612,17.052201,87.663048,8.192265,75.971421,0.203511,56.266755,0.0,13.228173,32.01392,53.629491,49.434984,66.686591,60.842211,77.911038,67.187758,84.310147,-5.781761,296.768071,-49.500676,286.194585
97,7.914802,-0.305591,-0.292121,0.221585,0.0,-1.601612,-28.368267,27.319576,-35.531238,33.07671,-37.24831,24.751293,-35.758495,6.303898,0.0,17.832716,11.963994,42.10684,28.963944,55.250206,43.015016,60.08015,54.289567,64.562847,0.0,66.212219,25.887645,88.325363,17.22528,87.516288,8.523124,75.774444,0.705482,56.54132,0.0,12.512906,31.852418,53.3817,49.251585,65.866682,60.670854,77.108419,67.02612,83.732558,2.274118,296.500766,-49.65172,286.454456
98,3.734287,2.477723,0.12648,0.457336,0.0,-3.767028,-31.101047,23.008095,-38.356086,29.522782,-39.966453,20.738777,-38.17987,2.095665,0.0,14.32533,11.127696,39.775157,27.620181,52.096958,41.347557,57.527647,52.374489,61.56111,0.0,66.556801,25.635635,87.711227,17.123851,86.881462,8.581592,75.020988,0.924831,56.242401,0.0,12.774715,31.409977,52.93864,48.871202,65.14146,60.341947,76.275578,66.733201,83.042053,6.157396,299.032171,-49.376249,286.965474
99,3.865471,4.037279,0.020004,0.273505,0.0,-7.505813,-33.470592,17.97226,-40.765594,24.15905,-42.229111,15.985771,-40.387859,-1.529091,0.0,8.459263,10.541265,36.692848,26.160315,47.897819,38.940674,53.421973,49.076572,56.45813,0.0,67.106735,25.354568,87.368134,16.958919,86.349472,8.588928,74.447662,1.118008,56.074379,0.0,12.992533,31.13578,52.423815,48.662782,64.116564,60.204132,75.396561,66.613923,82.564166,10.169231,303.144598,-49.209881,287.314127
100,-8.394699,2.562235,0.103683,0.281223,0.0,9.350144,-21.505279,29.164375,-29.025272,33.755791,-31.656509,24.627251,-31.30402,5.94072,0.0,-1.818612,10.257447,32.487719,26.384963,45.328532,39.470147,52.01993,49.67129,56.494624,0.0,67.323533,25.061165,87.10167,16.731091,85.842751,8.455605,73.754586,1.106129,55.732316,0.0,12.78483,30.808096,52.109012,48.358835,63.581263,59.956266,74.887022,66.406949,82.053182,1.920061,305.827564,-48.960669,287.716081
101,-0.556549,-1.656146,-0.053924,-0.025009,0.0,8.371742,-22.618481,30.454102,-30.744942,34.50293,-33.815609,24.841576,-33.918079,5.061241,0.0,-7.288426,9.734841,32.341852,27.478785,46.029745,41.960306,53.549846,53.378217,58.015524,0.0,67.361183,24.875221,86.811813,16.44714,85.304535,8.163872,73.034477,0.844849,55.25386,0.0,12.905688,30.665823,52.062613,48.231555,63.38539,59.806707,74.748417,66.256155,81.917887,1.53915,304.299846,-48.838955,287.8195
102,-5.405205,3.527529,0.029938,-0.07,0.0,16.767655,-17.476364,34.622406,-25.402862,40.571411,-28.229965,30.370674,-28.189544,10.741928,0.0,-9.30449,7.105657,27.051954,24.885268,41.749466,39.546804,50.476059,51.100368,54.868514,0.0,67.158325,24.640548,86.835136,16.128318,85.038299,7.8437,72.662841,0.642665,55.101814,0.0,13.142316,30.473001,52.14437,48.179821,63.559415,59.831679,74.890122,66.238469,81.770983,-3.670779,307.934441,-48.613741,287.856566
103,-5.429294,-0.714181,-0.41494,-0.223425,0.0,22.173008,-12.119465,42.063915,-19.560379,46.472294,-22.624741,36.592449,-23.070591,16.687534,0.0,-9.509847,7.442506,27.59726,25.49493,43.005988,40.178845,51.347086,51.60561,55.60942,0.0,67.258415,24.656536,87.185486,16.009598,84.965904,7.709976,72.551216,0.588855,55.206299,0.0,13.149194,30.643172,52.505412,48.434751,63.621363,60.054684,75.019526,66.355646,81.836005,-8.864971,307.32657,-48.793579,287.739451
104,-3.329579,-5.413979,-0.340107,-0.143434,0.0,23.629029,-9.112541,46.035942,-16.601223,49.202889,-20.736133,39.553505,-22.951549,19.965546,0.0,-6.867264,8.284595,28.904058,27.830342,45.73953,43.914694,54.915543,56.593116,59.74482,0.0,67.106174,24.711193,87.289066,15.901645,84.886997,7.482685,72.324657,0.317219,55.082943,0.0,13.181688,30.703169,52.87337,48.511395,63.67821,60.107975,75.080486,66.369083,81.930891,-11.929573,302.01769,-48.868709,287.701116
105,1.05811,-4.763242,-0.282715,-0.28236,0.0,21.095707,-11.370758,43.808361,-19.569432,47.12598,-24.702393,37.269802,-28.285836,17.781635,0.0,-4.672061,8.773696,31.157492,29.64042,48.565575,47.140166,58.800261,61.180345,63.552116,0.0,67.057011,24.603344,87.517147,15.710335,85.031101,7.281132,72.428249,0.196941,55.228626,0.0,13.445399,30.775862,53.20229,48.68405,63.937747,60.323916,75.272925,66.551889,82.094024,-10.613067,297.320113,-48.893028,287.484421
106,-6.121754,-0.132899,-0.432335,-0.148238,0.0,28.318725,-4.806416,50.314957,-12.833977,52.791916,-18.855194,43.44651,-23.90411,23.688812,0.0,-5.552017,7.753567,29.635418,28.646843,47.559253,46.525724,58.605537,61.097401,63.554178,0.0,67.176373,24.588329,87.714649,15.604408,85.204067,7.14148,72.602383,0.106567,55.49715,0.0,13.547287,30.736675,53.350145,48.745639,63.780605,60.451702,75.077213,66.69063,82.037571,-16.502403,297.242432,-49.092945,287.391401
107,-3.892719,-3.436003,-0.373695,-0.151548,0.0,31.328533,-0.157986,56.10989,-8.407162,55.757434,-15.955113,46.637889,-23.262543,26.491985,0.0,-6.30326,8.249287,32.045981,29.652708,50.092404,48.162827,61.18463,63.497418,66.560571,0.0,67.278042,24.735843,87.741085,15.669845,85.178272,7.11755,72.466518,-0.039643,55.362384,0.0,13.548979,30.900017,53.344662,48.894409,63.548214,60.565199,74.820739,66.810117,82.095716,-20.171012,293.855962,-49.24253,287.289386
108,0.947971,-2.653218,-0.14621,-0.079374,0.0,28.562004,-1.160397,55.191261,-10.321152,54.006821,-19.096458,44.560661,-28.102009,24.003227,0.0,-6.50795,7.728843,32.991146,29.631109,50.794444,49.074362,62.675125,65.626399,68.552047,0.0,67.237484,24.706261,87.675968,15.623817,85.203472,7.027073,72.327724,-0.182682,55.234417,0.0,13.660562,30.870464,53.229498,48.838759,63.508928,60.535041,74.694225,66.832508,82.027358,-19.033258,291.239084,-49.198957,287.246352
109,3.61916,-0.777153,-0.055378,-0.127329,0.0,23.950046,-5.461556,51.443378,-15.016137,50.848171,-23.851101,40.927196,-32.568741,19.880024,0.0,-5.009576,8.458991,35.467189,30.214019,53.049569,49.491547,64.396281,66.002792,69.922017,0.0,67.01326,24.663048,87.886414,15.527264,85.406456,6.914795,72.377701,-0.293392,55.137772,0.0,13.927645,30.925137,53.044592,48.955813,63.588796,60.651872,74.665103,66.921626,81.962124,-15.26025,290.472802,-49.100487,287.129894
110,-0.759682,2.108431,-0.112312,-0.129688,0.0,25.709072,-7.260269,49.475773,-16.319298,51.716869,-23.666851,42.071949,-30.214428,21.838177,0.0,-2.714067,6.697449,34.508995,28.625008,51.805038,47.835388,62.357011,64.201853,67.63409,0.0,66.745399,24.773803,87.921341,15.602771,85.43193,6.943542,72.280861,-0.37967,54.962379,0.0,14.190973,30.961137,52.769271,48.991863,63.484474,60.657503,74.600228,66.955292,82.095567,-15.870043,292.568821,-49.06291,286.987794
111,-5.603188,1.585404,0.025634,-0.002952,0.0,32.387478,-3.134536,54.952938,-11.308124,58.107022,-17.539947,48.563588,-22.580474,29.118885,0.0,-1.557049,7.315584,34.069716,29.177119,52.022129,47.637948,61.67031,62.771789,66.752665,0.0,66.326844,24.564858,87.989891,15.476487,85.637261,6.92799,72.382027,-0.316532,54.871102,0.0,14.482793,31.094062,52.388469,49.069693,63.572,60.659208,74.612208,66.893604,82.023801,-21.337298,294.12222,-48.901343,286.952837
112,7.173695,-0.360733,-0.008892,-0.089007,0.0,22.963348,-11.286381,47.337685,-19.855408,50.995605,-25.336441,41.298798,-29.020649,21.716652,0.0,-0.48006,8.578157,36.00396,30.458959,53.324037,48.614926,62.561256,63.343214,67.376998,0.0,65.943501,24.485276,88.044606,15.424279,85.8391,6.931916,72.673474,-0.254722,54.948155,0.0,14.954604,31.253649,52.135552,49.201345,63.693574,60.760862,74.786591,66.970705,82.134371,-14.058163,293.72037,-48.804795,286.822713
113,2.123589,2.934713,0.02092,-0.003223,0.0,21.858558,-15.291298,42.499214,-23.151123,49.767608,-26.93256,40.756736,-28.155453,21.21286,0.0,0.048585,7.859308,33.730977,29.202437,51.403389,46.778012,59.954796,60.883498,64.621485,0.0,65.615032,24.408348,88.057308,15.376648,86.185444,6.930874,73.039089,-0.261474,54.973286,0.0,15.263973,31.309756,51.85597,49.264565,63.55198,60.819154,74.642625,67.045015,82.250437,-11.855283,296.611889,-48.704584,286.776296
114,-6.630879,1.953696,0.012669,-0.062023,0.0,30.367985,-10.121509,48.965893,-16.803085,57.335049,-19.263508,49.059391,-18.788601,30.350681,0.0,0.661952,7.987478,32.306186,29.166461,50.694545,46.099758,58.293945,59.245087,62.73648,0.0,65.354828,24.166706,88.016235,15.206154,86.228302,6.876411,73.272651,-0.217381,55.07959,0.0,15.61437,31.372112,51.752465,49.315905,63.476114,60.847634,74.582136,67.037742,82.320426,-18.41387,298.533175,-48.619623,286.681863
115,5.603634,-2.609115,0.089767,-0.026626,0.0,21.17704,-15.36882,45.582642,-22.52607,51.602669,-25.441624,43.291626,-25.513344,24.168938,0.0,2.059808,10.6382,35.517157,31.275274,53.785906,47.675912,60.921968,60.361373,65.28461,0.0,65.202805,24.002346,87.925987,15.076504,86.195549,6.809086,73.363678,-0.196312,55.058098,0.0,15.856233,31.406123,51.769779,49.311297,63.574704,60.815449,74.591002,66.945671,82.253179,-12.738241,295.90414,-48.457861,286.635317
116,6.747894,1.248754,0.14534,-0.046041,0.0,14.28447,-22.136821,36.709809,-29.63039,44.875511,-32.159637,36.743752,-31.593944,17.401291,0.0,1.861046,8.876436,33.758246,29.207241,51.515293,45.85183,58.837398,59.183126,63.136103,0.0,65.143227,23.948673,87.772614,15.012795,86.03318,6.740685,73.366562,-0.250774,55.065056,0.0,16.022058,31.280807,51.697395,49.229849,63.470346,60.769654,74.505959,66.909955,82.252944,-5.935261,297.143838,-48.257435,286.58022
117,-9.725635,2.223682,0.166992,0.113015,0.0,26.234012,-12.732308,46.732807,-18.917828,55.605892,-20.809914,47.722332,-19.6516,29.029506,0.0,2.050126,8.181114,31.482953,28.32311,50.257647,44.507313,56.908698,57.110078,61.069107,0.0,64.935608,23.952084,87.745835,15.017693,85.864243,6.760403,73.284851,-0.209827,55.062813,0.0,16.06805,31.070498,51.434709,49.074707,63.137536,60.631717,74.099013,66.770622,82.040548,-15.600368,299.368971,-48.029915,286.694686
118,5.296234,-3.830786,0.144299,-0.045115,0.0,17.660648,-17.661129,43.177013,-24.296127,49.036182,-26.600636,41.094921,-25.952408,22.725391,0.0,4.371188,10.829306,36.139676,31.279152,54.237709,47.564428,60.784796,60.115224,64.92048,0.0,64.610996,23.858047,87.65665,14.95245,85.565288,6.742527,73.191364,-0.176674,55.014896,0.0,16.187303,30.936426,51.265143,48.9301,63.045602,60.465139,74.116896,66.563437,81.963891,-10.23884,295.533029,-47.820322,286.644415
119,5.788044,1.541698,0.134022,0.091119,0.0,12.249801,-22.795944,35.464554,-29.801537,42.915275,-31.923397,34.845589,-31.109059,16.280365,0.0,3.310513,9.409071,33.432253,29.536963,51.193932,45.997943,58.591038,58.959528,62.874578,0.0,64.628837,23.905575,87.514824,15.095913,85.464019,6.923366,73.160385,-0.003193,55.076523,0.0,16.05344,30.805873,50.954538,48.766277,62.975269,60.290447,74.148536,66.395426,81.825879,-4.387224,297.070784,-47.622728,286.731591
120,-8.509403,2.526407,0.109188,0.063924,0.0,23.562435,-13.098587,44.763141,-19.153553,51.85699,-20.990376,44.270496,-20.058266,26.228222,0.0,0.297612,8.541576,30.505259,28.553761,48.783307,44.747732,56.31766,57.24094,60.911606,0.0,64.591335,23.931885,87.49554,15.22459,85.449566,7.110225,73.226269,0.215263,55.214733,0.0,15.985194,30.662439,50.710883,48.611641,62.87958,60.124376,74.106151,66.216004,81.664648,-12.835161,299.593511,-47.452074,286.791835
121,2.893512,-3.937713,-0.10072,0.114214,0.0,18.960389,-15.740272,43.708855,-22.684799,47.979081,-25.388603,39.739724,-25.456443,21.268639,0.0,1.880621,11.407574,34.569462,31.854185,52.512489,48.187477,60.210023,60.736149,65.02369,0.0,64.606613,24.065232,87.434624,15.529873,85.703247,7.535786,73.595467,0.741246,55.530739,0.0,15.817714,30.626364,50.553271,48.578444,62.643002,60.084657,73.82778,66.157959,81.508284,-9.885029,295.651052,-47.496174,286.901303
