takenoko1/special-research/HandMotion_SimilarSearch_自分用/NewProject/handData/test_key/d4_feature_d3/56.csv
frame,vel_0x_L,vel_0y_L,vel_0x_R,vel_0y_R,posFromWrist_0x_L,posFromWrist_1x_L,posFromWrist_2x_L,posFromWrist_3x_L,posFromWrist_4x_L,posFromWrist_5x_L,posFromWrist_6x_L,posFromWrist_7x_L,posFromWrist_8x_L,posFromWrist_9x_L,posFromWrist_0y_L,posFromWrist_1y_L,posFromWrist_2y_L,posFromWrist_3y_L,posFromWrist_4y_L,posFromWrist_5y_L,posFromWrist_6y_L,posFromWrist_7y_L,posFromWrist_8y_L,posFromWrist_9y_L,posFromWrist_0x_R,posFromWrist_1x_R,posFromWrist_2x_R,posFromWrist_3x_R,posFromWrist_4x_R,posFromWrist_5x_R,posFromWrist_6x_R,posFromWrist_7x_R,posFromWrist_8x_R,posFromWrist_9x_R,posFromWrist_0y_R,posFromWrist_1y_R,posFromWrist_2y_R,posFromWrist_3y_R,posFromWrist_4y_R,posFromWrist_5y_R,posFromWrist_6y_R,posFromWrist_7y_R,posFromWrist_8y_R,posFromWrist_9y_R,posFromBody_0x_L,posFromBody_0y_L,posFromBody_0x_R,posFromBody_0y_R
6,-0.249424,1.68129,0.212345,-0.055884,0.0,10.597756,-20.767479,34.020275,-26.274444,40.853016,-26.995617,33.843121,-25.040508,15.42413,0.0,1.601843,8.517383,29.661453,27.372044,45.980987,42.594237,53.88399,54.293321,57.836906,0.0,64.683414,23.211124,85.799389,15.197273,85.063488,7.66381,73.764415,1.278694,56.4081,0.0,15.596339,30.145106,49.366379,47.799858,61.812656,59.252645,73.598797,65.362626,81.08743,-6.090197,300.26407,-50.687021,285.469672
7,6.263295,4.812111,-0.138165,-0.074076,0.0,4.232471,-26.03468,26.624107,-31.912823,34.750442,-32.120923,27.269508,-29.416226,8.622093,0.0,-3.37345,5.782173,25.537031,23.781109,41.33086,38.515041,49.17872,50.159983,52.928847,0.0,64.733528,23.598484,85.964424,15.544087,85.031845,7.964985,73.701965,1.546543,56.452309,0.0,15.445828,30.269163,49.596968,47.91154,62.064104,59.330957,73.865645,65.406098,81.133249,0.227755,305.001145,-50.770529,285.32056
8,-5.920739,4.682349,0.088772,-0.159662,0.0,14.90831,-18.879924,33.934639,-24.721332,41.129563,-25.175846,33.611183,-22.54953,14.715271,0.0,-13.043577,4.235473,20.792784,21.730068,37.044467,36.011234,45.195052,47.179698,49.592855,0.0,64.620174,23.56905,85.9548,15.46138,84.924534,7.869633,73.527729,1.495594,56.500957,0.0,15.553632,30.045491,50.011597,47.804996,62.391135,59.287658,74.016564,65.36974,80.962213,-5.642195,309.632167,-50.630968,285.109571
9,-2.5639,3.42122,0.096943,-0.086277,0.0,17.198765,-15.923847,37.442219,-22.143585,43.64217,-22.911209,36.298634,-20.632702,17.058804,0.0,-17.334601,2.654267,17.992279,19.28306,33.866321,32.983575,41.693791,43.846991,46.533665,0.0,64.522545,23.477245,85.930366,15.355236,84.851417,7.77919,73.409134,1.439976,56.474007,0.0,15.56035,29.976095,50.336984,47.77023,62.692921,59.275233,74.162356,65.369714,80.879862,-8.16116,313.014611,-50.48909,284.984518
10,-2.264362,0.329129,-0.017212,-0.101073,0.0,18.611481,-12.882568,41.377304,-19.1143,45.891106,-20.364784,38.50415,-18.520569,18.421875,0.0,-18.646512,3.53305,18.929799,19.765319,34.198725,33.04519,41.520792,43.428855,46.780729,0.0,64.515083,23.443645,86.064033,15.345921,84.983345,7.821899,73.60318,1.544392,56.587875,0.0,15.439665,30.089296,50.531399,47.817012,62.842221,59.263216,74.210521,65.293354,80.866845,-10.388918,313.301083,-50.469698,284.840788
11,5.846054,-0.28462,0.083073,-0.127799,0.0,5.795036,-19.959526,34.086617,-26.233486,39.355133,-27.371246,32.733902,-25.373669,12.728462,0.0,-8.685887,4.203734,22.989654,17.486445,34.954031,28.283998,39.969795,36.720475,43.205084,0.0,64.484745,23.487133,86.156215,15.44767,85.110134,7.939602,73.783939,1.635109,56.666278,0.0,15.400565,30.246488,50.660408,47.934844,63.022162,59.365031,74.279706,65.389524,80.897276,-4.511158,312.983491,-50.354919,284.680017
12,3.208637,-4.543249,0.140785,-0.047733,0.0,2.48592,-22.768902,30.573841,-28.799205,35.591801,-29.846981,28.923329,-27.671058,9.23077,0.0,-2.348603,6.154836,26.892057,20.233164,39.112661,31.550064,43.981249,40.176967,47.433603,0.0,64.563,23.44741,86.19881,15.446823,85.296467,7.97176,73.94363,1.681297,56.677357,0.0,15.398848,30.167237,50.476923,47.851296,62.744939,59.333624,73.927037,65.421671,80.928805,-1.276377,308.408787,-50.18799,284.600829
13,3.889046,-0.506798,-0.035706,-0.113226,0.0,-0.990292,-26.610031,25.538715,-32.710453,30.796932,-33.615807,24.14867,-31.266872,-4.345013,0.0,-0.719862,5.18554,27.350628,19.401522,38.826745,30.866054,44.198413,39.782764,47.267198,0.0,64.715344,23.385922,86.536274,15.370354,85.452198,7.952042,74.243603,1.724797,56.91956,0.0,15.483953,30.198372,50.053983,47.95311,62.298583,59.465116,73.571108,65.531131,80.941996,2.634167,307.875828,-50.202198,284.461442
14,0.612396,0.555259,0.162689,-0.134875,0.0,-2.616291,-26.935558,26.238156,-33.239959,30.51891,-34.285068,23.501141,-31.903667,-5.707683,0.0,-1.238861,4.727563,26.621258,18.604276,37.976393,29.941602,43.703694,38.819656,46.603469,0.0,64.604954,23.313229,86.536023,15.253785,85.458951,7.850316,74.338315,1.644814,56.873166,0.0,15.706279,30.371619,49.775735,48.149674,62.132832,59.681983,73.458142,65.748529,81.005179,3.265354,308.407316,-50.020718,284.302796
15,0.926182,0.798236,0.238621,-0.208667,0.0,-3.210915,-27.372494,25.909882,-33.916294,29.379318,-35.265884,22.001701,-33.180977,-9.177063,0.0,-1.906952,3.909616,25.894022,17.515726,37.125792,28.80695,43.04531,37.876887,45.455614,0.0,64.482193,23.112053,86.387787,15.020897,85.422364,7.637409,74.317383,1.461422,56.699295,0.0,15.970682,30.556599,49.658162,48.390105,62.151024,59.961626,73.504294,66.04272,81.190059,4.205481,309.19427,-49.768152,284.082847
16,-4.220089,2.051571,0.296128,-0.23233,0.0,7.445332,-20.079288,33.319805,-27.195522,34.551533,-29.337295,25.365017,-27.924728,-11.104843,0.0,-14.246302,2.449601,21.044503,18.421012,34.788885,31.845885,42.724208,42.600201,47.360553,0.0,64.21939,22.860523,86.175109,14.725387,85.272285,7.370098,74.141738,1.278087,56.364349,0.0,16.270703,30.814185,49.716097,48.64406,62.311365,60.169281,73.695622,66.182906,81.396429,-0.007605,311.232858,-49.465021,283.837534
17,-3.672695,4.049221,0.24131,-0.110829,0.0,9.882523,-15.32555,39.26326,-22.79599,38.564438,-25.536896,29.046272,-24.682766,-10.653751,0.0,-20.919125,1.538104,18.38437,16.515432,31.063409,29.201881,38.587931,39.297555,43.949794,0.0,64.065857,22.558708,85.911667,14.446872,85.256836,7.18705,74.269455,1.236637,56.346244,0.0,16.450803,30.95206,49.645367,48.810687,62.236634,60.342737,73.680814,66.316484,81.411162,-3.67959,315.26712,-49.223001,283.711746
18,-2.401337,1.130527,0.199608,0.017191,0.0,12.136734,-12.434967,42.904541,-19.948894,41.660202,-22.851791,32.175705,-22.320018,-0.642837,0.0,-22.898362,1.663333,16.610774,16.439664,30.143389,29.117159,37.49711,39.122937,42.837545,0.0,63.935852,22.541873,85.767746,14.504322,85.349418,7.29047,74.344413,1.379985,56.268493,0.0,16.389016,31.110438,49.381076,48.921418,62.19152,60.430213,73.610665,66.398711,81.415658,-6.090975,316.394875,-49.033441,283.726165
19,-2.08699,-2.355099,0.072876,0.139815,0.0,15.926147,-10.135071,44.996796,-17.330418,44.096214,-20.330349,35.099281,-20.045929,2.414062,0.0,-20.503385,3.749571,19.626084,18.870111,32.988206,31.489153,39.857816,41.194354,45.374301,0.0,64.039009,22.572509,85.758338,14.619277,85.522155,7.456249,74.478996,1.608547,56.407836,0.0,15.971905,31.034794,49.221525,48.865213,61.886584,60.410231,73.234692,66.4069,81.2434,-8.203285,314.049375,-48.985885,283.875579
20,0.853798,-6.994889,0.066261,0.172148,0.0,14.265816,-12.583866,43.27066,-20.118061,43.515816,-23.531834,34.566536,-23.950676,4.615425,0.0,-12.891535,7.118921,24.680009,23.284104,38.599355,36.672631,45.576583,46.871452,51.108025,0.0,64.214309,22.65493,85.800339,14.733993,85.521766,7.596531,74.505935,1.781673,56.52372,0.0,15.66272,30.746765,49.032433,48.617297,61.611338,60.2346,72.9076,66.291896,80.909008,-7.385839,307.078538,-48.955976,284.071779
21,-2.698403,-5.05668,0.003742,0.038397,0.0,18.988381,-12.465042,43.669945,-19.873638,45.896851,-22.903495,36.824891,-23.050483,12.42223,0.0,-5.16394,8.145102,28.743977,26.142371,43.2861,40.894235,49.99385,52.254866,54.451266,0.0,64.379322,22.314674,85.97739,14.473572,85.863567,7.490616,74.800861,1.887806,56.850895,0.0,15.382743,30.521549,49.243705,48.46029,61.83501,60.164315,72.977032,66.235122,80.62356,-10.136239,302.053372,-49.004231,284.14169
22,-1.223739,-1.731951,0.141815,-0.356053,0.0,22.012161,-12.680672,43.286567,-20.174217,46.899147,-23.267075,37.664154,-23.714287,15.761226,0.0,-1.006729,8.747057,30.452809,27.011668,45.393099,42.00825,52.375712,53.741186,56.105832,0.0,64.226017,22.068833,86.088764,14.13525,86.050678,7.105614,74.574497,1.511078,56.526959,0.0,15.689359,30.46233,50.285768,48.480964,62.90528,60.257731,73.759298,66.380173,80.979712,-11.422903,300.361445,-48.925341,283.825661
23,-1.177506,-1.166403,0.156807,-0.924626,0.0,24.660416,-11.403854,44.895539,-19.378086,48.429108,-23.332775,37.705925,-24.630409,11.236645,0.0,-1.195822,9.178359,34.072741,27.427841,48.356661,42.235429,54.476695,53.739914,56.389537,0.0,63.782925,21.365547,85.388043,13.205647,85.853794,6.092137,73.452519,0.511929,55.130459,0.0,15.998667,29.893535,52.926722,47.901326,65.828755,59.753218,75.431067,66.089897,81.218168,-12.671517,299.2134,-48.839642,282.919393
24,-2.910644,-5.257331,3.332806,-2.591134,0.0,11.116276,-11.923004,29.930843,-15.113697,35.395901,-15.641602,28.53392,-14.81662,8.76091,0.0,8.144397,11.918842,33.774264,29.057249,47.997261,42.963923,53.770813,53.456516,57.084834,0.0,56.88105,22.065731,71.344471,12.609867,68.049682,3.661606,54.158329,-4.15036,37.274391,0.0,22.492958,29.244229,58.758567,44.809619,68.721564,55.171992,74.331898,60.716871,76.733976,-15.719364,293.956906,-45.644039,280.329096
25,0.715908,2.546636,3.728302,-4.398667,0.0,0.325092,-11.588711,9.325287,-11.828236,13.822529,-9.584336,11.494823,-5.918438,-0.351906,0.0,2.720143,9.844979,29.221172,25.746291,43.62054,38.809603,51.167873,48.588435,55.704491,0.0,48.560394,23.670559,55.556316,12.88258,48.159942,2.302963,33.332302,-7.734238,18.866741,0.0,29.655487,31.757854,66.881142,44.329571,73.373124,52.291558,75.340591,56.090134,74.618111,-15.249967,296.489444,-42.162248,275.916331
26,8.952495,-4.317502,-1.171601,-15.025808,0.0,-19.659462,-17.549308,-18.857311,-14.789863,-15.941539,-10.238514,-13.091503,-4.791755,-17.880741,0.0,5.032448,13.265322,33.284435,27.863539,46.917296,39.822902,55.833759,48.470652,60.755649,0.0,42.093384,26.595755,43.211701,16.378144,33.33054,5.640919,18.834074,-5.31847,7.524588,0.0,27.969114,29.604382,65.316609,40.512759,70.833694,47.839112,71.668324,51.962805,70.340697,-6.536311,292.168475,-43.572688,260.887056
27,8.309521,-7.494166,-6.11198,-25.51963,0.0,-38.389366,-23.261536,-46.216759,-17.460754,-44.699089,-10.283844,-36.808948,-2.607204,-33.560669,0.0,12.159916,17.273084,39.130594,32.1031,53.039405,43.880299,62.490021,51.99602,67.92339,0.0,37.640041,30.100782,34.384609,22.564739,23.905769,13.513275,11.282232,3.396801,3.86281,0.0,17.027225,22.82825,53.890424,33.416365,61.0218,41.8615,63.196279,48.252247,63.533294,1.453285,284.888249,-50.004593,235.581366
28,7.499336,-8.708414,-4.063225,-28.550513,0.0,-55.909675,-28.619556,-74.177181,-19.462921,-72.955295,-9.22594,-59.185661,1.052273,-41.017582,0.0,23.546235,22.545656,44.28211,37.827129,58.318287,49.731164,69.397707,57.665412,77.182495,0.0,31.795532,28.406382,22.067871,20.931393,10.507267,11.907875,0.849913,1.68758,-5.140646,0.0,10.695079,10.735655,32.048322,16.145479,30.994403,21.271751,29.939718,26.168707,29.73396,8.389789,276.643488,-54.63065,207.494506
29,11.170567,-2.621972,-8.50843,-36.973189,0.0,-60.017555,-34.231373,-88.032806,-27.218479,-88.862537,-18.064854,-74.879768,-8.065682,-54.266773,0.0,23.318462,23.619026,50.516814,40.331306,64.723262,53.337091,77.317407,62.296286,83.657433,0.0,29.062477,23.975538,20.746891,16.768272,11.384765,8.639351,5.120744,-0.292214,-0.269938,0.0,-8.776203,-5.54468,-7.000267,-1.467146,-8.47052,3.890678,-3.066612,10.443718,5.511119,19.19054,274.583578,-63.508896,171.083379
30,5.78849,-4.92273,-9.47897,-43.985004,0.0,-63.941574,-37.649586,-93.834091,-30.41233,-94.626137,-20.98716,-80.560741,-10.946869,-59.590336,0.0,31.465058,27.444822,57.33012,44.865132,70.810988,58.076028,82.565339,66.948129,88.071883,0.0,25.901917,17.973799,20.496414,10.541279,13.796757,2.529087,11.491201,-5.429294,5.583224,0.0,-29.237782,-25.511126,-48.819826,-21.726894,-49.773314,-14.821315,-23.089825,-5.482497,-11.93113,24.808834,270.289291,-73.158062,127.726818
31,-0.04763,-0.306134,-4.929508,-38.809071,0.0,-62.780033,-36.55489,-93.340611,-29.605694,-94.670666,-20.42878,-80.69022,-10.482971,-59.30016,0.0,32.352276,28.165252,56.96063,45.579189,70.630702,58.728865,82.585495,67.477849,88.475459,0.0,20.755039,11.070305,16.478577,1.523643,10.583279,-8.018898,10.85812,-16.681629,3.700928,0.0,-41.018002,-41.331731,-82.532798,-39.346968,-86.108103,-32.703259,-40.105016,-22.887451,-28.483533,24.345903,270.660272,-78.502871,89.594862
32,-0.667648,-0.008843,-0.605141,-32.903232,0.0,-61.862423,-35.793068,-92.939965,-28.9502,-94.410038,-19.877472,-80.272683,-9.878197,-58.796963,0.0,31.656707,28.23524,56.327405,45.5598,69.924499,58.735103,82.194282,67.561669,88.102326,0.0,15.080292,3.787297,9.884503,-9.525787,2.738274,-22.079166,3.689575,-33.148372,-5.273849,0.0,-44.770691,-51.125426,-103.787919,-52.439296,-113.135764,-48.300413,-54.626316,-40.378983,-44.059876,23.150792,271.237879,-79.635475,57.27808
33,-0.815575,-0.045893,-2.248317,-29.931974,0.0,-61.004894,-35.492374,-92.479958,-28.679535,-93.867634,-19.575256,-79.905808,-9.429314,-58.489632,0.0,31.152404,28.079308,56.180834,45.322555,69.795281,58.487138,82.052639,67.418359,87.865081,0.0,10.660594,2.248821,7.493213,-12.056775,-0.871182,-25.894135,0.669811,-38.182515,-7.167733,0.0,-53.68185,-55.970444,-118.63207,-55.719392,-125.184187,-49.526937,-45.088855,-39.85857,-34.019976,21.927269,271.648784,-82.29174,27.802904
34,-0.953156,-0.151276,0.032032,-20.018089,0.0,-59.913505,-34.914253,-91.663639,-28.15678,-93.320858,-19.022003,-79.478244,-8.750381,-58.09576,0.0,31.030138,27.994364,55.626006,45.154964,69.611499,58.251992,81.771909,67.180385,87.759253,0.0,9.505725,1.723102,7.957363,-12.711834,-0.647438,-26.917363,1.203174,-39.666813,-6.543114,0.0,-54.837959,-56.251883,-119.027253,-55.862318,-126.89831,-49.609731,-32.77211,-40.43039,-28.403602,20.305984,271.981752,-82.927837,8.269059
35,-0.717041,-0.06159,0.504364,-10.444242,0.0,-59.425941,-34.453193,-91.476345,-27.663345,-92.945652,-18.490448,-79.201973,-8.195434,-57.847766,0.0,30.614175,27.884337,55.568171,45.067439,69.638731,58.110312,81.765289,66.966877,87.578374,0.0,10.6165,2.150379,9.278778,-11.880112,0.610164,-25.905556,1.33287,-38.887608,-6.495427,0.0,-55.432931,-55.839193,-119.157275,-55.826849,-128.840181,-50.034914,-35.545427,-41.571872,-31.765023,18.77742,272.382114,-83.234996,-1.713231
36,-0.531784,-0.130145,0.015003,-2.816973,0.0,-58.783527,-34.043369,-91.414959,-27.24155,-92.719471,-18.011169,-79.074634,-7.665207,-57.606228,0.0,30.453525,27.732382,55.4669,44.848472,69.743015,57.811773,81.699401,66.63135,87.367422,0.0,12.351768,3.353187,12.386867,-10.423622,3.226787,-24.361393,2.257793,-37.470646,-5.332203,0.0,-55.729272,-55.3552,-118.844479,-55.722288,-129.774552,-50.132264,-37.544164,-41.781138,-33.227539,17.583343,272.713167,-83.882286,-4.069006
37,0.080475,0.091292,-1.443032,3.863124,0.0,-58.871715,-33.937008,-91.506729,-27.265137,-92.801777,-18.145202,-79.105648,-7.874313,-57.39204,0.0,30.307213,27.90837,55.510644,44.940295,69.644066,57.775353,81.611913,66.423362,87.081999,0.0,12.37817,4.524273,14.903573,-9.357547,5.426938,-23.492145,2.443131,-36.833988,-5.561233,0.0,-55.109131,-56.126481,-122.143377,-56.676097,-132.950857,-50.854898,-37.201937,-42.323535,-33.265546,17.087871,273.095007,-85.901265,0.084666
38,0.304505,0.235862,-5.504825,4.16685,0.0,-58.76603,-33.567959,-91.377102,-27.131939,-92.994633,-18.230782,-79.131535,-8.160187,-57.281125,0.0,30.308695,27.965205,54.960509,44.99755,69.073788,57.768832,81.273558,66.296317,86.716708,0.0,9.971123,4.32399,14.73967,-9.593079,4.697925,-23.537521,0.396732,-37.150486,-8.357998,0.0,-53.868028,-56.672793,-123.174646,-57.088843,-133.33777,-50.917321,-36.383429,-41.748589,-31.531749,16.41956,273.467158,-92.378906,4.387805
39,0.476051,0.206777,-8.266628,2.941005,0.0,-58.928238,-33.504776,-91.756085,-27.158455,-93.384476,-18.35939,-79.303871,-8.375473,-57.196621,0.0,29.966462,28.227991,54.911813,45.260607,68.787761,57.923344,81.322551,66.243175,86.408401,0.0,6.731002,4.013122,12.539325,-10.148507,3.109302,-24.117634,-1.956837,-37.766751,-11.320954,0.0,-53.412019,-57.480463,-124.97375,-57.66803,-134.293394,-50.950851,-34.817358,-40.96003,-29.426016,15.674343,273.489681,-101.866802,7.144556
40,0.271248,0.197256,-9.831768,0.182281,0.0,-58.530499,-33.314175,-91.503433,-27.108914,-93.636509,-18.475228,-79.283386,-8.637909,-56.976597,0.0,29.999437,28.375981,54.26704,45.41213,68.26734,58.025491,81.123393,66.267924,86.099476,0.0,2.332202,2.911033,9.264793,-11.578961,-0.330483,-25.55048,-5.033135,-39.044941,-14.168724,0.0,-53.478061,-58.570371,-126.341645,-58.532233,-135.052751,-51.032837,-34.313475,-39.948299,-28.042764,14.512997,273.262582,-113.131164,6.902482
41,0.431625,0.336725,-9.612854,-3.923862,0.0,-58.400333,-33.271889,-91.336933,-27.190567,-93.811878,-18.700493,-79.141239,-8.965988,-56.693733,0.0,29.881864,28.446006,53.776507,45.516685,67.828974,58.092416,81.063508,66.225452,85.824995,0.0,-1.250897,1.590831,5.992881,-13.202443,-4.177655,-27.140305,-7.455437,-40.498581,-16.704518,0.0,-53.86983,-59.279241,-127.489255,-58.98671,-135.229398,-51.057581,-33.991916,-39.339989,-27.87124,13.382955,273.092411,-124.305685,2.471724
42,0.295578,0.49346,-5.807202,-7.646109,0.0,-58.259479,-33.100319,-91.211025,-27.046989,-93.681038,-18.611183,-79.045727,-8.940971,-56.664482,0.0,29.538445,28.159015,53.304968,45.309698,67.345456,57.93888,80.715396,66.101086,85.506734,0.0,-4.321014,0.178734,2.496037,-14.955597,-7.486667,-28.976887,-9.081276,-42.153477,-17.997104,0.0,-54.609526,-59.664403,-127.76875,-59.19048,-135.469749,-51.047478,-33.738813,-38.905155,-28.368262,12.122063,273.11118,-131.669357,-5.649076
43,0.136986,0.223277,0.717797,-7.105181,0.0,-58.642651,-32.938591,-91.065754,-26.813049,-93.497749,-18.345772,-78.928619,-8.663086,-56.544022,0.0,29.20713,28.318183,53.131351,45.518723,67.436637,58.14809,80.822805,66.278113,85.529211,0.0,-3.369233,0.105548,2.423824,-15.231617,-6.696854,-29.717206,-7.863442,-42.930897,-16.687741,0.0,-55.403365,-59.100517,-126.770786,-58.92861,-134.300243,-51.020432,-34.004452,-39.135083,-28.729046,11.249268,272.905304,-131.961341,-13.18341
44,0.065208,0.301959,3.298667,-4.566196,0.0,-58.565986,-32.750232,-90.641647,-26.637542,-93.302032,-18.220436,-78.970687,-8.61795,-56.757888,0.0,29.133721,28.283455,52.932614,45.522602,67.247162,58.204308,80.602294,66.446296,85.53099,0.0,-0.933391,0.750229,3.926068,-14.413787,-4.927562,-29.05775,-6.268364,-42.449169,-15.057472,0.0,-55.473674,-58.761482,-125.983055,-58.825221,-133.414285,-51.27388,-36.128338,-39.715803,-30.35252,10.773674,272.972352,-129.203476,-17.984517
45,0.295922,0.445826,5.728878,-0.463665,0.0,-58.630783,-32.693802,-90.561241,-26.629761,-93.318123,-18.256691,-79.288513,-8.67096,-57.09549,0.0,28.909344,28.184333,52.880644,45.374091,67.052846,58.036804,80.405989,66.295625,85.520467,0.0,2.486733,2.113598,7.545948,-12.784137,-1.084167,-27.580982,-3.448814,-41.176677,-12.676551,0.0,-55.557272,-58.359,-125.377747,-58.707346,-133.027184,-51.654399,-36.958882,-40.710034,-30.844461,10.817717,273.371692,-123.726477,-18.494668
46,0.292968,0.226859,6.413819,3.774913,0.0,-58.653121,-32.670089,-90.55577,-26.623031,-93.47668,-18.275871,-79.736412,-8.711792,-57.574962,0.0,28.882656,28.197312,52.822858,45.362667,66.825801,58.028097,80.112329,66.350508,85.602212,0.0,5.089588,3.378914,9.891506,-11.321011,2.115463,-26.286301,-1.358071,-40.13728,-10.701267,0.0,-55.222695,-57.872498,-124.314981,-58.388065,-132.883246,-51.65501,-37.172957,-41.134104,-30.473143,11.170452,273.572412,-117.252891,-14.745894
47,0.206429,-0.085722,3.688076,8.046598,0.0,-58.659187,-32.664471,-90.602062,-26.607307,-93.68573,-18.257492,-80.048973,-8.698906,-57.992157,0.0,28.876098,28.310575,53.038503,45.461394,66.958293,58.124242,80.257047,66.484593,85.779399,0.0,8.28812,4.510666,13.217377,-9.947754,5.340122,-24.89106,0.23077,-38.884564,-9.305523,0.0,-54.825418,-57.873653,-124.391552,-58.620395,-133.467708,-52.116977,-37.57294,-41.981401,-30.244358,11.531839,273.464673,-113.409857,-6.721313
48,0.23037,0.083017,-1.078938,8.067512,0.0,-58.293538,-32.730755,-90.664456,-26.655854,-93.839905,-18.286355,-80.292744,-8.723099,-58.250782,0.0,28.960746,28.148567,53.017953,45.303437,66.802658,57.978302,80.126445,66.369318,85.801246,0.0,9.760632,5.604458,15.28933,-8.795826,7.489266,-23.751491,0.703697,-37.997715,-9.292408,0.0,-53.609732,-57.978771,-124.872085,-58.471687,-133.391616,-51.781463,-36.942906,-41.628046,-29.53185,11.841608,273.533525,-114.409396,1.332034
49,0.39331,-0.011362,-4.576389,6.439679,0.0,-58.453789,-32.948456,-90.994297,-26.87384,-93.912964,-18.460441,-80.306625,-8.829323,-58.244728,0.0,28.835145,27.993104,53.16293,45.204018,66.968025,57.93499,80.432023,66.359648,85.83558,0.0,9.520168,6.060825,16.535007,-8.384651,7.853439,-23.234425,0.426144,-37.591827,-9.875599,0.0,-53.532667,-58.183647,-125.552803,-58.71814,-134.679971,-51.912151,-35.657702,-41.676224,-28.68532,12.192661,273.518615,-119.028042,7.768165
50,0.264839,-0.236158,-7.843872,2.187113,0.0,-58.431896,-33.046016,-91.092281,-26.966125,-93.711593,-18.497337,-79.997875,-8.778145,-58.068569,0.0,29.038612,27.959388,53.458097,45.242254,67.231168,58.06012,80.64048,66.565696,85.933281,0.0,6.144138,5.336826,14.298603,-9.274441,5.450889,-24.030933,-2.632908,-38.754467,-13.167046,0.0,-53.926703,-58.412673,-126.467394,-58.799755,-135.842478,-51.90337,-34.933165,-41.462821,-28.787462,12.320188,273.28974,-127.009226,9.962561
51,0.257515,-0.094046,-10.914185,-3.7519,0.0,-58.639171,-33.011764,-91.090816,-26.911903,-93.469951,-18.416816,-79.730827,-8.668854,-57.875324,0.0,29.150381,28.006714,53.830613,45.280157,67.559816,58.087945,80.911169,66.560028,85.816103,0.0,1.932793,4.023583,10.109917,-10.594562,1.565689,-25.210613,-6.296676,-40.027221,-17.010189,0.0,-54.994243,-58.381618,-126.916121,-58.683516,-136.397224,-51.703657,-35.45787,-41.048919,-28.910826,12.222324,273.193697,-138.27879,6.208664
52,0.295235,-0.116215,-11.745414,-9.740225,0.0,-58.67054,-32.952839,-91.11089,-26.840401,-93.329006,-18.298622,-79.546646,-8.488861,-57.617832,0.0,29.434717,28.014964,54.083469,45.241724,67.80031,58.04335,81.129766,66.518372,85.825898,0.0,-2.607148,2.74039,4.777324,-12.06379,-3.671585,-26.732449,-9.488961,-41.744763,-20.306294,0.0,-56.372884,-58.263453,-126.766909,-58.598579,-136.239567,-51.428535,-36.048014,-40.134773,-29.12457,12.104113,273.082505,-150.43765,-3.526538
53,0.085922,0.013054,-10.284668,-12.575892,0.0,-58.731502,-32.741672,-90.784675,-26.631317,-92.970554,-18.093544,-79.089935,-8.259544,-57.132099,0.0,29.447784,28.14737,54.381847,45.256001,68.020018,57.991233,81.352784,66.417694,85.86974,0.0,-6.11578,1.302864,0.647346,-13.6493,-8.02676,-28.226109,-11.891224,-42.995247,-22.145314,0.0,-59.115318,-58.808425,-127.845076,-59.27866,-137.939283,-51.957185,-37.579991,-40.064173,-30.556864,11.800907,273.105819,-161.111446,-16.09217
54,0.150376,0.169715,-6.34536,-14.088412,0.0,-58.744687,-32.44954,-90.565545,-26.281701,-92.545167,-17.760407,-78.569172,-7.996354,-56.653794,0.0,29.46826,28.39342,54.773653,45.445352,68.318729,58.073583,81.412768,66.374468,85.974024,0.0,-9.082329,0.331558,-2.29105,-15.026024,-11.34581,-29.889725,-13.207695,-44.60257,-23.172993,0.0,-61.60641,-59.250304,-128.913791,-59.508057,-138.655946,-51.916455,-38.195668,-39.545439,-31.079723,11.590857,273.276479,-167.817232,-30.179637
55,0.209426,0.292364,-3.809933,-11.875228,0.0,-58.802467,-32.297905,-90.314827,-26.102714,-92.386665,-17.628662,-78.376075,-7.915374,-56.345306,0.0,29.437286,28.640557,54.896091,45.576003,68.452357,58.060096,81.566724,66.22003,86.194176,0.0,-8.592361,0.38538,-2.347126,-15.091701,-12.041851,-30.050033,-12.086151,-44.463444,-22.133366,0.0,-63.034141,-59.738133,-129.282787,-59.899783,-139.162713,-51.938487,-38.816346,-39.169521,-31.339766,11.502267,273.560741,-171.925181,-42.062967
56,0.118309,0.273628,-0.36842,-7.795551,0.0,-58.651542,-32.065281,-90.084549,-25.843437,-92.353923,-17.387809,-78.235988,-7.699333,-56.047451,0.0,29.4042,28.792711,54.715805,45.710273,68.398585,58.109472,81.642233,66.161121,86.349701,0.0,-7.605217,0.802838,-0.301013,-14.868907,-11.145332,-29.921138,-10.938137,-44.180202,-20.715751,0.0,-64.130557,-60.315499,-129.725531,-60.340026,-139.581227,-52.016781,-38.16491,-38.898165,-31.654175,11.452274,273.818089,-172.461903,-49.874798
57,0.18203,0.338145,1.632649,-3.346885,0.0,-58.661133,-32.025879,-89.953514,-25.78656,-92.388119,-17.342605,-78.337154,-7.674751,-56.019344,0.0,29.263842,28.939529,54.453984,45.880557,68.32856,58.215053,81.588374,66.184784,86.357198,0.0,-6.889961,1.216347,1.613754,-14.438839,-10.076397,-29.388062,-9.946461,-43.315235,-19.299362,0.0,-64.598983,-61.149098,-130.504456,-60.86102,-140.604416,-52.123813,-38.058483,-38.858929,-31.40729,11.520023,274.131435,-170.943535,-53.246482
58,0.342499,0.141891,2.273621,-0.571191,0.0,-58.757732,-32.074562,-90.166546,-25.899216,-92.794773,-17.479591,-78.792503,-7.823891,-56.356041,0.0,29.19946,28.925251,54.076293,45.921002,68.209986,58.263576,81.562451,66.241383,86.295385,0.0,-6.659604,1.468357,2.515846,-14.208275,-9.954838,-29.181714,-9.80016,-43.034489,-18.810391,0.0,-64.275621,-61.708236,-130.179125,-61.164845,-140.92219,-51.989172,-37.8439,-38.468426,-30.159586,11.780119,274.208466,-168.752317,-53.882533
59,0.146027,0.023922,0.926445,1.685502,0.0,-58.554039,-32.094189,-90.112542,-26.034508,-93.17418,-17.650475,-79.277848,-7.962548,-56.737828,0.0,29.235362,28.797292,53.630146,45.7657,67.995181,58.118067,81.435628,66.155637,86.1891,0.0,-6.04834,1.647056,2.907714,-13.960465,-10.045922,-28.861931,-10.235367,-42.645836,-18.728245,0.0,-63.557482,-62.108583,-129.427992,-61.41988,-140.741356,-51.910008,-37.859474,-38.154659,-29.276364,11.846827,274.147398,-167.905191,-52.282021
60,0.079467,0.038161,0.786232,1.904253,0.0,-58.519203,-31.934635,-90.172348,-25.926841,-93.355236,-17.540474,-79.471641,-7.856781,-56.979469,0.0,29.107255,28.609818,53.428136,45.637877,67.866976,58.046166,81.316339,66.14325,86.050459,0.0,-5.764012,1.697948,2.516681,-13.962422,-10.616078,-28.934647,-10.842934,-42.666092,-18.686165,0.0,-63.276962,-62.365168,-129.217825,-61.562678,-140.562922,-51.786563,-38.022754,-37.736522,-28.301986,11.844829,274.103959,-167.200424,-50.459368
61,0.166992,-0.020291,0.220184,1.785236,0.0,-58.950542,-32.031646,-90.205879,-26.041946,-93.382816,-17.619689,-79.549415,-7.881912,-57.155857,0.0,29.043109,28.468373,53.742643,45.567729,68.297586,58.086217,81.538381,66.329082,86.271958,0.0,-5.432018,1.640922,1.902305,-14.030594,-11.331848,-29.007488,-10.847477,-42.663815,-18.679241,0.0,-62.847495,-62.883125,-129.641989,-61.970126,-140.959917,-51.977255,-38.143662,-37.664979,-27.831065,11.896184,274.011812,-167.095877,-48.745988
62,0.22799,0.065221,0.024662,1.113705,0.0,-59.277512,-32.048104,-90.38601,-26.057762,-93.329052,-17.624451,-79.466584,-7.857628,-57.161957,0.0,29.017902,28.317578,53.992646,45.441869,68.45127,58.040188,81.659498,66.356227,86.400164,0.0,-4.977757,1.463402,1.615814,-14.238934,-11.448795,-29.224091,-10.822781,-42.839481,-18.770771,0.0,-62.531147,-63.292202,-130.199184,-62.215627,-141.28326,-52.042314,-37.849526,-37.478918,-27.618952,12.01121,273.995927,-167.184179,-47.713389
63,0.16793,-0.013264,-0.113583,1.056828,0.0,-59.651836,-32.063118,-90.470054,-25.980056,-93.155708,-17.491012,-79.284359,-7.704872,-57.028736,0.0,29.17371,28.259854,54.566591,45.431174,68.895108,58.091626,81.933324,66.45336,86.601964,0.0,-4.573848,1.409615,1.615151,-14.355022,-11.458294,-29.340683,-10.701175,-42.94733,-18.740867,0.0,-62.468452,-63.699934,-131.000501,-62.587958,-141.834284,-52.422741,-37.820121,-37.873028,-28.068218,12.067663,273.926912,-167.409239,-46.712312
64,0.212471,-0.012066,-0.009395,0.712593,0.0,-60.217449,-32.110107,-90.670211,-25.905853,-93.110309,-17.317222,-79.146938,-7.49105,-56.823738,0.0,29.340424,28.179603,55.065498,45.373202,69.231166,58.059046,82.28997,66.410851,86.815398,0.0,-3.876789,1.373359,1.878616,-14.338291,-11.055531,-29.311032,-10.330948,-42.884491,-18.494889,0.0,-62.281119,-63.968746,-131.592545,-62.859974,-142.369372,-52.708169,-37.877671,-38.141759,-28.415242,12.180261,273.877057,-167.518507,-46.037508
65,0.181687,-0.020439,0.110687,0.548208,0.0,-60.899311,-32.24025,-90.852688,-25.952385,-93.042092,-17.344277,-79.064896,-7.558205,-56.672894,0.0,29.455354,28.226903,55.518498,45.489305,69.536188,58.219609,82.548716,66.552358,86.909345,0.0,-3.874329,1.416653,2.26078,-14.282467,-10.703533,-29.276676,-9.962597,-42.858982,-18.225151,0.0,-61.944123,-64.065305,-131.977494,-62.93513,-142.551403,-52.808156,-37.450211,-38.267934,-28.609206,12.275929,273.811201,-167.493839,-45.534717
66,0.175186,0.023774,0.158398,0.581121,0.0,-61.085243,-32.236748,-91.246559,-25.876236,-93.140442,-17.233498,-79.086376,-7.495033,-56.56271,0.0,29.60705,28.152593,55.548608,45.431927,69.420825,58.173877,82.441616,66.47275,86.785819,0.0,-4.009495,1.531471,2.419017,-14.213299,-10.532753,-29.281506,-9.972702,-42.954152,-18.265046,0.0,-61.86047,-64.158462,-132.218343,-62.980246,-142.418677,-52.851177,-37.03397,-38.292777,-28.589842,12.408245,273.78488,-167.378311,-45.003691
67,-0.001099,-0.113028,0.072692,0.622185,0.0,-61.187908,-32.187172,-91.378544,-25.760032,-93.194366,-17.078476,-79.07119,-7.369606,-56.356258,0.0,29.775752,28.157175,55.738527,45.476906,69.567322,58.227044,82.583234,66.502896,86.852658,0.0,-4.219768,1.668812,2.545693,-14.051708,-10.599151,-29.146602,-9.873092,-42.845798,-18.050823,0.0,-61.66101,-64.106505,-131.889105,-62.89889,-142.036973,-52.735562,-36.695652,-38.162706,-28.089046,12.381283,273.629346,-167.331482,-44.424012
68,0.001991,-0.029208,0.10571,1.2295,0.0,-61.256481,-32.136795,-91.515357,-25.668434,-93.269725,-16.972023,-79.120296,-7.296043,-56.363124,0.0,29.681521,28.131981,55.768847,45.476128,69.516526,58.245051,82.527103,66.522656,86.850966,0.0,-4.014313,1.975227,2.699192,-13.712311,-10.710068,-28.859723,-9.602646,-42.63097,-17.810063,0.0,-61.235661,-64.003691,-131.786871,-62.833107,-141.957272,-52.705341,-36.707273,-38.170826,-27.926309,12.330242,273.542297,-167.278804,-43.252353
69,0.007325,0.125933,0.164165,1.957957,0.0,-61.196354,-32.137093,-91.589516,-25.642914,-93.238632,-16.949478,-79.113488,-7.316666,-56.299244,0.0,29.479289,27.974049,55.697032,45.352652,69.430274,58.192835,82.3184,66.542133,86.706619,0.0,-4.085472,2.294151,2.822926,-13.353172,-10.793152,-28.539413,-9.507271,-42.4342,-17.883099,0.0,-61.062382,-63.887285,-131.60483,-62.833279,-142.090581,-52.852968,-36.936793,-38.477225,-28.095418,12.286972,273.615155,-167.165234,-41.347471
70,0.081299,0.132109,0.165482,2.870536,0.0,-61.061039,-32.202164,-91.720025,-25.659371,-93.149403,-16.881157,-79.13324,-7.158806,-56.2458,0.0,29.269807,27.711078,55.505815,45.066661,69.285716,57.94135,82.102928,66.364465,86.736049,0.0,-3.394581,2.663898,2.996051,-12.976548,-10.613045,-28.208714,-9.327061,-42.267861,-17.869057,0.0,-60.273657,-63.794721,-131.533058,-62.823628,-142.135564,-53.02724,-37.136377,-38.886142,-28.260811,12.32321,273.723283,-167.044813,-38.500916
71,0.15097,0.260142,0.44973,3.948748,0.0,-61.19957,-32.17392,-91.7635,-25.55912,-92.896317,-16.801895,-79.056084,-7.166954,-56.320839,0.0,28.89161,27.455296,55.13861,44.881015,69.135823,57.838042,81.925655,66.345223,86.844063,0.0,-2.784634,2.837871,3.237899,-12.721196,-10.150132,-27.935086,-8.851147,-42.110196,-17.719506,0.0,-58.927208,-63.279964,-131.121236,-62.329218,-141.796737,-52.776559,-36.986849,-38.960626,-28.320814,12.425955,273.985852,-166.643308,-34.549741
72,0.474632,0.359116,1.110729,5.703891,0.0,-61.465828,-32.212394,-91.814563,-25.568619,-92.709709,-16.87175,-79.076294,-7.373176,-56.579303,0.0,28.459752,27.137009,54.343759,44.643164,68.625579,57.698671,81.493044,66.312891,86.864379,0.0,-2.616097,2.601963,3.083336,-13.061726,-10.101837,-28.27121,-8.448567,-42.442497,-17.50351,0.0,-57.848663,-62.922762,-130.799349,-61.848867,-141.411102,-52.405561,-36.363323,-38.80247,-28.149839,12.873956,274.35437,-165.55921,-28.836448
73,0.6595,0.361672,1.671764,7.209873,0.0,-61.786331,-31.990814,-91.789089,-25.368118,-92.526695,-16.801735,-79.091045,-7.527717,-56.937721,0.0,28.103008,26.804866,53.414119,44.421666,67.955674,57.567785,81.062854,66.249918,86.818276,0.0,-2.476639,1.855454,2.534306,-13.845726,-10.143619,-28.912834,-8.227867,-42.827591,-17.126484,0.0,-56.849214,-62.122754,-130.102619,-60.742213,-140.097923,-51.290423,-34.897331,-37.908578,-26.815678,13.655977,274.727577,-163.764925,-21.61504
74,0.92347,0.287461,2.418011,9.479998,0.0,-62.442638,-31.718216,-91.746769,-25.13514,-92.497398,-16.73037,-79.371918,-7.745522,-57.806992,0.0,27.670236,26.577908,52.398127,44.319123,67.160131,57.547852,80.535035,66.274074,86.643966,0.0,-2.24215,0.939033,1.903519,-14.771507,-10.245506,-29.661564,-7.765858,-43.326061,-16.827221,0.0,-54.585882,-61.372506,-129.503857,-59.731668,-138.197453,-50.316663,-32.509542,-37.107848,-25.245779,14.770128,275.016026,-161.156233,-12.134054
75,1.091766,0.330982,2.909431,13.163378,0.0,-62.987194,-31.409248,-91.771225,-24.885132,-92.543083,-16.667862,-79.638004,-7.996536,-58.625747,0.0,27.036504,26.413479,51.604597,44.260979,66.578356,57.559905,80.188789,66.316781,86.389567,0.0,-1.975525,0.704602,2.28265,-15.096553,-9.769329,-29.965954,-7.36314,-43.500663,-16.562874,0.0,-53.621717,-60.769476,-128.56545,-59.116837,-136.457567,-49.788295,-31.134699,-36.808797,-24.273074,16.234731,275.296792,-157.873965,0.979108
76,1.07119,0.333366,4.471619,19.131853,0.0,-63.026447,-31.079819,-91.615974,-24.592964,-92.522999,-16.424789,-79.567966,-7.817024,-58.6856,0.0,26.757071,26.472216,51.371415,44.321024,66.40438,57.540837,80.174981,66.144522,86.251209,0.0,-0.374497,0.364437,2.752087,-15.483582,-9.031769,-30.393814,-6.693924,-43.799984,-15.904221,0.0,-52.248895,-60.825688,-127.786396,-59.388953,-134.702488,-50.273796,-30.361505,-37.554903,-23.833097,17.837929,275.487014,-152.870338,19.967817
77,0.748398,0.426448,4.644287,18.600669,0.0,-62.881416,-30.825645,-91.417431,-24.491089,-92.583904,-16.445206,-79.791561,-7.881615,-59.226185,0.0,26.038296,26.642388,51.407774,44.442476,66.085365,57.552817,79.914123,66.032951,85.979718,0.0,1.016796,0.142754,3.350945,-15.694805,-7.70248,-30.630192,-6.133369,-43.798187,-14.911159,0.0,-49.685067,-59.973168,-126.018617,-58.626965,-131.411237,-49.831718,-28.476357,-37.399601,-22.470611,19.366367,275.694002,-147.446011,38.349026
78,0.710083,0.435106,5.668224,19.577492,0.0,-62.978428,-30.897354,-91.285675,-24.584541,-92.495659,-16.514557,-79.771683,-7.879349,-59.430199,0.0,25.4438,26.868234,51.791997,44.631444,66.1453,57.657496,79.965758,66.033729,85.892044,0.0,2.001675,-0.148086,3.702256,-15.841152,-6.010196,-30.618003,-5.556804,-43.463482,-14.322509,0.0,-45.842067,-59.236583,-123.12477,-57.832299,-126.224783,-49.163671,-25.365494,-36.391629,-19.824185,20.972534,275.60807,-140.881703,57.40548
79,0.500244,0.358547,6.573143,23.257367,0.0,-62.769596,-30.912758,-91.240917,-24.592369,-92.379089,-16.456169,-79.587959,-7.653396,-59.121952,0.0,25.005546,27.112383,52.125894,44.82933,66.41494,57.779305,80.365247,66.074818,86.118224,0.0,4.350415,-0.163421,4.883789,-15.967655,-3.635078,-30.737789,-4.351581,-43.131866,-12.974475,0.0,-44.083249,-58.456195,-119.059531,-56.953412,-120.125047,-48.424192,-24.012377,-35.397362,-17.768212,22.370979,275.462067,-133.410359,80.158297
80,0.286606,0.116079,6.349984,20.746656,0.0,-62.604515,-30.85968,-91.108933,-24.498344,-92.214191,-16.29641,-79.407829,-7.396019,-58.952602,0.0,25.058774,27.407439,52.553244,45.154445,66.674933,58.061961,80.714383,66.276556,86.433941,0.0,8.140251,-2.069435,8.467174,-17.55193,0.390209,-30.998337,-1.657082,-41.100575,-9.695012,0.0,-37.622785,-55.778733,-106.383665,-52.524468,-103.40096,-42.762895,-18.928539,-28.589551,-10.743528,23.370958,275.076945,-126.347002,100.403752
81,0.065094,-0.054674,0.831642,14.423797,0.0,-62.514381,-30.861557,-90.911613,-24.566162,-92.133156,-16.417946,-79.733929,-7.539093,-59.525803,0.0,25.083462,27.68476,52.609116,45.471398,66.355622,58.383582,80.618732,66.588063,86.686537,0.0,18.953727,0.760471,17.050907,-11.527222,11.047588,-21.586567,7.257568,-28.468117,0.493744,0.0,-30.777622,-48.232073,-84.496368,-41.89511,-77.588676,-30.302724,-9.674974,-15.199641,-0.019217,24.01545,274.560863,-124.935962,114.366141
82,0.249779,-0.067715,3.272226,18.07844,0.0,-62.501919,-30.80111,-91.057617,-24.424164,-92.060051,-16.224289,-79.718354,-7.377892,-59.454426,0.0,25.348037,27.882311,52.494173,45.669147,66.361747,58.53324,80.886444,66.631152,86.884682,0.0,30.718168,4.496166,28.945101,-5.282684,24.510716,-12.733057,15.181858,-17.415865,8.834799,0.0,-20.555984,-39.917934,-59.249026,-30.64426,-49.253673,-17.118184,-0.023465,-1.00237,11.01016,24.604397,274.046909,-121.324568,131.998342
83,0.227371,-0.325462,4.88364,19.939461,0.0,-62.357185,-30.849152,-91.366081,-24.468109,-92.321709,-16.27169,-80.296692,-7.414124,-59.873909,0.0,25.460152,28.129918,52.388963,45.934983,66.239247,58.786244,80.927879,66.82674,87.183159,0.0,42.892577,9.392533,44.444567,1.151516,40.715103,-4.777971,22.005181,-8.365534,15.964137,0.0,-7.241823,-30.298615,-30.95939,-18.199859,-19.256397,-2.834153,9.953438,13.892601,21.680909,24.942432,273.550293,-116.330264,151.766649
84,-0.098991,-0.271109,3.006695,14.159666,0.0,-62.522999,-30.830613,-91.48922,-24.48919,-92.572587,-16.373063,-80.820157,-7.572602,-60.375653,0.0,25.695952,28.424171,52.440376,46.233768,66.235875,59.019994,80.823113,66.951908,87.443128,0.0,52.412413,13.777714,60.171255,7.096093,57.578213,2.681151,28.519638,0.23342,22.418982,0.0,6.034991,-19.428054,-2.628783,-4.166554,10.777843,13.109816,21.48521,30.331753,33.432111,24.891724,273.086995,-113.275286,165.734126
85,-0.037652,0.242271,3.888508,14.915306,0.0,-62.195549,-30.998703,-91.79441,-24.935394,-93.034229,-16.967514,-81.613975,-8.164512,-61.114002,0.0,25.408381,28.489714,51.661,46.05899,65.357526,58.665386,80.030584,66.409876,87.073367,0.0,58.511255,19.626549,72.360941,14.166412,71.989677,9.960302,37.664005,6.673296,30.638598,0.0,15.198011,-9.542604,17.990846,7.23892,30.375324,24.799311,31.448996,41.428783,41.047147,24.90909,273.165436,-109.33176,180.485602
86,-0.384017,2.808458,14.142105,25.262315,0.0,-60.95271,-30.985772,-92.042485,-25.469742,-93.134366,-17.86567,-81.640824,-9.345177,-60.90207,0.0,26.991167,25.880734,48.712925,42.39871,62.572224,54.581424,76.010213,62.338104,82.741354,0.0,56.596728,27.574574,68.252249,20.863724,64.819668,14.265833,30.131756,7.525904,26.1696,0.0,23.896175,-2.781865,35.613488,11.027259,45.264683,25.714848,42.447289,39.635799,48.067898,24.592753,275.84554,-95.121975,205.619563
87,1.257545,9.644279,9.965521,16.50123,0.0,-61.722691,-31.521149,-92.625607,-26.855644,-93.605289,-19.986809,-81.837296,-11.893639,-61.215099,0.0,29.53863,22.27856,43.439747,32.237407,51.064651,38.662464,55.012799,41.474219,57.021133,0.0,56.979687,29.219398,71.814091,20.755222,65.363926,12.508255,31.883068,4.161667,25.613297,0.0,28.901477,3.636086,45.285368,17.841991,54.304473,32.112103,52.298066,45.285973,56.861026,25.998825,285.348531,-85.007927,221.979505
88,1.091537,9.193759,6.015129,12.349366,0.0,-62.715728,-30.586532,-93.807071,-26.827972,-93.808376,-21.114555,-81.763549,-14.312004,-61.297245,0.0,32.486917,19.523825,38.061065,22.782765,36.332745,23.003115,33.17242,20.236524,31.283154,0.0,57.034184,29.609757,73.816967,20.575596,67.964333,11.90023,41.036133,3.246082,30.828484,0.0,28.665072,9.012534,48.874771,23.594326,57.093974,37.024867,58.20558,48.594375,61.37471,27.296012,294.390461,-78.787148,234.177042
89,0.136437,9.456977,6.624241,12.554204,0.0,-62.918301,-30.839516,-93.410671,-28.010193,-90.624596,-23.129196,-77.990936,-16.930412,-58.616444,0.0,34.672498,16.064641,31.472975,12.792475,21.135894,7.036262,12.303683,-1.06722,7.020503,0.0,58.7864,30.490746,75.212746,21.368053,69.263992,12.520615,49.812435,3.56496,37.088322,0.0,27.564408,12.956323,51.289114,27.851844,59.02386,40.667018,63.176291,50.949734,65.095877,27.685398,303.645511,-71.909958,246.529319
90,-0.079216,9.916177,6.631908,10.32068,0.0,-64.193401,-31.310738,-92.368206,-29.117615,-76.522385,-24.648674,-63.241825,-18.805595,-54.883942,0.0,36.859476,11.838802,23.811392,1.459076,6.508395,-10.750746,-7.213349,-24.228663,-19.983902,0.0,62.814011,31.31194,76.937428,22.026616,69.969464,12.99289,54.267952,3.825486,39.89938,0.0,26.286101,16.350756,52.991696,31.478569,61.442006,43.905741,67.757257,53.189631,70.216875,27.948824,313.284317,-64.935408,256.572628
91,-0.354813,8.016143,0.934399,-0.811635,0.0,-66.248954,-33.528064,-79.877746,-31.349933,-57.074913,-26.538437,-45.169693,-20.012809,-52.129577,0.0,36.489022,7.96416,16.277779,-8.49761,-5.083702,-26.411566,-22.663933,-44.692775,-45.049013,0.0,67.150074,25.541245,90.077351,15.678761,85.523769,7.0849,69.31461,-0.530502,48.65514,0.0,24.173236,18.932232,48.763102,37.735899,59.546169,52.386975,68.119769,62.845531,72.983578,28.025379,320.975854,-63.569641,255.436387
92,-3.213112,-0.680218,2.64291,3.32894,0.0,-63.820003,-35.323265,-60.665508,-33.475524,-34.192771,-28.09766,-24.710975,-20.682472,-41.155586,0.0,36.400114,6.410792,15.264813,-9.724356,-4.594651,-27.202255,-18.14158,-44.668161,-39.75452,0.0,68.698311,25.732899,92.450478,16.73243,91.146011,8.649387,76.837235,1.494347,55.498787,0.0,19.939912,20.610842,47.509841,39.402654,59.02507,53.523046,67.742931,62.993213,72.28628,25.25172,320.021328,-60.487278,258.491019
93,-12.265995,-1.841064,4.006714,2.928785,0.0,-50.471088,-28.997943,-29.747177,-27.325058,-1.034694,-22.374698,5.969548,-15.322826,-18.195922,0.0,36.983902,4.615818,15.051194,-10.405636,1.022117,-26.436994,-10.278035,-41.902496,-31.992518,0.0,69.968239,26.90562,93.555405,18.537952,92.033478,10.573654,78.459137,3.312286,58.474319,0.0,15.248313,21.737627,47.552251,40.244719,60.228968,54.00607,68.856019,63.171869,74.129072,13.498025,317.938221,-55.968264,261.177761
94,-9.106887,-3.633752,4.151665,2.200105,0.0,-39.04358,-22.23444,-1.562611,-20.90736,27.673885,-16.934636,30.981548,-11.21489,-2.054867,0.0,38.149565,4.365828,17.787539,-8.546109,8.79726,-22.398073,-0.934951,-35.136553,-21.575422,0.0,70.524238,28.042396,93.788223,20.021106,92.221275,12.010128,79.374458,4.49826,60.278068,0.0,11.878853,23.413126,48.263208,41.244187,61.380132,54.372374,70.499754,63.064992,76.346641,4.963549,314.142887,-51.244188,263.216284
95,-8.883156,-5.501394,3.469299,1.626951,0.0,-25.898541,-14.091122,26.652431,-13.017597,44.840137,-10.644184,44.596149,-7.042259,11.662628,0.0,38.711728,5.096743,22.500553,-3.863835,17.505365,-13.920828,9.039136,-22.809775,-5.263914,0.0,70.307648,29.052612,93.365272,21.369369,92.598953,13.327755,80.026085,5.602318,61.140587,0.0,9.029083,24.936619,49.018045,42.415839,62.327074,55.024013,71.77243,63.294629,77.210307,-3.33332,308.604415,-47.188602,264.806157
96,-3.584862,-4.745087,2.59798,1.403414,0.0,-18.562374,-9.521679,37.585567,-9.02948,51.327564,-7.900646,49.924038,-5.909134,21.608997,0.0,40.609306,8.467661,29.104217,2.1274,24.186228,-5.777764,16.44185,-12.825326,9.793554,0.0,69.57906,30.174786,92.841786,22.778149,92.703152,14.60748,79.925,6.5434,61.194775,0.0,6.404135,25.842979,49.301479,42.961367,62.656389,55.221516,72.152639,63.357985,77.705644,-6.369438,303.897193,-44.041878,266.247436
97,-7.147282,-1.560186,1.69241,1.030812,0.0,-10.069908,-0.609935,47.261696,0.004074,60.476784,-0.292614,58.551842,-0.382141,30.362,0.0,40.98423,9.555444,30.905501,3.825142,26.59137,-3.671395,19.331572,-10.376057,12.855547,0.0,68.943123,30.624664,92.214569,23.230179,92.002258,14.852005,79.102821,6.552521,60.267952,0.0,5.511681,26.149101,50.24158,43.217038,63.595885,55.397838,72.527464,63.44094,77.800826,-12.978115,302.418564,-41.810863,267.359805
98,1.745797,0.836669,1.076054,0.378209,0.0,-13.124852,-1.251446,45.627273,-0.359425,59.347663,-0.340428,57.291572,-0.09327,27.918457,0.0,40.439739,10.091907,31.638836,3.572385,26.289139,-4.718695,18.665025,-12.227693,11.176837,0.0,68.538585,30.33768,91.197452,22.798004,90.937946,14.236129,78.10857,5.819126,58.847271,0.0,6.059074,26.583169,51.583379,43.783611,64.748036,56.028668,73.422956,63.991791,78.059523,-10.753131,303.358628,-40.255622,267.841409
99,1.146652,0.701768,0.308429,0.000568,0.0,-15.082764,-2.629326,43.935585,-1.496773,57.700149,-0.998566,55.945152,-0.227268,25.866188,0.0,40.223601,10.481071,31.610036,3.276786,25.725963,-5.692671,17.846574,-13.9766,9.753799,0.0,68.626236,30.057953,90.579964,22.226223,90.188851,13.4011,77.461899,4.794068,57.610771,0.0,7.375123,26.699174,52.281653,44.193843,65.475542,56.595648,73.962087,64.510186,78.133747,-9.191568,304.166736,-39.532282,267.948317
100,1.751083,-1.291633,-0.377586,-0.154191,0.0,-17.530403,-5.508144,41.820168,-4.70541,56.023567,-3.787021,53.520973,-2.285888,20.703255,0.0,40.091344,12.087372,32.348633,5.39485,27.054177,-3.251134,19.864095,-11.456961,13.082714,0.0,68.669655,29.456303,90.507362,21.464996,90.16999,12.573372,77.426445,3.995739,57.168961,0.0,8.441306,26.784216,52.235242,44.563185,65.675651,57.121959,74.005349,64.959816,77.851585,-7.061474,302.925887,-39.530857,267.84491
101,-2.047829,1.238009,-0.476933,-0.11346,0.0,-18.502899,-5.065097,42.893464,-4.38446,58.038872,-3.299274,55.60254,-1.489952,22.581757,0.0,39.874255,12.555823,31.703032,4.285294,25.728692,-5.854618,17.81518,-15.49361,9.430042,0.0,68.625149,28.873959,90.514401,20.68903,90.093602,11.683045,77.473401,3.065197,56.714962,0.0,9.584812,26.836445,52.254322,44.766455,65.934558,57.418139,74.262157,65.17173,77.588157,-8.743058,304.180368,-39.641545,267.747922
102,-0.434738,0.395586,-0.296665,-0.139371,0.0,-19.90789,-5.451599,41.965325,-4.712093,57.286904,-3.462959,55.397713,-1.679672,23.515938,0.0,40.155786,13.445461,31.509753,4.002155,24.748898,-7.207607,16.164862,-17.967752,6.089196,0.0,68.555008,28.559567,90.440735,20.285786,89.849625,11.230648,77.502503,2.567562,56.548645,0.0,10.374588,26.936357,52.174232,44.925858,65.879909,57.63986,74.357673,65.412409,77.640794,-8.851233,304.566521,-39.611647,267.599118
103,1.659886,-4.988692,-0.520878,0.098924,0.0,-20.164524,-6.810185,40.719349,-6.837708,54.103397,-6.397785,50.815418,-5.492958,14.865783,0.0,39.130161,15.141114,33.254227,9.621936,28.921818,1.899022,22.932868,-5.605579,18.419382,0.0,68.348202,28.625313,90.455647,20.29826,89.642521,11.161435,77.25475,2.417416,56.603909,0.0,10.831331,26.938296,51.948621,44.828144,65.643022,57.488967,74.091294,65.271211,77.565483,-6.882791,299.552228,-39.823969,267.672441
104,-1.926041,-0.375233,-0.532058,-0.032999,0.0,-19.124725,-5.358032,41.971905,-5.525917,55.012104,-5.502445,51.820393,-5.120544,17.147484,0.0,38.693673,14.950985,32.878525,9.719132,28.827291,2.227572,22.847393,-5.002203,18.360312,0.0,67.917858,28.605812,90.464916,20.353626,89.787906,11.252655,77.26363,2.526191,56.815853,0.0,11.226163,26.923451,51.614255,44.757402,65.301653,57.409358,73.849664,65.265702,77.594604,-8.51132,299.125263,-40.058515,267.58771
105,-1.099182,2.240577,-0.510659,-0.017451,0.0,-20.634934,-4.668274,41.447262,-4.412132,54.90057,-4.373486,52.513332,-4.165134,20.466225,0.0,39.07319,13.663822,31.859186,6.847083,26.48217,-2.039579,19.300671,-10.435388,12.567085,0.0,67.56641,28.779419,90.506253,20.617447,89.856663,11.518422,77.208126,2.737885,56.946225,0.0,11.534952,26.877398,51.315173,44.574609,64.911836,57.171224,73.531798,65.084465,77.595197,-9.36953,301.321692,-40.328202,267.526111
106,-0.145844,-1.810596,-0.324211,0.046572,0.0,-19.404167,-4.377113,41.430348,-4.211391,54.426693,-4.700752,51.419392,-5.20824,18.68985,0.0,38.475854,13.355712,32.577887,8.221289,28.096042,0.923106,21.945861,-5.827621,17.524112,0.0,67.264813,28.491795,90.327999,20.41832,89.878636,11.42799,77.117535,2.784096,57.152745,0.0,11.676756,26.656122,50.914154,44.274811,64.476187,56.848702,73.102349,64.811405,77.439747,-9.312848,299.47365,-40.449887,267.535237
107,5.297436,-1.240961,-0.408165,-0.119264,0.0,-24.704017,-10.288627,35.566132,-10.290996,48.239823,-10.212055,44.921082,-9.737549,8.417851,0.0,37.962634,13.0993,33.163873,9.958204,29.62082,4.349415,24.475455,-0.678366,23.565711,0.0,67.025311,28.340962,90.263432,20.317417,90.009945,11.35413,77.129231,2.725548,57.300831,0.0,11.860624,26.651527,50.747489,44.208651,64.223911,56.713406,72.928199,64.611234,77.470214,-3.853077,298.19851,-40.695717,267.381794
108,4.060913,-0.003063,-0.302456,-0.122513,0.0,-19.835426,-14.177982,33.027855,-15.355476,44.875008,-15.219246,41.307953,-13.958439,1.822163,0.0,34.971629,11.815274,32.937188,10.033293,30.619559,6.04266,26.880362,2.214061,25.25887,0.0,66.762795,28.045338,90.263947,19.986397,90.130967,11.00108,77.261055,2.377476,57.246369,0.0,12.106168,26.493285,50.59604,44.111851,64.218934,56.661931,72.89483,64.544803,77.4086,0.32924,298.175894,-40.876769,267.239728
109,6.05381,2.983533,-0.153545,0.069667,0.0,-27.876216,-21.308807,26.186966,-22.115043,38.699776,-20.533802,35.62587,-17.408191,-3.431293,0.0,34.840039,10.912681,31.892791,6.978648,28.105169,1.012484,22.789718,-4.755288,18.073468,0.0,66.590824,27.554695,90.318066,19.546028,90.330585,10.698338,77.473011,2.251717,57.357388,0.0,11.988212,26.144173,50.176038,43.834962,64.22175,56.44016,72.760436,64.381979,77.204156,6.480142,301.159884,-40.933222,267.309852
110,4.470658,0.209469,-0.052746,0.037309,0.0,-27.687882,-26.502663,23.404953,-28.198426,34.808029,-26.218735,32.318458,-21.960503,-16.166634,0.0,33.565968,10.344281,32.077647,7.723001,28.607311,3.267153,25.095874,-1.193141,21.292963,0.0,66.429199,27.17672,90.206566,19.111736,90.110665,10.322903,77.252564,2.024002,57.164887,0.0,11.831095,25.90699,50.093021,43.719922,64.266223,56.386734,72.754261,64.336717,77.021203,11.045603,301.374228,-40.891165,267.352036
111,3.113388,3.400287,-0.272117,0.060367,0.0,-31.845143,-30.302731,19.555504,-31.558937,31.42527,-28.394268,29.753036,-22.703499,-16.387276,0.0,33.387497,8.784354,30.503617,3.946185,25.91587,-2.48848,20.630109,-8.977139,13.028028,0.0,66.217094,27.205043,90.273445,19.170696,90.185737,10.436016,77.314384,2.210575,57.252822,0.0,11.643658,25.818453,50.003928,43.726714,64.250538,56.423513,72.70538,64.358367,76.840892,14.24683,304.782416,-41.075443,267.420304
112,1.177162,-4.470483,-0.225518,0.111843,0.0,-23.490223,-30.024834,21.867325,-32.638229,31.24585,-30.414619,28.150795,-25.23991,-25.858452,0.0,25.929616,10.174578,32.491708,9.413801,30.472877,6.904919,28.630369,3.824302,24.267406,0.0,65.899842,27.19701,90.306542,19.240517,90.172417,10.595215,77.274605,2.467392,57.326981,0.0,11.52091,25.744364,49.854442,43.65864,64.160604,56.343225,72.544285,64.284476,76.639795,15.505474,300.323419,-41.219479,267.543633
113,-1.015938,0.74282,-0.158729,0.057465,0.0,-22.72752,-29.479294,22.952889,-31.690601,31.893448,-29.26775,29.05101,-24.011318,-29.167225,0.0,23.517484,10.608894,32.858407,9.841917,30.491069,7.160776,28.338265,3.990337,24.377791,0.0,65.682472,27.185783,90.353966,19.283798,90.147835,10.73291,77.171104,2.722755,57.321899,0.0,11.430223,25.751033,49.844525,43.651983,64.133632,56.296035,72.541506,64.209684,76.562989,14.56941,301.077595,-41.298334,267.612454
114,-1.757286,-3.899983,-0.001728,0.008744,0.0,-9.793075,-26.322578,27.481957,-30.133839,33.742882,-29.263939,29.320793,-25.24942,-39.518474,0.0,16.681615,10.540178,33.361056,15.657509,35.153756,18.884857,37.294668,21.085481,40.074005,0.0,65.404552,27.334247,90.341274,19.316265,89.767582,10.624191,76.656864,2.491012,56.830112,0.0,11.510511,25.927972,50.239171,43.790168,64.17498,56.383313,72.710974,64.22007,76.678117,12.881224,297.180341,-41.230962,267.623927
115,0.297066,3.274118,-0.050698,-0.021193,0.0,-16.372238,-27.629276,25.096092,-30.642128,33.071182,-28.933273,28.849731,-24.256268,-28.577248,0.0,17.611539,10.008396,31.896669,11.343292,31.937857,10.770779,30.567368,9.359399,28.816065,0.0,65.30016,27.376957,90.317356,19.370339,89.68134,10.667107,76.598957,2.503418,56.799305,0.0,11.74783,26.006309,50.373775,43.833777,64.209832,56.411545,72.748494,64.235718,76.726752,13.247257,300.45391,-41.212693,267.602185
116,-0.930863,-4.992644,0.101956,0.034494,0.0,-7.987495,-25.923065,29.096672,-30.306289,34.820847,-29.747177,29.878418,-25.975627,-39.33815,0.0,15.63476,11.153681,34.652738,17.598262,37.251825,21.869909,39.738391,24.887441,43.830467,0.0,65.263389,27.283092,90.218719,19.1838,89.289184,10.430511,76.20916,2.262588,56.485451,0.0,11.956102,26.039679,50.635831,43.831677,64.304026,56.423068,72.846874,64.268828,76.79979,12.374296,295.460463,-41.052835,267.635876
117,-0.665268,6.686557,0.054519,0.063121,0.0,-18.11444,-27.309013,26.516465,-30.156326,35.235581,-28.240985,31.594414,-23.492191,-29.001754,0.0,22.873378,9.265378,31.814862,9.838903,30.563934,8.628027,28.582759,6.543531,26.583194,0.0,65.248215,27.285347,90.34964,19.095154,89.139817,10.262501,76.015366,2.040688,56.312989,0.0,12.091521,26.06018,50.715045,43.827429,64.32759,56.423846,72.879244,64.259492,76.857786,11.75505,302.142172,-40.952294,267.694149
118,0.33767,-0.411888,0.052723,0.060725,0.0,-20.007179,-28.385914,25.789467,-31.148243,35.212372,-29.016586,32.226539,-24.029469,-28.971176,0.0,25.93631,9.690789,32.449311,10.11368,30.76865,8.67082,28.293273,6.388846,26.536968,0.0,65.290661,27.401333,90.573635,19.125344,89.013577,10.194512,75.867382,1.917675,56.207508,0.0,12.152407,26.095959,50.842782,43.883807,64.427626,56.519411,72.937117,64.373137,76.945867,12.139641,301.724079,-40.85265,267.748669
119,1.662414,4.383156,-0.092319,-0.003124,0.0,-33.818195,-31.662735,21.39544,-32.941806,33.350007,-29.44836,32.221619,-23.418113,-17.791603,0.0,32.407419,9.705534,31.765696,3.921941,25.6652,-3.662257,18.863664,-11.569261,10.420048,0.0,65.344459,27.588432,90.694473,19.294132,89.031486,10.311836,75.880554,1.990539,56.166069,0.0,12.304066,26.126167,50.862196,43.906815,64.503702,56.53591,72.983997,64.332122,76.892551,13.860712,306.09799,-40.886312,267.7363
120,-0.732513,-6.610419,0.183975,0.050388,0.0,-22.731365,-29.021976,24.689873,-31.816692,34.264938,-29.824184,31.802399,-24.996906,-30.020485,0.0,29.130646,10.708225,34.45447,11.523195,32.606416,10.105578,29.76791,7.726533,27.648784,0.0,65.37101,27.44545,90.535606,19.017391,88.874519,9.95454,75.708252,1.60294,55.65715,0.0,12.387417,26.037703,50.850439,43.835518,64.665352,56.518411,73.193788,64.306187,76.935172,13.182598,299.478127,-40.647938,267.777244
