takenoko1/special-research/HandMotion_SimilarSearch_自分用/NewProject/handData/test_key/d4_feature_d3/57.csv
frame,vel_0x_L,vel_0y_L,vel_0x_R,vel_0y_R,posFromWrist_0x_L,posFromWrist_1x_L,posFromWrist_2x_L,posFromWrist_3x_L,posFromWrist_4x_L,posFromWrist_5x_L,posFromWrist_6x_L,posFromWrist_7x_L,posFromWrist_8x_L,posFromWrist_9x_L,posFromWrist_0y_L,posFromWrist_1y_L,posFromWrist_2y_L,posFromWrist_3y_L,posFromWrist_4y_L,posFromWrist_5y_L,posFromWrist_6y_L,posFromWrist_7y_L,posFromWrist_8y_L,posFromWrist_9y_L,posFromWrist_0x_R,posFromWrist_1x_R,posFromWrist_2x_R,posFromWrist_3x_R,posFromWrist_4x_R,posFromWrist_5x_R,posFromWrist_6x_R,posFromWrist_7x_R,posFromWrist_8x_R,posFromWrist_9x_R,posFromWrist_0y_R,posFromWrist_1y_R,posFromWrist_2y_R,posFromWrist_3y_R,posFromWrist_4y_R,posFromWrist_5y_R,posFromWrist_6y_R,posFromWrist_7y_R,posFromWrist_8y_R,posFromWrist_9y_R,posFromBody_0x_L,posFromBody_0y_L,posFromBody_0x_R,posFromBody_0y_R
6,1.158886,-1.815487,0.33292,-0.108508,0.0,-5.065464,-6.024411,41.593036,-11.868897,46.227321,-18.609604,35.553829,-24.58183,7.485557,0.0,19.766294,15.366009,35.412392,25.945708,43.265167,32.828347,47.801266,38.172129,53.5516,0.0,66.937878,27.089974,88.867184,19.034203,88.688679,10.023102,76.051655,1.138939,56.137562,0.0,12.170488,25.229675,48.788914,43.185941,62.546585,56.591696,72.252811,65.609529,77.339032,-5.171424,287.343093,-42.667099,272.824694
7,3.901416,0.346691,0.091313,-0.179484,0.0,-9.531006,-9.333858,37.285309,-15.384498,41.785241,-22.096779,30.5476,-27.866832,0.502911,0.0,18.172961,15.704402,35.519121,26.4046,42.990538,33.246731,47.748568,38.440669,53.917509,0.0,66.757896,27.040363,88.898071,18.941585,88.43296,9.904095,75.793556,1.018078,55.871384,0.0,12.321925,25.143027,49.128813,43.099269,62.757389,56.499269,72.424799,65.464144,77.456247,-0.857781,287.541685,-42.163559,272.497111
8,0.416291,3.427988,0.020244,-0.228686,0.0,-9.377713,-10.378613,35.90673,-16.355828,41.148422,-21.853215,30.42231,-25.761921,0.059578,0.0,17.140679,13.71799,33.911634,24.305987,40.306544,31.11376,44.957005,36.42826,49.98723,0.0,66.786793,26.719117,88.979863,18.486546,88.213658,9.447579,75.555462,0.687813,55.673367,0.0,12.404917,25.108631,49.204173,43.175987,62.740716,56.603243,72.440372,65.471801,77.457148,-0.090522,290.833078,-41.792347,272.13183
9,1.308197,-2.928859,0.044049,-0.196786,0.0,-7.5607,-10.905293,36.070541,-17.705155,39.77053,-23.782425,28.074875,-28.107617,-3.741898,0.0,14.520745,14.213228,34.736076,27.092265,43.077989,35.912928,49.343667,42.75953,55.65125,0.0,66.671036,26.617927,88.985069,18.22586,87.897972,9.081882,75.160606,0.327862,55.243652,0.0,12.558144,25.032382,49.466909,43.162871,62.860227,56.610974,72.542568,65.380928,77.625109,1.55464,287.778483,-41.411333,271.809308
10,0.853912,-0.063776,0.038749,-0.106001,0.0,-9.627857,-12.28331,34.66143,-18.845398,38.723007,-24.503941,27.480995,-28.325031,-3.949654,0.0,14.921592,14.386586,34.759023,27.143061,43.017288,35.899244,49.307247,42.64565,55.547929,0.0,66.640114,26.423848,89.136475,17.905507,87.543,8.701699,74.771325,-0.015186,54.883622,0.0,12.49548,24.95512,49.617185,43.068405,62.830241,56.52461,72.547681,65.264875,77.528593,2.712095,287.604739,-41.069041,271.593339
11,-1.231236,4.209291,-0.042629,-0.071544,0.0,-14.18708,-13.339153,33.249333,-18.523658,40.076397,-22.901332,31.166325,-25.493499,2.603623,0.0,20.010209,13.326122,33.553531,22.328949,39.052047,27.924611,42.81434,32.309508,47.116429,0.0,66.664387,26.389641,89.451702,17.767021,87.450634,8.499184,74.572506,-0.218651,54.587231,0.0,12.400199,24.874708,49.634413,42.970383,62.704295,56.417967,72.387921,65.126233,77.381121,1.749641,291.717798,-40.842888,271.425563
12,-1.651771,7.675799,-0.157551,-0.125341,0.0,-21.00428,-15.037273,31.305576,-18.384499,42.24258,-20.544479,36.639141,-20.968609,12.949951,0.0,26.201305,10.811089,31.080365,13.208153,32.142201,13.25191,31.546593,13.058396,30.891187,0.0,66.750115,26.31855,89.920121,17.619919,87.527161,8.333977,74.643769,-0.316337,54.599717,0.0,12.399606,24.938423,49.700511,43.044211,62.700553,56.464811,72.366308,65.087219,77.242528,0.319124,299.309641,-40.779185,271.216266
13,-0.852562,-2.910433,-0.073986,-0.011411,0.0,-15.59285,-15.650791,33.426968,-18.671768,44.312405,-20.81345,38.342617,-21.481831,10.932358,0.0,26.479923,12.672296,33.565634,15.39723,35.430768,15.844921,34.760801,15.640144,34.920698,0.0,66.573498,26.64671,90.023014,17.972786,87.617581,8.642464,74.735012,-0.100181,54.816708,0.0,12.344747,24.964184,49.604945,43.068183,62.559638,56.527068,72.284735,65.247251,77.0945,-0.311554,296.318892,-40.631287,271.124539
14,-0.885979,0.79616,-0.111683,-0.164133,0.0,-10.436496,-16.13372,34.014141,-19.160099,46.098049,-20.294723,40.184063,-19.67942,11.198731,0.0,26.636102,11.635643,33.281398,14.947293,35.716883,16.267529,34.776276,16.541429,33.931061,0.0,66.502259,27.051453,90.323571,18.431157,87.773781,9.098099,74.956788,0.315136,55.236214,0.0,12.286479,25.222092,49.582049,43.321545,62.584771,56.762609,72.351451,65.517409,77.026686,-0.971112,297.027067,-40.516549,270.872421
15,0.312584,-0.113373,-0.056144,-0.215892,0.0,-10.831123,-17.109993,33.551823,-20.115566,45.705769,-20.864548,39.801075,-19.773948,10.745316,0.0,27.008111,11.577745,33.206963,15.042746,35.800591,16.508009,34.751921,16.922033,34.115707,0.0,66.297088,27.390758,90.294639,18.859394,87.945533,9.495254,75.190773,0.612053,55.503822,0.0,12.293667,25.349298,49.522954,43.426385,62.772764,56.860397,72.576778,65.671897,77.180753,-0.428318,296.829331,-40.342483,270.572166
16,-0.093487,2.065835,-0.067406,-0.256931,0.0,-12.3265,-18.214073,32.043229,-20.590519,45.364884,-20.172672,40.547722,-17.870533,13.093495,0.0,27.703384,10.81635,32.388214,12.635184,34.128526,12.701887,31.837747,11.736752,29.241203,0.0,66.147812,27.664616,90.11364,19.18071,87.931549,9.788406,75.201645,0.83345,55.603958,0.0,12.360988,25.483395,49.585778,43.53735,63.013603,56.942315,72.859138,65.759866,77.295893,-0.270052,298.82871,-40.158136,270.248779
17,-0.859085,-2.563914,-0.057438,-0.195835,0.0,-9.340999,-17.367954,33.2986,-19.574535,46.146241,-19.176429,41.206261,-16.999752,13.876591,0.0,28.105786,11.819152,32.932655,15.88249,36.069836,17.836619,34.782142,18.602694,33.979535,0.0,65.975498,27.935188,90.026447,19.44389,87.836712,9.987854,75.071812,0.953156,55.5397,0.0,12.36058,25.565226,49.594164,43.600928,63.10345,57.004621,72.982034,65.872239,77.378725,-0.844992,296.216983,-39.931429,270.005131
18,1.237015,5.924001,-0.020416,-0.250139,0.0,-21.600735,-19.895038,28.344109,-20.728935,44.258858,-19.028034,42.212471,-15.752792,22.557198,0.0,33.463413,10.09166,29.928658,8.826653,29.58482,5.985517,24.741179,3.002947,20.588452,0.0,65.884106,27.997478,90.079319,19.450252,87.706089,9.919224,74.880787,0.825016,55.205829,0.0,12.351046,25.69032,49.811797,43.645562,63.379228,56.945773,73.176326,65.683753,77.557122,0.680397,302.117611,-39.663471,269.731619
19,0.797081,6.072128,-0.101898,-0.041867,0.0,-33.083679,-22.531071,24.45314,-21.736896,42.322998,-18.515854,43.196869,-13.850853,28.828423,0.0,37.65613,8.732187,27.610054,1.483627,23.008598,-6.945946,14.601477,-14.463663,7.261996,0.0,65.97044,27.872772,90.03812,19.281898,87.637928,9.740513,74.70029,0.690365,54.976673,0.0,12.181615,25.638166,49.804128,43.590333,63.381142,56.875674,73.095038,65.556893,77.399338,1.722307,308.193117,-39.52054,269.69313
20,0.006203,-1.810498,-0.117783,-0.070012,0.0,-22.517956,-21.001156,27.554924,-21.422001,43.066452,-18.774216,41.782127,-14.438633,18.242683,0.0,31.320476,7.831608,27.595852,3.996561,25.872262,-1.088165,20.093066,-6.068348,14.931349,0.0,66.189503,27.836907,90.099049,19.216633,87.747128,9.672295,74.622425,0.642574,54.887524,0.0,12.139229,25.762766,49.788739,43.715315,63.249465,56.967027,72.879182,65.565587,77.283123,1.953341,306.394759,-39.413492,269.635258
21,1.562118,0.826097,-0.138393,0.037149,0.0,-23.86861,-22.690555,26.263184,-23.315849,41.644204,-20.493072,40.207009,-15.854358,16.148415,0.0,31.09447,7.289846,26.955969,3.029797,24.975189,-2.533557,18.848708,-8.015574,13.501086,0.0,66.359436,27.877201,90.210983,19.308677,87.924133,9.785259,74.690002,0.765804,54.937797,0.0,11.905208,25.894294,49.612911,43.83726,63.034499,57.076412,72.616607,65.640231,77.195573,3.713693,307.22755,-39.353651,269.679101
22,-0.170139,-1.577784,-0.121846,0.02554,0.0,-13.714153,-20.555225,29.933338,-22.572773,42.941311,-20.654285,38.383381,-16.717895,4.834991,0.0,23.323303,5.354748,25.958119,4.979627,27.292817,3.2962,24.457115,0.980201,22.493736,0.0,66.482998,27.813687,90.158307,19.347645,88.144238,9.902298,74.970143,0.935933,55.186627,0.0,11.722192,25.954377,49.274816,43.906482,62.676717,57.107584,72.344942,65.602044,77.052337,3.692013,305.649945,-39.327038,269.70482
23,-0.787697,-1.297599,-0.193725,-0.059034,0.0,-5.054111,-17.053562,34.806919,-20.870304,43.771237,-20.584122,36.956028,-17.73286,-4.948322,0.0,11.37676,3.425987,23.907907,7.488596,28.684573,10.180025,28.859018,11.733579,31.654212,0.0,66.958797,27.648388,90.46455,19.238319,88.550983,9.933357,75.377231,1.180595,55.6646,0.0,11.415589,26.215471,48.967274,44.290385,62.284504,57.485015,72.050665,65.883837,76.870112,3.031362,304.33437,-39.393717,269.62781
24,-2.259075,-0.5035,-0.591568,-0.59063,0.0,3.585285,-12.421452,41.527908,-17.114799,46.387299,-18.038795,37.487228,-16.382103,-11.666084,0.0,6.610418,2.600198,21.829474,9.862751,28.98689,15.785764,31.675454,20.576534,38.278833,0.0,67.465931,27.444523,91.241535,19.094639,89.753002,10.120319,76.86636,1.784992,56.523067,0.0,11.563407,27.040234,48.921962,45.224977,62.147764,58.233652,72.012367,66.182103,76.788675,0.888136,303.794892,-39.869436,269.001202
25,1.158142,3.377698,-1.291351,-1.35599,0.0,-8.272396,-16.52829,36.819306,-20.02882,44.30175,-20.012009,37.186844,-17.358627,-6.51226,0.0,14.071264,3.043492,20.009134,4.743926,23.275212,5.160062,22.271533,5.1229,24.919774,0.0,67.292392,27.554443,92.145893,19.49945,90.608242,11.073703,78.137432,3.333686,57.556858,0.0,11.215061,27.760479,48.75862,46.102339,61.763417,59.017006,72.12458,66.617098,77.131477,2.128584,307.106526,-41.078481,267.579148
26,3.742401,-8.996294,-2.103161,-3.180146,0.0,-10.898643,-20.780445,21.411667,-23.488106,24.00507,-22.488304,17.9301,-18.580753,-20.952873,0.0,9.831394,9.439229,22.622004,16.594768,31.220144,21.475064,34.419,24.882427,42.760616,0.0,66.780967,27.077751,92.723053,19.658157,91.840049,12.111042,79.968155,5.193031,58.860168,0.0,11.161511,28.374463,49.490436,46.824263,62.417897,59.748736,73.08291,67.323906,78.27602,5.871116,298.027496,-43.181511,264.316266
27,3.823277,-5.015529,-2.240616,-5.537023,0.0,-25.811875,-24.478134,-1.418759,-24.011513,1.009529,-20.173222,0.861191,-13.461731,-20.572552,0.0,10.529174,14.93798,28.42264,21.873749,38.998127,25.98603,41.88912,28.578671,49.11981,0.0,65.103927,26.415756,92.971756,19.946445,91.305244,13.319984,77.935638,7.103428,55.807892,0.0,9.612464,27.683018,49.249164,46.468037,65.146771,59.995922,77.692713,68.416406,83.666991,9.671339,292.889562,-45.445181,258.656838
28,7.42884,-6.826941,-4.015057,-6.413404,0.0,-38.620788,-29.021518,-26.137642,-24.950695,-22.704242,-17.83208,-18.100696,-8.719139,-23.754798,0.0,11.139095,19.940975,39.198149,27.22961,50.719269,31.273892,53.854165,33.323302,58.423103,0.0,64.54636,26.631335,91.525738,21.141701,89.123017,15.219504,76.000054,9.274647,53.976923,0.0,7.608342,24.111708,43.884869,39.242621,58.514079,49.998654,69.551526,56.578296,73.760645,17.009559,285.818012,-49.550858,251.998825
29,10.638714,-11.993831,-5.418823,-6.938524,0.0,-50.991085,-35.154247,-53.434742,-28.625141,-48.975322,-18.986755,-40.174404,-7.394394,-31.033756,0.0,12.896314,25.964862,51.694505,35.63426,65.572144,41.292105,69.857339,43.980952,72.929681,0.0,65.188694,27.787943,88.180035,23.259144,84.731758,17.635797,73.269264,11.348362,53.135382,0.0,4.683473,17.258969,33.268331,24.816009,42.360579,29.594453,48.493846,31.941858,48.745911,27.471559,273.568859,-55.146395,244.804979
30,8.001297,-13.35559,-7.847271,-27.478155,0.0,-54.321476,-34.557941,-73.405975,-26.569496,-72.113045,-15.457466,-59.764286,-2.485862,-38.015957,0.0,6.908884,28.989855,59.809486,44.147988,78.477574,55.02289,86.094302,62.28112,91.539083,0.0,68.954636,27.701174,82.911186,22.788448,77.035103,17.001646,65.940422,10.69051,47.871889,0.0,6.996248,12.408597,27.774755,20.576398,37.155118,27.007938,44.413169,31.741058,45.453614,35.223856,260.132857,-63.242666,217.246412
31,2.021622,-4.056335,-10.930653,-35.503634,0.0,-54.367561,-28.745075,-74.344036,-19.854057,-70.104687,-8.654457,-56.716885,3.882591,-33.30724,0.0,11.432274,22.813591,59.662001,36.040159,76.010954,46.2755,81.789026,53.773037,84.057255,0.0,71.52879,28.421774,83.349415,24.193669,68.908345,18.765353,58.76397,12.689175,43.530024,0.0,6.437487,7.084773,20.339505,15.825254,28.760217,23.859952,37.069513,30.771799,39.957988,36.929289,256.50897,-74.489508,182.175226
32,10.069794,-22.166273,-14.189495,-43.554949,0.0,-57.290898,-33.063927,-81.622433,-24.8172,-76.810719,-13.923958,-63.20961,-1.686928,-41.519806,0.0,15.910845,23.572503,64.824001,37.254233,78.872603,48.205471,84.244407,56.454486,85.196129,0.0,75.584851,31.444205,85.099182,27.702565,62.609494,22.437887,55.185379,16.321999,43.537806,0.0,8.202289,2.202013,13.739868,11.202778,17.512824,19.914829,25.209704,28.033619,28.774574,46.562983,235.239313,-89.115103,139.516893
33,5.987617,-24.471355,-13.098232,-51.09415,0.0,-59.069492,-36.445312,-85.665275,-29.511909,-80.867489,-19.348938,-67.531059,-7.200966,-47.533493,0.0,23.64033,23.030446,60.752575,36.040307,74.414619,46.561045,78.681621,54.801416,80.099547,0.0,78.184662,32.125683,88.242542,28.456593,55.958233,23.41983,48.861317,17.790459,39.418018,0.0,12.904262,-2.405586,13.573433,10.019733,15.687507,22.592889,25.655228,34.506476,31.633903,51.454714,212.554755,-103.309221,90.20954
34,3.395027,-22.449437,-9.913216,-56.095896,0.0,-59.621669,-37.562874,-88.257431,-31.632271,-83.828556,-22.148712,-70.541805,-10.53836,-51.509468,0.0,22.960656,18.40371,49.608095,28.725168,60.999836,37.541966,63.564479,45.008418,66.390091,0.0,78.03233,32.020993,90.588067,26.918999,47.356202,20.87471,38.339825,14.967396,29.72271,0.0,16.801577,-5.420587,18.813072,12.167789,21.782026,30.558668,35.847164,48.127932,46.402187,53.209911,193.241541,-114.862267,37.249867
35,5.745575,-37.606136,-6.702209,-41.016358,0.0,-63.082157,-41.766838,-96.006099,-36.402282,-91.743324,-27.337005,-78.930164,-16.097694,-60.779972,0.0,21.210025,16.684331,45.959689,27.52992,57.337418,37.038119,60.412688,45.376376,64.474148,0.0,76.039501,33.643135,93.553963,27.659054,41.969353,20.541367,32.26918,13.48558,23.127285,0.0,16.797859,-11.098346,20.9866,2.696659,17.338601,18.692368,28.605884,34.935221,38.120036,57.30067,159.349158,-123.219292,-0.052738
36,7.756508,-41.94298,-0.873287,-34.611137,0.0,-65.355766,-46.570267,-106.689354,-42.573738,-105.096451,-34.257156,-91.95076,-23.059433,-72.669788,0.0,12.016581,18.407298,43.925946,30.927645,56.640782,41.521941,61.677028,50.589396,67.786175,0.0,72.544212,35.012798,90.725452,27.042331,35.979652,17.765911,25.455173,8.731498,15.297981,0.0,19.083248,-16.692643,22.995063,-6.750129,13.584899,6.552046,22.161445,21.038692,28.918008,63.459011,121.034636,-125.690746,-31.035417
37,0.623428,-29.094775,2.881382,-27.462928,0.0,-63.777488,-45.912345,-109.019428,-42.914863,-110.111045,-35.766975,-97.887474,-25.274093,-76.626342,0.0,6.749382,14.503023,32.7468,26.628983,45.960764,37.124842,51.657271,46.49551,60.896577,0.0,68.313194,34.516067,86.236839,24.664947,30.575878,13.35561,19.273407,2.664848,8.190078,0.0,20.401052,-20.957713,26.805397,-15.082427,9.88826,-4.781365,15.299857,7.38233,20.077406,62.376554,95.69838,-124.515249,-54.739826
38,0.089333,-30.205893,6.920414,-22.630532,0.0,-64.815273,-45.313797,-113.089737,-42.699692,-115.580177,-36.227005,-103.731319,-26.13105,-80.031292,0.0,1.007674,12.816094,27.155429,25.503192,40.541375,36.77137,48.275774,47.034245,58.974274,0.0,66.443721,33.020885,78.085865,20.302917,29.903629,6.191414,16.849834,-7.303746,3.550392,0.0,20.340253,-23.392186,24.654939,-21.293308,10.2753,-13.722503,12.182813,-3.736375,14.335149,61.19791,68.521931,-118.862812,-74.340914
39,0.441078,-31.697178,5.078178,-19.490378,0.0,-66.963054,-46.792396,-118.051689,-44.67041,-121.608661,-38.912201,-110.780227,-29.090721,-86.219192,0.0,-4.867303,13.086888,27.204996,28.747873,42.442448,42.632843,53.049155,55.001512,65.117427,0.0,65.254246,35.577725,76.54208,22.612827,29.601391,7.66143,16.754494,-7.286568,3.223824,0.0,23.738331,-22.785828,31.998332,-21.662328,10.964579,-15.173626,12.078736,-6.124776,13.371888,60.718122,38.473971,-114.7055,-92.182074
40,-2.443748,-16.373085,7.520599,-9.434357,0.0,-66.917668,-46.431542,-118.801609,-44.68483,-123.406037,-39.36287,-112.647606,-29.652581,-87.122841,0.0,-7.55683,12.142181,22.640246,27.631618,37.954014,41.412877,49.244818,53.694694,62.089243,0.0,64.104561,36.357068,75.959153,23.152749,37.983227,7.145554,21.24479,-9.165115,6.826458,0.0,22.819299,-23.332051,16.467751,-23.783477,16.914799,-18.107392,15.183713,-10.213534,13.67465,57.395834,23.222249,-108.063441,-100.495068
41,-2.276299,-13.47833,5.512059,-8.09422,0.0,-68.828716,-47.568969,-120.404594,-45.990005,-125.659412,-40.820801,-115.341179,-31.333328,-89.507274,0.0,-8.985679,10.298857,21.372126,26.43269,36.502194,41.083018,48.307965,54.296316,61.37626,0.0,64.188961,38.636192,77.924045,26.004924,48.68589,10.255188,27.687206,-6.187374,12.029731,0.0,24.026187,-18.338097,22.049735,-18.586741,31.696477,-13.434367,26.545622,-6.693995,22.583092,54.332302,10.445237,-103.338615,-107.88797
42,-2.420517,-8.367699,12.17028,3.434799,0.0,-71.522197,-47.781212,-121.962227,-46.284462,-127.447117,-41.168174,-117.087043,-32.046844,-91.888447,0.0,-11.968107,8.625136,20.978492,25.517937,36.058893,41.003823,48.455498,54.902099,60.823686,0.0,58.113602,36.307068,69.153675,24.571057,47.442188,10.067677,24.385292,-5.304893,9.660874,0.0,20.88735,-13.454996,22.645878,-12.206462,43.589633,-6.152197,37.499429,0.79941,32.850088,51.447979,2.005077,-91.632141,-104.525632
43,-2.028122,-3.842241,15.864392,15.32975,0.0,-71.917408,-48.286354,-122.28828,-47.044441,-129.151096,-42.12886,-118.675758,-33.368087,-94.148128,0.0,-13.049974,7.207224,20.781008,24.665307,35.807835,40.726713,48.183223,55.202417,60.892785,0.0,43.145702,32.121093,52.737052,23.225601,31.997703,11.824481,10.630016,-0.359951,0.780006,0.0,12.276312,-7.686355,24.505685,-3.455291,47.634172,4.221181,43.487354,12.085034,41.514082,49.374738,-1.993625,-75.812868,-89.352343
44,-1.928764,0.114689,23.346016,26.379489,0.0,-71.600098,-48.426727,-122.114079,-47.294907,-130.167789,-42.220413,-118.994259,-33.321236,-94.210064,0.0,-14.329214,7.138558,20.838825,24.695108,36.081285,40.669482,48.458475,55.004346,60.942254,0.0,22.262706,19.473014,20.596057,12.848728,8.312312,4.973968,-10.696702,-3.113102,-15.00982,0.0,-2.902579,-3.559847,13.201639,4.054658,49.11377,13.923486,47.799894,23.032672,49.028209,47.756853,-2.017998,-52.155973,-63.111916
45,-1.906815,3.184296,18.674446,33.269905,0.0,-71.535724,-47.882949,-121.427055,-46.822128,-129.927143,-41.874412,-118.902671,-33.24868,-94.569351,0.0,-15.534977,7.083001,20.700906,24.715152,35.897534,40.727725,48.499089,55.021865,60.888166,0.0,-3.769936,7.718284,-11.214581,5.586387,-21.742985,3.2677,-32.407677,0.693489,-26.971276,0.0,-0.740795,1.960329,22.395565,7.492066,37.766441,13.261531,35.438487,18.256707,35.255811,46.19137,0.743577,-33.140195,-30.264732
46,-1.703636,4.441084,19.519912,37.979461,0.0,-70.980755,-47.143249,-120.206016,-45.992706,-128.581352,-41.194038,-118.018249,-32.976471,-94.264148,0.0,-15.392927,7.786041,21.553042,25.579521,37.13963,41.540329,49.526121,55.423137,61.171335,0.0,-25.93333,-5.690735,-45.991516,-4.85416,-54.376934,-3.050812,-57.200718,-1.310829,-41.351978,0.0,4.967969,2.086077,13.438144,3.558973,18.984238,4.948339,15.664141,6.077186,13.162718,44.795133,4.747888,-13.312884,7.277956
47,-1.199707,4.578317,18.625794,30.263352,0.0,-70.728046,-46.544906,-119.394962,-45.115242,-127.657894,-40.196846,-117.228687,-32.027321,-93.572113,0.0,-14.395985,8.82398,22.877163,26.645328,38.387094,42.524137,50.735837,56.120751,62.233856,0.0,-43.565289,-17.266045,-74.396179,-14.393895,-80.600884,-9.716606,-77.506363,-4.700562,-55.444061,0.0,18.302145,1.733159,7.348944,-2.3754,3.722566,-6.696696,-2.522096,-10.798996,-8.676058,43.848558,9.058742,5.566042,37.273845
48,-0.951439,4.026812,11.35894,22.823848,0.0,-70.74004,-45.943542,-118.883743,-44.169456,-126.502441,-39.042114,-116.266708,-30.8768,-92.852977,0.0,-13.132219,10.026686,24.605823,27.96365,40.232438,43.842719,52.77491,57.161684,63.908225,0.0,-53.431492,-24.570465,-90.40575,-20.491837,-95.135548,-13.545914,-87.493424,-5.46405,-59.527153,0.0,37.589767,1.335229,7.22683,-10.217001,-5.914726,-21.654986,-17.305911,-32.285962,-28.724773,43.121813,12.863404,17.149676,59.875543
49,-0.530571,3.609139,2.68618,14.70696,0.0,-70.403915,-45.142639,-118.651325,-43.266723,-125.910576,-38.176208,-115.910385,-30.361244,-92.493908,0.0,-11.703204,10.175035,25.956576,28.129276,41.223093,44.155015,53.668253,57.550482,64.480453,0.0,-55.471436,-27.192123,-94.917046,-22.033356,-97.979782,-13.53566,-87.746979,-3.79232,-56.087482,0.0,60.085059,0.606228,9.00447,-19.37334,-11.879069,-38.576718,-31.545556,-55.888372,-51.693641,42.829113,16.194428,20.073727,74.304388
50,-0.238998,2.611524,4.93412,3.913617,0.0,-70.269425,-44.486275,-118.617451,-42.650986,-125.949028,-37.590592,-115.987187,-30.005493,-92.562664,0.0,-10.422513,10.176875,27.802863,28.307086,42.090686,44.634451,54.265144,58.310741,64.763128,0.0,-52.47559,-28.733642,-98.058117,-24.493446,-101.948891,-16.452324,-91.784534,-6.577789,-60.192261,0.0,69.417875,0.875955,11.569255,-20.913024,-10.329627,-41.477276,-31.597531,-59.69897,-54.019958,42.871142,18.617397,25.288874,78.02945
51,-0.064613,1.488845,3.864075,-0.920884,0.0,-70.17397,-43.982598,-118.933434,-42.211419,-126.496285,-37.017518,-116.178566,-29.261696,-92.38575,0.0,-9.118856,10.346016,28.953145,28.456949,42.587302,44.87463,54.689512,58.752739,65.563432,0.0,-53.957016,-30.893395,-101.001663,-26.298546,-104.84586,-17.395203,-93.529999,-6.382828,-61.719223,0.0,71.665466,0.522699,12.07588,-20.341629,-6.369937,-39.59027,-25.60758,-57.007362,-39.510908,43.085003,19.987259,29.431423,76.989583
52,0.066536,1.085369,-2.212967,0.378154,0.0,-69.987465,-43.790703,-118.769131,-42.142022,-126.522652,-36.881447,-116.095196,-28.918808,-92.199429,0.0,-8.578664,10.410755,29.537612,28.521533,42.87843,44.979599,54.859572,58.972625,66.138853,0.0,-52.547012,-30.202126,-98.8419,-25.165375,-102.97427,-15.513496,-91.342587,-3.905571,-58.210705,0.0,71.298081,0.156247,12.959658,-20.768269,-3.248344,-39.581489,-21.643452,-56.421265,-32.314398,43.400368,21.102274,27.467285,77.397383
53,0.157585,0.676933,-1.327332,0.102147,0.0,-69.796509,-43.740166,-119.125718,-42.101212,-126.896119,-36.747048,-116.466957,-28.68393,-92.299954,0.0,-8.768726,10.396324,29.759462,28.489256,42.425571,44.957054,54.474354,59.077304,65.872326,0.0,-51.235748,-29.396461,-98.034141,-24.153991,-102.215137,-14.709343,-91.504909,-3.932716,-59.614334,0.0,69.87639,0.223537,10.926446,-20.388905,-3.457899,-38.748741,-21.921927,-54.742709,-33.438465,43.684822,21.846898,26.266822,77.567221
54,0.1417,0.188764,-0.285095,0.109082,0.0,-69.990074,-43.547927,-119.051662,-41.836143,-126.8218,-36.402694,-116.360984,-28.293274,-92.377647,0.0,-8.833902,10.590622,29.882556,28.767029,42.543435,45.288148,54.548215,59.440891,66.210663,0.0,-49.699402,-28.240196,-95.909271,-23.381447,-101.288486,-14.657181,-91.66246,-4.694092,-61.163761,0.0,69.673558,0.291327,10.365814,-20.120902,-4.248619,-38.358861,-21.764463,-54.054674,-33.61617,43.862022,22.242862,26.017227,77.883503
55,0.237832,-0.114022,-0.911819,0.449574,0.0,-69.908581,-43.343926,-118.656109,-41.477326,-126.60846,-35.819138,-115.921669,-27.39956,-91.726433,0.0,-8.798865,10.635447,29.596263,28.576399,42.69933,44.957394,54.617307,59.158408,66.581734,0.0,-49.075894,-28.088997,-94.899067,-23.132218,-100.681961,-14.393257,-91.345894,-4.730851,-60.638111,0.0,67.745828,-0.216423,9.27456,-19.946877,-4.878412,-37.65106,-21.572531,-52.863391,-32.44826,44.089932,22.384129,25.095486,78.588366
56,0.483055,-0.163638,-1.218155,2.289113,0.0,-70.008213,-43.278992,-118.500985,-41.360711,-126.595391,-35.598038,-115.922562,-27.034493,-91.505104,0.0,-8.784101,10.683068,29.433352,28.472083,42.784662,44.756235,54.856182,58.925689,66.727087,0.0,-44.709789,-26.554436,-92.240204,-22.551476,-99.480995,-14.949234,-91.512966,-6.461701,-61.667862,0.0,68.085035,0.773905,9.277709,-20.661256,-7.323809,-40.301765,-26.222918,-56.737137,-46.378141,44.542202,22.438109,23.846546,81.095097
57,0.341652,-0.421237,-3.280152,0.908558,0.0,-70.033551,-43.421196,-118.227734,-41.447022,-126.361519,-35.543679,-115.644757,-26.832825,-91.025197,0.0,-8.267676,10.93057,29.522909,28.590953,43.179748,44.719544,55.454871,58.729638,66.873726,0.0,-40.490261,-24.443641,-88.740863,-21.035888,-96.386135,-14.352882,-89.052417,-7.165718,-59.00901,0.0,66.56595,1.418531,8.252239,-20.139878,-10.113544,-39.962921,-30.07492,-56.340396,-55.157777,44.835274,22.151006,20.517814,82.137789
58,0.632469,-0.272826,-3.05928,0.570086,0.0,-70.095085,-43.507645,-118.105694,-41.601403,-126.516014,-35.710396,-115.767941,-26.990639,-91.154881,0.0,-8.115146,10.705743,29.470249,28.454133,43.237077,44.652878,55.486167,58.680213,66.762175,0.0,-37.144386,-22.448433,-85.770985,-19.649185,-93.803684,-13.625908,-86.52523,-7.338249,-55.386578,0.0,65.417016,0.906607,7.597246,-20.400625,-11.571162,-39.790366,-31.420079,-55.709153,-57.779249,45.42611,21.981485,17.416901,82.81118
59,0.67733,-0.314908,-1.924782,0.625458,0.0,-70.348549,-43.882782,-118.39642,-42.084343,-126.758469,-36.203202,-116.110039,-27.453072,-91.278397,0.0,-7.975634,10.717333,29.530936,28.582308,43.247049,44.793304,55.677574,58.749972,66.633394,0.0,-34.883331,-20.620285,-83.673145,-18.249756,-91.659176,-12.741142,-84.682651,-7.215935,-52.91027,0.0,64.63386,0.180255,7.413779,-20.934884,-12.32742,-39.744659,-32.212374,-55.287305,-59.270806,46.056525,21.75204,15.445204,83.522101
60,0.5904,-0.283237,-0.524482,-0.392313,0.0,-70.485603,-44.169731,-118.831283,-42.4216,-126.953613,-36.58525,-116.346359,-27.972496,-91.526458,0.0,-7.948315,10.798566,29.906305,28.932767,43.189603,45.240921,55.673671,59.092162,66.325593,0.0,-33.359906,-19.995804,-82.77221,-18.003823,-90.778027,-12.862175,-83.79142,-7.752068,-52.401627,0.0,65.278448,0.193717,7.551433,-20.912197,-12.76431,-39.596667,-32.977048,-54.976528,-61.198629,46.61515,21.517863,14.888947,83.178848
61,0.591683,-0.246582,1.234909,-0.094453,0.0,-70.538567,-44.57238,-119.388199,-42.850525,-127.185768,-37.038208,-116.692921,-28.439575,-91.918282,0.0,-8.211539,10.904191,29.904972,29.199189,42.92123,45.564598,55.434166,59.374034,65.972554,0.0,-34.725621,-19.466332,-83.726338,-17.582406,-91.878674,-12.903237,-84.78891,-8.362267,-53.368515,0.0,65.407419,-0.335299,8.459003,-21.489181,-13.152511,-40.029859,-33.404367,-55.266786,-61.688365,47.192717,21.330346,16.10974,83.14346
62,0.636795,-0.058193,3.740547,-0.154747,0.0,-70.445767,-44.890526,-119.691193,-43.379402,-127.578781,-37.741722,-117.199986,-29.264855,-92.631638,0.0,-8.999975,10.650038,29.346945,29.143903,42.107315,45.684764,54.538346,59.625636,65.215011,0.0,-36.49989,-20.624359,-85.772747,-18.907974,-95.218025,-14.355377,-88.153462,-9.238243,-57.803753,0.0,67.43145,-0.44083,10.158042,-22.118361,-12.048592,-41.199541,-32.584463,-56.852307,-60.156912,47.817381,21.348066,19.838156,83.064626
63,0.469986,-0.330371,3.442199,-1.403766,0.0,-70.836205,-45.292557,-119.716759,-43.943756,-127.727692,-38.397698,-117.50956,-29.95594,-93.088829,0.0,-9.000722,10.776774,29.100172,29.264002,41.91931,45.847952,54.179873,59.881591,65.002744,0.0,-38.812957,-21.668243,-88.905956,-19.634262,-98.339847,-14.948844,-90.855045,-9.408165,-61.613834,0.0,69.32507,0.293617,11.657756,-21.692919,-10.427366,-41.317028,-31.518565,-57.536273,-58.557483,48.270195,21.1256,23.263183,81.768765
64,0.405121,-0.243673,3.080086,-1.664717,0.0,-71.071987,-45.394638,-119.692646,-44.20665,-127.991478,-38.791374,-117.743294,-30.434784,-93.658379,0.0,-9.085036,10.699148,28.740296,29.205604,41.685727,45.908183,53.692205,60.119991,64.811583,0.0,-41.828533,-23.633056,-93.322517,-21.086654,-102.088291,-15.98172,-93.796463,-9.887924,-64.991443,0.0,70.199628,0.99291,11.831342,-20.890664,-9.490519,-40.847428,-30.613841,-57.455133,-56.997989,48.67309,20.97383,26.341043,80.195951
65,0.484245,-0.131368,1.542,0.153839,0.0,-71.569611,-45.716469,-119.621841,-44.764229,-128.350765,-39.456299,-118.236809,-31.075493,-94.377422,0.0,-8.877486,10.714128,28.225249,29.237962,41.437237,46.034444,53.409524,60.396744,64.741682,0.0,-43.429825,-23.719757,-94.587307,-20.963081,-103.725975,-15.908821,-95.359863,-9.728371,-66.33062,0.0,70.872516,0.986154,12.881939,-21.237578,-9.4473,-41.561757,-30.50847,-58.575354,-56.355717,49.175285,20.947846,27.900993,80.455174
66,0.370422,0.023848,0.421783,0.753022,0.0,-72.052517,-45.66996,-119.067569,-44.832962,-128.542854,-39.591499,-118.373554,-31.251159,-94.598373,0.0,-8.778624,10.54568,27.869838,29.049796,41.329458,45.930827,53.137156,60.457346,64.836135,0.0,-43.337848,-24.480285,-95.171802,-21.712097,-103.624088,-16.295471,-94.474216,-9.667945,-65.465,0.0,71.088309,0.390404,11.06166,-22.030788,-10.565422,-42.590945,-31.702699,-59.845851,-57.299696,49.55722,21.055755,28.334289,81.292257
67,0.504959,0.17655,-0.829399,-0.031382,0.0,-72.717018,-45.608551,-119.183933,-44.673316,-128.709995,-39.417709,-118.547779,-31.106208,-94.663593,0.0,-8.333242,10.391249,28.144288,28.82642,41.660027,45.744088,53.259527,60.409502,65.097217,0.0,-42.54523,-24.214553,-95.550338,-21.389625,-102.729732,-15.732696,-92.936611,-9.314254,-62.133831,0.0,71.315501,0.301583,9.831191,-21.678779,-11.598475,-41.934192,-32.706445,-59.035808,-58.847593,50.116664,21.34164,27.559375,81.37021
68,0.511208,0.622395,-1.585533,1.408478,0.0,-72.665279,-45.578018,-119.118393,-44.629532,-128.566761,-39.419678,-118.389679,-31.165398,-94.528141,0.0,-8.047406,10.045835,27.773112,28.454917,41.607557,45.401768,53.340309,60.118602,65.256298,0.0,-41.255699,-24.098419,-92.832481,-21.237831,-99.965515,-15.250534,-90.315479,-8.746765,-59.541343,0.0,70.109589,-0.088532,9.169849,-21.844727,-12.906757,-41.928746,-33.738981,-58.805807,-59.998979,50.760389,22.055663,26.106359,82.870316
69,0.579735,1.14996,-1.822037,1.605344,0.0,-72.542839,-45.599968,-118.973362,-44.636902,-128.398785,-39.505554,-118.506077,-31.411514,-94.977768,0.0,-7.885046,9.62411,28.126441,27.891043,41.636067,44.828847,53.27639,59.592463,65.101693,0.0,-39.973148,-23.428825,-89.700531,-20.461921,-96.740238,-14.25492,-86.579578,-7.731903,-55.210544,0.0,69.075709,-0.558446,8.061923,-22.425533,-14.476514,-42.389719,-35.111674,-58.955305,-61.780899,51.557928,23.345648,24.502126,84.615685
70,0.527939,1.678308,-1.321586,0.230539,0.0,-72.101727,-45.673577,-118.649952,-44.870247,-128.123532,-40.005341,-118.787361,-32.224892,-95.610363,0.0,-7.517755,9.096416,28.35398,27.286031,41.43775,44.263158,52.802425,59.128347,64.839884,0.0,-38.786087,-23.426033,-88.057205,-20.412689,-94.095474,-14.071358,-83.41943,-7.62648,-52.3606,0.0,67.698119,-0.344315,6.598488,-22.063342,-14.902814,-41.790648,-35.67162,-58.107737,-63.039131,52.388518,25.185434,23.483191,85.007702
71,0.372894,2.451337,-1.540901,1.428219,0.0,-71.186474,-45.641418,-117.890579,-44.981255,-127.506809,-40.38636,-118.789021,-32.842896,-95.957405,0.0,-6.671107,8.420533,28.278206,26.69369,41.135197,43.800654,52.828904,58.76126,65.009061,0.0,-37.653397,-23.176873,-86.157944,-19.750923,-91.251332,-13.076935,-81.176079,-6.357079,-49.723412,0.0,64.797461,0.274956,6.343342,-21.313649,-14.723256,-40.875364,-35.770452,-57.103595,-63.567202,53.196316,27.780263,22.377194,86.579413
72,-0.128288,3.6221,-0.869797,-3.96605,0.0,-70.127266,-45.278504,-116.213688,-44.707375,-126.098431,-40.282265,-117.949608,-32.923027,-95.910713,0.0,-5.929275,8.002433,27.712881,26.640171,41.028233,44.027587,53.388881,59.102844,65.907258,0.0,-40.167389,-24.216522,-83.802979,-20.264076,-87.50243,-13.255211,-77.759193,-6.478455,-49.424194,0.0,58.888959,0.335947,7.445018,-14.673782,-6.872821,-27.768352,-20.666048,-38.725907,-36.41286,53.593157,31.376833,22.032526,82.587833
73,-0.545288,5.550213,0.194824,-5.483418,0.0,-69.030716,-44.432968,-114.530995,-43.758545,-124.198677,-39.433342,-116.355721,-32.357369,-94.778298,0.0,-4.731613,7.67449,28.451021,26.663581,42.006916,44.302512,54.367255,59.565115,66.783126,0.0,-48.573898,-27.070713,-82.88475,-21.392692,-83.085731,-12.981605,-73.805202,-4.74527,-47.28883,0.0,42.120437,2.198253,8.133906,-4.650473,3.515556,-10.467615,-2.656021,-15.577968,-5.767106,53.501541,36.707162,22.681022,76.884531
74,-0.721848,7.557349,-5.881489,-2.960303,0.0,-67.93269,-43.200439,-112.697708,-42.264862,-121.747124,-37.872414,-113.554962,-30.933151,-91.762424,0.0,-1.603516,7.436571,28.937219,26.863492,43.798067,44.703451,56.535615,60.056543,68.755188,0.0,-48.570495,-23.98241,-74.240646,-18.097564,-72.515232,-10.017532,-65.485309,-2.224807,-43.125034,0.0,29.913839,4.576048,13.525244,4.596044,16.33282,4.887115,16.200324,4.664946,23.521346,53.155317,43.609197,17.175157,73.268914
75,-0.304848,10.269785,-11.915504,0.056131,0.0,-66.951587,-42.246986,-110.874229,-40.765045,-119.260757,-36.020301,-110.444721,-28.947532,-88.584674,0.0,1.483752,7.012754,29.280693,26.589851,45.90446,44.350375,59.07352,59.65913,71.291765,0.0,-40.738106,-14.892311,-58.985378,-9.92038,-56.615753,-3.644028,-52.531975,1.947533,-35.023567,0.0,21.719541,6.39202,21.581899,12.010709,29.847556,17.434124,34.720534,21.483284,49.805604,52.859727,52.739115,5.268911,72.185178
76,0.136734,13.114602,-17.889576,0.93505,0.0,-65.94017,-41.732437,-108.864921,-40.101059,-117.290016,-35.223175,-107.925911,-28.185951,-86.490692,0.0,3.071145,7.043499,28.600185,26.618133,48.098718,44.218958,61.431984,59.361468,74.209651,0.0,-24.911076,0.159302,-36.487186,2.706024,-35.308994,5.188728,-34.803669,6.285049,-23.884174,0.0,19.576702,8.555205,33.187135,18.355995,44.891055,27.804327,53.48344,35.3957,73.20013,52.759248,64.3072,-12.857878,71.573711
77,-0.133918,15.63644,-16.925457,6.340594,0.0,-63.837754,-41.548668,-107.68459,-39.622971,-115.35624,-34.414513,-104.952576,-27.286606,-83.789086,0.0,5.065349,7.851558,30.887716,27.308286,51.828343,44.513531,64.455481,59.162439,77.349387,0.0,-7.32938,14.97361,-13.240494,14.289345,-15.099415,12.323959,-18.514103,8.965965,-13.49548,0.0,22.414942,10.939542,48.595178,19.303803,58.578133,27.593443,63.001364,34.752428,74.902669,52.200142,78.074038,-30.208523,76.044703
78,-0.801728,18.410311,-18.767773,8.108854,0.0,-63.929695,-41.782219,-106.41893,-39.390678,-112.763832,-33.617798,-101.712375,-25.959274,-81.256942,0.0,0.580688,9.358571,34.390335,28.440232,55.575173,45.059022,67.426756,58.903761,79.896585,0.0,17.264076,30.920941,14.2496,25.698212,5.505043,18.051831,-2.258136,8.700657,-2.827045,0.0,35.482707,11.153273,60.294609,17.883691,67.047122,25.283076,67.833785,32.128128,69.799233,50.909505,94.443992,-49.465205,82.1132
79,-0.999481,19.854529,-15.0429,7.510567,0.0,-62.820831,-42.320755,-105.565899,-39.509262,-110.348865,-33.057678,-99.08733,-24.728233,-79.155464,0.0,-7.355332,11.292557,38.523316,29.972897,59.343523,45.822245,69.857704,58.498944,81.31038,0.0,35.384957,41.208035,42.17936,33.71352,22.718373,23.104,12.356114,10.690529,7.621331,0.0,39.510408,10.165233,62.969468,17.416193,64.686975,25.635848,65.585781,33.711268,64.700999,49.447225,112.202468,-64.970904,87.527714
80,-2.844429,22.093884,-9.089325,7.495876,0.0,-62.917288,-42.799272,-104.522924,-39.564388,-107.663212,-32.590736,-96.326992,-23.860256,-77.373945,0.0,-10.338955,13.679248,41.675328,32.237179,61.608472,47.617299,71.396098,59.34293,81.652625,0.0,47.258515,44.588276,62.937355,36.117462,34.256047,24.376866,22.395699,11.08659,14.726521,0.0,38.318341,8.382217,60.208659,17.943077,60.097817,28.44505,62.652555,38.898913,61.737871,46.456243,132.378184,-74.206782,93.105422
81,-4.544266,23.891222,-3.579918,7.489349,0.0,-64.708437,-43.51209,-104.071912,-39.391216,-104.495533,-31.706909,-93.04256,-22.584697,-75.36656,0.0,-6.965166,16.087223,44.988874,34.611631,62.471805,49.576232,71.813197,60.569615,80.54791,0.0,50.232617,41.602135,76.82452,33.807003,40.225823,22.868683,28.020905,10.790142,18.557797,0.0,32.814157,6.764536,52.743454,20.230034,53.79042,34.159235,59.710691,47.796826,61.762386,41.940559,154.53258,-77.758118,98.857945
82,-2.811492,22.396201,-3.943359,11.383948,0.0,-67.695998,-43.566771,-102.937609,-39.110928,-104.230443,-31.285882,-93.562512,-22.101437,-75.493556,0.0,-4.507264,17.163237,45.342957,35.541846,62.100556,50.458998,71.48878,61.463606,79.222753,0.0,57.434441,38.359016,88.084396,31.911323,45.570923,22.635384,33.774639,12.332474,24.300716,0.0,24.923393,4.886755,38.906804,21.527552,40.49999,37.897679,50.436459,53.672217,56.203095,39.306239,175.494504,-81.524305,108.807616
83,-1.804688,20.233461,-2.18066,14.34606,0.0,-69.093161,-43.17568,-103.010084,-38.531353,-104.997345,-30.893967,-94.749252,-21.985645,-75.922937,0.0,3.304669,18.392145,44.514279,36.770531,60.838451,51.507384,70.869559,62.397409,78.494481,0.0,63.779892,35.14397,94.220913,29.814411,49.791275,22.31203,39.265674,13.942978,29.505283,0.0,17.625191,3.705043,28.89487,22.111859,30.151516,39.829398,42.696001,56.880824,53.343143,37.861239,194.433111,-83.345277,121.858822
84,-1.610916,18.831097,0.412342,16.371399,0.0,-71.07324,-42.363287,-102.431414,-37.696415,-105.929512,-30.53611,-95.7449,-22.013844,-76.693869,0.0,12.672114,19.547211,42.983375,37.734973,58.846148,52.218958,70.247806,63.092903,77.933775,0.0,67.890976,31.306755,92.433197,25.740623,55.528038,18.639232,44.768451,10.847809,33.041427,0.0,13.784106,2.871437,24.269881,21.883265,30.352211,40.042641,43.247636,57.294471,54.337293,36.641447,212.115873,-82.541811,137.081886
85,-0.955353,15.485343,0.909771,17.414196,0.0,-72.58691,-40.485821,-101.919205,-35.859947,-106.941639,-29.149086,-96.686691,-21.103867,-77.080421,0.0,10.211208,20.041491,42.581071,38.221529,57.47816,52.761145,69.637779,63.750495,78.116062,0.0,69.683326,29.276848,91.305256,23.556473,63.147995,16.457737,51.809097,8.580848,37.342025,0.0,11.009524,4.206235,23.595321,22.987314,32.318505,40.623738,46.108866,57.205255,57.457283,36.096439,226.476586,-81.221695,153.371452
86,-0.166969,10.562445,8.628708,21.682972,0.0,-71.995915,-37.546189,-101.058152,-33.130783,-107.371651,-26.912316,-96.57098,-19.339394,-75.04961,0.0,4.242451,21.055433,42.539821,38.740911,58.06905,52.814472,70.137291,63.420056,79.717274,0.0,66.364837,24.803341,77.328861,19.633037,55.751838,13.64661,44.251499,7.048015,31.035793,0.0,7.645813,4.276673,25.684232,24.325846,37.894289,43.541129,54.782915,61.162017,67.29035,36.307383,235.991068,-72.215074,174.006461
87,-0.080063,19.61855,3.126114,19.988818,0.0,-73.403229,-34.886696,-101.783146,-31.156632,-105.290863,-25.965912,-93.478855,-19.583428,-72.72131,0.0,7.820196,18.531052,36.518934,28.635939,42.374627,35.551355,47.407026,40.041141,52.374761,0.0,65.344287,24.546718,75.071605,19.451934,59.746376,13.799789,47.773635,7.516605,32.402687,0.0,5.494478,7.316757,28.082766,28.371178,42.132862,47.66129,60.176221,63.964029,73.618051,36.575455,254.530684,-68.740825,192.916345
88,-0.567558,17.190364,2.722904,18.800802,0.0,-74.505249,-31.009575,-100.302681,-27.691269,-102.132969,-23.632233,-90.391285,-18.964257,-70.879418,0.0,11.766121,16.195206,29.401162,18.976173,26.760171,19.186236,25.805966,17.803805,26.28,0.0,64.126373,23.106491,75.103637,18.047413,66.497646,12.750961,54.379371,7.055042,37.267708,0.0,5.192074,11.039109,31.594796,31.966003,47.582188,50.323647,66.205841,64.772564,78.568248,36.30324,270.781781,-65.722578,210.77788
89,-0.202996,14.886295,3.211899,16.758408,0.0,-75.901439,-28.185493,-99.715679,-25.495468,-99.17054,-22.742637,-87.852379,-20.077354,-70.321197,0.0,16.093195,14.507963,22.52639,10.220978,12.173847,3.661466,4.863129,-3.776334,1.063898,0.0,63.301689,22.746757,74.419372,17.866573,68.367061,12.835247,56.769573,7.592159,39.388355,0.0,7.133432,16.066741,35.871061,36.928438,52.078494,54.316317,70.967686,67.068011,82.124244,36.317144,284.9893,-62.293779,226.857512
90,-0.517982,10.743979,3.066753,15.112079,0.0,-75.17767,-24.620224,-96.570751,-22.047272,-94.531162,-20.276688,-84.121433,-19.360222,-68.75671,0.0,26.14631,15.026765,18.943705,4.846691,1.39777,-7.911265,-11.583525,-21.527873,-20.017582,0.0,62.91663,21.442509,74.624256,16.565163,69.075668,12.094208,58.3778,7.893494,41.629223,0.0,8.596534,19.896032,38.281896,41.03883,55.356787,57.916144,73.693325,69.310157,83.735152,35.977421,295.227429,-59.048767,241.463741
91,0.265549,2.958079,-3.2337,9.13627,0.0,-74.200001,-20.262154,-92.568192,-18.287385,-90.670384,-18.020783,-82.176579,-19.060135,-68.684212,0.0,29.228088,15.140954,18.076754,5.603492,0.31578,-7.016044,-12.418613,-20.883149,-20.988545,0.0,68.609345,22.955223,86.591057,16.927597,83.947769,11.581455,73.850006,6.846726,54.492783,0.0,11.568557,24.878685,39.360923,44.674744,55.314154,58.859542,70.886805,67.184115,78.584143,36.471125,297.83957,-62.054312,250.254073
92,-1.394051,-7.813267,2.120224,8.157822,0.0,-68.888695,-20.848709,-76.643807,-18.498779,-72.976399,-17.82106,-67.418186,-18.253716,-59.472221,0.0,23.840661,18.424582,23.790989,15.994678,14.972289,10.002023,8.426128,1.771113,4.492985,0.0,68.57206,22.113773,88.753075,15.369633,88.215775,9.632515,78.385872,4.957707,59.760212,0.0,13.380487,27.232117,41.24063,45.570656,57.229875,58.209347,71.418798,65.356229,76.766445,35.360172,289.848351,-59.65099,258.233943
93,-6.284609,-7.607052,1.88792,6.133162,0.0,-55.733276,-19.281486,-54.148264,-17.830427,-49.882959,-17.622345,-47.261518,-18.153477,-45.024313,0.0,17.795382,20.194719,29.875726,25.286368,29.694508,26.236065,28.234759,24.057856,28.707977,0.0,68.244839,23.902451,90.048123,16.980309,89.28114,10.746117,79.247258,5.528012,60.62867,0.0,13.962855,28.499063,41.8363,46.616905,57.468305,58.829692,71.342042,65.56907,76.772287,29.37335,282.149818,-57.465283,264.275624
94,-12.006718,-7.329687,1.551384,4.628799,0.0,-34.976657,-13.512108,-23.121992,-13.589166,-19.761091,-14.652465,-21.057192,-16.206653,-24.338258,0.0,10.816881,20.465865,35.36535,33.504174,43.299617,42.169696,47.041044,46.909596,52.241886,0.0,67.881649,24.856511,92.080525,17.960724,90.928631,11.641434,80.793766,6.355042,62.410756,0.0,13.907835,29.384847,42.146496,47.440285,57.348731,59.414764,70.97086,65.905671,76.784476,17.774854,274.743885,-55.505677,268.828177
95,-10.850715,-4.543336,1.611214,2.851202,0.0,-15.330895,-8.756928,4.746019,-10.830443,8.080644,-13.498249,2.649679,-16.175823,-5.480032,0.0,5.250156,18.337415,36.88583,38.020204,53.374753,53.518248,61.748028,65.15583,70.745026,0.0,67.3969,25.745636,92.191166,18.84486,90.892101,12.329807,80.565273,6.7435,62.647007,0.0,14.680518,29.82083,42.557297,47.914577,57.588298,59.812289,71.009059,66.264219,77.042815,7.381754,270.186597,-53.436848,271.665427
96,-9.202778,2.803456,0.873963,2.099452,0.0,0.214153,-7.507736,28.38838,-10.911123,34.097654,-14.452469,25.857336,-17.836189,11.247694,0.0,3.410537,16.121687,36.441166,36.20804,53.021775,52.542172,60.374477,65.477513,68.238615,0.0,66.638866,26.384502,92.758609,19.31147,91.262935,12.516689,80.501575,6.626575,62.15942,0.0,15.214116,30.139363,43.311937,48.211609,57.974177,60.005629,70.661873,66.289129,76.596014,-1.380072,272.995505,-52.121933,273.770331
97,-9.734173,2.233624,0.483993,1.363153,0.0,15.184605,-0.49086,42.820604,-5.762346,47.269403,-11.542362,36.296648,-17.658565,20.136629,0.0,2.697492,14.668044,35.384789,35.860508,52.257787,53.048982,59.42646,66.57583,66.694471,0.0,65.837139,26.934986,93.104817,19.63337,91.344189,12.503288,80.150219,6.271568,61.200153,0.0,15.844563,30.536752,44.110369,48.578024,58.557965,60.231327,70.508732,66.358561,76.004333,-10.703259,275.230043,-51.226954,275.134398
98,0.01787,1.248846,0.347019,1.133663,0.0,14.849316,-2.82225,42.775463,-8.720558,47.350124,-14.838947,35.645794,-21.148579,19.259457,0.0,4.782879,14.705886,35.731876,36.107208,52.203132,53.301696,58.725544,66.682862,65.563624,0.0,64.919152,26.627072,92.952507,19.047627,91.005341,11.78714,79.469879,5.530667,60.197159,0.0,16.757938,31.096841,44.918682,49.113635,59.250978,60.593605,70.408227,66.469057,75.046795,-10.316076,276.484079,-50.510622,276.273251
99,-0.099815,1.21573,0.11063,0.822454,0.0,14.021976,-3.489624,41.74712,-8.874344,47.821987,-14.347664,36.091724,-20.203812,19.858257,0.0,5.242079,15.221501,34.786922,36.647449,51.085313,53.598012,57.177275,66.469366,63.783087,0.0,64.243824,26.353615,92.768795,18.394879,90.79794,10.868042,78.84438,4.47377,59.023625,0.0,17.843918,31.293219,45.746656,49.32739,59.941298,60.721699,70.383453,66.386806,74.137544,-10.126642,277.717553,-50.110743,277.113449
100,-1.37835,0.726123,-0.092525,0.499005,0.0,14.65186,-3.799461,42.125027,-8.756687,49.634732,-13.540661,38.543164,-18.922084,22.585911,0.0,4.677989,15.949242,33.966839,37.329248,49.816231,53.995116,55.6173,66.223995,62.257124,0.0,63.613792,26.180042,92.624016,17.96925,91.225571,10.218292,78.889526,3.669239,58.252395,0.0,18.865764,31.749271,46.332495,49.713898,60.287001,60.949818,70.131104,66.386275,73.34068,-11.255505,278.46511,-49.953781,277.633888
101,-1.160843,0.770435,0.082958,0.362672,0.0,15.410832,-3.403026,42.706501,-8.199039,50.194165,-12.636692,38.407116,-17.847347,23.190365,0.0,5.211278,16.323994,33.05875,37.785905,48.721137,54.340005,54.260631,66.087329,60.863405,0.0,62.994564,26.030136,92.391369,17.725536,91.377697,9.882477,78.648548,3.256897,57.601147,0.0,19.663542,32.106324,46.631713,49.981105,60.465547,61.106084,69.771865,66.455226,72.882801,-12.188599,279.240824,-49.643074,278.001839
102,0.015313,0.693519,0.137615,0.255425,0.0,14.423801,-4.803246,41.560924,-9.283871,49.410015,-13.184784,37.860477,-17.916333,22.912182,0.0,4.625415,16.898161,32.700017,38.058545,48.203829,54.18243,53.451527,65.408729,60.065886,0.0,62.578491,25.663124,91.687409,17.329239,91.202225,9.498471,78.405373,2.866631,57.21856,0.0,20.222087,32.193367,46.810665,49.976794,60.140233,61.055275,69.449416,66.40974,72.606431,-11.997076,279.945045,-49.329249,278.267966
103,-1.634011,0.906422,0.075417,0.038446,0.0,17.022526,-3.979797,43.530339,-8.449093,51.762097,-12.221077,39.952,-17.067993,24.649876,0.0,3.734739,17.133047,31.854333,38.039551,47.596082,53.806148,52.439944,64.65283,58.92538,0.0,62.393783,25.609669,91.374275,17.159694,91.059723,9.180118,78.249504,2.402218,56.926323,0.0,20.908121,32.166209,47.119294,49.875807,59.982485,60.944606,69.405783,66.314323,72.589103,-13.476546,280.846536,-49.099291,278.301481
104,5.177136,1.02071,-0.079617,-0.173581,0.0,9.176697,-11.197231,36.513336,-15.587586,45.077728,-18.553402,34.065536,-22.161415,18.806007,0.0,5.858002,17.586196,32.660274,37.219456,47.651237,51.710141,51.154338,61.607348,56.926359,0.0,62.241658,25.51537,90.997891,17.032414,90.543515,9.046395,77.975476,2.273209,56.738377,0.0,21.353651,32.269012,47.154159,50.047696,59.746142,61.137502,69.408365,66.463846,72.607567,-8.162155,281.85736,-49.041653,278.118014
105,7.956756,0.633707,-0.055481,-0.080658,0.0,-2.520378,-21.665027,26.717423,-25.908828,36.108857,-27.728119,26.224434,-29.520984,10.781067,0.0,8.852082,18.664433,34.652318,36.688415,48.790125,49.674502,50.526534,58.541194,55.382673,0.0,62.272145,25.354981,90.706478,16.777165,90.013676,8.781601,77.597569,2.068474,56.514164,0.0,21.728031,32.260626,47.444113,50.162799,59.810819,61.301746,69.509783,66.608774,72.620152,-0.107037,282.479192,-48.998772,278.025481
106,0.606148,4.969587,-0.260627,-0.071828,0.0,-2.401108,-21.368156,25.092453,-25.746425,35.964226,-27.439144,26.97741,-28.619522,10.77887,0.0,6.495192,15.323772,29.903366,32.362798,44.533298,44.902615,46.475682,53.866626,50.708981,0.0,62.485393,25.342575,90.469516,16.735256,89.66399,8.764228,77.517047,2.122478,56.665271,0.0,21.850198,32.122861,47.622708,50.089044,59.713352,61.287,69.586132,66.629707,72.734612,0.595831,287.436883,-49.162679,277.941757
107,6.556721,1.442206,-0.299859,-0.026923,0.0,-15.394512,-29.902748,16.232311,-33.389134,27.903019,-33.45171,21.500461,-32.423653,5.851833,0.0,11.069984,15.83672,31.321587,31.091357,44.380799,42.052746,45.064685,49.792753,48.27352,0.0,62.629063,25.292748,90.384121,16.693841,89.61913,8.726899,77.648266,2.108632,56.834897,0.0,21.997559,32.049167,47.66429,50.062738,59.934258,61.279923,69.92293,66.62862,72.993593,7.238348,288.85433,-49.376742,277.890075
108,0.701134,3.608904,-0.300453,0.137999,0.0,-14.751789,-27.154942,15.273021,-30.213478,26.761333,-30.172989,21.005161,-28.831868,5.97678,0.0,7.476727,12.940033,26.078532,27.998871,39.80166,39.057024,41.96495,47.245376,45.145899,0.0,62.838787,25.077118,90.240361,16.583645,89.709606,8.807041,78.037091,2.448212,57.457409,0.0,21.875146,31.958309,47.763586,50.050463,59.867099,61.345824,69.693356,66.74896,72.905032,8.011237,292.439581,-49.60544,278.004421
109,2.110931,-0.801434,-0.262825,0.09517,0.0,-16.790428,-29.213459,13.576939,-32.385292,25.037441,-32.253777,19.428669,-30.715015,4.344006,0.0,7.623175,13.141142,27.060142,28.695107,41.266454,40.359365,43.842619,49.065197,47.036931,0.0,62.915188,25.220593,90.529782,16.809517,90.358784,9.021721,78.693409,2.647934,58.186924,0.0,21.80969,31.911613,47.791818,49.928209,59.971778,61.238007,69.776755,66.740698,73.196493,10.185133,291.607929,-49.8053,278.069373
110,-5.293442,3.837528,-0.305454,0.129515,0.0,-7.689102,-19.962948,19.916439,-23.507686,31.446179,-24.526966,24.835224,-24.394718,8.828808,0.0,2.464941,9.340751,21.245254,25.509244,36.748399,38.184825,41.140385,48.004215,44.879088,0.0,62.910233,25.329105,90.852928,17.01329,90.920609,9.243324,79.322525,2.883041,58.827782,0.0,21.549116,31.841823,47.578409,49.757136,59.853712,61.047853,69.792761,66.595337,73.445471,4.958524,295.417015,-50.043921,278.170446
111,5.847439,-4.888965,-0.415478,0.140248,0.0,-17.666634,-29.267258,13.662643,-32.438953,24.327255,-32.458546,18.420616,-31.218407,3.128128,0.0,7.999754,13.903587,28.231745,29.974959,42.627458,42.089303,45.576843,51.044681,49.317177,0.0,62.898915,25.575051,91.376004,17.343842,91.603718,9.567604,79.964138,3.185269,59.389103,0.0,21.463505,31.891778,47.305632,49.740587,59.673511,60.997353,69.738532,66.553828,73.557091,10.862137,290.503461,-50.403225,278.286105
112,-5.304153,2.361101,-0.412376,0.206506,0.0,-5.152543,-20.817982,21.042869,-24.952629,31.475189,-26.336678,23.396392,-26.553578,7.187622,0.0,2.003554,10.782684,23.549792,28.095783,39.718866,41.51852,44.188459,51.819921,48.447385,0.0,62.923015,25.962684,91.898769,17.808826,92.219959,10.019176,80.523228,3.626015,60.010517,0.0,21.096114,31.939523,47.181081,49.735152,59.338527,60.996303,69.401374,66.576824,73.40558,5.614878,292.852394,-50.758707,278.480443
113,2.909454,-3.681535,-0.314964,0.145039,0.0,-11.536182,-28.454269,17.823303,-32.926632,28.304535,-33.874111,20.346634,-33.519676,3.418167,0.0,5.562095,13.943243,30.003957,31.413905,45.515266,44.708818,48.395762,54.587192,52.322322,0.0,62.833156,26.422634,92.219776,18.284431,92.560237,10.337734,80.636615,3.725692,60.007381,0.0,20.915408,31.922246,47.001339,49.697806,59.328005,60.958895,69.463421,66.576429,73.466441,8.59001,289.164684,-51.007993,278.619307
114,-5.44582,4.472966,-0.31176,0.237406,0.0,-2.875934,-19.981808,23.597477,-24.744427,34.503742,-26.600853,25.508938,-27.338653,7.822529,0.0,1.081422,10.45075,24.126799,27.84431,40.19869,41.363007,43.960143,51.706954,48.133396,0.0,62.846363,26.464336,92.294483,18.331134,92.56303,10.408367,80.497387,3.830978,59.837368,0.0,20.632739,31.943982,46.826535,49.764867,59.306108,61.023041,69.298523,66.610243,73.235013,3.24527,293.639746,-51.218673,278.858809
115,4.954422,-4.730218,-0.198269,0.2821,0.0,-10.868408,-27.963238,17.90926,-32.680492,28.262638,-33.886162,19.548123,-33.77219,2.481709,0.0,5.023248,14.292825,30.339571,32.081698,45.932217,45.575966,48.849368,55.602109,52.890549,0.0,62.935615,26.45383,92.176231,18.316692,92.41745,10.450275,80.312278,3.970058,59.688102,0.0,20.356481,31.896459,46.813037,49.771734,59.303528,61.052497,69.077247,66.636327,72.983701,8.359892,288.911267,-51.256742,279.142648
116,-0.399284,0.346951,-0.113171,0.193662,0.0,-11.189553,-27.257035,17.658107,-31.964207,27.978595,-33.267094,19.460918,-33.319783,2.159626,0.0,5.622029,13.852346,30.449449,31.5996,45.907751,45.104563,48.930755,55.139685,52.76448,0.0,63.039196,26.356361,92.011173,18.163193,92.065075,10.316265,79.96629,3.895764,59.277775,0.0,20.046012,31.830769,46.839626,49.757284,59.391781,61.070108,68.961576,66.638624,72.840243,8.199251,289.267178,-51.13127,279.34527
117,-0.282269,-0.036754,-0.133518,0.121463,0.0,-12.32024,-26.898765,17.698151,-31.386394,27.577194,-32.683319,18.952996,-32.819092,1.527603,0.0,4.719646,14.293825,30.917308,31.835734,46.243673,45.178627,49.314114,55.101165,53.248949,0.0,62.972214,26.364349,91.930275,18.091473,91.803978,10.20821,79.588783,3.770141,58.731697,0.0,19.871542,31.778269,46.947356,49.779045,59.629199,61.140318,68.926786,66.734399,72.722238,8.204229,289.240875,-50.977541,279.477184
118,-0.965973,-0.058687,-0.168388,0.13285,0.0,-10.736217,-25.815788,18.456665,-30.213936,28.771363,-31.542,20.055451,-31.741848,2.648461,0.0,4.887088,14.647197,31.252167,32.095678,46.487784,45.386355,49.630609,55.282142,53.641693,0.0,62.896591,26.372543,91.942405,17.996109,91.501785,10.061462,79.296272,3.580009,58.283203,0.0,19.632197,31.743664,46.978565,49.706896,59.622838,61.059215,68.953931,66.656618,72.750074,7.572166,289.191747,-50.812019,279.619593
119,4.338993,-3.079778,-0.142937,0.066715,0.0,-20.769493,-33.816387,12.828473,-37.781559,23.042576,-38.098205,15.301793,-37.151676,-1.708568,0.0,10.14463,17.982153,36.559665,35.029021,50.857158,47.633379,52.920869,56.633749,56.613754,0.0,62.756653,26.230511,91.809768,17.787609,91.287758,9.822967,78.982887,3.303016,57.826835,0.0,19.641275,31.661005,47.108599,49.645837,59.683527,61.04311,69.02713,66.673266,72.770996,12.254076,286.117613,-50.612039,279.691952
120,-5.741615,5.439248,-0.220883,0.018155,0.0,-13.451694,-25.199203,19.275936,-29.221779,29.056217,-30.36224,20.584248,-30.508175,2.699398,0.0,4.657575,14.075019,30.330839,30.640752,44.686711,43.18914,47.60774,52.450282,51.196995,0.0,62.607846,26.246762,91.790623,17.800393,91.38184,9.755665,78.803708,3.114098,57.454548,0.0,19.809742,31.797028,47.190714,49.764422,59.928095,61.148926,69.167464,66.761396,72.814134,6.824856,291.552409,-50.520527,279.705655
