takenoko1/special-research/HandMotion_SimilarSearch_自分用/NewProject/handData/test_key/d4_feature_d3/59.csv
frame,vel_0x_L,vel_0y_L,vel_0x_R,vel_0y_R,posFromWrist_0x_L,posFromWrist_1x_L,posFromWrist_2x_L,posFromWrist_3x_L,posFromWrist_4x_L,posFromWrist_5x_L,posFromWrist_6x_L,posFromWrist_7x_L,posFromWrist_8x_L,posFromWrist_9x_L,posFromWrist_0y_L,posFromWrist_1y_L,posFromWrist_2y_L,posFromWrist_3y_L,posFromWrist_4y_L,posFromWrist_5y_L,posFromWrist_6y_L,posFromWrist_7y_L,posFromWrist_8y_L,posFromWrist_9y_L,posFromWrist_0x_R,posFromWrist_1x_R,posFromWrist_2x_R,posFromWrist_3x_R,posFromWrist_4x_R,posFromWrist_5x_R,posFromWrist_6x_R,posFromWrist_7x_R,posFromWrist_8x_R,posFromWrist_9x_R,posFromWrist_0y_R,posFromWrist_1y_R,posFromWrist_2y_R,posFromWrist_3y_R,posFromWrist_4y_R,posFromWrist_5y_R,posFromWrist_6y_R,posFromWrist_7y_R,posFromWrist_8y_R,posFromWrist_9y_R,posFromBody_0x_L,posFromBody_0y_L,posFromBody_0x_R,posFromBody_0y_R
6,-0.79367,-0.851044,-0.028691,-0.157328,0.0,30.486534,20.438919,78.534942,13.747741,79.035713,5.861435,68.346176,-1.514477,38.109878,0.0,22.107586,21.744889,36.924956,40.849911,53.298337,54.238697,60.540759,63.252763,65.871487,0.0,63.382496,25.75462,90.551594,17.988934,90.014065,9.595322,78.548596,1.819691,57.50687,0.0,17.536043,27.462495,47.450252,45.065389,62.189136,57.755123,73.593943,65.696004,80.162409,-36.407003,282.964498,-43.11751,280.39042
7,0.47462,-0.552654,0.000309,0.016376,0.0,30.173459,19.978249,78.39893,13.170056,78.748272,5.183075,67.718846,-2.213665,36.05785,0.0,21.629811,22.168608,37.283874,41.585494,53.717845,55.115775,61.209429,64.188516,66.671525,0.0,63.420571,25.772072,90.578453,18.080395,90.093521,9.696751,78.688088,1.845932,57.595986,0.0,17.507279,27.546093,47.687435,45.100426,62.15053,57.774279,73.56949,65.752259,80.17613,-36.082432,282.325344,-43.26725,280.320296
8,0.221913,-0.592174,0.179215,0.024602,0.0,31.442585,19.873718,78.99765,12.784366,78.867599,4.562267,67.042946,-2.973061,32.877434,0.0,20.689328,22.298235,37.708322,42.043423,54.125978,55.813295,62.01852,65.017627,68.150312,0.0,63.260879,25.675357,90.464607,18.031597,89.903091,9.68613,78.510337,1.835666,57.500129,0.0,17.422421,27.637903,47.853741,45.180454,62.120963,57.840091,73.534897,65.804931,80.161445,-35.976654,281.662808,-43.20417,280.274536
9,0.905147,-0.717305,0.224647,-0.013734,0.0,32.549813,18.792195,79.226681,11.272225,78.683064,2.804718,65.993466,-4.875423,29.264809,0.0,19.457135,22.156567,38.244105,42.321238,54.618462,56.444928,63.240981,65.916762,70.185469,0.0,63.262665,25.747479,90.268936,18.157849,89.638001,9.835808,78.214234,1.950703,57.288735,0.0,17.415296,27.761442,47.960162,45.382885,62.173798,58.072817,73.55598,66.059838,80.239943,-35.156599,280.898891,-43.064615,280.21419
10,1.398617,-0.48379,0.213787,0.067135,0.0,33.167027,17.391163,79.089958,9.288551,78.389054,0.354321,65.142128,-7.639664,25.852547,0.0,18.541229,22.262518,39.03335,42.457435,55.393615,56.627154,64.559081,66.194182,71.893325,0.0,63.240269,25.664498,90.113171,18.112999,89.450627,9.857506,77.994999,2.044258,57.248852,0.0,17.399871,27.854327,47.943156,45.531234,62.178232,58.21877,73.47337,66.206075,80.216947,-33.837153,280.39188,-42.929999,280.258104
11,0.721184,-0.040582,0.143349,0.018093,0.0,31.941662,16.872208,78.935829,8.675445,77.879173,-0.538399,63.92379,-8.750095,20.899841,0.0,18.185546,22.3814,39.259134,42.55069,55.690671,56.619953,64.964237,66.187327,73.106053,0.0,63.281399,25.802788,90.038189,18.199642,89.235775,9.875919,77.776371,2.007076,57.096188,0.0,17.511083,27.912212,47.899931,45.669308,62.23046,58.374653,73.559363,66.368824,80.351069,-33.173664,280.32938,-42.844345,280.254279
12,0.505154,-0.049894,0.119133,0.07189,0.0,32.403865,16.642524,78.68938,8.297069,77.040126,-1.154778,62.638607,-9.590962,18.6179,0.0,16.13684,22.4514,39.058704,42.744252,55.889421,56.858075,65.329132,66.442097,73.716703,0.0,63.308178,25.791435,90.022419,18.128975,89.080067,9.820255,77.581272,2.01947,57.052059,0.0,17.53067,27.922808,47.746888,45.786288,62.250282,58.528177,73.533539,66.525337,80.333396,-32.722732,280.255604,-42.779434,280.302287
13,1.472019,0.785885,-0.162586,0.00741,0.0,29.997963,16.204765,77.053322,7.860248,74.969925,-1.67791,59.483619,-10.257466,12.621757,0.0,14.242325,22.427972,37.766083,42.789318,55.068005,56.838525,64.775923,66.374122,74.104792,0.0,63.287681,25.838939,90.20597,18.125473,89.185089,9.820289,77.716736,2.072742,57.224716,0.0,17.556272,27.85592,47.613372,45.76922,62.306672,58.540255,73.613358,66.555619,80.373534,-31.285297,281.028737,-42.976604,280.296945
14,1.544689,0.914968,-0.06712,0.093972,0.0,25.767437,15.357628,74.831394,7.229462,72.985851,-2.20443,56.669071,-10.755146,7.11438,0.0,14.23578,22.210067,37.067612,42.314346,54.497036,56.128247,63.972674,65.605416,73.944612,0.0,63.224522,25.602081,90.321522,17.842896,89.251568,9.616779,77.884678,2.038868,57.62273,0.0,17.483888,27.688403,47.505543,45.651524,62.074157,58.468822,73.357254,66.506021,79.991718,-29.77066,281.934016,-43.073776,280.381228
15,1.807342,0.647243,-0.215938,-0.059589,0.0,23.412838,13.938023,72.640561,6.054429,70.692204,-3.191757,53.044728,-11.533767,-0.99773,0.0,13.265928,22.004019,36.615154,42.126823,54.067377,55.828399,63.434111,65.259836,74.563462,0.0,63.162071,25.558033,90.555473,17.758358,89.502433,9.561035,78.233963,2.069549,57.986984,0.0,17.49935,27.53704,47.526044,45.542892,61.98904,58.43271,73.333455,66.506799,79.8923,-27.989171,282.572414,-43.315567,280.312794
16,1.669053,0.722628,-0.082524,0.080658,0.0,21.586635,12.886516,70.455036,5.081634,68.359096,-4.063683,49.51855,-12.363167,-7.855935,0.0,12.574533,21.738516,36.157423,41.863235,53.491999,55.521759,62.749423,64.991852,74.827667,0.0,62.937184,25.327687,90.669972,17.554619,89.656758,9.456436,78.439808,2.087643,58.288502,0.0,17.329055,27.28831,47.358565,45.316157,61.777459,58.273642,73.12984,66.403973,79.547684,-26.347995,283.289944,-43.425968,280.388354
17,1.157352,0.310988,-0.043464,-0.065727,0.0,20.996269,11.968323,69.06205,4.366974,66.781632,-4.653877,46.926796,-12.824455,-13.604702,0.0,12.119469,21.430542,36.110159,41.647343,53.3384,55.288268,62.461653,64.8107,75.434488,0.0,62.661792,25.204845,90.747905,17.409736,89.655017,9.294193,78.453014,1.911037,58.242542,0.0,17.269614,27.107406,47.302804,45.116938,61.598123,58.091959,72.999583,66.220426,79.365656,-25.212771,283.602161,-43.49156,280.323856
18,-0.290943,-0.449852,0.105732,0.066221,0.0,22.144695,11.621544,69.368946,4.387916,67.142475,-4.373383,47.59425,-12.300648,-12.993794,0.0,12.533518,21.511633,36.809655,41.765299,53.966624,55.354959,62.832304,64.816345,75.5406,0.0,62.453063,25.083732,90.694038,17.27148,89.611793,9.147731,78.300933,1.759243,58.125411,0.0,17.228242,26.9277,47.232038,44.944531,61.422727,57.951403,72.771638,66.138545,79.05762,-25.521389,283.154387,-43.403503,280.392155
19,0.362011,-0.378999,0.043773,-0.044769,0.0,23.62326,10.916141,69.117233,3.815861,66.607864,-4.681721,47.248833,-12.317196,-14.60091,0.0,11.948494,21.515622,37.221962,42.133096,54.281353,55.934449,63.081615,65.406036,75.915721,0.0,62.22678,25.126499,90.702152,17.271618,89.541859,9.065918,78.100422,1.570358,57.881962,0.0,17.321682,26.815969,47.184046,44.797602,61.393384,57.80051,72.761412,66.007387,79.012147,-25.17477,282.776151,-43.375122,280.348149
20,-0.492886,-0.182053,0.130589,0.046856,0.0,24.293736,11.487763,70.098164,4.212971,67.475613,-4.290413,48.816159,-11.919765,-10.127758,0.0,12.394777,21.238523,37.550561,41.883711,54.53873,55.793819,63.289689,65.285784,75.263613,0.0,61.987564,25.021648,90.646087,17.148468,89.351143,8.926506,77.826164,1.422477,57.702758,0.0,17.440256,26.776016,47.028916,44.692083,61.245862,57.669649,72.65987,65.900818,78.823907,-25.6808,282.596722,-43.257677,280.397629
21,-0.214519,-0.266824,-0.118721,-0.022292,0.0,24.986366,11.683811,71.012077,4.176269,68.359108,-4.374504,50.278999,-11.981461,-5.549309,0.0,13.293987,21.025164,38.002254,41.477209,54.942133,55.372768,63.742629,64.842923,74.798633,0.0,61.905418,25.086021,90.857689,17.193157,89.447914,8.952404,77.883934,1.454429,57.819877,0.0,17.564757,26.857181,46.991977,44.722897,61.067786,57.693373,72.545731,65.951281,78.753215,-25.902483,282.33264,-43.383562,280.378079
22,1.439266,0.020119,-0.044804,0.044387,0.0,22.227711,10.339874,69.722042,2.62429,67.577007,-5.789291,50.143238,-13.266518,-4.002903,0.0,14.914564,21.034808,38.513917,41.090243,54.879629,54.861511,63.79209,64.229431,74.179411,0.0,61.81667,25.041836,90.992695,17.15546,89.545384,8.941567,77.94833,1.495697,57.959667,0.0,17.71418,26.837556,46.910355,44.680708,60.96339,57.667252,72.456019,65.97987,78.66338,-24.473019,282.355457,-43.438168,280.425164
23,2.03738,0.249916,0.01038,-0.039694,0.0,18.45726,8.361992,67.294739,0.430573,65.575264,-7.916405,48.420479,-15.272793,-6.271797,0.0,16.359339,21.173549,39.416165,40.585075,54.929029,54.024015,63.677482,63.236053,73.866275,0.0,61.671684,25.076042,91.084076,17.191658,89.482773,8.961593,77.847107,1.502518,57.906624,0.0,17.853983,26.940865,46.806479,44.738063,60.875014,57.711269,72.436704,66.037262,78.666444,-22.450745,282.605339,-43.442894,280.385436
24,4.336453,-0.283842,-0.165299,-0.071568,0.0,13.249614,3.686577,62.237537,-4.558503,61.167423,-12.641259,44.23724,-19.491543,-11.95578,0.0,17.588086,22.063521,40.723816,40.79315,55.49612,53.742569,64.136967,62.6236,74.460018,0.0,61.782555,25.19727,91.313004,17.312016,89.679726,9.086129,78.023095,1.658924,57.957665,0.0,17.965368,27.104281,46.818767,44.873987,60.920079,57.796891,72.523611,66.057231,78.747225,-18.143108,282.32577,-43.637009,280.318141
25,3.990806,1.36792,-0.3544,-0.11372,0.0,3.937924,-1.234588,56.288464,-9.037983,57.102986,-16.434448,40.830311,-22.62577,-16.9888,0.0,22.280648,21.351724,41.159082,38.534443,54.464543,50.439404,62.746298,58.723209,73.099063,0.0,62.248787,25.350757,91.460792,17.491104,89.898193,9.261875,78.189399,1.813076,57.913925,0.0,17.895307,27.209875,46.90691,44.947063,61.094524,57.815738,72.559056,66.014179,78.64693,-14.20043,283.703811,-44.039537,280.214542
26,2.163906,1.626592,-0.422322,-0.363426,0.0,-3.144653,-4.124473,52.184327,-11.103321,54.999001,-17.810314,39.448449,-23.627517,-20.165897,0.0,27.343614,20.379476,41.362995,35.881547,52.937221,46.594292,60.781733,54.183331,71.328198,0.0,62.881772,25.375363,91.539837,17.521122,90.256016,9.289387,78.418431,1.850899,57.732525,0.0,17.776783,27.095636,47.131891,44.821006,61.570299,57.651568,72.727375,65.807822,78.596505,-12.10726,285.343643,-44.532595,279.864356
27,-0.445221,3.065167,-0.593387,-0.519172,0.0,-7.736023,-4.925239,50.023636,-10.773536,55.038346,-16.723308,40.464615,-22.191307,-17.929561,0.0,32.19317,19.289693,41.037484,31.949046,50.364303,40.370135,56.650693,46.332211,65.952688,0.0,63.62162,25.175995,91.721786,17.281208,90.600838,9.16555,78.683945,1.896355,57.777649,0.0,16.955996,27.123535,47.50185,44.888967,62.255184,57.66099,72.972042,65.691706,78.459814,-12.633007,288.427091,-45.206508,279.363465
28,8.064732,1.2398,-1.195152,-1.411615,0.0,-18.080269,-13.353516,39.14732,-18.78582,44.517414,-23.460045,31.411182,-27.482334,-27.223549,0.0,31.574517,18.120757,40.41336,30.578347,49.188662,38.814531,55.081145,44.687724,65.066088,0.0,64.717369,25.20821,91.692329,17.124,90.73796,8.95166,78.359138,1.668376,57.272964,0.0,16.065852,27.3962,49.003126,45.208242,64.247562,57.843044,74.214436,65.688594,79.028684,-4.683712,289.704951,-46.517097,277.98991
29,2.60273,2.119818,-2.287011,-2.37865,0.0,-22.968121,-17.484135,35.359394,-22.504166,40.621754,-25.994351,27.50964,-28.541817,-27.755219,0.0,27.585724,16.73945,39.087912,28.515599,46.941267,36.251654,52.510685,42.027552,62.245848,0.0,65.787506,24.894024,91.599312,16.63218,90.875565,8.639305,78.310776,1.754254,57.196656,0.0,14.568836,28.07149,51.526408,45.895623,67.056958,58.299181,76.159759,65.820282,79.775814,-2.246836,291.928682,-48.969962,275.715173
30,7.593784,-3.74767,-4.422866,-3.879347,0.0,-28.600313,-21.920454,17.914994,-25.969888,21.435677,-27.993284,10.615076,-28.931179,-36.065277,0.0,23.087522,19.649074,39.238577,31.819524,47.018005,39.580625,52.979723,45.196652,62.878697,0.0,65.736351,24.927898,91.547744,16.82603,91.094306,9.253852,78.060859,2.781841,56.936714,0.0,11.132328,29.264015,55.253911,47.080799,70.461024,59.289399,78.75177,66.553162,81.374903,5.171785,288.41374,-53.567991,272.068554
31,13.54905,-8.381939,-6.393036,-5.484029,0.0,-39.617724,-28.628157,-14.874802,-30.974059,-13.843873,-30.921164,-19.563143,-29.667733,-50.017994,0.0,20.558966,25.287553,40.408871,38.352804,48.530211,46.406231,55.44165,51.681297,64.978001,0.0,63.956405,24.782295,90.991035,16.972412,90.130485,10.100303,77.37593,4.34404,57.402031,0.0,6.450003,31.056975,58.999481,48.603502,73.793459,60.268032,80.971994,67.014993,81.930385,18.505091,280.36416,-60.176771,266.916884
32,18.841335,-12.771023,-7.931809,-6.514607,0.0,-49.91815,-35.0287,-42.524426,-35.32168,-43.394966,-32.833952,-45.144362,-29.12788,-63.63517,0.0,17.549498,29.635462,44.771155,44.970547,54.004558,54.540478,61.846663,60.519782,71.432661,0.0,59.256523,23.715409,89.323036,16.630245,89.322807,10.618046,76.967217,5.545647,57.645664,0.0,0.346408,31.721669,61.010506,48.940993,75.123946,60.053276,81.648717,66.438788,81.188355,37.087143,267.941506,-68.367863,260.750646
33,13.188515,-13.24592,-11.805937,-10.033824,0.0,-53.16025,-32.631781,-62.618008,-30.690211,-64.508446,-27.073271,-62.466574,-22.957718,-65.398922,0.0,17.665231,32.909147,49.639495,48.382541,59.131509,57.811915,66.463185,63.108952,73.300919,0.0,54.243027,23.234688,89.410138,17.487608,90.554026,12.9205,79.495062,9.088669,61.213475,0.0,-5.226537,32.479636,61.029457,49.318411,74.105916,59.865561,80.475181,65.716388,79.483092,49.954176,255.18283,-80.495282,251.204066
34,20.261535,-18.509315,-15.007141,-13.431913,0.0,-59.414732,-30.536058,-87.867611,-26.620222,-90.350258,-22.599603,-83.522764,-19.010628,-72.143268,0.0,19.963753,35.483497,53.996394,51.51215,63.952796,61.247115,70.885848,66.207513,75.004008,0.0,48.991757,23.945286,90.98243,19.965037,93.436861,16.938063,83.77426,14.190869,66.823803,0.0,-9.723806,33.207908,59.113108,49.606082,71.229199,59.592587,77.706157,64.882819,77.316394,69.77972,237.555558,-95.938414,238.654196
35,18.85088,-16.285375,-13.490467,-12.711927,0.0,-60.111351,-30.424301,-100.268349,-26.370712,-103.078686,-22.684616,-94.381428,-19.812676,-76.66317,0.0,16.623927,34.891836,53.385183,50.820182,64.130829,60.299586,70.59254,64.682346,73.530477,0.0,43.218601,24.719467,92.434937,22.34622,95.743464,20.758055,87.936304,19.294659,72.564194,0.0,-13.08461,31.708398,52.33432,46.917975,62.888176,55.62495,69.344187,60.006031,69.193041,87.952572,222.515183,-110.106909,227.187269
36,16.468872,-14.37126,-10.824692,-8.708229,0.0,-56.725823,-31.288742,-100.747513,-28.441544,-103.309994,-25.795555,-95.567139,-23.827355,-79.347565,0.0,9.456557,30.701922,48.693053,46.26252,59.127428,55.286762,64.422748,59.147348,66.980228,0.0,40.651497,25.78236,93.606171,24.645911,98.005686,23.940405,91.59997,23.053677,76.85693,0.0,-13.552221,27.65399,39.812325,38.799612,47.062311,44.113105,51.876923,45.883317,51.493373,103.627058,209.579904,-121.725987,219.915021
37,13.467842,-14.135472,-11.327934,-13.825003,0.0,-54.34481,-33.72226,-107.859329,-33.243576,-111.548744,-32.465172,-103.990746,-31.762276,-87.181274,0.0,1.761295,26.771076,38.74064,41.599697,48.678356,50.099061,53.989645,53.566964,57.465897,0.0,37.824806,29.332329,97.741905,29.477446,102.540373,29.323134,96.104662,28.878205,82.130516,0.0,-16.800391,24.543164,28.58815,34.722319,34.196045,39.270934,39.370377,40.498779,41.753788,116.191612,197.359667,-133.957209,208.005253
38,9.822556,-13.885988,-8.009989,-14.175486,0.0,-52.474892,-36.495369,-113.672493,-38.189278,-118.379815,-38.681603,-110.582131,-38.508088,-93.975838,0.0,-4.368804,23.559017,28.053694,37.55334,37.030561,45.25663,42.70435,48.124122,46.685708,0.0,35.787575,32.429467,101.99334,33.721207,106.887017,34.195713,100.069222,34.318108,86.480278,0.0,-17.330241,22.152417,19.815448,31.839895,23.778848,35.889586,29.064881,36.684746,33.505057,125.127331,185.74782,-142.854035,196.103908
39,3.755058,-10.610128,-2.932239,-11.812879,0.0,-50.647293,-39.523979,-117.472756,-42.91626,-123.31453,-44.177216,-114.905869,-44.11377,-98.117706,0.0,-9.944052,21.362962,18.305403,34.471562,26.392756,41.153179,32.216289,43.03543,36.849657,0.0,34.239601,34.667072,105.047527,36.579986,109.871097,37.291168,102.193428,37.578003,88.327011,0.0,-17.784291,19.719834,12.607397,29.166004,14.968387,32.845378,19.775841,33.269628,25.156797,128.069464,177.587634,-146.599199,186.740971
40,0.134605,-8.98392,-1.104618,-12.396247,0.0,-51.554786,-40.696518,-120.207206,-45.090889,-127.013237,-46.962753,-118.186226,-46.988228,-101.001434,0.0,-11.693885,19.80789,12.649881,32.483879,19.191584,38.660587,24.897519,40.131445,29.025485,0.0,34.028137,36.233494,108.494797,38.544639,113.968426,39.342773,105.456127,39.638626,90.9333,0.0,-15.589916,19.784684,9.206913,29.577311,11.274638,33.418162,15.702488,33.685295,22.157752,127.524358,170.898479,-148.383528,176.639489
41,-2.762832,-6.627387,-1.038128,-14.222787,0.0,-53.029244,-41.011826,-121.360886,-45.97863,-128.613854,-48.173767,-119.500031,-48.189537,-101.909043,0.0,-12.073947,19.414539,10.666963,31.695622,16.763841,37.578793,22.279042,38.968313,25.461794,0.0,32.388336,38.18288,113.180202,41.300388,119.560867,42.557796,110.231804,43.277893,95.431778,0.0,-15.444445,21.821991,10.516157,34.713352,14.469875,40.843118,20.312008,42.665138,29.076972,124.161925,166.48607,-150.021257,164.63168
42,-4.280503,-3.455961,2.1702,-8.127774,0.0,-53.687416,-40.888344,-121.932106,-46.201812,-129.83028,-48.645904,-120.36692,-48.808891,-102.538192,0.0,-12.509386,20.16309,11.11337,32.241162,16.471898,37.757537,21.768465,38.76003,23.737661,0.0,33.552796,38.556324,115.689068,41.86425,122.546791,43.45554,113.568901,44.437809,98.180248,0.0,-9.985981,24.139063,12.610335,37.359172,16.890442,43.447392,22.289083,44.837233,30.099164,119.366781,164.830828,-148.365698,158.304625
43,-4.456787,-0.839954,3.710919,-2.379738,0.0,-53.883499,-41.033661,-121.327606,-46.26123,-129.146221,-48.676575,-120.148292,-48.662269,-101.95388,0.0,-11.623107,20.954657,11.757773,32.798373,16.619827,38.111638,21.449969,39.056358,23.407618,0.0,33.960365,38.883865,117.023174,42.078952,124.110214,43.508022,115.39207,44.231838,99.61623,0.0,-8.087402,25.289696,12.963104,38.360431,17.488532,44.119892,22.303076,45.078344,29.0757,114.389591,165.273196,-145.175182,157.207209
44,-3.752243,1.997453,3.255592,0.815526,0.0,-53.721748,-41.002098,-120.717316,-46.071556,-128.611072,-48.384041,-119.63871,-48.252983,-100.86264,0.0,-9.790503,21.48802,12.318158,33.136556,16.42703,38.25133,20.629331,39.14739,22.671936,0.0,33.846245,39.250214,117.56321,42.505074,124.947281,43.833183,116.508923,44.392662,100.804516,0.0,-5.817939,26.752118,12.896981,39.421833,17.99134,44.752475,22.549879,45.418922,28.486267,110.155638,167.858278,-142.4013,158.610364
45,-2.726829,4.360567,1.936558,4.328111,0.0,-53.138352,-40.788254,-120.271363,-45.594658,-128.001046,-47.757386,-119.141831,-47.571923,-99.72329,0.0,-8.376418,22.281945,13.344289,33.75175,16.625471,38.670418,20.083754,39.401913,22.177809,0.0,33.917598,40.01992,118.563915,43.336029,126.347225,44.550178,118.010811,44.911159,102.284042,0.0,-5.706245,27.593023,13.002043,39.857384,18.538177,44.781905,22.849134,45.151049,28.353418,107.017851,172.370313,-140.8757,163.089943
46,-1.006531,6.787359,0.202286,7.290352,0.0,-52.074738,-40.161713,-119.211136,-44.648621,-127.292679,-46.682053,-118.382469,-46.476357,-98.358147,0.0,-5.976971,22.348733,15.758606,33.979893,18.801308,39.231753,22.234582,40.307729,24.11829,0.0,33.787616,40.065982,118.54684,43.257568,126.213397,44.20824,117.912288,44.214042,101.539466,0.0,-4.670937,28.813273,15.104027,40.975091,20.469027,45.936082,25.114658,46.316057,30.045021,105.720291,178.853928,-140.964443,170.076551
47,1.4309,10.325706,-2.121781,11.326063,0.0,-50.850608,-39.765152,-117.502853,-43.569648,-125.32703,-45.114212,-116.374145,-44.594421,-96.32357,0.0,-2.124091,23.705761,21.729093,35.634446,26.646846,41.434773,28.844358,43.167243,29.933129,0.0,33.526932,40.441452,117.252136,43.226303,124.242851,43.770573,115.927666,43.24807,99.92403,0.0,-3.812841,29.389664,20.626144,41.257019,27.108814,46.348291,31.919294,47.155319,36.131006,106.943458,188.564143,-143.293957,180.787123
48,3.024147,11.948902,-2.471123,18.598032,0.0,-47.697029,-39.580741,-112.062171,-42.082763,-118.021694,-42.286262,-109.436279,-40.703544,-91.150749,0.0,-0.447135,25.832927,34.603807,37.145429,40.700549,42.86521,41.954058,44.664752,41.436601,0.0,32.635174,39.067549,108.392991,41.468382,114.545523,41.733548,107.148423,40.700901,92.719901,0.0,1.157543,29.360469,27.56087,39.691776,34.359875,44.376854,38.624235,45.464519,41.647004,109.72459,199.661374,-146.008095,198.533484
49,4.112915,18.097725,-2.584224,25.709686,0.0,-42.290428,-33.881881,-96.017005,-35.727218,-100.398365,-36.054313,-93.733016,-35.3703,-78.878517,0.0,2.811681,25.088723,42.190808,36.405362,51.847621,42.934999,53.92761,45.8326,52.275453,0.0,31.177345,36.266264,92.901661,38.220434,97.599786,38.2462,92.067169,36.635238,80.441488,0.0,8.951963,28.009369,35.472505,35.560994,41.337349,39.253594,44.218179,40.384794,45.703709,113.633634,216.733153,-148.79619,223.217224
50,4.312077,21.217262,-4.759221,25.850803,0.0,-33.588181,-27.000435,-75.852299,-27.439156,-77.904579,-26.985947,-72.314312,-26.144497,-60.634872,0.0,8.215973,24.766966,48.433281,34.473038,59.406663,40.321129,60.964212,42.971914,57.56789,0.0,28.8454,32.327397,74.893817,33.528992,77.251494,33.138365,73.169758,30.958272,64.502421,0.0,17.27235,26.460367,41.487601,31.090703,46.168122,33.510065,47.374435,34.359677,46.920254,117.851801,236.652958,-153.649321,247.77057
51,4.06469,23.852628,-6.070884,24.802423,0.0,-22.341271,-19.175743,-51.93433,-17.635163,-50.809616,-15.592919,-45.853947,-13.647297,-36.926537,0.0,15.00669,25.766854,51.941754,31.9513,60.992895,35.043371,60.272027,35.42484,54.77235,0.0,25.793867,27.60775,55.566976,27.762542,55.718588,26.845258,52.504921,24.276123,46.933737,0.0,25.246885,24.701209,44.83477,26.109483,48.327052,26.66318,47.169522,26.714013,44.688397,121.888447,259.202263,-159.748249,271.26967
52,4.15068,18.67971,-5.855313,18.595223,0.0,-12.807701,-11.559723,-27.122852,-8.148811,-21.932762,-4.434494,-17.685322,-1.00597,-11.442329,0.0,21.943249,23.595993,53.869355,26.124691,60.047224,26.357583,58.531789,24.555681,50.378524,0.0,21.505549,22.262879,35.086161,21.988701,34.104773,20.487208,32.051308,17.093674,28.77843,0.0,32.408117,23.824069,46.221277,22.843305,47.964614,21.874485,45.349318,20.959628,41.701838,126.109714,276.487733,-165.532975,288.470653
53,4.63369,15.173101,-5.402801,8.584092,0.0,-5.792267,-3.648994,-7.245746,0.90818,0.653618,5.329605,4.677372,9.286755,9.949791,0.0,30.03632,20.930969,49.478456,20.905238,53.516044,18.973518,51.165607,15.449842,41.073144,0.0,16.344332,16.740767,20.537252,15.175283,18.602634,12.450411,16.348366,7.997177,13.741814,0.0,36.365064,24.328124,48.279979,22.214186,49.277779,20.141391,45.79673,18.025322,40.75605,131.009497,290.343935,-170.669683,295.737846
54,4.554222,6.842032,-5.699764,-1.044743,0.0,-1.101562,-1.741379,1.733334,4.744652,12.626702,11.471695,18.060459,18.111363,23.822411,0.0,36.455671,20.617796,50.119981,17.63417,50.213286,12.83733,45.031124,6.704205,32.53405,0.0,11.427114,12.36751,13.003046,9.21916,10.093139,4.942983,6.558861,-0.73415,3.347809,0.0,36.0635,25.30693,49.430735,23.620786,50.62731,21.263396,47.085325,18.378151,41.636821,135.891363,296.008257,-176.041803,293.515393
55,4.240689,1.03067,-2.893765,-3.818578,0.0,1.021225,-1.098908,6.439384,6.391685,19.029304,14.463478,25.097854,22.783607,30.931411,0.0,39.940265,19.109764,51.526544,14.93908,50.373751,9.12266,43.881127,2.16529,29.958608,0.0,6.982693,8.698609,6.949494,4.224541,3.374142,-1.508526,-0.952274,-8.513054,-4.884475,0.0,35.877879,25.889799,51.723035,24.984081,53.190138,22.74327,49.837992,19.399485,43.695864,140.462689,296.209779,-178.604931,288.867667
56,3.621208,-4.719251,-0.154976,-6.419795,0.0,-0.026711,-1.737717,6.43277,5.99398,20.076072,14.503052,26.35588,23.49527,32.08271,0.0,40.042561,17.05234,54.28648,13.382488,54.07312,8.123366,47.730438,1.742597,32.806722,0.0,3.562489,6.083428,3.123494,0.598893,-0.926044,-6.485595,-5.903595,-14.958412,-10.620655,0.0,35.794676,26.116065,55.703775,26.059921,57.354129,24.022899,54.294038,20.239636,46.834007,144.373003,290.921449,-178.470801,281.878793
57,3.243644,-3.985223,-0.344959,-4.131238,0.0,0.013848,-2.409439,4.311425,4.468987,16.847741,12.107094,22.091607,20.221619,27.107964,0.0,38.402804,16.614319,54.696971,13.845418,55.005093,9.46162,48.88685,3.685783,34.38999,0.0,2.107349,4.777062,3.656696,-1.249924,-1.316963,-8.748882,-6.897617,-17.542763,-11.970692,0.0,36.188792,25.052611,57.721691,24.66162,58.879363,22.22238,54.9767,17.795122,45.038342,147.86087,286.699392,-178.571537,277.510721
58,0.108239,-2.872679,-4.020023,-5.43542,0.0,-0.209015,-2.749604,2.917648,4.182815,14.699478,11.88295,20.082412,20.067947,25.724922,0.0,36.614302,16.502181,54.985556,14.031732,54.933081,9.825899,48.681802,4.064585,34.218275,0.0,-1.742089,4.478531,5.828064,1.009186,2.416797,-3.985543,-1.384415,-10.359833,-4.64233,0.0,28.172218,24.155329,58.369577,25.022058,61.04011,23.725929,57.539368,20.27991,47.62629,148.210894,283.762696,-182.349775,272.011284
59,-0.623314,-1.680623,-3.681656,-1.620479,0.0,-0.247421,-2.631798,2.348099,4.081856,12.93267,11.53656,17.934768,19.454132,24.008766,0.0,35.251025,16.385706,55.188961,14.010081,54.925089,9.955277,48.98297,4.315415,34.726739,0.0,-2.739407,4.821876,8.33147,3.42905,6.442886,0.492325,4.040977,-3.729389,1.376816,0.0,23.461044,21.727772,55.704751,22.695895,58.928752,21.787806,56.11481,18.871037,45.903947,147.850622,282.061149,-185.768389,270.369881
60,-0.814842,-0.693371,-3.74754,-4.234386,0.0,-0.970643,-2.303536,1.725334,4.381874,11.71598,11.623123,16.693771,19.141227,23.141418,0.0,34.132108,16.915068,55.812233,14.503023,55.14518,10.279924,49.181918,4.369101,34.766704,0.0,-5.509632,5.732014,10.618458,6.643628,10.823719,5.867443,10.242554,3.536808,8.87637,0.0,14.459254,21.44556,57.174336,24.323524,62.880012,25.407812,61.844063,24.471392,52.761874,147.323187,281.332886,-189.228522,266.100603
61,-0.521988,0.017821,-4.355186,-5.787718,0.0,-1.854676,-2.224182,1.178077,4.54692,10.599449,11.713852,15.719146,19.015319,22.350494,0.0,34.106827,17.068827,56.199606,14.530366,55.315365,10.093142,49.279373,3.970354,34.837322,0.0,-10.036308,5.698734,10.366493,9.336376,14.190079,11.297562,16.33382,11.681957,17.392513,0.0,5.239955,21.738973,57.426562,27.426359,67.30107,31.26558,68.997477,32.983513,62.794821,147.118389,281.247488,-193.266518,260.209666
62,-1.809769,0.335984,-3.644337,-7.957862,0.0,-2.923737,-1.612381,1.560516,6.1287,11.415527,14.111732,17.467941,22.114243,25.274277,0.0,34.396301,17.537512,57.090899,14.76277,55.981516,9.90589,49.620334,3.339005,34.883487,0.0,-17.368172,4.380146,9.836838,10.748085,16.961483,15.309231,21.532368,18.562969,24.999321,0.0,-1.230513,24.941547,61.737988,33.564585,74.635957,39.767747,78.742273,43.366894,75.651949,145.628717,281.423149,-196.590758,252.091481
63,-0.05278,0.720072,-0.489956,-5.512398,0.0,-3.208603,-1.59581,1.399452,6.21746,11.043045,14.140388,17.0755,21.974281,24.822418,0.0,34.911336,17.619084,57.325328,14.936671,56.433195,10.138281,50.080782,3.598888,35.42873,0.0,-21.012897,3.464344,8.285591,10.298504,16.830746,15.073471,21.968834,18.758263,25.626251,0.0,0.487619,27.636471,65.660547,37.630232,79.631121,44.847275,85.287372,49.155453,83.918897,145.872402,281.964191,-196.784249,246.400053
64,0.211189,0.675808,-0.156967,-1.427768,0.0,-4.107445,-1.546097,0.747162,6.262093,10.372696,14.064468,16.432617,21.719399,24.122337,0.0,34.609958,18.020784,57.553323,15.472035,56.78195,10.70599,50.251337,4.078121,35.545551,0.0,-19.781181,4.212204,9.32309,10.366413,17.076828,14.384445,21.757851,17.075489,25.090256,0.0,3.290606,29.28869,69.32578,39.921654,83.48489,47.71095,89.130977,52.474549,88.22085,146.34942,282.500947,-196.675387,244.833233
65,0.161133,0.530313,-0.403244,2.747782,0.0,-4.563194,-1.764427,0.151977,6.094459,9.885063,13.913933,16.094856,21.604866,23.738823,0.0,34.552591,18.405686,57.876549,15.86047,56.827126,11.00007,50.100036,4.177675,35.142024,0.0,-16.497139,3.841484,10.544312,9.37809,17.665844,12.873962,21.108799,15.231548,23.359097,0.0,10.009236,28.42553,67.812166,37.295372,80.141945,43.398165,84.137518,46.471693,81.287724,146.748551,282.923354,-196.840633,247.473109
66,0.008835,0.535932,2.118645,5.723436,0.0,-4.77594,-1.690476,-0.312653,6.016662,9.511116,13.695236,15.642791,21.319153,23.326858,0.0,34.728876,18.944507,58.17179,16.376691,56.921628,11.45459,50.012721,4.478226,34.9246,0.0,-11.717709,3.682628,12.694473,7.059597,16.775848,8.552513,17.669735,8.944164,17.206352,0.0,18.250618,27.477661,66.988514,33.443406,75.684775,36.898341,76.960243,37.462357,71.194162,147.03055,283.403127,-194.448824,253.140386
67,0.184639,0.626334,1.821911,8.349212,0.0,-4.716225,-2.051308,-0.863251,5.491699,8.985305,13.074531,15.091278,20.721519,22.868843,0.0,35.026118,19.244257,58.19165,16.611479,56.763474,11.685673,49.714985,4.674926,34.50003,0.0,-3.639759,4.745807,14.14738,5.454574,15.682182,4.641929,14.195892,2.708564,11.145446,0.0,23.700203,24.264416,61.869553,27.234339,67.738102,28.217628,66.425128,26.777708,57.857419,147.495793,284.021813,-192.346309,261.48195
68,0.199882,0.382655,0.641189,8.867544,0.0,-4.631813,-2.626396,-1.710251,4.757424,8.807648,12.344376,14.861984,20.187309,22.411698,0.0,35.33571,19.441833,58.451668,16.794309,56.912551,11.949199,49.797113,5.049504,34.382938,0.0,4.846642,6.276936,17.148663,4.997818,16.172734,2.533985,12.599545,-1.077141,7.515141,0.0,28.34644,20.792747,56.228011,20.880284,59.50818,19.544536,55.76261,16.255969,44.374241,148.02,284.403184,-191.380795,270.34821
69,0.080338,-0.138716,-0.410042,2.692306,0.0,-4.501625,-3.367447,-2.683937,3.952995,8.543426,11.6464,14.704536,19.819977,22.18737,0.0,35.823859,19.557739,58.613516,16.975176,57.139941,12.290629,50.323474,5.610791,34.696346,0.0,6.360352,5.595269,17.600258,4.642159,17.037232,2.674885,13.2655,-0.18782,8.197438,0.0,28.762983,19.506856,53.211367,18.240269,55.666341,15.550507,50.760061,10.908605,37.848371,148.449698,284.27733,-191.441477,273.053378
70,0.265251,-0.147806,-0.620699,-0.666923,0.0,-4.737442,-4.04203,-3.724686,3.051979,7.931259,10.725449,13.846207,19.167732,21.279419,0.0,36.650796,19.450145,58.445419,16.971891,57.287204,12.519797,50.9474,6.144487,35.42678,0.0,4.686545,4.834231,16.229153,4.558806,16.25179,3.416148,13.561329,1.539511,9.607253,0.0,25.78896,17.976069,48.859599,16.780223,51.920672,14.236193,48.304235,9.882659,36.914365,149.104466,284.157559,-191.672659,272.41449
71,0.372528,-0.44233,-2.990547,-4.059448,0.0,-5.453499,-4.524811,-4.634148,2.350365,6.97213,9.908386,12.522148,18.391067,20.090286,0.0,36.586254,19.273131,58.172976,17.047127,57.488448,12.904255,51.608907,6.87434,36.19451,0.0,-0.18572,3.824221,13.865765,5.930769,16.379254,7.171011,16.444027,7.762808,15.100439,0.0,17.757677,15.300104,42.108773,15.530865,47.393639,14.490654,47.232224,11.809804,39.001999,149.832979,283.792321,-194.307221,268.432134
72,0.505348,-0.969296,-1.984817,-5.935672,0.0,-6.383514,-4.890816,-5.911674,1.80439,5.324249,9.181183,10.813545,17.573914,18.717453,0.0,34.731741,19.160016,57.870473,17.315902,57.567352,13.502814,52.218655,7.810871,36.993572,0.0,-5.687411,2.410383,11.951088,6.631056,16.647445,10.000929,19.20512,12.797968,19.754705,0.0,10.703224,14.477563,40.321013,16.436472,47.187541,16.918211,49.377309,15.700413,43.474248,150.723112,282.920539,-195.907253,262.593976
73,6.87719,-9.411158,-0.76965,-6.318252,0.0,-8.457436,-7.922882,-10.609429,-3.652428,-2.554619,1.632019,0.623886,8.03215,6.826561,0.0,30.483807,21.406471,62.569889,22.685619,65.361724,21.548176,62.138538,18.048669,49.631461,0.0,-8.780393,0.861185,8.876221,6.270876,15.545895,11.086733,19.901219,15.336291,22.386927,0.0,7.280311,14.048224,38.395856,17.576322,47.102102,19.498662,51.444997,19.733875,47.280468,158.019682,273.655053,-196.257523,256.421396
74,6.755882,-9.783575,3.075966,1.333883,0.0,-10.302269,-11.379249,-15.304985,-8.692497,-11.155586,-4.705604,-9.358177,0.546043,-3.426201,0.0,27.294102,23.974264,66.811957,27.692565,73.259948,28.652611,71.577125,26.849585,60.587318,0.0,-7.96071,-2.076444,1.003853,1.333288,5.05085,5.065481,9.067577,8.652826,11.164633,0.0,9.110705,6.994092,24.416761,8.786521,29.377647,9.799265,33.670116,10.230795,30.744659,165.211166,264.040983,-192.745955,257.924784
75,7.180618,-9.641401,0.976759,-0.148541,0.0,-12.89582,-14.595749,-21.739151,-13.603363,-21.094299,-11.11409,-20.007866,-7.267845,-14.520973,0.0,22.610753,25.716058,71.008083,32.008981,80.080046,35.185904,79.784385,35.306552,70.898415,0.0,-2.431022,-3.233013,-0.759029,-0.609135,2.887379,2.930809,6.343403,6.515854,8.164845,0.0,15.478432,3.611757,19.996994,4.314785,23.694312,4.744185,26.956661,5.115466,23.44699,172.882135,254.5265,-191.278845,257.903161
76,8.194359,-9.00237,1.323246,0.950969,0.0,-16.123878,-17.25238,-27.873573,-18.746315,-31.856735,-18.598343,-32.352905,-16.952545,-28.676994,0.0,16.640501,25.959515,73.049157,35.210579,85.012373,40.845563,86.353517,43.031293,79.815977,0.0,5.920887,-4.221348,-1.310188,-3.037765,2.06741,-0.114326,4.353436,3.236321,5.328838,0.0,24.718319,1.753415,18.046854,0.856268,20.146528,0.144323,21.076453,-0.185919,15.435515,181.583387,245.54272,-189.448706,258.87272
77,4.682167,-8.285238,3.65118,5.406816,0.0,-17.013244,-19.11573,-35.632026,-20.158561,-40.15702,-19.519432,-40.309982,-17.716461,-35.492248,0.0,11.545437,27.821179,76.460274,38.170461,88.76865,44.207293,88.485846,46.183491,79.902464,0.0,15.385231,-6.391674,-4.095668,-8.651367,-3.813228,-8.295513,-4.74036,-6.698661,-5.784851,0.0,32.457054,-2.35027,7.684851,-7.152155,3.956102,-10.887412,0.72369,-13.30404,-6.913366,186.801012,237.174144,-185.262068,264.196198
78,0.207894,-0.35793,2.316971,3.386096,0.0,-21.639725,-19.561936,-42.769616,-18.971238,-47.61937,-17.249176,-45.331261,-14.729714,-37.824395,0.0,7.86263,26.359398,71.986951,36.557627,84.251422,42.168245,83.441022,43.679055,73.489313,0.0,24.701729,-7.272285,-2.520824,-12.605152,-5.175487,-14.752144,-9.76839,-15.074753,-13.659267,0.0,38.316798,-5.541469,1.902135,-14.030768,-6.923307,-21.126372,-14.840896,-26.433733,-25.944991,187.590786,236.532329,-182.363217,267.298409
79,-4.405083,-0.110323,-0.078506,-5.328714,0.0,-26.162315,-17.070007,-48.371658,-16.848358,-53.257187,-16.282997,-51.048569,-15.236801,-43.701325,0.0,1.096971,24.656075,64.878996,36.11926,77.380935,42.655887,78.281701,44.925573,70.938095,0.0,21.542736,-5.988545,6.265823,-8.634705,8.27409,-8.776703,5.029152,-7.091732,1.656749,0.0,23.240706,-1.976779,5.38245,-5.824336,3.323481,-9.271232,-0.538958,-12.037057,-8.657902,183.765661,236.065759,-181.861765,261.613448
80,-6.59095,-1.930763,2.255035,-4.701121,0.0,-31.652916,-15.169899,-55.341522,-14.401451,-60.553551,-14.01059,-57.587563,-13.64225,-48.078209,0.0,-2.76422,23.998717,58.312223,36.881743,72.009601,44.391877,74.644133,47.247377,69.982866,0.0,17.857224,-5.315483,13.886364,-6.428444,18.357056,-5.281151,16.234154,-2.408066,12.429852,0.0,7.138965,0.732693,4.764341,0.928418,4.537433,0.275568,2.737643,-0.933357,-1.922117,177.762314,233.784892,-179.019127,256.562223
81,-9.942055,-2.921128,5.043446,-3.341747,0.0,-37.67617,-15.626907,-64.404693,-12.955673,-67.180824,-10.872665,-61.684891,-9.294571,-48.867256,0.0,-3.86833,24.189674,54.10413,38.025348,68.113088,46.379302,73.214277,49.812711,70.184098,0.0,14.958046,-2.090801,23.326973,-2.018246,28.073948,-0.599659,26.373825,1.878937,21.674549,0.0,-6.749913,2.441056,3.624688,6.143845,4.382871,8.191365,4.646817,8.918674,3.888288,168.483106,230.52669,-173.312834,252.883402
82,-9.319244,-4.305943,2.833374,-7.861642,0.0,-46.942452,-16.394325,-71.073876,-14.515091,-74.130524,-13.281349,-68.358536,-12.468796,-55.239876,0.0,-2.930748,22.039192,48.483645,38.645125,65.391266,50.074793,75.750849,56.535306,78.842074,0.0,14.015671,0.983345,37.787407,3.467285,45.732158,7.029876,45.403862,10.961654,40.391704,0.0,-17.099134,5.074093,6.80734,14.490462,14.322304,21.08101,19.914458,25.231811,23.467107,159.800972,225.88502,-169.84235,244.686033
83,-12.764534,-3.793229,4.943802,-8.806696,0.0,-52.754723,-15.484589,-73.589859,-13.42511,-75.272553,-11.813484,-69.050217,-10.513001,-54.527436,0.0,-1.731469,19.749536,44.465163,37.534507,61.780213,50.613775,74.230998,58.860752,80.695439,0.0,14.783901,3.215847,51.62891,8.276207,62.705452,14.359657,64.45198,20.473205,58.862171,0.0,-30.168645,8.065209,9.503672,24.049711,22.079057,35.99187,32.902435,44.232771,42.726431,147.678406,221.753729,-164.25658,235.541275
84,-11.312897,-4.72293,5.526008,-8.261946,0.0,-59.947288,-21.166214,-83.457321,-17.538574,-84.349045,-13.653923,-75.702507,-9.830315,-57.790947,0.0,2.962834,20.356171,45.858214,38.242573,62.882556,51.639177,75.667411,60.512995,82.140398,0.0,24.271363,5.667206,63.047619,9.800274,74.039429,15.374199,74.303009,20.895127,66.711834,0.0,-26.056414,11.725008,15.920603,29.065536,27.677622,41.668709,37.81515,49.829396,47.839094,136.995827,216.665267,-158.100254,226.913797
85,-11.435806,-2.375193,7.860489,-5.200582,0.0,-65.942826,-26.978142,-90.80373,-22.407418,-90.709545,-17.012261,-81.012429,-11.284447,-61.750786,0.0,5.121184,20.627725,46.681088,38.489106,62.929264,52.031996,76.196415,61.161918,82.130543,0.0,33.568943,8.676521,72.939549,10.792214,81.719399,14.462311,78.765209,18.39061,68.872353,0.0,-20.489182,14.090974,21.163422,31.63413,33.879017,44.524196,44.769184,52.986991,54.121864,126.048146,213.855163,-149.75164,221.278304
86,-11.091225,-1.524902,6.303566,-5.356713,0.0,-70.465782,-31.074989,-95.732975,-26.081383,-95.8801,-20.082275,-85.996559,-13.349441,-65.789177,0.0,6.573455,21.423046,47.582287,39.267063,63.438286,52.822748,76.0782,62.080308,82.511518,0.0,45.625763,12.238678,86.112511,13.012196,94.967182,15.65538,89.993466,18.961556,76.896584,0.0,-15.08854,19.014459,29.167968,37.769985,42.15093,50.931456,52.56636,58.827506,60.041309,115.30446,211.754516,-143.100535,215.345846
87,-10.825127,0.448135,7.264835,-2.62517,0.0,-74.046386,-35.678009,-98.280029,-30.247123,-99.187774,-23.604744,-89.272338,-15.853866,-69.004303,0.0,7.576961,22.80318,47.939377,40.160665,63.992113,53.309588,76.451543,62.487799,83.13169,0.0,55.510941,17.551919,94.108464,17.165108,102.22839,18.321774,95.44542,20.208081,80.136612,0.0,-11.817263,23.234494,36.967674,42.790911,49.80803,56.073869,60.197747,63.51157,66.804139,104.757305,211.566556,-135.557728,212.084581
88,-11.277168,1.701842,8.889004,2.077852,0.0,-76.027244,-40.36409,-99.306541,-34.49723,-100.338615,-27.274177,-91.345848,-18.728256,-73.240471,0.0,9.242172,25.930233,48.960691,42.672153,64.839896,55.15942,77.024796,63.822385,84.881252,0.0,61.669853,22.313107,97.59438,20.152645,104.631546,19.196617,96.468064,18.961212,79.876889,0.0,-6.882726,25.241975,41.761186,44.349084,55.215612,57.464797,66.318509,64.924852,71.799439,93.597009,212.661062,-126.551852,213.555097
89,-10.112114,4.4958,9.889653,3.205896,0.0,-75.529049,-40.04702,-94.105934,-34.045624,-94.510975,-26.777916,-85.898861,-18.28331,-69.639793,0.0,9.449357,26.787341,46.980788,43.214174,61.9182,55.244549,73.941426,63.230421,82.574751,0.0,67.257087,25.502552,101.80347,22.013843,107.271366,19.479537,97.957317,17.580986,79.541416,0.0,-2.742805,27.725268,47.479706,46.467284,61.673088,59.390509,72.591326,66.779242,77.028155,83.553554,216.526606,-116.59354,216.130737
90,-9.308029,4.930326,9.927738,4.630799,0.0,-74.607639,-39.207687,-89.69109,-33.415947,-89.050861,-26.468101,-79.992748,-18.234055,-65.891281,0.0,9.873557,27.456543,43.438698,43.568386,57.818492,55.333816,69.84946,63.1117,79.169339,0.0,73.59367,27.896919,103.364925,23.136326,107.951122,19.234737,98.296806,15.891449,78.467491,0.0,1.603794,29.737035,52.480983,48.535429,67.209346,61.435164,77.351654,68.740583,80.963917,74.310854,220.851661,-106.600473,220.156265
91,-9.131859,5.718644,12.18845,5.948257,0.0,-74.384022,-37.960487,-82.323738,-31.898254,-80.714744,-24.7332,-71.454975,-16.352211,-58.525795,0.0,10.051448,28.569162,41.699053,44.133909,55.405421,55.414807,67.44417,62.682065,76.592408,0.0,75.716537,28.913589,99.513473,22.081089,101.470253,16.189224,89.907634,11.110405,70.894455,0.0,4.677235,30.876947,55.743233,49.114462,70.61104,61.584995,80.826905,68.911446,84.729506,65.219026,226.073529,-94.371992,225.607746
92,-7.783973,6.344657,10.415279,6.120256,0.0,-73.008648,-37.030381,-73.206711,-30.667145,-69.496296,-23.071427,-59.239186,-14.364922,-48.450394,0.0,8.928307,28.048025,42.056958,42.990649,53.981556,53.745052,64.319995,60.652107,73.045995,0.0,76.250908,29.498188,97.835678,21.522434,98.349392,14.398018,85.298618,8.169834,65.513031,0.0,6.936905,32.155983,59.342677,50.069716,74.858234,62.287752,84.182225,69.530593,87.228928,57.445038,232.037093,-83.946728,231.346909
93,-6.393357,5.887297,9.19915,6.284413,0.0,-70.954983,-35.488403,-65.936107,-28.490913,-59.269901,-20.322967,-47.472828,-11.119079,-36.72393,0.0,8.389633,28.19756,44.695751,42.063108,55.986245,51.751242,65.053898,57.627497,71.176773,0.0,75.83234,30.096222,97.1078,21.092274,96.329693,12.710907,81.505062,5.301888,59.862236,0.0,8.7322,33.104853,61.980346,50.894912,78.207033,62.790475,86.955745,69.741694,88.911047,51.045381,237.672208,-74.753878,237.37914
94,-4.08918,5.666366,7.605949,6.189639,0.0,-69.183128,-35.556175,-58.654369,-28.208999,-48.741073,-19.587387,-36.423088,-9.970939,-27.222381,0.0,8.152005,27.416281,48.549693,39.661153,59.214471,48.220242,66.562881,53.331212,70.680892,0.0,75.453404,30.990693,94.887692,21.208111,93.567891,11.818669,77.557606,3.327336,55.123444,0.0,10.21011,33.41221,63.781334,51.214532,79.910566,62.900316,88.458071,69.725021,89.804526,46.934326,243.186918,-67.169804,243.417123
95,-2.30603,5.473124,5.571064,5.564676,0.0,-67.086388,-36.515671,-46.973751,-29.025833,-35.062763,-19.930504,-24.366303,-9.938301,-17.776405,0.0,7.983402,26.855785,54.484834,37.649041,65.333208,45.263546,70.65229,49.694583,72.178945,0.0,73.204995,32.046399,94.011361,21.962769,92.84919,12.02734,76.224656,2.853207,53.320965,0.0,10.008605,33.785206,64.858421,51.385272,80.464072,62.789968,89.087578,69.573127,90.411989,44.608904,248.578645,-61.618132,248.900402
96,-6.853294,6.039511,2.66676,4.986765,0.0,-56.170132,-37.561078,-29.114731,-34.16438,-16.677567,-27.91475,-11.449746,-20.208607,-23.120442,0.0,10.444181,24.723742,58.265948,35.941383,69.216309,43.858552,73.208201,49.29738,75.749515,0.0,72.058559,32.013805,94.0555,22.099846,93.734836,12.135784,76.968647,2.792129,52.753727,0.0,9.490261,32.87855,65.685235,50.059429,81.871883,61.420863,90.328861,68.321249,90.86404,37.726347,254.62121,-58.980635,253.890221
97,-9.632332,7.805598,3.730545,3.912791,0.0,-46.590443,-34.336384,-10.371174,-33.949642,0.814384,-30.304837,0.953636,-24.732708,-27.043511,0.0,17.528929,23.343348,59.256066,34.538759,69.544278,42.424793,73.525216,48.288983,75.8928,0.0,70.798359,31.749493,92.908504,21.874054,92.811573,11.798389,76.646336,2.248192,52.789192,0.0,9.246,32.490115,65.934743,49.376419,81.683852,60.762738,90.194862,67.855477,90.726829,28.08704,262.44412,-55.257065,257.820324
98,-8.149246,4.465914,2.890297,2.926809,0.0,-33.989583,-31.110318,6.228424,-35.209443,15.547279,-35.833775,9.526748,-34.242497,-35.700715,0.0,19.1418,21.700873,58.889354,33.903409,69.725206,42.51522,73.880798,49.504144,77.721452,0.0,70.342243,31.135872,91.497814,21.517914,91.513561,11.698734,76.382847,2.384834,54.103512,0.0,9.845621,33.062566,66.635783,49.718504,81.312176,60.992388,89.38918,67.987537,90.41457,19.925297,266.925576,-52.379265,260.762675
99,-9.846028,3.385318,2.278026,2.29241,0.0,-20.92987,-25.733425,23.159123,-33.4976,30.805264,-38.104408,19.290081,-40.387596,-42.373192,0.0,21.163299,20.050309,58.07788,33.956181,69.913075,43.74041,74.214337,52.184433,79.654326,0.0,69.329041,30.778416,90.405098,21.247124,90.26159,11.494801,75.457558,2.371068,54.225655,0.0,11.128436,33.63677,66.70545,50.155784,80.839057,61.27071,88.473557,68.051522,89.622534,10.045332,270.324803,-50.135176,263.068994
100,-10.221107,2.746139,2.108231,1.887216,0.0,-7.649071,-19.345757,37.393947,-30.419449,43.28207,-38.768853,27.424907,-44.695908,-48.27578,0.0,22.767587,18.317556,56.443174,33.735189,68.473698,44.432522,73.194382,54.133067,80.654535,0.0,68.460114,30.296024,89.437454,20.688503,88.960831,10.829956,74.051056,1.685577,53.27346,0.0,12.447722,33.833952,66.224772,50.369168,80.241153,61.318171,87.556736,67.851352,88.516202,-0.230632,273.082298,-48.081802,264.967566
101,-3.823025,1.134281,1.41219,1.18725,0.0,-2.05378,-13.633518,41.335487,-23.989792,47.290558,-33.088486,31.573105,-40.275776,-44.198101,0.0,21.220591,17.47822,54.548573,33.010647,67.101333,43.776473,71.902637,53.456517,78.561246,0.0,67.371471,29.931587,88.733173,20.376125,88.029842,10.509281,73.395504,1.364101,52.839328,0.0,13.897449,34.05387,65.730485,50.661495,79.488378,61.517008,86.700283,67.846203,87.82955,-4.128141,274.222569,-46.744096,266.160806
102,-3.438606,-2.234426,1.098358,0.97704,0.0,6.868057,-8.660305,42.490287,-19.121567,49.396705,-29.525963,33.003685,-38.76978,-42.885052,0.0,15.829076,17.465622,52.80032,34.655233,67.133282,46.519315,73.055307,56.727275,81.46675,0.0,67.032726,29.446701,88.209903,19.839077,87.316395,9.968628,72.90263,0.868858,52.556865,0.0,15.216845,33.974706,64.796473,50.683491,78.749053,61.486614,86.054238,67.70036,87.325691,-7.692134,271.996628,-45.771125,267.146331
103,-0.962437,0.223005,0.844871,0.591198,0.0,8.695049,-7.16217,42.671528,-17.03476,49.54446,-27.392578,33.876102,-36.797127,-41.955196,0.0,15.637008,16.649505,51.931986,34.562953,66.079475,46.992237,72.324639,57.534477,80.728722,0.0,66.45306,29.243626,87.856098,19.596268,86.823063,9.598881,72.134846,0.345555,51.842961,0.0,16.031766,33.655333,63.809838,50.434773,78.062166,61.211306,85.431621,67.420681,86.964168,-8.798298,272.236734,-45.069981,267.75463
104,-1.119141,-0.079015,0.728577,0.485828,0.0,11.32005,-5.076072,43.283902,-14.696285,50.091305,-25.104103,34.866017,-34.672405,-40.379013,0.0,13.861572,16.25582,50.805509,34.918425,65.007437,47.848566,71.771935,58.553667,80.597391,0.0,66.386639,29.051491,87.603298,19.36623,86.512241,9.266327,71.710705,-0.152435,51.38142,0.0,16.090799,33.253659,62.687746,50.043559,77.333573,60.810175,84.803718,67.060651,86.60641,-10.094273,272.168967,-44.518238,268.251706
105,-2.216137,-0.72353,0.46067,0.167973,0.0,14.362816,-2.64244,45.028473,-12.004531,52.569878,-22.492881,37.309777,-32.254051,-38.188144,0.0,13.612039,16.009708,50.932654,35.268155,65.468738,48.619199,72.412411,59.530806,81.283228,0.0,66.446698,28.915169,87.399182,19.290379,86.300755,9.207253,71.665753,-0.238506,51.496525,0.0,16.19517,32.948847,62.033612,49.698498,76.673523,60.527038,84.223017,66.86247,86.457036,-12.54225,271.455716,-44.289408,268.429958
106,-2.765304,-0.569685,0.575981,0.282743,0.0,17.38987,0.617615,47.448257,-8.668419,55.653694,-19.440903,39.988792,-29.646286,-34.506329,0.0,13.846147,16.179967,51.168022,35.800395,66.134074,49.324575,72.966436,60.22582,81.806996,0.0,66.406918,28.732407,87.009945,19.142464,85.818501,9.081597,71.14729,-0.374748,51.116169,0.0,16.416298,32.574701,61.330015,49.252993,76.049473,60.094229,83.603549,66.524114,86.243145,-15.573194,270.900375,-43.979067,268.727045
107,2.175167,-0.302416,0.321282,0.151289,0.0,15.523739,-0.694679,46.026318,-10.330296,53.605442,-21.251267,37.8456,-31.276863,-36.344582,0.0,13.221986,17.070407,52.70683,36.139688,68.014683,49.10851,73.824137,59.672807,81.589214,0.0,66.205868,28.557278,86.876186,19.053703,85.780437,9.021641,71.13319,-0.437862,51.150661,0.0,16.520359,32.299096,60.902443,48.906227,75.593384,59.754218,83.152647,66.273543,86.195732,-13.686933,270.614329,-43.946691,268.894704
108,-1.489609,-0.233305,0.295475,0.139741,0.0,18.023129,1.315121,48.273205,-8.554092,55.675221,-19.749836,38.884266,-29.967041,-33.840065,0.0,11.724723,17.3933,52.843964,36.543511,68.873989,49.50139,74.413927,60.034751,81.480261,0.0,65.95182,28.382641,86.879265,18.907665,85.769989,8.893364,71.056549,-0.544201,51.05516,0.0,16.538576,32.005609,60.630692,48.5563,75.315051,59.413677,82.855875,65.968064,85.993735,-15.482083,270.392352,-43.956757,269.045773
109,-0.09193,-0.217127,0.265411,0.048894,0.0,18.723564,1.675907,49.838402,-8.675869,56.588722,-20.268242,38.716553,-30.780751,-32.329869,0.0,12.509917,17.557828,53.697886,36.352529,69.873777,49.09196,75.032864,59.617688,81.153231,0.0,65.651985,28.286419,86.851113,18.885144,85.67482,8.935307,71.119858,-0.476303,51.176949,0.0,16.566301,31.513581,60.385135,48.150155,75.068753,59.155931,82.561029,65.859383,85.792021,-15.886791,270.206697,-44.004124,269.126139
110,0.875587,0.206592,0.549923,-0.014067,0.0,18.788864,1.597859,49.835221,-9.263294,55.604004,-21.186321,36.801842,-31.90797,-33.261692,0.0,11.317023,17.622962,53.561097,36.299337,69.857784,49.057763,75.067407,59.703497,80.932535,0.0,65.06345,27.987328,86.341748,18.660164,85.251583,8.783043,70.909825,-0.588993,50.99358,0.0,16.750071,31.113007,60.227931,47.835117,74.968594,58.978979,82.397057,65.825556,85.623368,-15.322197,270.465492,-43.765194,269.164275
111,3.514584,0.323436,0.385048,-0.079448,0.0,15.934238,-1.81295,47.220897,-13.254891,52.132633,-25.236683,32.662891,-35.747235,-37.813488,0.0,11.203995,17.435612,53.995178,35.77478,69.834011,48.5018,75.236628,59.265168,80.889384,0.0,64.70113,27.732422,86.126301,18.460041,85.171795,8.606884,70.963085,-0.780498,51.002621,0.0,16.702931,30.766291,59.978879,47.605047,74.90346,58.919736,82.293033,65.918676,85.544562,-12.113422,270.853232,-43.685955,269.149131
112,0.170151,0.098875,0.50536,0.057946,0.0,17.251224,-1.478428,47.768222,-13.426587,52.064792,-25.80486,31.629032,-36.701638,-37.803189,0.0,11.103613,17.095083,54.181812,35.427607,69.91436,48.261133,75.361561,59.193599,80.600442,0.0,64.397575,27.61623,85.815445,18.316944,84.753959,8.411213,70.653007,-1.078949,50.680321,0.0,16.66882,30.23772,59.815908,47.19295,74.748318,58.708933,82.073671,65.893433,85.304761,-12.25126,271.047774,-43.488584,269.302744
113,2.956226,0.11887,0.515064,-0.001383,0.0,14.459793,-4.305565,44.914627,-16.601772,48.612648,-28.981567,28.097946,-39.762337,-40.612198,0.0,12.057052,17.294783,54.374905,35.504424,69.581414,48.369777,75.378443,59.245358,80.635133,0.0,64.123684,27.204575,85.286076,17.931107,84.321636,8.050221,70.402119,-1.476311,50.30888,0.0,16.615678,30.008243,59.59368,47.016566,74.591991,58.632955,81.883924,65.90456,85.168194,-9.614313,271.284461,-43.292799,269.419178
114,0.875141,0.201973,0.280266,-0.081411,0.0,13.631115,-4.806335,43.8139,-17.142357,47.807842,-29.435669,26.734875,-40.037018,-42.963581,0.0,9.848869,17.410504,53.945308,35.865961,69.158177,48.957912,75.217065,59.93716,80.83124,0.0,63.998508,27.259804,85.275822,17.964867,84.237293,7.92746,70.33501,-1.817848,50.076702,0.0,16.42677,29.90402,59.628223,46.865759,74.60061,58.528893,81.865127,65.898965,85.206478,-9.03162,271.597618,-43.304981,269.448951
115,3.823437,0.105803,0.188713,0.060219,0.0,8.93985,-9.015553,39.251037,-21.20454,43.939705,-32.827629,23.328735,-42.542153,-48.400749,0.0,9.153659,18.358595,54.055039,36.641842,68.907779,49.569242,75.093577,60.371352,81.146365,0.0,64.210087,27.315834,85.354237,17.996338,84.265514,7.849308,70.23563,-2.031029,49.838985,0.0,16.247521,29.947159,59.734619,46.848086,74.559213,58.480715,81.775626,65.832954,85.152879,-5.489599,271.808249,-43.397684,269.613998
116,-3.052975,3.279947,0.150925,-0.126441,0.0,4.524868,-7.829086,43.337917,-18.479999,47.451267,-27.979317,29.005932,-35.274948,-35.564976,0.0,14.542593,18.945891,52.064996,35.893786,65.694078,47.854618,71.051445,57.838734,75.806053,0.0,64.29665,27.529552,85.572864,18.153305,84.226787,7.866405,70.150783,-2.185295,49.619167,0.0,16.206013,30.187825,60.051412,46.949518,74.701635,58.464105,81.891495,65.720779,85.248272,-8.816832,275.187886,-43.521017,269.587247
117,1.289417,-0.085697,0.040134,-0.163774,0.0,2.708496,-9.015609,42.027031,-19.560459,46.773606,-28.906597,28.42495,-36.022224,-37.92128,0.0,12.636049,19.841717,52.135688,36.580475,65.771895,48.344249,71.227075,58.1185,76.16423,0.0,64.625794,27.90509,85.836388,18.534325,84.448746,8.135033,70.272675,-2.067409,49.769051,0.0,16.14509,30.476224,60.38579,47.116738,75.02328,58.543083,82.047229,65.76225,85.431152,-7.792065,275.168614,-43.745533,269.489898
118,0.639382,-0.0453,0.059017,-0.18251,0.0,1.735542,-9.497933,41.088684,-19.934498,46.195862,-29.084713,27.992798,-35.921345,-39.718449,0.0,10.75339,20.474831,52.376242,37.014839,65.846416,48.541171,71.092508,58.170568,76.328511,0.0,64.842694,28.300644,86.033375,18.909302,84.651776,8.396771,70.328007,-1.941936,49.889797,0.0,16.214127,30.489168,60.734692,47.132707,75.408356,58.559163,82.313621,65.819085,85.643104,-7.411863,275.158848,-43.945696,269.342922
119,4.86343,0.238554,0.181481,-0.108199,0.0,-3.913159,-14.613888,35.776119,-25.16613,41.332363,-33.768482,23.751949,-39.816124,-45.569401,0.0,11.737593,20.673001,52.827984,36.779706,65.896248,47.991012,70.920719,57.396922,76.527508,0.0,65.057499,28.271701,85.962169,18.80825,84.525753,8.279537,70.160923,-2.065522,49.708133,0.0,16.34221,30.428961,61.019275,47.075402,75.676699,58.500044,82.504281,65.760509,85.647958,-2.807081,275.418934,-44.022863,269.256255
120,-2.152245,3.429445,0.119041,-0.223931,0.0,-1.139225,-13.09814,40.118489,-23.359337,44.169239,-31.113991,26.92471,-35.974285,-39.425319,0.0,12.441979,19.077642,51.116312,35.00784,62.902119,46.247996,67.671449,55.833204,72.42423,0.0,65.226666,28.527935,86.039921,18.99662,84.513348,8.353821,70.114254,-2.107487,49.654072,0.0,16.364242,30.511212,61.262052,47.1507,75.945955,58.571797,82.717591,65.829903,85.815646,-5.198107,278.84406,-44.142603,269.028005
