takenoko1/special-research/HandMotion_SimilarSearch_自分用/NewProject/handData/test_key/d4_feature_d3/6.csv
frame,vel_0x_L,vel_0y_L,vel_0x_R,vel_0y_R,posFromWrist_0x_L,posFromWrist_1x_L,posFromWrist_2x_L,posFromWrist_3x_L,posFromWrist_4x_L,posFromWrist_5x_L,posFromWrist_6x_L,posFromWrist_7x_L,posFromWrist_8x_L,posFromWrist_9x_L,posFromWrist_0y_L,posFromWrist_1y_L,posFromWrist_2y_L,posFromWrist_3y_L,posFromWrist_4y_L,posFromWrist_5y_L,posFromWrist_6y_L,posFromWrist_7y_L,posFromWrist_8y_L,posFromWrist_9y_L,posFromWrist_0x_R,posFromWrist_1x_R,posFromWrist_2x_R,posFromWrist_3x_R,posFromWrist_4x_R,posFromWrist_5x_R,posFromWrist_6x_R,posFromWrist_7x_R,posFromWrist_8x_R,posFromWrist_9x_R,posFromWrist_0y_R,posFromWrist_1y_R,posFromWrist_2y_R,posFromWrist_3y_R,posFromWrist_4y_R,posFromWrist_5y_R,posFromWrist_6y_R,posFromWrist_7y_R,posFromWrist_8y_R,posFromWrist_9y_R,posFromBody_0x_L,posFromBody_0y_L,posFromBody_0x_R,posFromBody_0y_R
6,9.690571,-1.423792,-0.524884,-0.138161,0.0,-36.516369,-44.917088,1.365577,-51.359848,7.744835,-52.415898,-0.781815,-50.596505,-31.128491,0.0,3.982136,16.408468,44.544932,32.16495,54.717806,44.228683,59.618356,53.747398,60.394398,0.0,64.312844,24.759465,89.622757,14.923451,87.81308,6.05167,73.826775,-1.392814,54.59285,0.0,21.289591,34.18898,62.229929,51.479553,75.814451,62.460468,83.762162,68.224992,86.903899,22.475058,293.928725,-57.049662,275.822899
7,-0.427414,0.130343,-0.151691,-0.102814,0.0,-34.989247,-42.948716,3.047058,-49.726319,8.404678,-51.139069,-1.520806,-49.541863,-34.593899,0.0,3.096808,15.39192,44.199191,31.690719,54.658723,44.298968,60.141147,54.307548,61.196931,0.0,64.25433,24.819225,89.604938,14.950745,87.771183,6.001945,73.680759,-1.575989,54.379658,0.0,21.357825,34.344183,62.195151,51.682229,75.956724,62.678768,83.956539,68.461928,87.052964,21.742945,293.767084,-57.506052,275.428101
8,-2.912384,2.664024,-0.405109,0.044151,0.0,-31.778172,-40.307156,6.94963,-47.439022,11.711906,-49.131455,0.791748,-47.873989,-31.630486,0.0,-0.98687,13.861782,40.728015,30.09599,52.314183,42.365624,57.950008,51.991574,58.107545,0.0,64.592399,24.942775,89.748779,15.04026,87.946998,6.062335,73.84774,-1.531289,54.502807,0.0,21.322936,34.400315,62.073453,51.758084,75.911461,62.735998,83.933309,68.472945,87.04411,18.669743,296.249973,-58.071979,275.291117
9,0.726356,-0.855157,-0.300248,0.022675,0.0,-33.382244,-41.3722,5.453522,-48.444786,10.454773,-50.100986,0.52018,-48.892708,-29.961387,0.0,2.00516,14.641616,42.017648,30.42675,53.516575,42.471773,58.804386,51.935283,58.786528,0.0,64.822564,24.905491,89.913826,14.971848,88.111725,6.02639,73.978592,-1.4855,54.707383,0.0,21.153493,34.368464,62.026054,51.794467,75.871138,62.795279,83.895678,68.504178,87.046629,19.296564,295.288293,-58.471762,275.207269
10,3.233986,-3.341191,-0.396778,-0.011671,0.0,-35.723179,-44.027733,1.637077,-51.216557,6.626862,-52.893654,-2.586273,-51.560921,-30.334236,0.0,8.608143,16.434378,45.695861,32.555496,56.731869,45.070131,61.744854,54.909405,62.276995,0.0,65.151798,25.015675,90.207585,15.043648,88.421894,6.073952,74.244519,-1.437011,54.88036,0.0,21.21407,34.24915,61.898255,51.715192,75.794667,62.731923,83.86731,68.435487,87.13655,22.467693,291.882246,-58.931397,275.130742
11,-4.068718,0.992971,-0.306003,0.088637,0.0,-29.151901,-39.827969,6.153671,-46.658226,11.086693,-48.362446,0.36731,-47.110863,-30.810356,0.0,4.030252,16.031803,42.981461,33.078584,54.912987,45.872331,60.629914,55.735539,61.473721,0.0,65.495132,25.130882,90.479713,15.13163,88.66381,6.149952,74.386871,-1.344464,55.037315,0.0,21.09709,34.160056,61.908826,51.633261,75.83063,62.665985,83.796877,68.380578,87.026189,18.355385,292.832362,-59.28099,275.176524
12,-0.149254,1.079113,-0.326455,0.050129,0.0,-30.494556,-42.103351,4.864563,-48.505211,11.231621,-49.617885,2.000633,-47.876518,-26.121574,0.0,6.031052,16.135272,43.417789,31.838735,54.673,43.53887,59.05371,52.377293,59.10647,0.0,65.836533,25.251698,90.744851,15.253281,88.943757,6.286549,74.647385,-1.174221,55.282151,0.0,21.262766,34.071012,61.870331,51.543328,75.801434,62.579226,83.703313,68.28983,86.948211,18.191768,293.883446,-59.621808,275.198624
13,1.058739,-1.584972,-0.060527,-0.074261,0.0,-29.53648,-42.315216,2.501816,-48.220963,9.041496,-49.12674,1.108612,-47.164753,-23.779175,0.0,9.220151,16.841943,44.611869,32.66845,55.957408,44.776175,60.127562,53.882742,61.160918,0.0,65.881015,25.218429,90.671596,15.214348,88.848369,6.25217,74.614551,-1.220398,55.270076,0.0,21.49743,34.198971,62.075664,51.654676,75.929134,62.673815,83.812587,68.379442,86.939788,19.251194,292.250405,-59.681648,275.076294
14,-5.730515,3.62917,0.009395,-0.102889,0.0,-19.755512,-35.283062,8.430565,-40.443706,14.841591,-41.293418,6.444672,-39.423225,-19.041984,0.0,3.455936,14.721953,38.809332,30.251959,50.73919,42.029714,56.004314,50.795124,57.368591,0.0,65.844475,25.218602,90.528855,15.166008,88.615998,6.155949,74.481354,-1.373909,55.235459,0.0,22.048244,34.380654,62.358444,51.849907,76.126303,62.878642,84.052166,68.59174,86.944654,13.53717,295.803554,-59.655762,274.897384
15,-0.082763,4.328717,0.182877,-0.068185,0.0,-22.962662,-38.097977,7.674064,-42.657418,15.466736,-42.745846,8.725113,-40.13348,-12.123184,0.0,5.300581,13.66192,37.927695,25.929578,47.74795,34.667904,50.158414,40.681529,49.381557,0.0,65.681991,25.114998,90.247398,15.017269,88.189064,5.98875,74.162796,-1.57291,55.113281,0.0,22.302545,34.501821,62.633468,51.987228,76.242407,63.044837,84.234417,68.787934,86.890709,13.462681,300.037632,-59.464611,274.73456
16,2.438301,-0.628891,0.162838,-0.130095,0.0,-23.848137,-39.583706,5.300926,-44.076222,12.565201,-44.0644,6.243164,-41.18549,-13.107857,0.0,7.830014,13.731056,38.347907,25.931875,47.934189,34.958279,50.460077,41.264824,50.026812,0.0,65.455822,25.117618,90.101086,14.949016,87.834766,5.862614,73.977413,-1.778126,54.995785,0.0,22.493489,34.627334,62.805603,52.118978,76.288002,63.186319,84.442614,68.940062,87.016852,15.909542,299.298168,-59.293213,274.493892
17,-0.282692,3.914852,0.156154,-0.083425,0.0,-25.706383,-40.742169,5.761757,-44.826428,13.219253,-44.317211,7.44873,-40.88308,-11.368057,0.0,8.951525,12.722487,37.024423,22.430467,44.46168,28.849879,45.150469,32.756111,42.825232,0.0,65.197495,25.23872,89.940308,14.987298,87.441079,5.775857,73.624054,-2.02193,54.678681,0.0,22.528539,34.796406,62.953545,52.256644,76.362202,63.302879,84.593421,69.071738,87.126867,15.626221,303.092072,-59.137688,274.289519
18,-0.403359,-0.484938,0.06205,0.093008,0.0,-25.3171,-41.624771,6.24527,-45.745216,14.045792,-45.084674,8.02652,-41.496299,-11.1725,0.0,10.605646,13.018247,37.939922,22.751692,45.203982,29.207303,45.757846,33.158539,43.30591,0.0,65.126084,25.302098,89.826256,15.049565,87.331719,5.795906,73.485718,-2.053596,54.575432,0.0,22.348574,34.636622,62.80448,52.098984,76.210457,63.193322,84.486951,69.034133,87.179528,15.219818,302.496138,-59.078682,274.271531
19,-0.726448,0.054538,0.008561,0.164553,0.0,-25.164093,-41.291507,7.157067,-45.415203,14.826416,-44.860119,8.615868,-41.415722,-13.016098,0.0,10.498101,13.172548,37.738888,23.069176,45.3147,29.606494,45.735825,33.590631,42.590136,0.0,65.050231,25.368301,89.663703,15.140556,87.197891,5.85078,73.347999,-2.079003,54.355911,0.0,22.13199,34.455791,62.450624,51.86527,75.894788,62.96009,84.231711,68.841879,87.151296,14.488941,302.466294,-59.07455,274.351702
20,0.266442,-0.105186,-0.068356,0.190833,0.0,-26.425724,-41.506485,6.132499,-45.503495,13.889991,-44.802212,8.04467,-41.20332,-13.214768,0.0,10.670299,13.458848,38.327703,23.073412,45.634864,29.437299,46.036093,33.258772,42.736509,0.0,64.995449,25.337334,89.558636,15.215069,87.222027,5.986485,73.420567,-1.922424,54.423878,0.0,21.879604,34.317051,62.061153,51.688183,75.622136,62.781385,83.975855,68.682612,87.034032,14.751583,302.283797,-59.146706,274.465224
21,1.359649,-1.252743,-0.025349,0.226649,0.0,-29.207737,-43.011932,4.157181,-46.83126,12.499054,-45.856968,7.048165,-41.896991,-12.946289,0.0,13.818631,14.028743,40.385264,23.47006,47.306472,29.944208,47.345363,34.03968,44.337908,0.0,64.886078,25.377915,89.428734,15.345475,87.152001,6.148396,73.378762,-1.769016,54.420456,0.0,21.825214,34.135665,61.710756,51.500906,75.40244,62.595997,83.695162,68.506549,86.844532,16.108177,300.959605,-59.17511,274.620424
22,-1.540306,-3.222605,0.005516,0.212841,0.0,-22.93856,-37.587776,6.42302,-41.550258,13.161713,-41.262062,6.634506,-38.179825,-14.781784,0.0,8.149115,14.036943,37.77101,27.282307,48.119292,37.316045,51.747932,44.648017,51.869098,0.0,64.813797,25.259789,89.413742,15.30114,87.160538,6.177075,73.435158,-1.67704,54.500451,0.0,21.722597,33.976658,61.266548,51.328289,75.051747,62.399113,83.392672,68.266427,86.591393,14.568517,297.662804,-59.168948,274.759069
23,1.605057,1.705781,-0.023437,0.178052,0.0,-28.595089,-41.02375,3.402145,-44.830513,10.852936,-44.074139,5.820282,-40.525188,-14.23352,0.0,9.061959,14.331504,38.8036,25.424978,47.357761,33.571611,49.268714,39.222219,48.171014,0.0,64.837829,25.132976,89.383346,15.242203,87.203705,6.239536,73.631584,-1.462509,54.824867,0.0,21.657203,33.820922,60.946483,51.246432,74.788369,62.349675,83.213916,68.200205,86.21301,16.17532,299.2984,-59.190639,274.866936
24,6.056007,-3.853683,-0.088383,0.001815,0.0,-36.029308,-47.1767,-3.882568,-50.600681,4.225914,-49.056278,0.024422,-44.419418,-16.759964,0.0,16.809499,16.657025,44.719043,27.75623,52.175245,36.109331,53.069774,41.977609,52.660121,0.0,64.955166,25.185105,89.742817,15.249024,87.300076,6.248017,73.749333,-1.376919,54.923206,0.0,21.650658,33.792332,60.764987,51.265353,74.751677,62.342907,83.155031,68.089438,86.109566,22.233667,295.365086,-59.276682,274.78912
25,-0.685272,-2.505313,-0.054428,-0.042015,0.0,-31.677761,-42.039894,-2.444961,-45.156921,4.507485,-43.984096,-0.064316,-39.93132,-16.804802,0.0,11.410982,16.669956,41.584666,30.853816,52.398127,42.001333,56.368135,50.459929,58.786466,0.0,65.208126,25.242176,89.985226,15.160423,87.463314,6.108364,73.845966,-1.470245,54.910687,0.0,21.318712,33.617986,60.808027,51.219151,74.683764,62.361222,83.158069,68.077816,86.054127,21.545442,292.77662,-59.334063,274.663952
26,0.591019,3.074294,-0.219131,-0.086204,0.0,-36.403072,-45.216374,-3.99083,-48.697369,3.137649,-47.444653,-0.074822,-43.270672,-15.259232,0.0,11.141861,15.524769,41.510973,27.242206,50.351817,36.177948,52.498434,42.631978,53.133389,0.0,65.673236,25.33398,90.362949,15.175689,87.740535,6.134067,74.086269,-1.342987,55.141033,0.0,20.932402,33.527152,60.842039,51.22976,74.573528,62.430766,83.109509,68.115682,85.885302,22.138029,295.765421,-59.551626,274.492255
27,2.282364,-2.469004,-0.168148,-0.085635,0.0,-39.375996,-49.100201,-6.846039,-52.757206,0.985977,-51.243679,-2.029152,-46.53249,-16.579056,0.0,15.887874,16.112448,45.734467,27.883682,53.932093,37.15011,55.42875,43.950028,56.029397,0.0,65.974342,25.446212,90.438652,15.247673,87.903213,6.197639,74.184494,-1.22865,55.204422,0.0,20.572162,33.27416,60.925179,51.140728,74.643886,62.482722,83.13411,68.233155,85.815659,24.423958,293.224879,-59.716209,274.335082
28,-0.517731,-0.629607,-0.130383,-0.217164,0.0,-36.449753,-46.271828,-5.24041,-49.822334,1.627556,-48.468967,-2.022011,-43.894913,-16.672852,0.0,12.227804,14.56586,42.788564,28.199004,52.797899,39.146414,56.423055,47.611753,58.660112,0.0,66.21072,25.385513,90.577091,15.109612,88.0425,6.04628,74.207966,-1.341042,55.094501,0.0,20.344637,33.158971,60.997465,51.118424,74.71401,62.518884,83.198825,68.265278,85.953202,23.911148,292.531817,-59.841671,274.054463
29,0.321945,0.690048,-0.04414,-0.110768,0.0,-38.754455,-48.266304,-4.990333,-53.368503,1.273018,-53.022663,-2.870682,-49.418953,-17.853035,0.0,10.675461,12.602444,42.438514,25.960244,52.684476,36.746682,55.894238,45.248207,57.666968,0.0,66.531853,25.384678,90.549385,15.166409,88.281647,6.200157,74.452583,-1.087955,55.444245,0.0,19.881978,33.015969,61.031032,51.079052,74.730312,62.605186,83.325796,68.463522,85.926069,24.23703,293.167148,-59.881874,273.888978
30,0.396012,-0.907311,0.150021,-0.360165,0.0,-39.392098,-51.877098,-3.769364,-58.800499,1.712883,-59.262074,-4.45578,-56.153138,-20.453385,0.0,11.320036,11.393507,44.562172,25.443788,54.599541,37.014296,57.630696,46.30204,59.164601,0.0,66.654819,25.412887,90.369838,15.353302,88.272686,6.418487,74.436985,-0.948189,55.298321,0.0,20.083457,33.184251,60.988634,51.146236,75.306159,62.554884,83.862765,68.367512,86.506806,24.642334,292.223485,-59.722561,273.492461
31,-4.888802,0.001148,0.4174,-1.122153,0.0,-28.264755,-46.885986,2.21402,-54.26136,7.100121,-55.206196,-0.408394,-52.507725,-18.906761,0.0,9.056538,10.095674,42.700398,25.486779,54.65739,38.528713,59.938915,49.279818,62.577683,0.0,66.505943,25.369881,89.654183,15.374073,87.488205,6.362869,73.465462,-1.226669,54.009293,0.0,20.36962,33.011461,61.855412,50.967024,77.685464,62.328321,86.333633,68.275973,88.394603,19.760239,292.187817,-59.298454,272.333492
32,-6.621323,7.704093,1.577488,-3.32857,0.0,-28.684043,-41.322738,5.22313,-47.79475,10.763054,-48.539428,5.141716,-46.224048,-11.986953,0.0,10.523802,7.502811,35.945495,15.893469,44.071133,22.41293,44.88966,27.372364,42.147311,0.0,66.076458,25.481792,87.49078,15.435242,84.880154,5.844063,70.120457,-2.816357,48.956085,0.0,21.723795,32.147746,62.961646,49.695917,79.72361,61.165463,88.176032,67.652739,89.257343,13.155292,299.864885,-57.70459,268.977897
33,-10.597103,-6.998866,0.194103,2.737198,0.0,-31.641998,-34.884681,0.949677,-37.979862,4.832245,-36.790489,2.012261,-33.616047,-10.342048,0.0,7.555941,12.04464,37.42979,21.553907,47.179748,28.467978,48.839167,33.02044,47.784704,0.0,61.520371,26.106835,76.605492,17.256661,74.803242,8.084175,62.506565,-0.594978,45.309712,0.0,27.575388,26.426534,61.605793,37.722882,73.138794,44.532854,76.51191,48.115909,72.61825,2.623769,292.848744,-57.444907,271.69782
34,-2.890022,-4.88936,3.337498,-15.084996,0.0,-34.608936,-30.926971,-16.1628,-30.508312,-11.974857,-26.906925,-11.274158,-21.963467,-16.335217,0.0,9.614909,15.515717,38.387588,25.955983,48.64296,33.212805,52.497137,37.659859,52.159091,0.0,61.752811,25.59399,70.914448,15.983105,65.284767,6.009762,52.241432,-3.373009,36.917667,0.0,29.79408,21.255456,55.002821,32.06573,64.766895,39.613841,68.904494,44.754118,66.257995,-0.126709,287.951369,-53.967865,256.604809
35,0.725807,-4.25495,1.201847,-25.53855,0.0,-40.966484,-28.118294,-36.292133,-24.429474,-32.983486,-18.632458,-27.510395,-12.138004,-24.6893,0.0,14.689201,19.322272,39.716803,29.708309,50.369046,36.477698,55.383821,40.078624,55.686744,0.0,63.450325,26.691055,67.383087,17.405216,55.186924,7.574822,41.994358,-1.816418,29.345638,0.0,28.352282,14.659301,46.269016,25.601684,55.049912,34.663409,60.424717,42.17384,59.236244,0.786146,283.812862,-52.57897,231.182702
36,5.000153,-6.395304,-1.73045,-34.662445,0.0,-54.849003,-28.022038,-59.465161,-21.495838,-57.436581,-13.853153,-47.939644,-6.316212,-35.782116,0.0,17.93348,23.825544,41.903088,35.567496,53.247861,42.829221,59.399919,46.318934,60.96507,0.0,65.42783,26.715821,67.668011,19.192349,46.948197,10.977059,34.990574,3.094197,25.66634,0.0,22.917295,5.068128,31.471351,16.501674,40.921183,27.585021,48.23547,37.818101,49.349262,5.965079,277.765877,-54.13064,196.868576
37,6.827957,-10.894712,-0.578979,-40.14863,0.0,-60.934719,-30.479931,-80.267143,-22.843895,-80.559963,-14.166081,-69.483582,-5.655613,-51.051922,0.0,17.721689,29.06009,48.722001,48.04555,64.20362,61.540745,76.541723,70.135006,84.111014,0.0,66.496731,24.936298,56.729324,18.827522,35.944942,12.537529,26.831577,6.830852,23.355011,0.0,10.304952,-3.955268,15.157003,7.246998,23.464836,18.99899,32.827032,30.563768,36.127591,12.949591,267.266083,-54.553064,157.114864
38,11.263813,2.139368,-1.215929,-53.519554,0.0,-64.941948,-35.161274,-94.873581,-29.054592,-94.758076,-21.097572,-83.104923,-12.753891,-62.337914,0.0,25.820045,28.158484,50.357572,46.316365,63.934301,59.297055,76.589641,67.636918,83.074731,0.0,70.292387,24.865162,60.401012,19.603723,37.559177,14.603605,27.060705,10.189264,22.782749,0.0,-6.797371,-8.986825,-1.825209,8.050068,12.526568,25.46867,29.22279,42.097673,39.274432,24.42572,269.926819,-55.556677,104.116678
39,2.640083,0.62794,-6.39164,-43.152225,0.0,-67.029751,-34.80986,-95.887321,-28.966964,-97.296032,-21.28157,-85.370853,-13.277458,-64.319183,0.0,25.935926,28.555724,50.227698,46.679445,63.36968,59.515812,76.174567,67.541835,83.185622,0.0,67.776632,27.84169,64.670277,26.009165,43.677784,23.907549,34.020453,21.706885,30.014477,0.0,-19.955026,-15.380944,-16.537795,1.988394,1.289666,19.894028,19.901237,37.370185,31.143607,27.198063,271.265371,-61.816057,61.675065
40,-0.452591,-0.358906,-6.108135,-34.860936,0.0,-66.943153,-34.424102,-95.597511,-28.58155,-96.873218,-21.013092,-84.880874,-13.203529,-63.966762,0.0,26.309059,28.9305,51.016041,46.946072,63.339966,59.71413,76.245444,67.615738,83.223895,0.0,64.692644,28.425762,70.204651,29.688875,59.551323,30.396475,50.647516,30.549974,44.040607,0.0,-28.745104,-21.051046,-32.521092,-4.258488,-15.144267,13.394149,5.771601,30.748102,20.880225,26.71031,271.855855,-67.959354,27.763519
41,-0.786918,-0.244816,-3.522869,-26.837038,0.0,-66.880795,-34.254433,-95.091294,-28.34729,-96.441273,-20.716896,-84.558964,-12.806992,-63.738339,0.0,26.254559,29.153926,51.159809,47.118232,62.914284,59.814784,76.022921,67.634362,83.285201,0.0,59.176923,29.245239,69.476108,32.929293,61.978649,35.462362,54.083238,36.897886,49.305759,0.0,-33.834894,-24.270805,-45.774484,-8.615794,-24.837859,7.98338,-2.856796,24.379529,13.007172,25.380518,272.551495,-72.025097,1.866937
42,-0.58944,-0.177359,-5.956764,-21.295747,0.0,-66.685867,-34.20845,-94.735679,-28.244957,-95.990707,-20.516281,-84.291,-12.511322,-63.533409,0.0,26.2058,29.188864,51.284198,47.102843,62.781038,59.790552,75.886118,67.633176,83.243087,0.0,54.829919,32.176483,81.800308,38.814897,67.830608,43.433527,60.924974,46.376478,56.786762,0.0,-32.185849,-27.889058,-56.273129,-12.37837,-29.231364,4.291984,-7.25024,20.632995,9.553242,24.065151,273.582218,-78.707788,-18.220728
43,-0.238769,-0.173433,-3.714735,-14.941837,0.0,-66.553952,-34.267525,-94.560311,-28.235413,-95.731751,-20.427475,-84.153752,-12.378639,-63.480274,0.0,26.227759,29.247046,51.408984,47.121456,62.809037,59.803237,75.867483,67.708586,83.198344,0.0,51.159072,32.865051,88.481105,41.877697,68.262291,48.27666,63.491169,52.626651,61.301822,0.0,-31.427977,-30.972623,-63.14113,-15.864101,-31.599643,0.650127,-10.302933,16.715083,6.793997,22.90876,274.644189,-83.340145,-31.927161
44,0.075828,0.000704,-1.523587,-8.032493,0.0,-66.249355,-34.282722,-94.489391,-28.284782,-95.748802,-20.498794,-84.375778,-12.453758,-63.742733,0.0,26.032307,29.29531,51.16712,47.117837,62.588477,59.780685,75.618308,67.693927,83.089737,0.0,48.60054,31.417797,89.027275,42.095982,63.386925,49.863797,61.482468,55.367043,61.964676,0.0,-30.970203,-33.276396,-66.844544,-18.917906,-31.199989,-2.794972,-11.106251,12.792801,5.703972,22.019279,275.795114,-85.829041,-38.809433
45,0.307183,-0.013968,0.226616,-5.73859,0.0,-65.856675,-34.17215,-94.423863,-28.230652,-95.719254,-20.463158,-84.528443,-12.38221,-63.773941,0.0,25.858591,29.298286,50.937557,47.085072,62.325939,59.741449,75.48647,67.667781,83.003002,0.0,45.249321,30.479004,86.096535,41.939575,49.0975,50.293648,49.850029,56.297173,55.428189,0.0,-31.381145,-35.063409,-66.989372,-21.122877,-24.253647,-5.321261,-6.371148,10.021993,6.875748,21.446921,276.665243,-86.481966,-43.663926
46,0.338676,0.099468,0.522881,-3.877852,0.0,-65.78912,-33.944069,-94.498398,-28.088562,-96.008629,-20.43354,-84.824375,-12.458565,-63.963604,0.0,25.678464,29.162336,50.763939,46.935401,62.205784,59.590506,75.319781,67.512973,82.807475,0.0,44.200138,30.26992,85.809288,41.903309,47.023247,50.51865,49.091881,56.776142,54.811924,0.0,-31.49316,-36.059258,-64.692683,-22.496082,-21.546781,-6.805062,-5.443286,8.610231,7.288451,21.401298,277.494813,-86.343384,-46.811676
47,0.291229,0.13222,0.374542,-1.712326,0.0,-65.554344,-33.697654,-94.437549,-27.931274,-96.397419,-20.340889,-85.04805,-12.396286,-64.088894,0.0,25.423929,28.995832,50.374368,46.74789,62.15526,59.418469,75.280804,67.377764,82.599599,0.0,43.223019,29.713062,85.313072,41.333027,46.151447,50.073772,48.5839,56.450924,54.451756,0.0,-32.236803,-36.243682,-63.728692,-23.003091,-20.139829,-7.415125,-4.599862,8.0922,7.836658,21.476743,278.104713,-86.184626,-48.046322
48,0.176308,0.120512,-0.514652,-0.252158,0.0,-65.366776,-33.498779,-94.349361,-27.801155,-96.643879,-20.223999,-85.186249,-12.231056,-64.013397,0.0,25.13863,28.780904,50.064394,46.4515,62.059251,59.120264,75.266108,67.112423,82.521299,0.0,43.071499,29.317486,84.217746,40.947418,45.342911,49.812515,48.18584,56.31538,54.145832,0.0,-32.15213,-36.048902,-63.278123,-23.110759,-19.122404,-7.696559,-3.83265,7.80319,8.229817,21.411678,278.574563,-86.940651,-47.949142
49,0.22451,-0.031381,-1.749481,0.360944,0.0,-65.444458,-33.271797,-94.552025,-27.615921,-96.985382,-20.048149,-85.512485,-12.05191,-64.031948,0.0,25.010682,28.702295,49.741611,46.393813,61.852287,59.057921,75.194649,66.995813,82.353671,0.0,43.302726,28.782165,83.685688,40.440055,44.829586,49.481952,48.491901,56.209911,54.726173,0.0,-31.454135,-35.627691,-62.712311,-22.882505,-18.827936,-7.615086,-3.761255,7.850891,7.959819,21.262264,278.780942,-89.064056,-47.350438
50,0.187683,-0.034284,-3.399971,0.9252,0.0,-65.636913,-33.152527,-94.578849,-27.496032,-97.274013,-19.925331,-85.60342,-11.939529,-63.946884,0.0,24.89721,28.636654,49.530981,46.351884,61.953472,59.014029,75.315149,66.918563,82.287697,0.0,43.562061,28.536735,83.0774,40.394931,45.282657,49.656108,49.390319,56.532909,55.328132,0.0,-30.675876,-35.038851,-62.542232,-22.426996,-19.095234,-7.277614,-4.053674,8.168493,7.447853,20.86223,278.876559,-93.051744,-46.295337
51,0.302468,-0.03279,-5.268071,1.533979,0.0,-65.737015,-33.04287,-94.796643,-27.387772,-97.650662,-19.813179,-85.880082,-11.843331,-64.023949,0.0,24.843784,28.668605,49.237086,46.447512,61.905134,59.116078,75.312482,66.944128,82.09721,0.0,43.931031,28.204926,83.111813,39.934468,44.695004,49.166657,48.472103,56.120602,54.324292,0.0,-30.193679,-34.555457,-63.239227,-21.941385,-19.17241,-6.813714,-3.872511,8.688172,7.488133,20.575997,278.854011,-98.908516,-44.751116
52,0.347007,-0.047819,-6.749347,1.791256,0.0,-65.732105,-33.120185,-95.113449,-27.455406,-98.04261,-19.873191,-86.096923,-11.908378,-63.997352,0.0,24.890837,28.71036,49.216054,46.519895,61.953385,59.18646,75.36145,66.991811,81.960309,0.0,44.083763,27.340427,81.6893,39.064201,43.713947,48.435562,47.357551,55.658924,53.386779,0.0,-30.483838,-33.794179,-64.109173,-21.195391,-19.724687,-6.114717,-4.330433,9.411405,7.066754,20.337267,278.677998,-106.2436,-43.088054
53,0.48967,-0.051463,-7.232735,2.25155,0.0,-65.847164,-33.194801,-95.386116,-27.558769,-98.433838,-19.989258,-86.495682,-12.04953,-64.193813,0.0,24.819454,28.720796,49.030568,46.550227,61.87931,59.173999,75.289857,66.91513,81.867511,0.0,43.603569,25.953793,80.582771,37.626388,43.162571,47.201031,46.793198,54.769009,52.764301,0.0,-30.460787,-33.555032,-65.731221,-21.103278,-20.131234,-6.094896,-4.838713,9.435679,6.665629,20.295507,278.448351,-114.007765,-41.014688
54,0.20208,-0.018933,-6.737904,2.690218,0.0,-65.970852,-33.207848,-95.593552,-27.526405,-98.612881,-19.958473,-86.661095,-12.034355,-64.35284,0.0,24.86962,28.68687,49.157996,46.524428,62.007751,59.134665,75.301849,66.853824,82.015243,0.0,42.636132,24.749966,79.237484,36.207447,42.797573,45.839642,46.071076,53.752545,52.09227,0.0,-30.757399,-33.779587,-67.712464,-21.622395,-20.660694,-6.793212,-5.537153,8.725216,5.762616,20.116814,278.244519,-121.126442,-38.509369
55,0.00602,0.046412,-5.307918,2.460982,0.0,-66.031517,-33.291001,-95.87201,-27.597794,-98.834153,-20.020249,-86.948342,-12.054429,-64.456215,0.0,24.823937,28.592775,49.164085,46.395332,61.911692,58.999974,75.091514,66.753146,81.970745,0.0,41.863975,23.35421,78.275471,34.312237,42.024216,43.869736,44.87146,52.147613,51.282955,0.0,-31.634655,-34.136276,-69.501675,-22.228925,-21.17337,-7.520317,-6.062143,8.039015,5.240171,19.966593,278.104503,-126.590601,-36.234815
56,-0.254998,-0.067543,-3.428833,1.899462,0.0,-66.082981,-33.287155,-95.784336,-27.566551,-98.586227,-19.963073,-86.639396,-11.966423,-64.191398,0.0,24.930272,28.525541,49.320585,46.3455,62.122915,58.957305,75.223216,66.741278,82.149982,0.0,40.860168,21.941665,76.679249,32.652694,42.422024,42.330585,45.430595,50.991371,51.989914,0.0,-32.557195,-34.290301,-70.467928,-22.704682,-21.698459,-8.189285,-6.876915,7.324173,4.180478,19.574535,277.912996,-130.156494,-34.459317
57,-0.48912,-0.091427,-1.767323,1.445367,0.0,-66.162758,-33.022453,-95.535725,-27.261521,-98.239403,-19.638016,-86.396164,-11.676521,-64.028938,0.0,25.076521,28.422306,49.384163,46.267397,62.196003,58.902458,75.205616,66.712848,82.305209,0.0,40.228615,20.97369,76.748131,31.363518,43.101425,41.017365,46.097878,49.903874,52.551991,0.0,-32.673212,-34.824454,-71.160446,-23.418066,-22.023865,-9.002358,-7.291304,6.541357,3.341457,18.970974,277.76855,-132.038258,-33.066969
58,-0.630684,-0.087254,-0.715793,0.700929,0.0,-66.184525,-32.881004,-95.249073,-27.041107,-97.825928,-19.373268,-85.890244,-11.432556,-63.698536,0.0,25.329093,28.383281,49.717258,46.291752,62.449476,59.004038,75.361944,66.880896,82.294811,0.0,40.278305,20.544284,76.872356,30.630169,43.601474,40.14711,46.246708,49.079189,52.604427,0.0,-33.105279,-35.00203,-71.192384,-23.713684,-22.347931,-9.349037,-7.531463,6.230931,2.782646,18.278132,277.642906,-132.816209,-32.40443
59,-0.533959,-0.028911,-0.122326,0.059292,0.0,-66.010437,-32.735664,-94.578666,-26.907051,-97.192943,-19.219139,-85.153106,-11.283302,-63.067554,0.0,25.34017,28.246021,49.743242,46.133893,62.518426,58.917859,75.478393,66.929752,82.188353,0.0,40.738071,20.122501,76.866256,29.986015,43.598053,39.375675,46.058086,48.192123,52.234268,0.0,-33.808443,-34.902648,-70.856671,-23.49752,-22.312974,-9.034282,-7.324599,6.589949,2.983138,17.746341,277.549259,-132.936367,-32.409874
60,-0.44094,-0.037545,-0.04842,-0.137907,0.0,-65.795643,-32.528206,-94.000718,-26.726464,-96.62431,-19.038781,-84.572926,-11.134392,-62.730126,0.0,25.386015,28.208614,49.749183,46.159755,62.545103,58.989897,75.594484,67.009201,82.182772,0.0,40.90575,19.929462,76.916244,29.807567,43.376861,39.182625,45.870998,47.93676,52.082565,0.0,-33.959108,-34.796598,-70.554724,-23.323698,-22.291139,-8.831445,-7.298682,6.747196,2.961223,17.353283,277.419135,-132.936905,-32.64036
61,0.136917,-0.064109,-0.107231,-0.184399,0.0,-65.705269,-32.763016,-93.898144,-26.960312,-96.592495,-19.182152,-84.51622,-11.129288,-62.668328,0.0,25.43413,28.26614,49.675625,46.170746,62.518365,59.008706,75.66956,67.093799,82.131086,0.0,41.322921,20.080101,76.978191,30.061088,43.224598,39.428604,45.838886,48.098224,52.069347,0.0,-34.027058,-34.690653,-70.208817,-23.137317,-22.510736,-8.619005,-7.427167,6.966756,2.863583,17.541458,277.234149,-132.992878,-32.945636
62,0.211647,-0.070457,-0.083577,0.00121,0.0,-65.832207,-32.947083,-93.966099,-27.124214,-96.638832,-19.268692,-84.549557,-11.083191,-62.687268,0.0,25.389657,28.374327,49.622261,46.253109,62.555576,59.088907,75.772103,67.17768,82.160825,0.0,41.630173,20.194302,76.726708,30.239045,43.2678,39.564251,45.789883,48.156727,52.014611,0.0,-34.197736,-34.569337,-69.971466,-22.998743,-22.727541,-8.476442,-7.526733,7.096833,2.839643,17.807677,277.029521,-133.021883,-33.078597
63,0.249458,-0.065567,-0.035751,-0.061441,0.0,-65.942654,-33.138908,-94.046825,-27.318855,-96.72345,-19.402244,-84.645893,-11.099991,-62.733753,0.0,25.376258,28.47456,49.414631,46.34261,62.471361,59.187165,75.775141,67.30606,82.200222,0.0,41.497467,20.318356,76.454521,30.309174,43.294441,39.531418,45.684357,48.025658,51.828747,0.0,-34.382901,-34.501024,-69.66884,-22.890643,-22.489506,-8.31946,-7.22092,7.329483,3.206378,18.123653,276.813576,-132.991116,-33.290416
64,0.286995,-0.071507,-0.215229,0.081041,0.0,-66.044174,-33.336342,-94.211918,-27.483742,-96.955376,-19.480659,-84.915539,-11.049454,-62.903709,0.0,25.445134,28.575028,49.250684,46.418069,62.464297,59.218485,75.794148,67.302972,82.241187,0.0,41.39146,20.592957,76.337551,30.669972,43.46957,39.882774,45.856522,48.359402,52.029133,0.0,-34.053901,-34.419414,-69.615031,-22.831381,-22.429349,-8.245255,-7.164338,7.464371,3.26953,18.459034,276.597947,-133.157959,-33.353497
65,0.293816,-0.188585,-0.220837,0.287769,0.0,-66.158615,-33.429154,-94.390034,-27.516014,-97.141686,-19.433075,-85.102639,-10.918534,-63.021046,0.0,25.615083,28.659971,49.284374,46.48981,62.704085,59.290695,75.97331,67.403205,82.404097,0.0,41.369809,20.68689,76.117756,30.765919,43.672703,39.963479,46.101048,48.472081,52.197247,0.0,-34.164249,-34.390194,-69.642553,-22.817178,-22.499614,-8.222197,-7.167284,7.541782,3.207212,18.797041,276.270417,-133.334605,-33.204673
66,0.001236,-0.053785,-0.379886,0.538575,0.0,-66.123768,-33.360741,-94.378498,-27.425995,-97.142853,-19.352028,-85.125103,-10.880104,-63.069889,0.0,25.613947,28.667234,49.258131,46.530911,62.777828,59.309233,76.023921,67.351742,82.434404,0.0,40.976852,20.827503,76.126751,30.801842,43.76564,39.945499,46.322662,48.497543,52.426964,0.0,-33.946252,-34.413227,-69.928779,-22.816333,-22.409169,-8.206852,-7.167951,7.596153,2.930353,18.85627,276.08721,-133.656498,-32.79552
67,0.020576,-0.028418,-0.162998,0.624908,0.0,-65.843433,-33.356277,-94.378715,-27.427025,-97.067367,-19.375282,-85.064506,-10.950645,-63.037502,0.0,25.645774,28.711386,49.169618,46.61178,62.760933,59.370737,76.041063,67.386311,82.357612,0.0,41.075603,20.94754,76.105339,30.935039,43.756725,40.125034,46.410404,48.777969,52.718319,0.0,-33.79713,-34.487784,-70.135136,-22.921185,-22.443329,-8.32051,-7.173712,7.493493,2.895458,18.947445,275.940154,-133.748897,-32.28925
68,0.009728,0.022935,0.065197,0.843789,0.0,-65.536789,-33.342568,-94.358883,-27.427208,-97.01698,-19.394371,-85.008225,-10.993699,-63.00713,0.0,25.627297,28.733936,49.048809,46.651312,62.716546,59.375861,75.995256,67.33586,82.289167,0.0,41.802543,21.210617,76.22026,31.240814,43.679752,40.44746,46.435798,49.119186,52.922058,0.0,-33.74452,-34.349081,-70.272358,-22.704812,-22.624444,-8.063023,-7.255816,7.753931,2.963988,19.046374,275.836377,-133.594499,-31.572173
69,0.148796,-0.030098,0.3861,1.406692,0.0,-65.457344,-33.340622,-94.355084,-27.462067,-97.000512,-19.462464,-85.039421,-11.091912,-63.016148,0.0,25.699102,28.860883,48.937671,46.792561,62.610485,59.478565,75.91634,67.35856,82.256674,0.0,42.470215,21.491742,76.183823,31.548741,43.844777,40.756829,46.397805,49.444863,52.984028,0.0,-33.807615,-34.102084,-70.328161,-22.325633,-22.654682,-7.615394,-7.176219,8.209483,3.20355,19.333495,275.609616,-133.070074,-30.362144
70,0.146415,0.036161,0.978951,2.066182,0.0,-65.643573,-33.420364,-94.507461,-27.52034,-97.022792,-19.526413,-85.040107,-11.17456,-63.053764,0.0,25.741043,29.036316,48.933188,47.004575,62.555391,59.640067,75.964542,67.404194,82.286018,0.0,43.387493,21.884136,76.129761,32.007053,43.770458,41.186222,46.193035,49.85384,52.911873,0.0,-33.825326,-33.566536,-70.44789,-21.592971,-22.301755,-6.770291,-6.736445,9.143408,3.993522,19.708677,275.371744,-131.862356,-28.569995
71,0.122841,-0.00515,1.594746,3.159169,0.0,-65.778637,-33.443367,-94.413196,-27.534965,-96.754749,-19.536255,-84.834194,-11.191887,-62.902679,0.0,25.768509,29.139118,49.070274,47.094471,62.591478,59.725901,76.119597,67.467698,82.541356,0.0,44.566257,22.419399,76.252155,32.538963,43.764987,41.541126,45.840374,49.968498,52.419754,0.0,-33.143181,-32.721346,-70.240383,-20.496555,-21.428307,-5.416721,-5.606097,10.828534,5.775615,20.384788,275.065175,-129.71434,-25.712245
72,0.171021,-0.087191,1.966243,4.576416,0.0,-66.255329,-33.432175,-94.27216,-27.548744,-96.483147,-19.575371,-84.601376,-11.211067,-62.775273,0.0,25.777438,29.218751,49.307642,47.202435,62.742729,59.849067,76.354668,67.534536,83.038632,0.0,46.165467,23.347893,77.232308,33.495873,44.236897,42.238003,46.055523,50.214535,52.087086,0.0,-32.406326,-31.266901,-68.34393,-18.448837,-19.943018,-2.874821,-3.677089,13.879072,8.290752,21.469591,274.516727,-126.834315,-21.597086
73,0.265709,0.078336,2.873749,6.506888,0.0,-66.88488,-33.36985,-94.197316,-27.422562,-96.341389,-19.475716,-84.550324,-11.145241,-62.753735,0.0,25.682478,29.171364,49.642552,47.128779,63.087951,59.736336,76.588283,67.373899,83.52567,0.0,47.396713,24.485344,78.86356,34.493225,44.943626,42.716034,46.707447,49.933376,51.598904,0.0,-31.990061,-29.270319,-64.575574,-15.672236,-17.733107,0.549523,-1.02904,17.901765,11.547253,22.787785,274.001975,-122.908081,-15.683286
74,0.126571,0.113251,4.175652,8.96816,0.0,-67.301124,-33.320343,-94.13879,-27.292053,-96.106762,-19.36084,-84.312149,-11.046753,-62.651722,0.0,25.504427,29.074119,49.99732,47.02058,63.476521,59.628544,76.891477,67.261303,84.018178,0.0,48.880622,25.620517,78.291389,34.998355,45.362892,42.423603,46.867366,48.606914,50.36586,0.0,-30.377096,-27.201359,-58.550715,-12.767675,-14.590486,4.237011,2.68074,22.38266,16.111609,24.017349,273.4267,-117.629436,-7.403652
75,0.252777,0.141692,5.662227,11.973072,0.0,-67.522316,-33.342979,-94.037315,-27.321487,-95.958664,-19.429069,-84.207149,-11.11853,-62.67612,0.0,25.188648,28.935453,50.174618,46.832748,63.658759,59.422817,76.971765,67.049635,84.298044,0.0,50.384972,27.072773,72.841004,35.11258,45.872933,41.079037,46.398194,45.499237,47.848961,0.0,-28.414026,-24.050038,-47.808571,-9.048344,-10.837185,8.375282,6.459642,26.725739,20.050828,25.492452,272.914572,-110.744883,3.9156
76,0.172715,0.173988,7.21451,15.968094,0.0,-67.647023,-33.216385,-93.968434,-27.181389,-95.898251,-19.328911,-84.145535,-11.035836,-62.731522,0.0,24.942585,28.718956,50.331155,46.552895,63.770441,59.120413,77.001615,66.756012,84.481208,0.0,53.118605,29.006098,70.596668,35.127051,49.485792,39.046252,47.918616,41.20154,46.308066,0.0,-26.129764,-19.844625,-35.651233,-3.830399,-6.150662,14.183632,11.020152,32.560486,24.78212,26.595995,272.462238,-102.599545,19.257372
77,0.199379,0.275185,8.654091,19.824149,0.0,-67.557393,-33.041291,-94.019749,-26.99881,-95.991303,-19.197121,-84.280964,-10.957947,-62.827618,0.0,24.625681,28.422973,50.35604,46.161903,63.660821,58.703177,76.961329,66.360364,84.591099,0.0,56.269575,31.470297,71.163609,34.949278,55.875143,36.134165,51.054834,35.519262,45.451326,0.0,-22.613523,-14.913367,-23.902575,2.308122,-0.606982,20.96495,15.996364,39.273774,29.903069,27.348776,272.269262,-93.392052,38.61336
78,0.297912,0.096491,8.606833,24.54268,0.0,-67.348022,-32.908401,-94.040108,-26.95523,-96.010551,-19.2239,-84.258362,-11.030433,-62.979515,0.0,24.439047,28.322271,50.258055,46.019396,63.377017,58.589013,77.028477,66.268554,84.75207,0.0,59.571727,32.763519,70.908983,33.436861,62.542991,32.072656,54.864933,29.061252,45.972879,0.0,-18.230701,-9.814423,-11.861866,8.341214,6.27247,27.334619,22.04167,45.288687,35.006206,28.027977,272.0301,-84.40393,62.820387
79,0.415833,0.283051,8.176128,28.391709,0.0,-66.974018,-32.684784,-94.1605,-26.859787,-96.205948,-19.250061,-84.530731,-11.093994,-63.152642,0.0,23.994272,28.106874,49.840499,45.729552,62.806184,58.306938,76.750588,66.052378,84.776326,0.0,62.75742,33.101475,72.868349,31.102747,69.758766,27.365084,60.17664,22.232037,48.330637,0.0,-14.796205,-4.1105,0.12552,14.818259,14.116181,33.852567,28.807935,51.051526,39.728316,28.724104,272.137668,-75.947508,91.036613
80,0.225586,0.40575,5.887848,28.91828,0.0,-66.354813,-31.95266,-94.116532,-26.243409,-96.17157,-18.808846,-84.839058,-10.754151,-63.339775,0.0,23.293688,27.897157,49.261601,45.484563,62.139427,58.008683,76.409651,65.664079,84.694445,0.0,66.726757,33.65419,81.986166,29.221407,79.120262,23.401365,67.392414,16.515243,51.314764,0.0,-10.732639,2.109749,13.24479,20.798848,26.688207,39.022095,38.997549,55.185463,46.746516,29.042977,272.457999,-69.966373,119.869474
81,0.796234,1.849091,4.928072,41.085346,0.0,-62.9916,-31.875458,-94.129326,-26.948639,-96.680271,-20.068955,-85.71928,-12.283859,-64.154778,0.0,15.129716,26.71602,46.718028,43.694666,60.006877,56.023062,73.916306,63.987049,82.668352,0.0,66.960668,37.826208,73.707407,33.558941,71.027178,26.795265,61.937239,18.29809,50.465183,0.0,-0.448783,5.350812,31.285806,17.420918,38.572611,29.410854,44.753769,39.995183,44.130367,29.936091,274.187399,-64.941421,160.835129
82,1.346283,10.187806,1.437286,29.851168,0.0,-63.045685,-30.392235,-94.246113,-26.44796,-97.174084,-20.789292,-85.769154,-14.363526,-65.774849,0.0,16.590816,23.798781,40.631487,33.985475,44.624614,39.910773,50.26013,42.312,53.926536,0.0,68.892935,36.512987,75.238512,30.668793,71.64992,22.863682,61.723898,13.828177,49.265328,0.0,2.919195,11.077255,44.742326,23.091341,52.273311,34.129851,56.611805,43.030173,53.498763,31.371998,284.198735,-63.414511,190.509827
83,-0.937912,1.663828,-0.065134,26.209231,0.0,-61.86501,-27.12719,-92.079083,-23.474625,-95.181587,-18.601547,-84.692654,-13.275147,-64.554428,0.0,14.078822,26.446701,37.240537,34.384914,38.068672,38.067202,42.496954,38.328221,47.577568,0.0,70.417065,34.788048,76.317719,27.623383,72.3708,19.209698,61.830311,10.107777,47.47427,0.0,5.527094,16.354905,55.984072,27.624738,64.173276,37.224568,67.510107,44.234092,63.036401,30.496639,285.681146,-63.417092,216.537641
84,-0.530503,0.393708,-1.629501,21.931708,0.0,-60.857002,-26.670181,-86.423046,-23.078544,-87.33934,-18.232383,-76.636241,-12.860733,-58.615665,0.0,10.131563,26.786501,36.27071,33.737177,37.258556,36.724353,40.088651,36.55864,43.848375,0.0,71.776943,33.978264,76.712059,25.840164,72.785236,16.825149,60.970012,7.502643,45.262779,0.0,8.358116,21.075552,65.016231,31.560895,73.991468,39.639615,76.319644,44.727009,70.912753,29.949382,285.914779,-65.063347,238.309274
85,-0.102996,-0.230638,-1.660195,18.983139,0.0,-60.245922,-26.622734,-76.17548,-22.991135,-74.950013,-17.880204,-64.310475,-12.042733,-49.37138,0.0,7.172384,25.907534,36.616562,32.381509,37.950371,35.264858,39.519831,35.32436,42.903346,0.0,71.74403,32.483071,74.702958,23.759983,71.353169,14.530541,59.144703,5.474968,44.030926,0.0,9.743894,24.295724,68.83332,35.300932,78.797799,43.027329,81.607813,46.93329,76.844312,29.72398,285.501878,-66.845948,257.11015
86,-0.643387,-1.656936,-2.714813,2.217791,0.0,-59.556427,-26.861572,-66.378742,-22.067665,-61.651543,-15.778816,-50.486126,-8.938019,-38.118416,0.0,12.257036,26.996539,32.885428,33.532696,33.026466,35.994265,34.820304,35.341415,38.835402,0.0,73.889179,26.845196,87.414723,15.556538,84.578625,5.582348,68.386814,-2.829346,46.187737,0.0,3.286567,29.611854,66.451236,46.948332,83.128491,59.305071,90.323155,66.544911,91.133357,28.873627,283.709443,-69.767727,259.192442
87,-1.24823,-10.097588,-1.449039,8.634128,0.0,-54.304962,-28.140839,-57.471886,-22.233559,-48.45916,-14.290421,-37.309536,-5.52047,-26.197838,0.0,8.114498,29.390145,33.157204,42.120894,41.788121,50.409541,51.402389,55.026187,61.031834,0.0,73.027908,25.651497,87.124923,14.596916,86.383575,5.04562,71.134941,-2.904888,48.858375,0.0,2.281603,30.753347,66.796112,47.371729,83.39997,58.807819,90.814935,65.47511,91.471144,27.414265,273.522172,-71.427898,267.736887
88,-0.127556,-0.609397,-0.602028,5.303545,0.0,-50.280556,-32.762604,-47.103333,-27.517977,-34.927185,-19.275078,-24.025761,-9.567953,-17.605293,0.0,7.14745,26.487716,34.042305,41.190551,45.692002,51.642753,55.404681,58.621142,63.310289,0.0,72.071068,25.635601,87.713837,14.991611,87.909874,5.659012,72.993736,-2.154442,51.870197,0.0,1.914448,32.067643,67.615096,48.702118,83.310889,59.820761,90.259206,66.251227,90.643331,27.115986,272.840505,-72.200649,272.968162
89,-1.636528,1.441848,0.38031,2.667,0.0,-46.245312,-36.206245,-36.372803,-32.946653,-24.329578,-26.065269,-16.285011,-17.344706,-14.370621,0.0,7.073843,26.306713,36.046982,42.071296,48.052658,53.63755,57.681418,61.731831,65.594992,0.0,70.92675,25.850853,88.977356,15.556698,89.112671,6.424129,74.221687,-1.302738,53.507423,0.0,0.938298,33.136148,68.219904,49.761187,83.068297,60.702174,89.765623,67.085265,90.448793,25.404013,274.212705,-71.895784,275.565514
90,-2.555946,3.435262,0.780247,1.232538,0.0,-42.337361,-37.056382,-28.652024,-35.823664,-17.035664,-30.807312,-13.022049,-23.922484,-15.31453,0.0,4.618399,26.038135,35.627449,42.44995,47.76306,54.463894,57.03741,63.032233,64.03698,0.0,70.31924,26.14072,90.160411,16.310794,89.822307,7.46743,75.116809,-0.133244,54.869133,0.0,1.360337,33.873955,68.504759,50.517407,82.1351,61.339501,88.89209,67.695335,89.992569,22.864569,277.584593,-71.099035,276.734678
91,-1.290871,2.404338,0.911956,0.379173,0.0,-42.903751,-40.668354,-22.814781,-42.037039,-12.112461,-39.143921,-10.948151,-33.992449,-17.477257,0.0,3.025993,26.249989,41.930994,43.19056,54.751466,56.17222,62.658625,65.851325,67.57586,0.0,69.722798,25.822106,90.348141,16.523083,90.141392,8.193283,75.658482,0.995797,55.944489,0.0,2.709583,33.844981,68.258572,50.628953,80.795931,61.534495,87.599147,67.874879,89.387019,21.645001,279.923679,-70.115776,277.048599
92,-1.308472,2.825983,1.484814,-0.21935,0.0,-41.496517,-42.834961,-14.506164,-46.830053,-6.040638,-46.220455,-9.87014,-43.11284,-20.560455,0.0,2.444835,24.942572,48.023462,42.621184,62.045511,56.656825,68.91572,67.586981,71.852496,0.0,69.014191,25.534939,89.958595,16.294785,89.458054,8.075993,74.930924,1.033997,55.655525,0.0,4.461319,34.284261,68.286545,51.042718,80.082368,61.916409,86.992894,68.13533,89.259838,20.45157,282.68421,-68.515921,276.763797
93,-5.833305,6.324348,1.399841,-0.1524,0.0,-33.447579,-36.820404,-4.234497,-42.101692,2.109878,-43.362236,-4.749138,-42.384441,-18.149208,0.0,-3.428754,20.661601,44.041517,38.277339,59.31458,52.401387,66.004719,63.598182,68.843336,0.0,68.488884,24.980233,89.080513,15.678086,88.444199,7.50784,73.852227,0.600872,54.662293,0.0,5.915257,34.204553,67.617356,50.96427,79.205339,61.803369,86.438795,67.911695,89.14329,14.737713,288.952226,-66.996632,276.555065
94,0.979797,0.185733,0.919075,-0.159291,0.0,-34.040336,-37.569534,-5.417564,-42.725155,1.021637,-43.907158,-6.009201,-42.895706,-19.342117,0.0,-3.477611,20.548252,42.878473,38.158173,57.685617,52.313158,64.390415,63.553968,67.705029,0.0,68.140984,24.331421,88.317467,14.993157,87.627755,6.941426,73.287804,0.284089,54.290451,0.0,7.219351,34.072617,67.020945,50.946992,78.567086,61.835417,86.119545,67.903124,89.131927,15.821462,289.080973,-65.973605,276.338788
95,1.593064,-0.686986,0.846234,-0.075929,0.0,-32.78072,-38.640061,-7.074623,-43.911976,-1.058716,-45.079136,-7.390274,-43.943459,-20.363663,0.0,-0.720948,19.997834,43.530385,37.323406,58.094825,51.525631,64.572109,62.998931,68.091463,0.0,67.671078,23.662342,87.752575,14.262806,86.999782,6.276192,72.779514,-0.25874,53.984562,0.0,7.649234,33.755184,66.266417,50.708105,77.957623,61.679597,85.775818,67.799211,89.116305,17.486493,288.335632,-65.055404,276.204504
96,0.192512,0.011461,0.8703,0.101308,0.0,-30.712589,-36.971763,-7.289875,-42.119585,-1.38287,-43.397135,-8.291038,-42.479902,-21.104713,0.0,0.590402,18.94628,43.121375,36.234889,57.801979,50.495288,64.300698,62.077522,68.189411,0.0,67.344006,23.062534,87.252583,13.591747,86.313686,5.612629,72.279522,-0.838818,53.657513,0.0,7.635821,33.725926,65.739686,50.655752,77.313183,61.61298,85.396472,67.695013,88.981627,17.733227,288.289323,-64.130882,276.248042
97,0.054634,-0.652665,0.353588,0.217818,0.0,-32.57159,-38.01218,-9.72456,-42.579637,-2.797794,-43.426992,-7.932609,-42.12113,-20.218918,0.0,0.608483,20.835843,42.277062,37.996295,56.406704,52.240305,62.899396,63.645872,67.726913,0.0,67.235504,22.905613,87.081276,13.54929,86.46254,5.693012,72.762818,-0.645801,54.10595,0.0,7.41788,33.387522,65.10635,50.441504,76.704695,61.54009,85.076569,67.721368,88.893572,17.807985,287.593417,-63.75717,276.422619
98,5.281403,-4.224358,0.164738,0.292401,0.0,-41.366833,-42.959255,-15.591992,-47.491671,-8.499996,-47.938963,-12.995362,-45.875731,-25.245804,0.0,5.717576,23.850942,48.00519,41.350108,61.419553,56.015392,67.55161,67.780457,71.891917,0.0,67.294453,23.043136,86.971424,13.875824,86.641193,6.117439,73.125378,-0.201897,54.464619,0.0,7.068557,33.046795,64.623967,50.215583,76.082324,61.45769,84.473551,67.791282,88.657289,23.095665,283.321391,-63.586155,276.667352
99,-0.480755,0.515449,0.16547,0.198342,0.0,-41.419098,-40.944632,-14.682037,-45.508175,-7.862309,-46.227551,-12.570717,-44.526792,-25.222344,0.0,6.295313,23.188305,47.810232,40.625467,61.329491,55.275795,67.489848,67.054025,71.769497,0.0,67.345459,22.927666,86.934242,13.903187,86.817833,6.260788,73.56601,0.03138,54.854919,0.0,6.898324,32.634932,64.373755,49.912389,75.586642,61.268586,83.941312,67.683639,88.382537,22.605068,283.791092,-63.430527,276.819946
100,-0.490379,-0.548269,0.293644,0.257858,0.0,-42.942238,-42.514201,-15.900376,-46.661477,-7.703717,-46.994477,-11.375817,-45.010546,-23.547227,0.0,6.347071,25.064936,47.227826,42.586363,60.411657,57.35724,66.719955,69.041486,71.43844,0.0,67.442379,22.966644,86.974537,14.053173,86.931026,6.437313,73.88641,0.198624,55.285824,0.0,6.861323,32.534834,64.152243,49.832977,75.025713,61.198499,83.448617,67.62684,88.039773,22.089466,283.193846,-63.162106,277.028827
101,-0.254219,0.968925,0.080589,0.304528,0.0,-42.171971,-40.856055,-14.132779,-45.388339,-6.922142,-46.227477,-11.280785,-44.648918,-24.151269,0.0,5.518301,23.967762,46.258543,41.494425,59.835637,56.238114,66.245879,67.956477,70.885528,0.0,67.696781,23.412232,87.20184,14.604378,87.26611,6.989811,74.370976,0.694794,55.861462,0.0,6.60249,32.233604,63.955507,49.684332,74.604514,61.196511,82.957183,67.734187,87.776654,21.805155,284.109718,-63.111609,277.280302
102,-0.272164,0.743185,0.320824,0.335243,0.0,-41.011928,-39.541998,-11.890789,-44.443371,-5.860599,-45.689466,-11.024803,-44.367817,-24.462353,0.0,5.398585,22.755435,46.175396,40.200123,60.031429,54.823516,66.247454,66.508565,70.658916,0.0,67.90781,23.568775,87.595722,14.612411,87.091473,6.893303,74.158756,0.590206,55.946949,0.0,6.3679,32.106633,64.068201,49.69541,74.289364,61.236019,82.462809,67.711278,87.304412,21.502476,284.78921,-62.8213,277.551852
103,-0.141243,-0.690258,0.171364,0.23517,0.0,-39.945042,-42.170751,-12.300716,-46.967651,-5.302013,-47.801817,-10.17794,-45.969944,-22.911426,0.0,6.997859,23.85248,46.965443,41.203135,60.191387,55.718971,66.127435,67.227895,70.753258,0.0,68.278324,23.926998,87.956302,14.838833,86.895847,6.985622,73.847843,0.569412,55.905819,0.0,6.319698,32.01155,64.260505,49.661262,74.139039,61.244121,82.258243,67.706029,87.044986,21.335844,284.040194,-62.675325,277.728264
104,-0.444957,1.012367,0.23156,0.259093,0.0,-37.35656,-41.302105,-10.18039,-46.63571,-3.93417,-47.850438,-9.97268,-46.288708,-23.201329,0.0,6.640781,22.516615,46.216299,39.868425,59.965942,54.331155,66.127016,65.950848,70.683449,0.0,68.50597,24.307147,88.15092,15.091804,86.472438,7.0914,73.29047,0.573326,55.745143,0.0,6.209349,32.220018,64.570825,49.887626,73.951046,61.43604,81.976648,67.836001,86.759242,20.88025,284.988949,-62.454402,277.923745
105,-4.583153,5.228234,0.007301,0.100838,0.0,-28.432686,-35.419899,-2.511086,-41.655642,1.646221,-43.869313,-5.975144,-43.222973,-20.265919,0.0,1.965769,18.026915,41.044752,34.846474,55.61817,48.72696,62.077992,59.91372,66.505873,0.0,68.546367,24.788086,88.406742,15.495392,86.388187,7.385181,73.030918,0.761089,55.593418,0.0,6.132359,32.362304,64.668045,50.014709,73.993506,61.557837,81.930842,67.944781,86.741137,16.327721,290.156899,-62.416477,277.964299
106,0.138496,-1.085448,0.122532,0.014907,0.0,-29.448498,-38.109146,-4.078926,-43.90848,1.011166,-45.490849,-5.626305,-44.205769,-18.950786,0.0,3.398761,20.197713,43.123307,36.677188,56.734975,50.259234,62.554223,61.02866,66.824986,0.0,68.384468,25.021488,88.489723,15.63509,86.198639,7.408882,72.558815,0.660873,55.202911,0.0,6.285611,32.707217,64.768043,50.222314,73.994962,61.628479,81.93215,67.925416,86.685463,16.515673,289.016317,-62.244489,277.924072
107,0.099587,0.490193,0.019901,-0.052414,0.0,-29.714653,-36.497109,-4.453125,-42.332131,0.036003,-44.202839,-6.822693,-43.273842,-20.214501,0.0,3.195411,19.529086,42.863814,35.918807,56.452288,49.505243,62.583067,60.351654,66.890356,0.0,68.222981,25.288319,88.503147,15.899632,86.113964,7.625359,72.299389,0.783165,54.993244,0.0,6.559684,33.183547,64.893582,50.582912,74.134333,61.865539,82.024813,68.092957,86.843643,16.686602,289.458931,-62.153246,277.824079
108,-0.534325,0.913554,-0.049713,-0.05875,0.0,-28.406038,-34.820131,-3.219853,-40.909699,0.515865,-43.131094,-6.819054,-42.629568,-20.691673,0.0,2.268951,18.319408,41.891424,34.744098,56.012459,48.372019,62.585376,59.300551,66.817836,0.0,68.126232,25.385284,88.622463,15.97261,86.130306,7.681927,72.159954,0.839882,54.953144,0.0,6.677591,33.525818,65.008438,50.860381,74.362909,62.05357,82.237804,68.214816,87.029364,16.231052,290.321495,-62.124184,277.714339
109,-1.082611,-0.473675,-0.020004,0.220252,0.0,-27.533221,-36.441931,-2.353626,-42.440964,1.828823,-44.357306,-4.867424,-43.567995,-18.543892,0.0,2.79993,18.973061,42.220739,35.45981,56.149149,49.090386,62.622661,59.797185,66.850811,0.0,68.137676,25.129852,88.78387,15.757656,86.383976,7.594551,72.335414,0.932373,55.185299,0.0,6.746319,33.16601,64.94644,50.649256,74.375827,61.98042,82.168754,68.266822,87.12893,15.27158,289.802832,-62.021049,277.889603
110,-0.978562,-0.860826,0.059772,0.190784,0.0,-28.150606,-37.192262,-1.149227,-43.076351,3.902127,-44.732133,-3.031105,-43.79191,-16.978569,0.0,2.500429,19.647685,44.055085,36.463798,57.937355,50.242711,64.216798,61.18862,67.798705,0.0,68.186394,24.696739,88.883194,15.302639,86.479019,7.246376,72.382668,0.775841,55.363884,0.0,6.732289,32.774019,65.022937,50.496906,74.240618,61.999254,82.004708,68.381764,87.173847,14.438015,288.902942,-61.81628,278.041323
111,-0.407638,0.759802,-0.003994,0.172456,0.0,-27.552481,-37.777868,0.25201,-43.92255,5.291508,-45.608099,-1.963738,-44.643019,-16.41861,0.0,2.700414,19.212579,43.542037,36.006449,57.494185,49.638137,63.776814,60.353297,67.13842,0.0,68.581959,24.340759,89.066586,14.925877,86.527966,6.945202,72.44347,0.63636,55.578449,0.0,6.648667,32.353314,64.974772,50.270196,74.165617,61.945766,82.034521,68.432746,87.353072,14.209093,289.626244,-61.641558,278.177279
112,-1.532181,0.684701,0.107437,0.264033,0.0,-24.534822,-38.481932,3.68462,-44.915806,9.043293,-46.532438,1.046906,-45.507883,-13.879349,0.0,2.026618,18.978174,42.660772,35.982515,57.046642,49.624107,63.258184,60.248086,66.362773,0.0,68.766369,23.93755,88.967091,14.535645,86.568753,6.610989,72.479382,0.400463,55.651737,0.0,6.450448,31.734907,64.711579,49.790333,73.906796,61.671507,81.884566,68.350037,87.422417,12.883278,290.271344,-61.327755,278.401711
113,0.59095,-0.223592,0.250969,0.244667,0.0,-25.035416,-40.790119,2.78682,-46.967892,8.872055,-48.103523,1.38842,-46.541027,-13.170547,0.0,2.907778,20.553662,44.242466,37.126447,57.776069,50.245582,63.18995,60.233402,65.892309,0.0,68.672482,23.508946,88.80209,14.074082,86.43211,6.194916,72.480732,0.107426,55.594952,0.0,6.399134,31.396948,64.594624,49.575923,73.750073,61.569372,81.712023,68.319236,87.448649,13.727491,290.000457,-60.823523,278.599083
114,0.65007,0.527275,0.200901,0.053377,0.0,-26.299575,-39.532322,2.661621,-45.610656,8.59726,-46.897064,0.063561,-45.507168,-14.831634,0.0,1.980273,20.367051,44.108776,36.907134,57.410432,50.027565,62.931413,60.12188,65.542097,0.0,68.67096,23.467495,88.622086,13.987793,86.16568,6.02227,72.229225,-0.153969,55.319,0.0,6.249327,31.556919,64.407397,49.667907,73.557956,61.63258,81.682433,68.351964,87.490269,14.649238,290.482244,-60.350945,278.606972
115,-0.771949,1.246679,0.107254,0.08182,0.0,-24.642678,-37.442196,3.474426,-43.325421,9.10691,-44.765236,0.746223,-43.604016,-14.389138,0.0,2.261757,19.624367,42.461806,35.803012,55.517547,48.759162,61.008159,58.687974,63.939538,0.0,68.716759,23.493817,88.542572,13.984097,85.985481,5.96394,72.143921,-0.2654,55.088745,0.0,6.266963,31.646654,64.26994,49.67297,73.489338,61.594764,81.707021,68.286458,87.609187,14.147473,291.685543,-59.973507,278.645412
116,-0.781472,-0.414593,0.20707,0.156166,0.0,-23.228759,-36.071697,4.007332,-42.095455,9.508347,-43.876098,0.94709,-43.105224,-14.311844,0.0,1.287682,19.629777,41.567265,36.19908,55.147465,49.587211,61.324841,59.978385,64.872686,0.0,68.459404,23.402195,88.408493,13.852352,85.747604,5.796867,71.97496,-0.457753,54.810562,0.0,6.385376,31.739453,64.162902,49.722284,73.29627,61.592825,81.554276,68.235959,87.526912,13.64887,291.229889,-59.483568,278.760517
117,-1.148208,0.772004,0.076126,0.026788,0.0,-23.43496,-35.456349,5.89508,-41.686398,11.502845,-43.615952,2.1091,-43.102902,-13.426644,0.0,-0.86931,19.11258,41.327933,35.857353,55.158877,49.177472,61.258693,59.501289,64.350104,0.0,68.258972,23.391884,88.404281,13.785782,85.593292,5.673717,71.824676,-0.62328,54.617042,0.0,6.53491,31.97582,64.082021,49.911524,73.282906,61.693663,81.674911,68.220212,87.54446,12.793196,291.960017,-59.114908,278.745429
118,-6.076722,4.349736,0.050045,0.123352,0.0,-14.013977,-29.421695,13.50879,-36.436443,18.759888,-39.023036,8.246888,-39.153831,-8.61621,0.0,-6.384993,14.925519,35.743349,31.684322,50.647935,45.097721,57.693533,55.746259,61.087954,0.0,68.130695,23.482429,88.375202,13.808246,85.495136,5.595314,71.70853,-0.809841,54.432186,0.0,6.495106,31.853197,63.785916,49.783355,73.144673,61.568817,81.727214,68.084868,87.514512,7.000139,296.268436,-58.781198,278.827464
119,0.291527,-1.205541,0.046074,0.099419,0.0,-13.58995,-31.723743,12.499649,-39.013836,17.935066,-41.504894,8.612892,-41.426948,-8.05426,0.0,-5.427132,15.917404,36.66059,32.821752,51.580453,46.415475,58.625372,57.209163,62.090657,0.0,68.044864,23.408535,88.245243,13.70557,85.553272,5.461383,71.715511,-1.011063,54.322277,0.0,6.698524,31.798448,63.590067,49.695336,73.149624,61.454417,81.788568,67.947522,87.46295,7.54442,295.01389,-58.48237,278.877878
120,2.937081,-3.369423,0.081482,0.155252,0.0,-16.678757,-35.0541,9.588592,-42.885155,14.911995,-45.604809,4.599952,-45.614479,-12.084549,0.0,-2.549033,17.755009,40.531278,35.661184,55.729623,49.874745,62.819756,61.021312,65.819838,0.0,68.03207,23.213825,87.95866,13.567314,85.533428,5.349186,71.761356,-1.174096,54.325573,0.0,6.585176,31.811071,63.164682,49.612863,72.720299,61.307687,81.530576,67.769509,87.349849,10.715739,291.58682,-58.16665,278.975483
