takenoko1/special-research/HandMotion_SimilarSearch_自分用/NewProject/handData/test_key/d4_feature_d3/60.csv
frame,vel_0x_L,vel_0y_L,vel_0x_R,vel_0y_R,posFromWrist_0x_L,posFromWrist_1x_L,posFromWrist_2x_L,posFromWrist_3x_L,posFromWrist_4x_L,posFromWrist_5x_L,posFromWrist_6x_L,posFromWrist_7x_L,posFromWrist_8x_L,posFromWrist_9x_L,posFromWrist_0y_L,posFromWrist_1y_L,posFromWrist_2y_L,posFromWrist_3y_L,posFromWrist_4y_L,posFromWrist_5y_L,posFromWrist_6y_L,posFromWrist_7y_L,posFromWrist_8y_L,posFromWrist_9y_L,posFromWrist_0x_R,posFromWrist_1x_R,posFromWrist_2x_R,posFromWrist_3x_R,posFromWrist_4x_R,posFromWrist_5x_R,posFromWrist_6x_R,posFromWrist_7x_R,posFromWrist_8x_R,posFromWrist_9x_R,posFromWrist_0y_R,posFromWrist_1y_R,posFromWrist_2y_R,posFromWrist_3y_R,posFromWrist_4y_R,posFromWrist_5y_R,posFromWrist_6y_R,posFromWrist_7y_R,posFromWrist_8y_R,posFromWrist_9y_R,posFromBody_0x_L,posFromBody_0y_L,posFromBody_0x_R,posFromBody_0y_R
6,-6.283848,-0.472527,0.135715,0.33959,0.0,5.684383,-7.103004,43.811382,-18.597794,47.150356,-28.383842,28.29134,-36.033188,-18.422047,0.0,13.404335,18.50734,50.000285,37.211206,64.182601,50.394783,70.64567,60.279666,71.868353,0.0,65.757637,26.260826,86.633469,16.747227,85.950875,6.794667,71.592545,-2.513878,51.02504,0.0,17.384717,30.61967,58.846315,48.02584,72.565046,60.036653,80.945602,67.365402,86.658379,-15.306833,278.185396,-50.935461,272.176612
7,-1.330456,-2.691712,0.179478,0.118252,0.0,11.795002,-4.518299,46.041115,-16.736492,49.042237,-27.94947,28.937714,-37.305279,-19.507004,0.0,9.831505,19.020226,51.586677,38.226345,66.926874,51.785118,74.052057,62.031154,75.773609,0.0,65.684177,26.161011,86.702831,16.699562,86.012272,6.824203,71.637783,-2.439674,51.017086,0.0,17.162329,30.520079,58.694569,47.886728,72.292479,59.89564,80.811048,67.267416,86.627924,-16.271656,275.80196,-50.39035,272.60314
8,-1.896858,-0.251794,0.291675,0.11488,0.0,13.15844,-3.463039,47.670021,-15.567982,51.894493,-26.5723,31.177391,-35.78595,-20.259396,0.0,10.61418,19.335758,51.839607,38.652955,67.180323,52.275812,74.236197,62.516475,76.478713,0.0,65.553063,26.101239,86.758576,16.598294,85.924233,6.717854,71.510445,-2.5303,50.897461,0.0,17.082536,30.36626,58.549012,47.695278,72.198557,59.699953,80.619424,67.093466,86.404907,-17.972729,275.685823,-49.90289,272.853677
9,3.746212,0.213113,0.469895,0.121414,0.0,9.295498,-7.182083,43.940701,-19.285629,48.630169,-29.98811,28.284267,-38.724266,-24.811649,0.0,11.756278,18.880843,51.835223,38.16625,66.890084,51.875089,73.828719,62.288579,77.311207,0.0,65.476684,25.973934,86.387627,16.436874,85.51094,6.548126,71.078361,-2.7216,50.447708,0.0,16.958182,30.307979,58.445592,47.565873,72.094594,59.549442,80.504667,66.965086,86.24438,-14.083723,275.955548,-49.290201,273.031703
10,0.552074,2.316036,0.420856,0.058972,0.0,5.342606,-9.018505,43.746506,-20.416534,47.653862,-29.465686,29.128006,-36.269187,-20.587165,0.0,15.641379,18.252495,50.243778,37.006268,64.074734,50.536426,70.988928,60.998082,74.518507,0.0,65.286244,26.026028,86.231312,16.452324,85.228077,6.442967,70.729947,-3.014373,50.012524,0.0,16.863025,30.376658,58.387966,47.509495,72.017974,59.388162,80.504765,66.761001,86.200228,-13.413924,278.285027,-48.75162,273.104118
11,6.161374,1.435289,0.334534,-0.116795,0.0,-3.330048,-16.093575,37.959903,-27.077568,41.42165,-34.661385,24.914394,-39.758171,-25.829098,0.0,18.228129,16.801398,49.702932,35.280728,62.892165,48.725299,69.208269,59.351668,73.341051,0.0,65.18977,26.007946,86.087116,16.412842,85.001919,6.349182,70.592205,-3.203716,49.842533,0.0,17.109681,30.612792,58.533351,47.63097,72.074278,59.397968,80.672245,66.685307,86.263671,-7.154525,279.725726,-48.319061,272.992733
12,1.515346,3.666814,0.425137,-0.043509,0.0,-5.599937,-18.195534,35.934471,-28.432171,39.19384,-34.576984,25.362854,-38.07486,-19.52045,0.0,17.356448,15.000114,46.285355,32.978104,59.928614,46.348389,65.317214,56.833362,69.303265,0.0,65.07772,26.024334,85.763992,16.447288,84.81887,6.390483,70.43415,-3.137307,49.828651,0.0,17.304046,30.931139,58.629484,47.926532,71.946751,59.623616,80.679432,66.816823,86.161177,-5.565525,283.399484,-47.82027,272.956168
13,5.88279,1.061502,0.438789,0.048128,0.0,-12.631405,-23.359188,30.731689,-34.183617,32.360779,-39.951519,19.476928,-42.672959,-21.694107,0.0,17.706214,14.065225,46.333779,32.021417,59.508044,45.428061,64.198223,56.033485,67.674647,0.0,64.937965,26.077126,85.418678,16.562199,84.618896,6.486385,70.309341,-3.139046,49.659622,0.0,17.132677,31.097582,58.59194,48.032953,71.637802,59.672535,80.656993,66.871287,86.228498,0.370554,284.454039,-47.328192,272.997349
14,-3.540665,3.981061,0.33617,0.076756,0.0,-16.332504,-21.250053,33.339661,-30.497108,35.452972,-34.770687,24.658768,-36.082947,-10.125286,0.0,20.405041,12.698874,43.424557,29.424775,55.921,42.202035,59.608192,52.184137,61.932489,0.0,64.738278,26.195778,85.426129,16.763787,84.529553,6.678223,70.211575,-2.991451,49.680256,0.0,17.01172,31.071757,58.495165,47.967164,71.47215,59.572462,80.54888,66.784046,86.176874,-3.144745,288.41747,-46.966656,273.056475
15,5.190079,-1.48159,0.529358,0.212742,0.0,-18.816776,-24.945957,27.89376,-35.303295,30.018356,-40.548752,18.235634,-42.700287,-20.261593,0.0,15.329169,13.129904,44.87232,30.488933,57.710836,43.444774,61.199537,53.310403,64.276412,0.0,64.512417,26.03373,85.091663,16.670998,84.231732,6.653446,69.846737,-2.95063,49.452633,0.0,16.863692,30.895238,58.315422,47.79966,71.26993,59.430363,80.28817,66.701956,85.935999,2.06206,286.905937,-46.420572,273.239274
16,-5.191052,1.409972,0.505886,0.228168,0.0,-8.985454,-18.820049,34.002629,-29.342182,35.020558,-35.069366,22.388134,-37.670231,-10.671318,0.0,12.198819,13.715236,44.253173,31.005191,56.277621,43.90868,59.862196,53.565605,61.801653,0.0,64.278694,25.883892,84.861992,16.576882,83.944817,6.595699,69.510658,-2.970314,49.283982,0.0,16.505688,30.604282,58.062097,47.517979,71.060522,59.193859,79.999968,66.549123,85.686057,-3.123963,288.269945,-45.909657,273.421478
17,-1.327137,0.955711,0.54055,0.286127,0.0,-5.009639,-15.895706,37.540169,-26.371639,37.928627,-32.371948,23.531319,-35.315368,-13.238502,0.0,14.371915,13.586746,44.052077,30.395924,55.453784,43.000665,59.946374,52.779214,61.994376,0.0,64.104493,25.753155,84.538971,16.443535,83.549927,6.421212,69.220208,-3.251735,49.044732,0.0,16.084895,30.135028,57.683209,47.007958,70.685882,58.717318,79.618499,66.204704,85.381862,-4.469324,289.1515,-45.387331,273.633449
18,-1.012733,-0.782439,0.253098,0.151721,0.0,-1.742043,-14.894772,38.616554,-25.370041,39.746452,-31.48066,25.009323,-34.539128,-16.337563,0.0,13.89257,13.911071,44.333202,30.834438,55.697599,43.483998,60.70473,53.323617,63.42265,0.0,64.143539,25.711533,84.696396,16.392815,83.408363,6.370823,69.110298,-3.247753,49.114128,0.0,15.996246,29.709135,57.578652,46.572136,70.678718,58.300737,79.411647,65.808562,84.959464,-5.515257,288.296588,-45.167433,273.712697
19,2.097324,-1.012028,0.205696,0.074236,0.0,5.086258,-15.424999,38.070065,-27.363476,37.525372,-34.328487,22.130757,-38.096603,-19.386234,0.0,8.309383,14.226357,44.953769,32.200086,56.457377,45.504719,62.210811,55.911491,64.894138,0.0,64.273705,25.706326,84.714294,16.404568,83.384903,6.376122,69.115906,-3.242821,49.152969,0.0,15.944944,29.351675,57.459672,46.211254,70.534939,57.97414,79.230422,65.533156,84.624296,-3.47889,287.215118,-45.022694,273.717491
20,-4.069725,3.241378,0.15057,-0.118166,0.0,10.552265,-11.382374,43.682614,-22.030529,43.692387,-28.129635,28.435902,-31.27177,-11.30278,0.0,10.664333,13.214774,42.512479,30.241449,53.722933,43.174147,59.993403,53.35863,61.717771,0.0,64.44128,25.691036,84.880474,16.426025,83.430073,6.435665,69.335941,-3.125771,49.46957,0.0,16.116685,29.033648,57.473925,45.898847,70.566074,57.717678,79.155001,65.315288,84.371861,-7.638348,290.392965,-44.961857,273.535794
21,2.179928,-3.387171,0.131584,-0.063467,0.0,7.273933,-12.521393,40.60849,-23.578869,41.206627,-30.437004,24.883232,-34.408195,-18.088566,0.0,11.915656,14.981169,43.680698,32.293379,56.333197,45.258965,63.269077,55.430986,65.6758,0.0,64.575039,25.891754,85.059551,16.636036,83.48917,6.63311,69.431042,-2.926792,49.636471,0.0,16.182894,28.807432,57.513124,45.707198,70.595245,57.577406,79.097449,65.221662,84.165664,-5.571001,286.947862,-44.942854,273.414395
22,0.461277,0.372911,0.104347,-0.187066,0.0,-5.06234,-14.280739,37.577145,-24.111362,39.403072,-29.944004,24.777111,-32.928497,-15.478718,0.0,17.361264,15.962519,43.803841,32.159195,54.411857,43.790861,60.312554,52.901146,62.290877,0.0,64.901036,25.797581,85.324345,16.549073,83.6162,6.647152,69.602932,-2.704548,49.852604,0.0,16.36087,28.754622,57.599882,45.755054,70.815693,57.706488,79.173253,65.323797,84.075853,-5.23914,287.26814,-44.967923,273.174696
23,-3.903305,-0.706029,0.245625,-0.208235,0.0,0.101692,-9.478912,41.527851,-18.837444,43.759861,-25.248974,28.363575,-29.137596,-11.162865,0.0,16.950414,16.982067,43.376107,33.121982,54.399186,44.630937,60.859835,53.610164,62.714249,0.0,65.024254,25.475567,85.131134,16.238068,83.674438,6.506493,69.770737,-2.591641,50.080696,0.0,16.516222,28.672013,57.49566,45.842555,70.799564,57.937386,79.217985,65.619841,84.097651,-9.28834,286.513458,-44.868193,272.917808
24,-0.302605,-3.437312,0.33577,0.000358,0.0,0.654282,-7.864437,41.982685,-17.351761,45.041371,-24.872646,27.429097,-30.121204,-18.549648,0.0,17.848388,18.116731,45.210601,34.75034,56.991122,46.449203,64.370161,55.6265,66.827086,0.0,65.199577,25.245025,85.00827,16.015296,83.534271,6.404148,69.672271,-2.539067,50.056137,0.0,16.312557,28.715584,57.133111,45.915655,70.68708,58.005101,79.092212,65.655841,83.972434,-9.738344,283.018833,-44.679822,272.860853
25,-2.571338,-4.547992,0.174327,0.201232,0.0,6.962001,-3.707703,44.54306,-14.197449,47.124321,-23.606312,28.201378,-30.928322,-19.927987,0.0,13.944231,19.163697,47.094273,36.822487,60.016201,49.077375,67.81082,58.691272,70.800972,0.0,65.575161,25.068478,85.377606,15.739861,83.548977,6.170311,69.582882,-2.599433,50.147885,0.0,15.909352,28.769789,56.490994,46.063869,70.487058,58.108138,78.82366,65.623336,83.736819,-12.443224,278.397642,-44.639037,272.988886
26,-4.732064,-0.117054,0.071652,-0.053945,0.0,16.181454,1.660344,50.86036,-8.963825,53.647751,-19.211723,34.301995,-27.543056,-14.331218,0.0,12.256715,17.587468,46.688412,35.521887,60.420308,48.147512,68.572128,58.237258,71.315402,0.0,66.109108,24.701042,85.644516,15.310112,83.837425,5.812912,69.893829,-2.82605,50.282158,0.0,15.895495,29.032364,56.201841,46.337991,70.800046,58.244705,78.993449,65.566316,84.148991,-17.286284,278.192643,-44.678381,272.846996
27,-1.310783,-5.870414,0.363739,-0.133084,0.0,31.597755,5.400753,54.938782,-7.43969,56.319832,-20.310448,34.203209,-31.186867,-21.590252,0.0,2.483972,18.751216,50.256301,38.713445,66.895641,52.952509,76.641882,64.236792,80.26258,0.0,66.216568,24.319759,85.566879,14.971641,83.807396,5.52158,69.916992,-3.217186,49.679855,0.0,15.551754,28.908158,55.820223,46.055285,71.249823,57.833743,79.564306,65.133371,85.546624,-18.682909,272.236547,-44.400484,272.62823
28,-6.319656,0.757393,1.459099,-2.069467,0.0,27.87379,11.501873,57.164085,0.886127,58.84275,-11.173691,39.985771,-22.275364,-14.397526,0.0,7.078166,19.401387,49.903361,36.494864,65.923703,47.973216,73.629042,56.838068,76.214026,0.0,65.740265,24.163341,83.832252,14.460846,81.124214,4.343788,65.409027,-5.246659,42.332473,0.0,16.266738,27.670101,55.485697,44.506783,71.595268,56.326034,81.356835,63.711679,87.04101,-25.06236,272.917011,-43.00118,270.481834
29,1.302314,-2.622873,1.053245,2.252902,0.0,5.426045,7.882416,34.661534,2.214512,36.336388,-5.330372,24.317654,-12.413383,-14.417141,0.0,2.980556,21.813197,50.973866,38.483079,67.629582,49.762607,75.858812,57.941189,79.468667,0.0,56.772652,24.13662,69.119866,15.581074,63.561985,5.885067,48.343312,-3.784469,28.983422,0.0,24.296848,25.222364,56.226208,36.840012,68.23013,44.511352,73.743775,48.50921,76.3027,-23.770048,270.238171,-41.957937,272.678769
30,8.010784,-2.564779,1.680783,-10.359088,0.0,-16.045852,-1.380889,4.957123,-2.990867,6.225186,-6.069019,0.801888,-9.028678,-22.993904,0.0,1.262623,23.464416,53.781694,39.718075,71.330816,50.969716,79.270128,59.011905,83.373331,0.0,55.241123,23.78667,61.657733,16.270282,57.127807,7.814025,42.856155,-0.805962,26.63087,0.0,25.746636,18.015077,48.087849,25.752923,55.916677,31.303655,59.630755,34.677969,61.155002,-15.71723,267.64034,-40.23512,262.286629
31,9.744942,-1.323929,-0.025372,-16.360278,0.0,-37.707939,-10.269035,-26.318229,-7.539207,-25.95417,-5.970005,-24.081631,-4.696987,-32.968838,0.0,5.378202,26.155215,55.769909,41.746551,72.851,52.45411,80.706591,59.765927,85.087461,0.0,55.366447,20.90387,52.841675,15.441628,47.906193,9.675041,36.188942,3.606846,25.167709,0.0,19.041234,11.490122,33.543577,12.683349,36.413119,12.897636,36.416318,12.322492,34.217805,-5.925242,266.513163,-40.213446,246.123103
32,8.788994,-0.792258,-3.01918,-35.995087,0.0,-57.698914,-18.578888,-56.503349,-11.888546,-56.600544,-5.972282,-47.547443,-0.584953,-39.385162,0.0,11.919151,27.895366,57.101298,43.013127,73.924864,53.408413,81.687237,60.012805,85.748092,0.0,53.639625,19.166462,42.412788,16.937553,38.818142,14.762821,31.588566,12.213649,28.923568,0.0,9.873984,4.352743,19.439925,6.145574,22.577402,7.603742,23.768042,8.469013,21.864703,2.789984,266.037731,-43.306394,210.444842
33,13.542984,-2.039628,2.047897,-37.502594,0.0,-69.782902,-30.475456,-86.186645,-22.322491,-87.853134,-13.21249,-75.007427,-3.783176,-51.652622,0.0,10.502609,28.971107,58.864309,46.410325,76.799185,59.206987,86.810631,67.570178,91.554471,0.0,50.403465,17.329502,34.456329,14.011128,27.799873,11.282547,22.235573,8.422131,24.381374,0.0,-1.390211,-9.282643,-3.412939,-11.705704,-1.162192,-13.056562,-2.913384,-13.502579,-7.162936,16.302063,264.486892,-41.289402,173.431037
34,6.022671,1.324559,-6.909267,-58.2961,0.0,-63.500656,-32.878796,-91.688873,-25.928719,-94.387104,-17.24263,-81.095696,-7.884499,-57.434452,0.0,18.870345,28.519143,59.400166,45.726575,76.935381,58.273826,86.692762,66.615257,90.217907,0.0,54.150455,23.582782,52.910282,21.966819,42.567718,20.428882,34.692695,18.14954,36.49831,0.0,-20.539564,-20.93413,-31.106924,-17.982133,-21.781433,-13.737497,-14.557974,-8.253578,-13.131552,22.311688,266.443287,-48.211715,115.766773
35,1.882713,1.228228,-8.802094,-50.138607,0.0,-62.985969,-33.104496,-93.407341,-26.270828,-96.091713,-17.5578,-81.806328,-7.92556,-58.258232,0.0,26.658517,29.058101,58.795556,46.040539,75.579342,58.151857,85.666173,65.971509,88.753768,0.0,50.494232,28.58297,59.967117,29.073151,44.672615,28.551422,35.944317,26.519367,40.205101,0.0,-33.131893,-27.517268,-47.431029,-20.999331,-31.894672,-13.586451,-19.60533,-5.293046,-16.552192,24.160955,268.794875,-57.047255,66.751526
36,0.082008,0.356324,-8.263657,-48.253363,0.0,-62.53252,-33.032363,-93.523887,-26.388336,-95.930992,-17.720535,-81.685489,-7.98072,-58.445056,0.0,26.83731,28.959116,58.378951,45.934563,75.053254,58.019872,85.370093,65.661955,88.431888,0.0,45.229065,34.344155,64.654748,36.11213,47.849991,35.831189,38.459725,33.549351,45.73827,0.0,-37.958954,-34.832827,-55.440835,-22.355483,-33.790258,-8.826709,-16.010721,5.217823,-10.764517,24.06911,270.561103,-65.484765,19.908067
37,-0.127441,-0.24279,-6.944549,-32.8487,0.0,-62.23447,-33.031769,-93.647999,-26.34391,-95.886543,-17.593254,-81.559124,-7.820137,-58.552345,0.0,27.233266,29.361123,58.583764,46.442905,74.961629,58.54811,85.287891,66.146547,88.348389,0.0,42.360592,37.518185,67.680599,39.485115,49.809013,39.118275,39.526886,36.605255,49.493545,0.0,-40.119471,-41.028202,-61.386578,-29.969031,-39.858711,-17.302354,-23.35366,-3.461734,-22.483788,23.421553,271.840986,-72.94943,-11.41796
38,-0.007599,-0.099517,-14.648289,-29.827425,0.0,-62.047405,-33.056831,-93.490654,-26.290649,-95.657329,-17.43338,-81.213936,-7.646164,-58.369606,0.0,27.676584,29.481092,58.671042,46.622018,74.740649,58.755208,85.064873,66.360414,88.213353,0.0,41.067719,38.931576,70.151047,46.636105,57.999344,51.819191,52.412236,54.35899,71.924149,0.0,-41.796692,-40.624342,-58.117691,-26.560124,-37.925781,-10.874982,-19.841407,5.637529,-20.301411,22.528209,273.295131,-88.483464,-39.691723
39,0.210388,-0.106297,-5.139004,-15.30429,0.0,-62.117099,-33.062152,-93.374702,-26.304565,-95.529853,-17.480323,-81.055881,-7.785324,-58.334163,0.0,28.000094,29.85725,58.766817,47.101003,74.505849,59.225166,84.918858,66.710674,88.191444,0.0,39.61076,32.02612,58.627465,41.178967,55.16866,49.112687,55.890828,55.028149,83.966584,0.0,-43.490846,-41.030197,-50.445511,-28.517501,-34.656486,-13.82601,-20.852212,1.703762,-28.991584,21.724983,274.646514,-94.636082,-53.538333
40,0.438012,-0.08918,-3.947471,-11.469538,0.0,-62.479866,-33.101864,-93.454525,-26.36451,-95.629509,-17.572701,-81.202332,-7.982163,-58.528233,0.0,28.179121,30.190357,58.924762,47.527847,74.241853,59.667842,84.815821,67.074495,88.187974,0.0,38.225643,26.891887,50.219311,37.528168,53.200222,47.682789,58.623581,56.130287,93.946102,0.0,-44.630085,-41.66249,-44.627368,-30.318861,-32.471913,-16.288287,-21.247254,-1.426368,-35.763294,21.155102,275.524926,-99.591446,-64.040279
41,0.206222,-0.163577,-2.71204,-7.648439,0.0,-62.671097,-32.979069,-93.468418,-26.223175,-95.688217,-17.437157,-81.247673,-7.89402,-58.543156,0.0,28.477079,30.455143,58.983253,47.83119,74.172619,59.967332,84.833457,67.314371,88.324838,0.0,36.366131,23.428745,44.798504,35.459816,52.130436,47.287697,60.655952,57.428535,100.894581,0.0,-45.37453,-42.320009,-40.608577,-31.826625,-31.587608,-18.101725,-21.184961,-3.530641,-40.634124,20.515051,275.834348,-103.149759,-71.215719
42,0.668633,0.112275,-2.122833,-3.598882,0.0,-63.337876,-32.984024,-93.972359,-26.201729,-96.125828,-17.467621,-81.775567,-8.072457,-59.045426,0.0,28.306104,30.461774,58.70687,47.845973,73.786049,59.975458,84.524396,67.323596,88.09331,0.0,34.374538,21.169773,42.437416,34.508617,51.991539,47.538597,61.839969,58.726078,105.628372,0.0,-45.230948,-43.384684,-38.233422,-33.367273,-31.695344,-19.537602,-20.743982,-4.808245,-42.999609,20.743143,276.193813,-105.713133,-74.567411
43,0.384727,-0.04635,-1.13562,-3.377043,0.0,-63.756592,-32.979183,-94.341774,-26.226196,-96.508587,-17.574966,-82.251766,-8.293831,-59.394825,0.0,28.159546,30.402284,58.671981,47.830659,73.663338,59.987215,84.536178,67.324066,88.069635,0.0,32.656803,20.344459,39.185474,34.150199,49.707286,47.556186,60.074661,58.943321,106.613227,0.0,-44.450689,-42.596867,-35.996131,-32.668901,-30.075316,-19.045167,-18.869111,-4.756079,-42.123655,20.708336,276.175377,-107.268287,-77.91654
44,0.250145,-0.043954,-2.70702,-0.94777,0.0,-64.035576,-32.899269,-94.621262,-26.117317,-96.667889,-17.483665,-82.436394,-8.31649,-59.624359,0.0,28.06408,30.258406,58.479925,47.732686,73.520189,59.95739,84.396116,67.376418,87.977244,0.0,32.720031,18.896175,36.246231,33.251278,47.131714,47.139084,58.296913,58.930652,106.183376,0.0,-42.800298,-41.655692,-34.067079,-32.248165,-28.81796,-19.253143,-18.152831,-5.616583,-41.144732,20.176638,276.10772,-110.75715,-78.888013
45,0.19059,-0.020896,-4.649414,0.14909,0.0,-64.18697,-32.96378,-94.84552,-26.102738,-96.759762,-17.41285,-82.452358,-8.258308,-59.748699,0.0,27.881027,30.075068,58.243334,47.596587,73.398997,59.895392,84.344974,67.379048,87.850557,0.0,31.686046,17.478298,33.16753,32.114353,44.54726,46.348079,55.697868,58.641048,104.555706,0.0,-42.023125,-40.72993,-33.154519,-31.696289,-28.232918,-19.232765,-17.69852,-6.258306,-41.485699,18.876543,276.135406,-116.897249,-78.690341
46,0.388664,0.043731,-6.785832,1.283025,0.0,-64.413654,-32.939884,-95.176987,-26.085319,-96.993107,-17.437912,-82.728699,-8.389046,-60.155937,0.0,27.64209,29.964301,58.034742,47.599169,73.127432,59.994564,84.130219,67.541057,87.652524,0.0,29.575253,15.887615,30.081585,30.656124,42.001362,44.953686,52.752033,57.539314,100.261002,0.0,-42.725276,-39.688694,-33.051408,-31.26624,-28.562023,-19.516088,-18.377534,-7.210219,-41.898154,17.571482,276.214418,-125.376806,-77.372035
47,0.244217,0.162194,-8.585209,1.716044,0.0,-64.228809,-32.811356,-95.231357,-26.027275,-97.19014,-17.456154,-82.92057,-8.507629,-60.45837,0.0,27.29094,29.750336,57.686506,47.506074,72.670651,60.016077,83.790468,67.644303,87.312501,0.0,27.191941,13.560208,27.420845,28.47662,39.887707,42.945225,50.237492,55.90305,94.12254,0.0,-44.243688,-38.11412,-34.022958,-30.222782,-29.768478,-19.164963,-20.120241,-7.546085,-42.701293,15.888983,276.407778,-135.888731,-75.624825
48,0.230484,0.323634,-8.930603,2.285253,0.0,-63.965687,-32.634178,-95.356087,-25.919884,-97.355049,-17.418526,-83.010818,-8.568695,-60.626015,0.0,26.874829,29.50095,57.282868,47.284748,72.197803,59.867395,83.321473,67.590284,86.758588,0.0,25.025368,10.755593,25.024441,25.942944,37.514981,40.808293,47.988362,54.295853,87.330666,0.0,-45.613757,-37.976058,-35.87773,-30.484863,-31.166686,-19.804413,-22.005463,-8.550054,-44.227293,14.099705,276.750243,-146.839096,-73.320741
49,0.08448,0.284595,-7.330982,1.156141,0.0,-63.66568,-32.753105,-95.272087,-26.051193,-97.294681,-17.551963,-83.035812,-8.664688,-60.841999,0.0,26.696654,29.345932,57.097679,47.107599,71.87953,59.694111,83.08387,67.414888,86.542461,0.0,22.509819,8.872433,25.210968,23.803745,37.8051,38.736603,47.740746,52.619076,83.401085,0.0,-49.092955,-38.224197,-37.831075,-30.425256,-32.798528,-19.513742,-23.342496,-8.16932,-45.755036,12.550151,277.097832,-155.804112,-72.101606
50,-0.088668,0.269392,-2.82954,0.311173,0.0,-63.4376,-32.745587,-95.171185,-26.086258,-97.193791,-17.64473,-83.076222,-8.81852,-61.14584,0.0,26.526582,29.239179,56.883134,47.019605,71.547449,59.603894,82.816244,67.307159,86.294386,0.0,21.825737,8.023258,32.004032,22.046848,44.980797,36.419941,54.295704,50.332203,80.764698,0.0,-53.361434,-37.522743,-42.401125,-29.541126,-38.064455,-18.397189,-29.033994,-6.507185,-44.504992,11.44015,277.449519,-159.654985,-71.708138
51,-0.193795,0.26591,7.561638,-3.056096,0.0,-63.28268,-32.915531,-95.038135,-26.302002,-97.122276,-17.874962,-83.06456,-9.028198,-61.26028,0.0,26.299488,29.089322,56.692226,46.863845,71.311648,59.448443,82.58878,67.164799,86.097797,0.0,24.248897,10.887565,45.485481,21.220985,54.517708,32.461738,59.242366,43.685932,76.422432,0.0,-52.549224,-38.614781,-45.965889,-29.852354,-39.71374,-17.7903,-29.998709,-4.645002,-39.378979,10.438968,277.818086,-152.900734,-74.661577
52,-0.441925,0.062096,17.088175,-5.701434,0.0,-63.154941,-33.192306,-94.98191,-26.582908,-96.984226,-18.121536,-82.980903,-9.185806,-61.236271,0.0,26.143124,29.023941,56.625597,46.72934,71.257926,59.283261,82.559782,66.990466,86.13029,0.0,21.754406,18.366496,56.845367,26.339298,62.396158,34.224271,60.680694,41.445682,69.109531,0.0,-53.845546,-40.447757,-53.482089,-30.721329,-44.568391,-17.461803,-31.953118,-2.93924,-34.356892,9.922765,277.907328,-135.886837,-80.335865
53,-0.450828,-0.113719,25.080139,-8.503051,0.0,-63.117291,-33.464184,-94.927449,-26.824539,-96.731839,-18.312287,-82.908394,-9.252205,-61.316666,0.0,25.961799,29.110811,56.568749,46.797352,71.378449,59.317594,82.651111,67.023057,86.398014,0.0,14.186199,29.920486,66.305168,36.882442,69.21211,41.244524,58.635956,43.421012,58.146286,0.0,-57.570086,-41.990649,-64.853214,-31.052993,-52.40369,-16.316962,-35.011918,-0.323288,-29.212292,9.757073,277.963299,-110.521562,-88.669226
54,-0.208924,-0.017945,26.33088,-5.989033,0.0,-63.244217,-33.529655,-95.045345,-26.998947,-96.941631,-18.530685,-83.221401,-9.458038,-61.604496,0.0,25.468624,28.922053,56.344423,46.64389,71.188901,59.22256,82.472134,67.034481,86.285246,0.0,8.929858,40.908637,74.833065,46.964612,75.512721,47.982702,57.24338,45.28203,47.889063,0.0,-57.715051,-41.890749,-73.56192,-30.366057,-58.285254,-14.952635,-37.272516,1.683567,-23.448984,9.878294,278.015178,-83.860537,-94.588435
55,-0.165641,-0.073619,25.410643,-3.697604,0.0,-63.088417,-33.523751,-94.983147,-27.108994,-96.865094,-18.69603,-83.290204,-9.541352,-61.548375,0.0,25.088242,28.773111,56.083231,46.496282,71.137438,59.098677,82.340185,67.013449,86.304587,0.0,4.823005,50.51185,78.878551,56.015456,77.071022,54.297437,52.514849,47.089387,39.103997,0.0,-55.209631,-41.232317,-76.47231,-29.476415,-58.454992,-13.949197,-34.416036,2.46559,-18.592089,10.109625,278.022983,-58.052922,-98.204615
56,-0.108422,-0.096083,18.750793,1.092706,0.0,-62.965713,-33.429794,-94.916668,-27.125564,-96.763984,-18.76799,-83.316742,-9.530525,-61.477958,0.0,24.693446,28.69491,55.835982,46.413598,71.110625,58.998307,82.305111,66.945708,86.248603,0.0,1.115698,56.353977,78.355648,63.793437,78.327539,62.056589,52.341272,53.364451,37.227503,0.0,-55.157576,-37.604372,-77.468102,-26.248801,-59.706254,-11.599141,-34.493949,3.410885,-16.970613,10.220432,278.233,-39.0829,-96.805809
57,0.039231,-0.13411,13.264769,5.633544,0.0,-62.834725,-33.373902,-94.833378,-27.14589,-96.647896,-18.805779,-83.372178,-9.507019,-61.596085,0.0,24.443728,28.620748,55.585671,46.417921,70.990348,59.05103,82.140089,67.080596,86.167278,0.0,4.686225,58.564715,81.569481,66.150676,82.87602,64.297371,57.992575,55.261018,41.884706,0.0,-51.525961,-32.0954,-71.483082,-21.729584,-55.562059,-8.800611,-31.780753,4.148869,-14.889929,9.834252,278.706378,-26.243542,-90.564777
58,0.103317,-0.022218,7.778745,10.174382,0.0,-62.696411,-33.227463,-94.877518,-27.071411,-96.728291,-18.775704,-83.528366,-9.497612,-61.713936,0.0,24.128554,28.366262,55.183095,46.213453,70.614276,58.917723,81.912342,67.012091,85.94121,0.0,15.534587,57.144062,88.52005,63.087175,90.716466,61.019783,69.46876,52.779089,53.075605,0.0,-44.314786,-24.7054,-58.517249,-15.918762,-46.022406,-5.553607,-26.27645,4.679543,-12.350038,9.386404,279.24201,-19.015962,-79.832545
59,0.16523,-0.030554,7.778746,10.174382,0.0,-62.41214,-33.115551,-95.017159,-27.092514,-96.979569,-18.885178,-83.763451,-9.593972,-61.696358,0.0,23.69656,28.231609,54.653165,46.00959,70.285702,58.700411,81.669082,66.824629,85.807224,0.0,26.382947,55.723408,95.470619,60.023673,98.556911,57.742195,80.944944,50.297159,64.266504,0.0,-37.103611,-17.3154,-45.551416,-10.107941,-36.482752,-2.306603,-20.772147,5.210217,-9.810147,8.932337,279.852219,-11.856513,-69.0174
60,0.381408,0.044559,7.778745,10.174381,0.0,-62.382888,-33.346252,-95.430965,-27.407295,-97.582489,-19.223579,-84.190899,-9.911087,-61.957775,0.0,23.124653,28.125534,54.170067,45.816546,69.915966,58.50318,81.296875,66.651234,85.493409,0.0,37.231309,54.302755,102.421188,56.960171,106.397356,54.464607,92.421128,47.81523,75.457404,0.0,-29.892435,-9.925399,-32.585582,-4.297118,-26.943098,0.940402,-15.267842,5.740892,-7.270255,8.687959,280.779941,-4.703554,-57.959856
61,0.536019,0.067296,6.030461,8.224314,0.0,-62.641445,-33.507786,-95.924916,-27.718552,-98.408078,-19.638748,-84.982327,-10.428154,-62.478012,0.0,22.692881,27.900367,53.599876,45.575336,69.398917,58.298934,80.784581,66.506861,85.127105,0.0,44.678133,51.769458,104.772652,52.889184,108.851391,49.96788,98.267382,43.656202,81.015119,0.0,-24.85094,-4.232132,-25.794712,0.324683,-22.749034,3.320649,-14.609328,5.531581,-8.666509,8.750548,281.624879,0.853477,-48.9579
62,0.519607,0.009917,4.166339,8.568618,0.0,-62.91719,-33.522709,-96.300258,-27.907448,-99.183712,-19.937278,-85.709495,-10.782188,-62.832355,0.0,22.319081,27.631123,53.117284,45.252097,69.072949,58.012598,80.436877,66.309519,85.008013,0.0,49.690446,47.670263,102.323479,47.155675,105.701922,43.321472,97.570855,36.591094,80.483077,0.0,-22.598127,-2.282035,-25.389328,1.044542,-24.78904,2.098,-19.666145,2.09595,-14.639809,8.868456,282.037109,4.618117,-39.986969
63,0.764374,0.005817,1.113406,6.441926,0.0,-63.288631,-33.748718,-96.729641,-28.280525,-99.987511,-20.387306,-86.418526,-11.257233,-63.338734,0.0,22.054184,27.459185,52.88036,44.987608,68.911286,57.749109,80.106438,66.127824,84.854551,0.0,51.227132,42.25726,94.424515,40.525572,97.397693,36.26873,91.681516,29.544443,75.678118,0.0,-21.682841,-1.662165,-25.043875,0.759755,-26.570934,0.628413,-23.445235,-0.54058,-18.478157,9.299721,281.842626,5.398414,-33.745343
64,0.938026,-0.134628,-4.958343,4.860434,0.0,-63.857711,-33.921363,-97.205577,-28.501693,-100.606761,-20.648529,-87.033988,-11.5876,-63.923973,0.0,22.086603,27.450441,53.017063,44.982458,69.083755,57.74381,80.164607,66.147609,84.854328,0.0,50.823753,38.016075,86.0453,35.40011,88.482119,30.708667,84.002346,23.812772,68.938305,0.0,-21.488357,-3.248862,-27.329199,-1.396778,-29.996343,-1.979264,-27.671363,-3.382571,-22.132781,9.693099,280.528291,-0.104577,-30.064616
65,0.860276,-0.082635,-11.03009,3.278944,0.0,-64.247715,-33.718472,-97.327,-28.366837,-100.984978,-20.579476,-87.455979,-11.61969,-64.286133,0.0,22.192011,27.265746,53.090547,44.82765,69.148519,57.629227,80.215823,66.099555,84.869136,0.0,48.480306,34.946706,77.185833,31.779284,78.955198,26.641282,74.533344,19.396079,60.263638,0.0,-22.014678,-7.042128,-32.245301,-5.425061,-35.065268,-5.725032,-32.344529,-6.430025,-25.603683,9.996191,278.528528,-11.691851,-28.7028
66,0.857918,-0.128367,-15.353554,3.647521,0.0,-64.387917,-33.439854,-97.276692,-28.07515,-101.016449,-20.309624,-87.488034,-11.397927,-64.433968,0.0,22.30105,27.256916,53.35353,44.76527,69.280393,57.585582,80.463825,66.096246,85.230389,0.0,47.59833,34.161799,72.445221,30.670584,74.203343,25.285715,68.904442,17.971464,55.2873,0.0,-21.092122,-11.34523,-33.617217,-10.13607,-36.432119,-9.742134,-32.618945,-8.942957,-24.954715,10.326525,276.022155,-27.572989,-27.433285
67,0.781265,-0.046621,-19.56118,1.721725,0.0,-64.426026,-33.357697,-97.244625,-27.898613,-100.783287,-20.123314,-87.177544,-11.237045,-64.347313,0.0,22.381227,27.475364,53.917533,44.968354,69.790871,57.738129,81.035102,66.115067,85.489444,0.0,47.210798,36.114607,72.024994,32.729044,74.443646,27.572508,68.028488,20.767908,54.465866,0.0,-18.101685,-14.111729,-31.234423,-12.816884,-33.208414,-11.294428,-27.625065,-8.435029,-19.544978,10.866085,273.42201,-47.375874,-28.265084
68,0.347236,0.00741,-23.348556,0.579055,0.0,-64.358894,-33.142707,-96.988803,-27.611183,-100.340435,-19.846252,-86.788135,-10.987609,-64.142738,0.0,22.542025,27.742756,54.304807,45.31985,70.200005,58.069297,81.607319,66.315397,85.889451,0.0,48.912809,36.112398,69.131469,31.337471,69.53504,24.764494,61.03914,17.019321,46.306938,0.0,-16.976673,-18.449396,-31.154129,-17.248112,-31.647104,-14.73119,-25.411813,-10.089856,-17.809442,11.253084,271.368796,-70.684667,-29.746653
69,-0.169807,0.054303,-24.117119,-1.108816,0.0,-64.025196,-32.930763,-96.425709,-27.293015,-99.535114,-19.448891,-86.068531,-10.481758,-63.566551,0.0,22.548114,27.889055,54.657908,45.51513,70.608953,58.291389,82.128703,66.507281,86.317826,0.0,51.168803,31.669547,58.795109,24.094634,54.934112,14.962661,44.533418,5.429183,28.472454,0.0,-18.333807,-23.481888,-30.805488,-22.562653,-29.846562,-19.161267,-24.254422,-12.902877,-17.796881,11.87221,270.706056,-94.012853,-31.572512
70,-0.277885,0.001309,-24.423489,-2.175896,0.0,-63.821869,-32.933396,-96.23172,-27.112885,-98.873074,-19.146973,-85.420762,-10.059952,-63.003296,0.0,22.746123,28.200882,55.1395,45.869133,71.197904,58.627175,82.784072,66.752282,86.78682,0.0,52.964238,27.532159,48.017304,18.21066,40.062664,7.752958,28.436423,-2.240309,13.081822,0.0,-19.472018,-25.723626,-27.962898,-25.684142,-26.973574,-22.770097,-22.830526,-16.967372,-19.018838,12.644034,270.489871,-117.386633,-33.965902
71,-0.564332,-0.094256,-24.754652,-1.391486,0.0,-63.263202,-33.089813,-95.912738,-27.102516,-98.058437,-18.96215,-84.528877,-9.675544,-62.192115,0.0,23.06184,28.43404,55.665058,46.118925,71.985469,58.856689,83.50386,66.949637,87.085705,0.0,54.662075,21.22839,36.509863,9.449747,23.712793,-2.733804,10.925297,-13.606693,-3.598738,0.0,-20.968457,-25.62618,-24.639374,-26.222043,-23.271782,-23.933598,-20.834249,-18.878496,-19.452003,13.24201,270.424286,-140.978977,-35.328717
72,-0.570716,0.01897,-25.085815,-0.607074,0.0,-62.813931,-33.058548,-95.545636,-26.98684,-97.468209,-18.753502,-83.835686,-9.362389,-61.472878,0.0,23.27583,28.455208,55.928966,46.137994,72.351229,58.887391,83.821319,67.029319,87.266806,0.0,56.262314,12.75824,24.272787,-2.188105,5.8845,-16.497625,-7.999958,-28.669968,-21.569224,0.0,-22.823125,-23.189552,-20.834919,-24.176358,-18.741185,-22.651771,-18.265593,-18.63625,-19.096377,13.812212,270.714034,-164.923874,-35.665013
73,-0.339821,0.007497,-19.308644,0.22935,0.0,-62.567299,-33.069031,-95.297253,-26.96061,-97.180252,-18.599167,-83.41095,-8.985306,-60.855801,0.0,23.276385,28.386257,56.2093,45.99614,72.718804,58.733904,84.120659,66.914117,87.40131,0.0,52.341557,5.600773,9.963049,-10.399097,-13.452587,-24.64425,-26.310075,-35.938837,-36.704446,0.0,-21.030276,-18.665812,-15.831203,-20.417221,-13.977104,-20.03614,-14.898701,-17.734233,-17.417028,14.543461,270.976783,-183.161448,-35.180411
74,-0.13607,0.039656,-21.529438,1.230871,0.0,-62.505925,-33.089425,-95.217202,-26.980294,-97.1689,-18.570054,-83.199818,-8.844361,-60.388756,0.0,23.39129,28.324543,56.388376,45.860512,72.908884,58.543281,84.204134,66.6972,87.364717,0.0,50.317429,1.847947,4.866549,-14.319637,-21.339489,-27.814024,-34.702978,-37.913503,-43.275255,0.0,-18.33776,-14.234325,-11.261858,-15.88513,-8.919745,-15.918703,-9.946324,-14.378358,-13.465711,15.110882,270.816241,-203.987395,-34.149738
75,-0.09977,-0.020526,-19.824085,1.315908,0.0,-62.473755,-33.024559,-95.019104,-26.98803,-97.160248,-18.604111,-83.069355,-8.848709,-60.10199,0.0,23.364429,28.216011,56.623127,45.763786,73.096667,58.448235,84.279642,66.603513,87.40283,0.0,47.719322,-2.724266,-3.307634,-19.70216,-30.405716,-33.216322,-44.107401,-43.14176,-52.664194,0.0,-17.335298,-10.819707,-8.65257,-12.090728,-5.679065,-11.962633,-7.100155,-10.025541,-11.286793,15.536505,270.420946,-223.286087,-33.208599
76,-0.024399,0.018525,-17.400919,-1.207508,0.0,-62.693104,-32.960403,-94.923557,-26.936691,-97.322239,-18.523636,-83.144016,-8.685104,-59.98566,0.0,23.3174,28.133834,56.735352,45.651845,73.132322,58.296909,84.291733,66.415545,87.436175,0.0,44.054753,-5.440372,-9.052746,-22.399051,-36.682079,-35.5765,-51.640915,-45.081917,-61.809551,0.0,-16.68624,-8.566122,-6.252186,-10.010267,-3.266424,-9.935086,-5.402111,-7.871967,-10.932775,15.969194,270.130851,-240.229918,-34.724727
77,0.145958,-0.093181,-14.294437,-2.292941,0.0,-63.046669,-32.964706,-95.008175,-26.927605,-97.610676,-18.461197,-83.421535,-8.533699,-60.095535,0.0,23.40206,28.124385,56.906475,45.597282,73.311805,58.187611,84.489383,66.264725,87.593231,0.0,39.651935,-6.248028,-14.715786,-22.702881,-42.573349,-35.296372,-58.335377,-44.01178,-69.911522,0.0,-16.386238,-7.596672,-3.692903,-9.414844,-2.108999,-9.925576,-5.07263,-8.723579,-12.538508,16.700094,269.818036,-253.939413,-37.237302
78,0.022614,-0.133196,-15.664879,-1.309275,0.0,-63.187787,-32.909684,-94.992165,-26.831475,-97.682602,-18.351242,-83.480107,-8.461213,-60.098717,0.0,23.617779,28.195794,57.086231,45.660268,73.497959,58.240642,84.619801,66.30984,87.708779,0.0,40.00058,-5.516602,-14.350182,-22.152535,-41.369145,-34.988823,-58.180218,-43.800018,-72.367664,0.0,-18.347011,-8.560651,-5.205492,-10.416789,-3.948427,-10.824391,-6.11557,-9.134455,-14.798258,17.32334,269.505511,-269.00366,-38.725906
79,-0.050309,-0.113435,-9.575512,0.233064,0.0,-63.269474,-32.834747,-94.880035,-26.749031,-97.624683,-18.241653,-83.503372,-8.326034,-60.109977,0.0,23.63639,28.199153,57.023158,45.58529,73.669896,58.150647,84.807867,66.260279,87.885113,0.0,37.384884,-4.527145,-16.08704,-20.606758,-39.99297,-33.243141,-56.20998,-42.045994,-74.216457,0.0,-20.759019,-9.669281,-8.390417,-11.880001,-7.802615,-12.815304,-8.898327,-11.72368,-18.806415,17.959058,269.267482,-277.893145,-38.617436
80,0.037514,-0.163083,-6.742081,0.696983,0.0,-63.246208,-32.845596,-94.766796,-26.798149,-97.647468,-18.291824,-83.564758,-8.298202,-60.018104,0.0,23.761756,28.281688,56.955023,45.509646,73.763411,57.990232,85.002258,66.109324,88.068573,0.0,35.892174,-3.964554,-15.118629,-19.809631,-37.401477,-32.644878,-53.196315,-41.820808,-75.610656,0.0,-21.908546,-10.709757,-11.670741,-12.93718,-11.269351,-13.831975,-10.447157,-12.759469,-20.034754,18.724153,269.005315,-283.907645,-38.019537
81,-0.019752,-0.233022,-4.300071,2.528797,0.0,-63.251862,-32.708702,-94.656212,-26.668099,-97.594094,-18.21904,-83.454083,-8.295823,-59.876255,0.0,24.00714,28.405647,57.129814,45.634148,73.950911,58.113511,85.18562,66.229688,88.3403,0.0,35.604412,-4.304158,-16.707344,-19.963932,-36.686852,-32.792839,-50.462941,-42.032879,-76.175766,0.0,-23.212073,-12.380328,-15.368838,-14.356909,-15.085323,-15.035954,-12.028684,-13.724443,-20.625255,19.471327,268.669219,-287.44079,-35.593814
82,-0.070702,-0.144014,-2.398373,2.226985,0.0,-63.203705,-32.639168,-94.489014,-26.661369,-97.524559,-18.296539,-83.343956,-8.464188,-59.792713,0.0,24.157478,28.422554,57.164258,45.660465,74.005016,58.167246,85.212765,66.305604,88.464591,0.0,36.032318,-4.487904,-17.328369,-19.884739,-35.635059,-32.712364,-48.281651,-42.158421,-76.108978,0.0,-24.040269,-13.465017,-18.449905,-15.277885,-17.843275,-15.535415,-12.998066,-13.448276,-20.167882,20.03536,268.41268,-289.204428,-33.479354
83,-0.161797,-0.207469,-0.954323,1.587356,0.0,-63.026962,-32.532737,-94.36053,-26.580001,-97.311927,-18.26017,-82.97961,-8.470619,-59.445018,0.0,24.400848,28.440782,57.378829,45.678126,74.214659,58.17221,85.334623,66.293032,88.632824,0.0,36.709786,-4.222275,-15.389763,-19.526539,-32.357941,-32.620949,-45.811489,-42.625534,-75.312721,0.0,-24.201215,-13.087666,-19.718925,-14.891575,-18.688978,-15.074047,-13.586196,-12.870477,-19.628566,20.483493,268.110724,-289.548821,-31.986485
84,-0.031036,-0.174,0.866501,0.743475,0.0,-62.841705,-32.473663,-94.352291,-26.510628,-97.202694,-18.250923,-82.664291,-8.574394,-59.16647,0.0,24.802818,28.492319,57.765374,45.818744,74.439442,58.319929,85.412009,66.387522,88.725474,0.0,37.702343,-4.417957,-15.206543,-19.694859,-31.749344,-32.753906,-45.153008,-42.648571,-74.426502,0.0,-23.377674,-12.129553,-19.024178,-13.776041,-17.914825,-13.889643,-12.322498,-11.584834,-19.03391,20.993929,267.850656,-288.140848,-31.329078
85,0.016251,-0.055996,1.307545,1.033949,0.0,-62.645874,-32.328759,-94.230091,-26.359658,-96.930668,-18.119843,-82.302292,-8.492272,-59.004032,0.0,24.906486,28.541164,57.948847,46.000241,74.470911,58.557434,85.256905,66.626805,88.65419,0.0,38.29121,-4.269333,-15.450062,-19.776364,-31.902191,-32.99342,-45.574253,-42.947743,-74.310677,0.0,-23.493846,-12.121396,-18.659517,-13.65493,-17.396635,-13.665848,-11.587817,-11.323716,-18.220595,21.546072,267.740712,-286.297411,-30.349077
86,0.100319,0.030159,1.875274,0.464728,0.0,-62.369408,-32.441529,-94.154263,-26.530907,-96.829445,-18.313569,-82.19973,-8.686203,-59.029221,0.0,24.823715,28.597505,57.905128,46.143218,74.47553,58.719393,85.120831,66.758865,88.52749,0.0,38.193112,-4.364193,-15.307869,-20.135227,-32.620376,-33.53318,-46.838791,-43.554382,-74.382293,0.0,-23.283876,-11.796848,-18.259171,-13.264699,-16.827982,-13.215848,-10.547743,-10.895286,-18.097793,22.152787,267.729337,-283.915741,-29.925883
87,0.090568,-0.051302,1.407532,0.811202,0.0,-62.08453,-32.589729,-94.135311,-26.665924,-96.60878,-18.40702,-82.008728,-8.682449,-58.84481,0.0,24.82064,28.688068,58.027751,46.27214,74.463179,58.841313,85.012916,66.867064,88.516289,0.0,38.675835,-4.407017,-16.119553,-20.285374,-32.404323,-33.763756,-46.351948,-43.836296,-74.614551,0.0,-24.00068,-12.845499,-18.650421,-14.153404,-16.628107,-13.826454,-10.437641,-11.210169,-18.234143,22.678242,267.649587,-282.073322,-29.143129
88,0.351654,0.026145,1.637409,0.249627,0.0,-62.057075,-32.748344,-94.253242,-26.789795,-96.725155,-18.463211,-82.150669,-8.632324,-59.02605,0.0,24.689457,28.711422,57.945179,46.269399,74.28167,58.804263,84.826628,66.816342,88.339485,0.0,38.506966,-5.276161,-17.670673,-21.105514,-32.685711,-34.408699,-46.157032,-44.299839,-74.793686,0.0,-24.164604,-13.323578,-17.919217,-14.255935,-16.013167,-13.680718,-9.089606,-10.900992,-17.939026,23.397411,267.651476,-280.068398,-28.917758
89,0.304299,0.045893,0.971855,0.442262,0.0,-61.965008,-32.912911,-94.247338,-26.983521,-96.878552,-18.607109,-82.360749,-8.666336,-59.196774,0.0,24.370751,28.665986,57.733116,46.129089,74.047167,58.627039,84.62169,66.644527,88.131238,0.0,38.865338,-4.732143,-17.830822,-20.782859,-32.798687,-34.276084,-46.695922,-44.448921,-74.220302,0.0,-24.641224,-13.07074,-17.708196,-13.93784,-16.222241,-13.343659,-9.73192,-10.666111,-17.363104,23.990925,267.678671,-278.807328,-28.494194
90,0.266029,-0.032271,1.714005,0.106933,0.0,-62.085674,-33.080063,-94.425911,-27.120941,-97.104389,-18.70784,-82.619133,-8.75029,-59.339562,0.0,24.327353,28.608114,57.755445,45.982803,73.965743,58.430537,84.578996,66.407838,88.047999,0.0,38.874355,-5.354988,-17.967625,-21.506001,-33.569618,-34.945221,-48.008778,-44.927891,-73.642982,0.0,-24.351627,-12.694433,-17.215959,-13.791466,-15.829001,-13.295413,-9.595612,-10.689749,-17.287435,24.480389,267.634964,-276.869888,-28.398697
91,0.339294,-0.09943,1.262272,1.13698,0.0,-62.259052,-33.039001,-94.615677,-27.037262,-97.206848,-18.58628,-82.852798,-8.633308,-59.510845,0.0,24.354362,28.467409,57.713281,45.746026,73.924259,58.160947,84.619936,66.158008,88.129237,0.0,39.753101,-5.160942,-18.467079,-21.387303,-33.578259,-34.795132,-47.779575,-44.782997,-72.131298,0.0,-24.93951,-13.551746,-18.121918,-14.292497,-16.507966,-13.51388,-10.490432,-10.799752,-17.450796,25.026695,267.53299,-275.400604,-27.264261
92,0.362275,-0.043991,2.24501,1.225184,0.0,-62.587006,-32.841179,-94.719498,-26.761803,-97.196904,-18.27253,-82.913704,-8.377762,-59.572255,0.0,24.297626,28.274402,57.498488,45.502755,73.818011,57.92569,84.609068,65.951836,88.150825,0.0,40.194683,-5.805313,-18.755951,-22.304134,-34.915672,-35.657249,-49.333534,-45.474117,-71.176986,0.0,-25.297885,-13.872762,-19.965409,-14.358422,-18.33363,-13.291221,-11.372494,-10.41083,-18.089969,25.611157,267.489296,-272.933407,-26.03878
93,0.384727,-0.042015,2.294266,2.414669,0.0,-62.878475,-32.66098,-94.752056,-26.50914,-97.137611,-18.008743,-82.94585,-8.26371,-59.647488,0.0,24.315978,28.021534,57.386313,45.28359,73.627486,57.791988,84.595076,65.868893,88.216083,0.0,41.433712,-4.957775,-17.130455,-21.856178,-33.34322,-35.517529,-48.445793,-45.642563,-69.230324,0.0,-27.116866,-15.355043,-21.635473,-15.759668,-19.858809,-14.592468,-13.181292,-11.655452,-19.164703,26.271778,267.362636,-270.363247,-23.708756
94,0.686394,0.007472,3.569286,2.429132,0.0,-63.342716,-32.369705,-94.819554,-26.073029,-96.920403,-17.519417,-82.797856,-7.904549,-59.604813,0.0,24.493683,27.684031,57.360612,44.98662,73.432589,57.613566,84.628976,65.825482,88.486895,0.0,42.757576,-4.72007,-15.484222,-22.101619,-31.516994,-36.100021,-46.794822,-46.263931,-66.173526,0.0,-28.829884,-17.589074,-22.223949,-18.326603,-19.692028,-17.006817,-13.737442,-13.58987,-19.458926,27.281376,267.228765,-266.470757,-21.420967
95,0.948875,-0.049018,4.804722,3.100988,0.0,-63.818493,-31.961151,-94.70842,-25.602402,-96.654888,-17.061836,-82.504246,-7.588463,-59.404278,0.0,24.284844,27.479032,57.231789,44.793761,73.382004,57.485521,84.861405,65.740773,89.07944,0.0,44.237446,-3.813892,-11.980694,-21.554088,-26.985958,-36.028152,-42.278148,-46.565792,-60.995853,0.0,-31.680901,-20.917742,-21.703399,-21.672734,-18.307064,-19.88186,-13.55198,-15.668969,-18.66513,28.618595,267.033364,-261.277691,-18.466362
96,1.182541,0.015747,7.231156,2.93307,0.0,-64.270328,-31.791916,-94.611271,-25.357109,-96.434326,-16.752159,-82.270683,-7.262146,-59.068851,0.0,24.02007,27.364596,57.026443,44.672508,73.041141,57.411951,84.924612,65.668895,89.597451,0.0,44.39772,-3.69777,-7.787968,-21.808663,-22.402256,-36.68652,-38.424832,-47.430382,-55.836445,0.0,-34.393182,-23.133803,-20.63251,-23.979469,-16.834829,-21.63727,-13.387569,-16.592471,-17.200342,30.192289,266.937142,-253.655382,-15.645261
97,1.434723,-0.082252,8.573261,5.361048,0.0,-64.731045,-31.716774,-94.645031,-25.170387,-96.199562,-16.525085,-82.134933,-7.069084,-58.873158,0.0,24.005485,27.495322,57.158293,44.858068,72.859299,57.625892,85.083435,65.827038,90.164839,0.0,43.778766,-3.216934,-1.890324,-20.972099,-15.806431,-35.935948,-31.291889,-47.081097,-48.190052,0.0,-37.683591,-26.769835,-20.572588,-27.162883,-16.718541,-23.870764,-14.699081,-17.778487,-16.693915,32.127234,266.746444,-244.581899,-10.392659
98,1.39389,-0.073026,8.316112,7.235296,0.0,-65.030433,-31.542984,-94.572258,-24.976524,-96.027523,-16.336624,-82.117241,-6.852058,-58.67934,0.0,23.784011,27.746485,57.160529,45.081975,72.769798,57.799324,85.242245,65.911723,90.597117,0.0,42.846863,-1.054378,8.470116,-17.979984,-5.844165,-32.563453,-21.841999,-43.948928,-37.266048,0.0,-39.363517,-31.459427,-20.625095,-31.401721,-16.222507,-26.854458,-13.212934,-19.380867,-13.64741,34.033893,266.614011,-235.753018,-3.21677
99,1.115708,-0.200652,8.605454,7.220383,0.0,-65.211205,-31.42099,-94.632923,-24.827042,-96.061924,-16.199044,-82.393284,-6.757828,-59.160256,0.0,23.642652,28.215431,57.411804,45.637531,72.770749,58.309654,85.373687,66.230429,90.771574,0.0,40.565449,-0.200352,19.649505,-15.097584,7.375683,-28.090107,-7.321999,-38.641628,-22.554451,0.0,-39.446337,-33.13608,-20.935959,-31.635268,-16.091479,-25.251701,-11.390537,-16.096011,-9.307554,35.596819,266.319307,-226.700346,3.909561
100,0.637184,-0.234997,11.713817,10.30279,0.0,-65.179413,-31.479584,-94.69503,-24.765221,-95.942986,-16.063728,-82.533852,-6.635994,-59.699455,0.0,23.738908,28.478635,57.658829,46.012097,72.582768,58.742129,85.375082,66.64838,90.504689,0.0,41.383004,1.894272,30.875885,-11.863014,19.860352,-23.609252,6.828198,-33.059875,-8.41008,0.0,-39.097427,-34.609939,-18.046971,-30.875514,-11.993554,-22.208511,-6.066626,-10.893476,-2.44087,36.573332,265.995201,-214.6472,14.123242
101,0.422172,-0.245705,9.554638,10.352809,0.0,-65.179435,-31.566696,-94.884784,-24.764854,-96.152526,-16.046974,-82.922618,-6.710792,-60.515636,0.0,23.706502,28.617055,57.793273,46.238659,72.440026,59.005087,85.204392,66.906744,90.019825,0.0,45.94122,6.125553,44.667446,-5.849819,36.067475,-16.414684,24.468773,-25.1086,9.570214,0.0,-34.863604,-33.042701,-11.220908,-26.985832,-3.044944,-16.34807,3.737777,-3.451657,8.440837,37.356319,265.855503,-204.731747,24.582058
102,0.148041,-0.228847,12.831997,12.131541,0.0,-65.212417,-31.727829,-95.069732,-24.964508,-96.723049,-16.258667,-83.587658,-6.968216,-61.571949,0.0,23.467281,28.67657,57.605885,46.264718,72.155159,58.998332,85.013052,66.859159,89.563057,0.0,49.752503,12.918423,57.968823,1.798233,51.689667,-8.558063,40.025528,-17.404266,23.740151,0.0,-28.239605,-26.545335,0.811216,-19.312299,11.120564,-7.751356,18.977829,6.142141,23.029001,37.589945,265.927007,-191.814165,37.01395
103,-0.094826,-0.374726,13.74535,13.921767,0.0,-65.375839,-32.08081,-95.402114,-25.301651,-97.194294,-16.604187,-84.18069,-7.382698,-62.614711,0.0,23.428402,28.814854,57.613727,46.464949,71.934697,59.207493,84.846004,67.036025,89.366554,0.0,55.255085,16.996971,67.007309,7.006085,64.050419,-2.881645,53.587876,-11.613636,34.282837,0.0,-22.483208,-19.06523,12.620172,-10.198309,24.137871,2.130815,31.251828,16.544831,35.13315,37.278036,265.935078,-178.285898,51.318514
104,-0.34053,-0.337108,15.789677,18.510538,0.0,-65.596779,-32.510696,-95.655991,-25.722542,-97.431404,-17.045357,-84.398495,-7.882393,-63.022121,0.0,23.359847,28.877876,57.273803,46.591217,71.584745,59.34033,84.650231,67.129984,89.252921,0.0,61.472946,22.601263,75.718735,12.683601,73.319063,2.177501,62.264265,-7.557106,40.991873,0.0,-17.354497,-12.58433,25.163472,-2.215775,37.99433,10.836925,44.415089,25.580556,47.221954,36.715078,266.083331,-162.718649,70.314413
105,-0.536751,-0.238431,13.894237,20.112319,0.0,-65.77248,-32.806434,-95.767914,-26.01139,-97.744034,-17.338463,-84.682193,-8.226539,-63.36494,0.0,23.402653,28.960499,56.882405,46.72261,71.287504,59.461534,84.353903,67.198663,89.197877,0.0,64.879635,27.841089,83.559277,18.744175,82.120978,8.006619,70.47563,-2.88517,48.236166,0.0,-11.423913,-4.585206,34.171066,7.143778,48.155836,20.806634,54.820836,35.408764,57.399854,35.972786,266.340741,-149.029953,90.922573
106,-0.679733,-0.241926,14.855107,23.176955,0.0,-66.076698,-33.076378,-96.100296,-26.299942,-97.986408,-17.660637,-84.88765,-8.63443,-63.747883,0.0,23.800622,29.185629,56.884109,47.037772,71.268621,59.754775,84.493571,67.374739,89.330147,0.0,65.57658,31.017374,87.442749,22.056072,86.65912,11.343498,74.554544,-0.095604,51.434492,0.0,-8.741327,1.784479,40.473826,14.023034,54.473027,27.517564,62.031654,41.697092,64.524018,34.97291,266.378572,-134.494989,114.379285
107,-1.056473,0.225908,13.180229,24.215714,0.0,-65.967979,-33.021446,-96.172554,-26.328689,-97.881798,-17.785492,-84.724914,-8.902931,-63.769626,0.0,23.61148,29.118802,56.644431,46.990396,71.073131,59.721639,84.306294,67.301206,89.158073,0.0,67.268394,32.162573,89.445785,23.92194,89.158625,13.944053,77.410726,3.104496,56.249617,0.0,-6.262906,5.322889,44.296813,19.486902,58.039824,34.004093,65.389796,48.082196,68.18675,33.702507,266.618392,-121.52869,138.608911
108,-0.865883,0.456385,13.171463,23.402196,0.0,-62.936176,-32.767089,-95.677494,-26.700279,-97.8693,-18.656616,-84.960765,-9.984214,-63.857208,0.0,17.937939,29.052655,55.481646,46.344178,70.373869,58.894925,83.494375,66.731509,88.785582,0.0,67.480957,33.125273,90.515098,24.427975,90.323164,14.515892,79.324442,3.986664,59.143724,0.0,-3.756864,9.567297,48.546846,25.076592,63.755491,40.258434,71.371608,54.205287,74.030883,32.821592,266.994255,-108.372259,161.930585
109,0.366967,9.921167,10.445938,21.117715,0.0,-63.009419,-33.344216,-96.047963,-28.529595,-97.729317,-21.640458,-84.611206,-13.827942,-64.282254,0.0,20.968711,24.758062,47.975871,35.06197,54.599541,41.571514,59.35462,44.522356,59.987265,0.0,68.54995,33.874535,91.501465,24.914921,91.195942,15.144436,80.558304,4.810879,60.994183,0.0,-0.470514,14.354451,53.160497,30.244116,68.811794,45.177095,76.948065,58.2358,79.395295,33.176531,276.738463,-97.938349,182.871341
110,-1.748017,4.341239,10.920868,19.169625,0.0,-61.359787,-32.120521,-94.04964,-27.345909,-93.835396,-20.640335,-79.60524,-12.911407,-59.89999,0.0,22.625154,24.652654,45.013976,31.284229,44.572991,34.529188,44.86701,34.687331,46.261754,0.0,67.952545,34.87746,89.849762,25.849262,87.594738,16.082405,76.895508,5.851627,60.037228,0.0,3.352837,20.498975,58.221573,37.074824,72.952937,51.403673,82.054453,62.895128,84.556926,31.389702,280.890067,-87.056293,201.851331
111,-1.250267,1.604227,8.623787,16.763211,0.0,-60.894493,-28.863922,-90.073322,-24.445038,-90.251117,-18.394203,-77.21505,-11.521591,-58.11771,0.0,16.717429,27.617118,38.853643,32.285622,35.328336,33.360092,34.925415,31.237162,38.692326,0.0,69.608688,35.361259,91.562336,26.267303,88.361561,16.501877,77.183224,6.540367,60.198704,0.0,7.426327,24.316151,62.288024,41.797656,76.396758,55.921445,85.052671,66.279879,86.930983,30.107534,282.303948,-78.464407,218.424196
112,-1.050636,5.127519,5.69498,12.306215,0.0,-60.640114,-29.501678,-79.25861,-25.854338,-78.449398,-20.378752,-67.461697,-14.006544,-58.527987,0.0,15.407895,26.05093,33.561837,27.49079,26.238954,25.624093,23.440839,21.142903,27.309398,0.0,71.225396,35.048298,92.339814,25.383305,89.049935,15.342293,76.572464,5.374043,57.815541,0.0,10.273144,27.574301,65.533366,44.958017,80.772775,58.308185,89.403457,67.631138,90.669328,29.020872,287.301257,-72.805453,230.600201
113,-1.29879,8.980054,4.9021,10.27622,0.0,-63.238998,-33.936127,-61.870365,-31.047976,-58.119049,-25.732012,-49.715881,-19.496675,-60.873419,0.0,23.514649,19.558776,29.616837,16.941732,17.458996,11.541936,10.630407,4.371058,11.913328,0.0,71.740379,35.326984,92.873589,25.814438,89.763496,15.763355,76.29998,5.827206,57.313522,0.0,12.289764,30.036215,66.819935,47.470678,82.387535,60.270106,90.985514,68.788588,92.069333,27.678446,296.204318,-67.946989,240.799428
114,-1.95591,-3.833231,5.081612,8.079893,0.0,-59.863666,-36.5056,-42.784549,-33.843092,-37.432743,-28.062498,-31.849983,-21.054308,-57.764814,0.0,18.781344,19.885473,33.824535,22.09452,27.718247,21.081436,27.033935,18.004969,32.674162,0.0,71.186371,35.028877,92.687713,25.594894,90.066307,15.531166,75.751053,5.766151,56.529762,0.0,13.216589,30.874922,66.448926,48.72988,82.070879,61.371215,90.680443,69.520071,91.805189,25.669807,292.374817,-62.918106,248.883051
115,-0.400749,-0.9824,2.175956,5.548385,0.0,-56.762009,-39.190487,-24.370365,-39.238466,-19.452049,-35.514193,-19.66983,-30.362669,-64.008367,0.0,16.03092,18.341182,34.940217,23.464441,34.600541,24.961808,36.560875,24.49842,43.295493,0.0,72.250191,33.656662,94.23246,24.047425,93.334992,13.983502,78.049187,4.310749,55.659497,0.0,13.238844,29.769022,64.281611,46.962868,80.514535,59.091822,88.721819,67.032678,89.427762,25.230297,291.457372,-60.780911,254.496391
116,-2.75473,3.18957,3.573338,4.669492,0.0,-49.802834,-42.73597,-4.50475,-44.933218,2.786339,-42.491175,-0.426636,-37.846934,-65.783621,0.0,23.598333,13.841564,39.631469,19.025351,40.217357,21.265687,40.717962,22.715907,45.532092,0.0,70.62981,33.148212,92.661404,23.364235,91.960155,13.000431,76.14806,2.958515,53.127365,0.0,13.257406,29.469878,62.76349,46.163534,79.342055,58.015945,87.799836,65.886603,88.514758,22.445395,294.777862,-57.237745,259.296803
117,-4.964516,0.943274,3.055412,3.959881,0.0,-36.726974,-38.718132,11.478058,-42.799999,18.477356,-42.041576,12.604294,-38.710842,-61.043575,0.0,23.591399,12.749706,41.70014,19.796034,44.966094,24.142732,46.178292,28.052854,50.871138,0.0,69.003857,32.466831,91.838116,22.902775,91.28365,12.626553,75.900524,2.574509,53.422932,0.0,13.495331,29.027239,60.83926,45.431841,76.416358,57.045043,85.369266,64.749099,87.077801,17.435245,295.904562,-54.227967,263.44011
118,-3.7714,0.849636,2.412953,2.693763,0.0,-34.654026,-35.194222,14.763221,-39.241917,22.905624,-38.465149,18.222953,-35.200276,-47.651539,0.0,24.871646,14.99836,42.397932,20.01468,45.619488,22.192382,44.821142,23.644517,46.181849,0.0,68.17337,31.999763,90.764351,22.492115,90.218101,12.158489,74.824562,2.024208,52.940643,0.0,14.491081,29.206401,59.963071,45.596517,74.422931,57.013032,83.519989,64.423736,85.888241,13.597693,296.945665,-51.881166,266.32534
119,-3.293656,2.25231,2.006183,2.135083,0.0,-31.406868,-32.541607,19.727097,-37.157993,27.477837,-37.163475,21.32666,-34.779545,-48.725647,0.0,30.325689,15.276298,42.348247,18.58307,44.285678,19.39221,42.887229,19.695009,42.860985,0.0,67.477444,31.315327,89.620182,21.680981,88.708409,11.162922,73.152775,0.850777,51.388951,0.0,15.425277,29.328049,58.94593,45.651536,72.967621,56.853653,81.975722,63.961546,84.777931,10.220764,299.392878,-49.958256,268.655326
120,-2.690803,1.295659,1.257443,1.505561,0.0,-29.363011,-29.957863,22.590568,-35.067272,30.185829,-35.561875,23.500808,-33.528775,-44.651505,0.0,33.939706,12.997066,41.252215,16.012796,43.111853,16.792469,41.824023,17.249521,41.752949,0.0,66.729172,30.647289,88.493477,21.01252,87.790718,10.504875,72.387108,0.302078,51.086838,0.0,16.302912,29.077034,58.296946,45.483797,71.920693,56.663092,80.656017,63.641148,83.979609,7.425946,300.804365,-48.804828,270.276715
121,-3.600495,1.515133,0.926628,0.953711,0.0,-22.325317,-25.959949,26.82676,-31.16241,32.85933,-32.196544,25.28064,-30.738063,-42.486889,0.0,30.470469,11.462939,40.106522,15.048452,42.405477,16.537131,41.471416,17.404897,41.006164,0.0,66.151268,30.064979,87.842308,20.338932,86.93557,9.751842,71.573913,-0.423111,50.634064,0.0,16.803003,28.960313,57.677194,45.495888,71.237127,56.739934,79.788769,63.663859,83.365723,3.703182,302.347341,-48.000469,271.258269
122,0.306359,-3.951273,0.859943,0.540624,0.0,-24.601639,-26.176323,25.3656,-32.296028,31.404785,-34.6031,22.099502,-34.498856,-43.6092,0.0,32.857468,12.323641,41.238864,17.336366,44.696208,19.726577,44.649376,20.970304,45.703283,0.0,65.814755,29.310379,87.533673,19.336464,86.174641,8.587841,70.739331,-1.655948,49.476918,0.0,17.198404,28.748967,57.010303,45.511734,71.077528,56.877601,79.659526,63.779148,82.997741,3.896965,298.350873,-47.253102,271.753698
123,-4.182438,-2.420703,0.844345,0.451174,0.0,-19.702458,-21.407662,33.136699,-28.160866,37.648464,-31.557621,25.203197,-32.179333,-43.905682,0.0,34.132022,12.806356,41.574391,21.98269,46.518562,28.344749,50.665349,33.506811,56.867214,0.0,65.290135,28.670472,87.401516,18.505703,85.725117,7.627625,70.394886,-2.6422,49.088276,0.0,17.711586,28.499865,56.718926,45.462703,70.935798,57.043709,79.626958,64.084874,83.287782,-0.374359,295.841339,-46.497643,272.116041
124,-2.579201,-5.609728,0.570694,0.184312,0.0,-14.186508,-17.311844,35.598873,-25.60199,39.216511,-30.907471,24.742229,-33.561058,-41.20824,0.0,31.859915,14.235026,43.091969,27.214147,51.242048,36.616994,57.29202,44.158164,66.844759,0.0,64.688954,28.296341,87.272564,18.06379,85.436612,7.112229,70.399327,-3.177005,49.180996,0.0,18.214742,28.571842,56.824817,45.710138,71.220122,57.508715,79.887719,64.655596,83.714132,-3.026482,290.119012,-45.999871,272.187754
125,-4.965992,5.64521,0.419266,0.115387,0.0,-15.06189,-15.721905,39.312126,-21.454937,44.731728,-24.518864,32.885971,-25.201012,-24.903419,0.0,34.013201,15.099285,42.143347,23.561351,46.799526,28.741062,49.28209,32.376482,53.126238,0.0,64.153736,27.950169,87.081402,17.647144,85.107662,6.630032,70.380581,-3.718552,49.238995,0.0,18.722095,28.681868,56.892458,45.952829,71.487476,57.913686,80.235904,65.141967,84.15482,-8.044315,295.631051,-45.632446,272.16997
126,-2.061768,3.148036,0.320915,0.077151,0.0,-18.555782,-13.643325,41.695748,-19.00344,47.260575,-21.729904,34.959481,-22.33184,-14.537086,0.0,38.365086,13.636763,39.529662,20.822177,43.729258,24.908992,46.232768,27.582575,48.871561,0.0,63.795788,27.652954,87.034642,17.384217,84.959828,6.388024,70.565518,-3.976215,49.412945,0.0,19.242515,28.696516,56.897311,45.990151,71.603999,58.027294,80.546978,65.337703,84.771237,-10.143488,298.639664,-45.348936,272.107698
127,-2.600601,0.036692,0.359093,0.198256,0.0,-13.70692,-11.150814,44.555558,-16.430717,49.915169,-19.293388,36.875496,-19.988571,-12.244308,0.0,35.707213,13.54189,39.62146,21.281008,43.813264,25.720615,46.741641,28.448884,49.249992,0.0,63.596684,27.625786,86.945744,17.397297,84.71275,6.349548,70.496601,-4.086731,49.478794,0.0,19.524319,28.704321,57.103619,45.909838,71.571988,57.988021,80.623907,65.389956,85.20428,-12.784636,298.525509,-45.03039,272.155107
128,-0.06094,-5.393194,0.365513,0.312741,0.0,-3.785797,-7.940643,45.027203,-14.959362,48.763928,-20.148181,33.277302,-23.448394,-15.443103,0.0,28.770245,15.389462,41.219943,26.116682,48.692348,32.821529,53.205451,36.952941,57.060184,0.0,63.54071,27.390438,86.748619,17.196613,84.302856,6.161201,70.29126,-4.264961,49.217445,0.0,19.502102,28.594776,57.001003,45.760859,71.362259,57.881082,80.404915,65.295775,84.903568,-12.888474,292.99104,-44.707775,272.326573
129,-2.036258,-0.063961,0.325779,0.324992,0.0,-0.427872,-4.792706,47.480964,-11.719677,50.846557,-17.372589,34.896309,-21.286457,-11.412575,0.0,27.117372,15.309693,40.655705,26.519579,48.709256,33.596349,53.503125,37.888175,56.772402,0.0,63.570705,27.122932,86.564358,16.977436,83.979938,5.973266,70.033413,-4.411686,48.956623,0.0,19.515687,28.430779,56.90282,45.54293,71.174118,57.662572,80.175377,65.100434,84.677846,-14.968586,292.797279,-44.42585,272.521765
130,2.833408,-7.401318,0.331627,0.374443,0.0,5.282433,-3.709946,46.575085,-13.433475,47.729588,-21.997833,28.423084,-28.586426,-23.823875,0.0,23.432181,16.443319,42.356867,33.231651,55.053036,45.334015,64.274126,53.908134,72.927002,0.0,63.698169,26.936107,86.713909,16.804676,83.791042,5.820671,69.747539,-4.505047,48.710026,0.0,19.490393,28.168117,56.664191,45.242884,70.939083,57.386115,79.821349,64.875501,84.447825,-12.178391,285.293567,-44.137436,272.793814
131,0.056088,2.076641,0.31644,0.296488,0.0,0.653068,-6.389374,43.534172,-14.608704,46.581916,-21.552544,30.414001,-26.570069,-18.112393,0.0,24.867286,16.928567,42.037063,30.65882,52.126549,39.53128,57.872474,45.089509,63.20834,0.0,63.743683,26.705773,86.573754,16.584195,83.538277,5.573845,69.409127,-4.76778,48.2295,0.0,19.484317,27.935207,56.623053,44.946396,70.919261,57.090417,79.633035,64.590104,84.283718,-12.164194,287.27664,-43.862887,272.996734
132,-0.656205,8.466649,0.190075,0.205629,0.0,-6.123504,-6.861007,44.999611,-13.745739,48.344422,-18.988998,34.037224,-22.336727,-13.828044,0.0,28.771468,13.503333,37.835539,23.837845,45.502619,30.413288,49.931642,34.509786,52.377712,0.0,63.592747,26.485955,86.466534,16.426083,83.43005,5.462815,69.231434,-4.846447,48.059681,0.0,19.49831,27.887746,56.462304,44.859056,70.856424,56.961989,79.426961,64.417709,84.001333,-12.861512,295.686741,-43.713925,273.145815
133,3.640137,1.483368,-0.121856,0.117289,0.0,-14.363182,-11.413719,40.148003,-17.67754,43.68496,-21.794655,31.299339,-24.018001,-15.820713,0.0,31.823964,13.034895,37.642323,22.572307,44.682919,28.537582,48.191096,32.393501,51.022674,0.0,63.619068,26.453968,86.694133,16.382824,83.584659,5.496952,69.304264,-4.683152,48.197101,0.0,19.518243,27.781177,56.428983,44.784523,70.891436,56.882886,79.312377,64.280301,83.783416,-9.270012,297.11525,-43.884418,273.208245
134,0.55156,6.009896,-0.132191,0.107766,0.0,-21.370926,-14.263894,40.066658,-19.038746,44.896591,-21.095879,33.604866,-20.958378,-17.244313,0.0,35.699111,11.730701,36.299646,18.133564,40.170384,21.720016,42.178693,23.923876,42.988821,0.0,63.688202,26.532509,87.037491,16.419353,83.831566,5.589363,69.474655,-4.441921,48.485092,0.0,19.431793,27.727096,56.336667,44.799455,70.863859,56.910267,79.190939,64.248958,83.624755,-8.755153,303.056375,-44.05331,273.24724
135,1.436508,1.241381,-0.337029,0.011696,0.0,-24.456459,-16.259926,38.071289,-20.917385,42.968399,-22.406468,32.131485,-21.668381,-20.446621,0.0,36.208465,11.07259,36.115012,17.147608,39.395256,20.500173,41.058479,22.599527,42.355534,0.0,63.919831,26.748436,87.365456,16.61879,84.25058,5.805382,69.843247,-4.176613,48.694817,0.0,19.326014,27.731443,56.181006,44.902701,70.857449,57.010747,79.18464,64.246129,83.55778,-7.351084,304.232813,-44.422778,273.193993
136,0.523247,-5.091025,-0.206543,0.051944,0.0,-18.521965,-14.818943,40.528816,-21.219292,44.162956,-24.368512,30.69683,-24.715554,-29.17099,0.0,34.011065,12.385478,39.736118,22.657115,45.55418,30.120344,50.307529,36.037516,56.530304,0.0,63.969773,27.037674,87.461815,16.911152,84.45472,6.120598,70.093735,-3.800891,49.04139,0.0,19.263511,27.808249,56.117836,45.066575,70.784275,57.187884,79.050741,64.372162,83.344704,-6.855068,299.078707,-44.656552,273.182856
137,3.9188,-6.989505,-0.212505,0.059985,0.0,-19.622475,-18.600083,35.139244,-25.930733,38.903,-29.699501,25.327125,-30.6022,-35.090206,0.0,33.228169,15.564945,43.648637,28.608559,51.353248,37.861352,56.557264,44.972578,66.059788,0.0,64.175228,27.303841,87.575855,17.19381,84.762692,6.427986,70.435696,-3.464859,49.180744,0.0,19.18384,27.75334,56.049848,45.10171,70.739382,57.27941,79.018322,64.458958,83.378197,-2.950733,292.023382,-44.883522,273.177021
138,-2.967762,3.324186,0.097,0.047856,0.0,-18.478775,-17.175636,39.902332,-23.581055,44.851604,-26.432682,31.722072,-26.003288,-32.667309,0.0,34.166243,14.474877,43.65265,26.29934,49.302097,34.913176,53.733331,41.749737,61.782015,0.0,64.198551,27.431236,87.389866,17.304875,84.698284,6.447327,70.337574,-3.575901,48.830212,0.0,19.212986,27.786525,56.109352,45.179665,70.801467,57.375729,79.070884,64.532009,83.460363,-5.913362,295.289625,-44.781389,273.166934
139,2.439525,-4.651721,-0.042698,0.075904,0.0,-18.254276,-18.952629,36.256829,-26.489673,40.370179,-30.177623,27.391503,-30.67044,-34.745006,0.0,32.120082,15.96631,45.024424,30.170869,52.916769,40.425179,58.231726,48.445533,68.994267,0.0,64.288101,27.578121,87.23703,17.489937,84.673531,6.596432,70.320076,-3.534473,48.652725,0.0,19.302771,27.719822,56.117107,45.118445,70.853732,57.307099,79.064326,64.42807,83.464092,-3.453656,290.593693,-44.803906,273.198627
140,-3.057346,6.643023,0.241448,0.1596,0.0,-20.411293,-18.733463,38.750439,-24.004646,44.742703,-25.763237,34.235241,-24.143669,-24.713871,0.0,33.758395,15.409815,43.965948,24.74323,48.267383,30.830153,50.793431,35.489073,56.908204,0.0,64.122825,27.514892,86.754181,17.499813,84.285347,6.599407,70.045578,-3.605164,48.542267,0.0,19.42479,27.63673,56.244362,44.980655,70.874789,57.190725,79.003008,64.389761,83.388349,-6.463383,297.155626,-44.514839,273.277137
141,2.137036,-2.400374,0.044723,0.159884,0.0,-24.079834,-20.56683,34.478462,-26.298901,40.376289,-28.404019,29.518341,-27.504216,-28.271084,0.0,34.236701,16.262168,43.510662,26.458298,49.222377,32.961629,52.563025,37.725018,60.176221,0.0,64.062721,27.399948,86.611565,17.382157,84.160469,6.490048,69.952881,-3.72591,48.441925,0.0,19.389494,27.436388,56.143277,44.780436,70.813162,57.018034,78.952187,64.259517,83.345149,-4.256349,294.671614,-44.400118,273.353383
142,-3.520615,4.467988,0.00087,0.19859,0.0,-21.309803,-17.345203,39.663345,-22.285446,45.834022,-23.985077,34.558411,-22.688255,-22.801518,0.0,36.953435,15.283363,42.050907,23.213943,46.336484,28.163412,49.260922,31.807477,54.71357,0.0,63.87957,27.225437,86.419464,17.22345,83.93399,6.344948,69.779709,-3.859989,48.532265,0.0,19.300523,27.271624,56.175757,44.584205,70.721524,56.828163,78.834565,64.097483,83.138963,-7.690916,299.021319,-44.3132,273.43369
143,0.284374,-1.898899,-0.114395,0.068394,0.0,-23.521419,-18.102459,36.870197,-23.283851,43.280766,-25.270443,32.206982,-24.631199,-20.632976,0.0,38.949158,16.539477,42.333785,24.147461,46.899759,28.451304,50.139716,31.307187,57.017613,0.0,63.626633,27.106075,86.180466,17.128509,83.768738,6.258625,69.675613,-3.951622,48.649498,0.0,19.225546,27.189275,56.247895,44.473376,70.690538,56.743405,78.87211,64.093915,83.120958,-7.302469,296.983086,-44.323522,273.36275
144,-3.608425,1.830986,-0.138737,0.157353,0.0,-22.586918,-15.693134,39.651581,-20.058403,47.373253,-21.801922,37.272995,-21.007919,-12.244732,0.0,41.60271,16.466303,42.368131,21.854953,45.029104,24.386929,47.563996,25.845375,53.08431,0.0,63.277554,27.014477,85.972057,17.063656,83.585209,6.228058,69.58057,-3.942638,48.770565,0.0,19.124942,27.11258,56.270544,44.377971,70.515105,56.677899,78.77978,64.110179,83.015142,-10.788248,298.64822,-44.339613,273.354251
145,-2.225693,-0.60755,-0.137134,0.358535,0.0,-20.493656,-13.637363,39.253601,-18.385917,48.448357,-20.681236,39.386742,-20.982055,-4.634571,0.0,42.620394,16.498117,42.410269,20.609941,44.8791,21.956322,46.68215,22.153738,50.808436,0.0,63.039321,26.861045,85.759048,16.962135,83.396255,6.150409,69.409606,-4.034089,48.502258,0.0,18.775237,26.959514,55.958149,44.182766,70.008566,56.52461,78.445253,64.05043,82.916774,-12.897698,297.867154,-44.360504,273.53927
146,-3.369037,6.618248,-0.172989,0.319546,0.0,-21.632801,-13.005146,39.032695,-16.146859,51.205524,-17.034314,46.244236,-16.269001,10.359237,0.0,44.055091,15.331282,41.30495,13.064412,39.86351,8.907238,37.538335,4.267769,34.863382,0.0,62.839553,26.543518,85.472602,16.745899,83.196327,6.052494,69.32064,-4.025952,48.496536,0.0,18.672658,26.996329,55.740479,44.207033,69.610955,56.575419,78.082223,64.136794,82.624262,-16.131002,304.287267,-44.39776,273.660681
147,-1.305348,2.330424,-0.232464,0.364056,0.0,-25.312019,-14.888626,34.396088,-16.981979,49.640854,-16.713661,49.317352,-15.136974,22.024887,0.0,44.050447,15.746466,41.624557,8.824331,37.264978,0.180398,31.374162,-8.568463,24.411395,0.0,62.685436,26.202301,85.361835,16.447414,83.120601,5.865143,69.297535,-4.105557,48.430675,0.0,18.51407,26.732012,55.236422,44.013903,69.095981,56.466651,77.63116,64.126284,82.323167,-17.261021,306.425128,-44.454895,273.832174
148,-3.675831,2.067601,-0.182362,0.363722,0.0,-20.451599,-11.714893,39.135464,-13.661945,54.078038,-13.444358,52.659016,-12.16658,27.660897,0.0,43.842632,13.706752,40.771019,6.321476,36.88693,-2.275058,31.020764,-10.813695,22.293505,0.0,62.520378,25.729855,85.18927,16.045029,83.031327,5.607617,69.198715,-4.191753,48.3303,0.0,18.345492,26.480861,54.830723,43.794059,68.692961,56.294368,77.181778,63.992903,81.976957,-20.744196,308.288922,-44.444601,273.992089
149,-2.232731,5.31413,-0.291458,0.355238,0.0,-21.751487,-11.430519,37.664681,-12.161121,55.344429,-10.704277,57.192788,-8.735927,37.75787,0.0,43.128982,12.866525,39.446447,0.71481,33.13043,-12.289901,23.581309,-24.998593,8.736077,0.0,62.602226,25.316803,85.097832,15.664558,83.054855,5.325417,69.19867,-4.351879,48.197731,0.0,18.090042,26.05403,54.555698,43.444329,68.41753,56.051404,76.816759,63.859065,81.631686,-22.768845,313.405584,-44.527977,274.149859
150,-1.256881,-0.288461,-0.353977,0.082301,0.0,-20.959797,-10.168911,39.153465,-11.031407,56.762146,-9.860882,58.18856,-8.215897,38.782825,0.0,43.076519,12.439966,39.656584,0.66562,33.289807,-11.964649,24.150215,-24.310014,9.824033,0.0,62.42902,24.965801,85.406101,15.251644,83.107395,4.994316,69.335712,-4.485226,48.481167,0.0,18.103664,25.980102,54.528639,43.425631,68.381171,56.01612,76.694777,63.743974,81.379423,-23.809496,312.957069,-44.665724,274.072106
