takenoko1/special-research/HandMotion_SimilarSearch_自分用/NewProject/handData/test_key/d4_feature_d3/64.csv
frame,vel_0x_L,vel_0y_L,vel_0x_R,vel_0y_R,posFromWrist_0x_L,posFromWrist_1x_L,posFromWrist_2x_L,posFromWrist_3x_L,posFromWrist_4x_L,posFromWrist_5x_L,posFromWrist_6x_L,posFromWrist_7x_L,posFromWrist_8x_L,posFromWrist_9x_L,posFromWrist_0y_L,posFromWrist_1y_L,posFromWrist_2y_L,posFromWrist_3y_L,posFromWrist_4y_L,posFromWrist_5y_L,posFromWrist_6y_L,posFromWrist_7y_L,posFromWrist_8y_L,posFromWrist_9y_L,posFromWrist_0x_R,posFromWrist_1x_R,posFromWrist_2x_R,posFromWrist_3x_R,posFromWrist_4x_R,posFromWrist_5x_R,posFromWrist_6x_R,posFromWrist_7x_R,posFromWrist_8x_R,posFromWrist_9x_R,posFromWrist_0y_R,posFromWrist_1y_R,posFromWrist_2y_R,posFromWrist_3y_R,posFromWrist_4y_R,posFromWrist_5y_R,posFromWrist_6y_R,posFromWrist_7y_R,posFromWrist_8y_R,posFromWrist_9y_R,posFromBody_0x_L,posFromBody_0y_L,posFromBody_0x_R,posFromBody_0y_R
6,-5.386036,-7.301357,0.005092,-0.031172,0.0,-16.016213,-26.310608,30.470421,-35.385384,34.726982,-39.520775,22.273567,-40.410485,-28.779488,0.0,22.059594,14.238583,43.869074,29.780903,53.794687,41.604242,58.688605,51.31894,66.139249,0.0,61.39135,22.799801,84.271271,13.237347,83.28534,3.704247,69.963135,-4.99308,49.832199,0.0,16.579418,27.318494,55.33799,44.767629,71.220554,56.969251,81.627376,64.523734,85.386704,2.304755,305.744703,-46.274866,289.207239
7,0.54087,-2.484243,0.025864,0.059528,0.0,-21.729927,-30.136345,30.240784,-40.298858,34.711624,-44.850196,22.30584,-45.879673,-38.529659,0.0,34.05056,13.901401,47.508013,29.330853,56.020739,40.85837,60.327682,50.477145,69.250147,0.0,61.162651,22.396992,84.265411,12.813892,83.200012,3.353497,69.92395,-5.221035,49.750259,0.0,16.558323,27.033651,55.154504,44.476882,71.025015,56.672601,81.452288,64.228184,85.228634,3.095913,303.224518,-45.998714,289.230825
8,-4.94926,1.852487,-0.000504,0.145619,0.0,-18.837708,-26.399952,35.020237,-35.559185,40.114528,-39.452717,28.69717,-39.989285,-28.55468,0.0,33.673303,13.354675,47.324726,28.416626,55.611557,39.611519,59.270442,48.735673,65.852085,0.0,60.974785,22.245827,84.123597,12.677411,83.066117,3.281136,69.860871,-5.223323,49.719315,0.0,16.392759,26.67398,55.034289,44.165982,70.837442,56.424303,81.135299,64.07844,85.151423,-1.596536,305.053723,-45.742407,289.353162
9,4.162227,-0.141445,-0.158741,0.083746,0.0,-26.609871,-31.724189,30.921868,-41.103618,36.542244,-45.116226,25.792237,-45.823562,-33.831379,0.0,36.307118,11.869096,47.694647,26.195216,55.218046,36.905776,58.546405,45.773061,67.219251,0.0,60.947148,22.159459,84.206601,12.645218,83.103642,3.280816,70.107319,-5.205425,49.972744,0.0,16.300923,26.351667,54.904725,43.85061,70.581969,56.194332,80.783742,64.003709,85.03443,2.806652,304.900119,-45.660187,289.424749
10,-5.207187,1.835815,0.013607,0.132072,0.0,-24.394101,-27.147938,34.642536,-35.088959,42.005756,-38.38551,32.237171,-38.636296,-18.786713,0.0,36.415774,13.345548,47.174363,26.218546,54.28538,35.714512,56.720458,43.436265,62.616696,0.0,60.88543,21.875451,84.160241,12.423409,82.925995,3.148854,70.064942,-5.233314,50.03444,0.0,16.178237,25.898629,54.669628,43.439723,70.276835,55.920197,80.38024,63.918444,84.736385,-2.176981,306.719533,-45.423026,289.54042
11,4.151172,0.565004,-0.175621,0.088908,0.0,-31.104217,-31.519603,29.525803,-39.886768,36.782295,-43.20869,27.162758,-43.505836,-32.043113,0.0,38.296901,11.906368,47.202113,24.339159,53.06061,33.541465,55.945391,41.307617,63.829375,0.0,60.818345,21.929982,84.245659,12.513405,82.945176,3.213559,70.112595,-5.208595,50.053688,0.0,15.965927,25.708883,54.417304,43.270811,70.038577,55.818606,80.143798,63.942552,84.534919,2.186142,307.269127,-45.386696,289.613918
12,-5.324272,0.287806,-0.109966,-0.029541,0.0,-23.663727,-25.616466,35.049751,-33.341263,42.031929,-36.638981,32.237846,-37.064323,-22.961208,0.0,35.4529,13.082838,47.231853,25.843498,53.973046,35.260016,56.516299,42.972865,62.296508,0.0,60.708172,22.119736,84.396343,12.697025,82.941113,3.280461,70.081158,-5.314785,49.917858,0.0,15.869411,25.691419,54.439077,43.200576,69.948088,55.760288,80.132509,63.942267,84.650157,-2.948404,307.542252,-45.306936,289.569696
13,3.1665,0.498647,-0.212631,-0.068308,0.0,-29.381515,-29.283771,31.537159,-37.420097,38.517872,-40.85416,28.231167,-41.331104,-29.041477,0.0,37.510399,11.698616,46.042466,23.855222,52.024487,32.96069,54.917704,40.74701,62.517105,0.0,60.670132,22.41243,84.653126,13.040371,83.080776,3.489532,70.153187,-5.32814,49.878971,0.0,15.677577,25.966838,54.440929,43.314591,69.788277,55.779258,80.03172,63.939291,84.837038,0.386781,308.034119,-45.350882,289.494608
14,-5.000233,-0.246038,-0.102219,-0.043979,0.0,-18.119258,-24.128322,37.111107,-31.672554,43.365349,-34.982517,32.76146,-35.276184,-20.807384,0.0,32.409345,13.527613,47.394281,25.962219,53.934711,35.250951,56.736155,42.890996,63.147218,0.0,60.549992,22.626961,84.793866,13.301846,83.189793,3.681462,70.14394,-5.268974,49.770047,0.0,15.475234,26.214766,54.452353,43.467708,69.668815,55.859064,79.827993,63.997411,84.988006,-4.464129,307.788813,-45.303778,289.451361
15,4.074589,-2.606423,-0.116066,-0.076447,0.0,-19.527546,-27.43626,33.818882,-36.326248,38.479489,-40.454052,26.767948,-41.451187,-36.552337,0.0,31.772377,12.484883,48.147537,26.920635,55.546483,37.84374,59.616799,46.928781,69.248048,0.0,60.520558,22.914208,84.944676,13.604004,83.421696,3.904541,70.291363,-5.189014,49.781994,0.0,15.366652,26.49331,54.535679,43.696493,69.625491,56.01496,79.762945,64.111723,85.27412,-0.261446,305.191251,-45.29175,289.383775
16,-5.547603,1.370896,-0.079605,-0.071211,0.0,-13.169587,-22.837441,40.009758,-30.581944,45.276008,-34.239716,33.986183,-34.565152,-23.696366,0.0,29.282379,13.615286,48.238606,27.382973,55.94817,37.575632,59.304181,45.785077,65.942363,0.0,60.484349,23.053391,85.096699,13.738758,83.619267,3.994229,70.432812,-5.177353,49.833264,0.0,15.345422,26.539315,54.606532,43.731506,69.631679,56.02379,79.689969,64.102708,85.486456,-5.711397,306.571218,-45.273703,289.321635
17,3.888313,-2.648216,-0.101852,-0.051141,0.0,-17.096775,-26.468044,35.284424,-34.977058,40.501968,-38.997208,28.631996,-39.651421,-34.553261,0.0,29.790078,14.311831,49.702128,28.732047,57.485953,39.301951,61.578474,47.994989,70.913123,0.0,60.504581,23.196178,85.208233,13.892967,83.812649,4.116977,70.560184,-5.091248,49.936352,0.0,15.266715,26.686292,54.704566,43.854994,69.692058,56.095012,79.695365,64.140461,85.539659,-1.755272,303.930807,-45.307743,289.278299
18,-4.161884,0.568561,-0.088154,-0.063492,0.0,-11.825764,-22.626446,40.512096,-30.201359,45.720554,-33.626519,34.282871,-33.628086,-29.875672,0.0,28.729651,16.459584,50.579923,30.525229,58.14956,40.531772,61.989447,48.506974,69.447576,0.0,60.644417,23.120361,85.343811,13.773354,83.858231,4.031685,70.618217,-5.091053,50.005211,0.0,15.340334,26.584861,54.745223,43.842447,69.846311,56.112241,79.853051,64.114514,85.442699,-5.853441,304.502363,-45.332182,289.217802
19,5.035091,-1.662544,-0.08004,-0.086117,0.0,-19.910957,-26.875568,34.686905,-35.530769,40.163063,-39.405395,28.078445,-39.892158,-43.618298,0.0,30.753805,15.9908,50.879166,30.978922,58.272271,41.614418,62.734566,50.455015,71.851137,0.0,60.81736,23.238785,85.401535,13.851711,83.902588,4.104366,70.632614,-5.002327,50.078911,0.0,15.296849,26.660234,54.877035,43.978001,69.994598,56.237014,80.095953,64.168607,85.473277,-0.743013,302.838565,-45.336885,289.130431
20,-3.867325,0.806177,-0.076996,-0.179632,0.0,-9.06554,-23.042198,39.234764,-31.495994,44.363091,-35.371227,32.849442,-35.690609,-34.575359,0.0,25.830432,16.439318,49.806486,32.015501,58.576403,42.839336,62.811592,51.349024,69.422209,0.0,61.032807,23.179848,85.544975,13.716396,83.95356,3.979912,70.667702,-5.030411,50.148514,0.0,15.391982,26.585676,55.16557,43.940852,70.356641,56.217488,80.455093,64.107697,85.476106,-4.53974,303.642881,-45.343283,288.948938
21,5.072193,-1.020093,0.007198,-0.108693,0.0,-17.819526,-27.686382,32.637875,-36.551525,38.117443,-40.279495,26.564793,-40.855625,-46.956939,0.0,30.529392,15.157578,49.492758,31.31582,57.727842,42.886576,62.426975,52.308478,71.833193,0.0,61.198964,23.077744,85.618504,13.526288,83.899579,3.776974,70.609143,-5.175304,50.11472,0.0,15.399108,26.483479,55.424527,43.865875,70.577337,56.195814,80.653077,64.107771,85.370414,0.597496,302.619058,-45.271042,288.836515
22,-3.101978,3.31438,0.010117,-0.178558,0.0,-15.714603,-25.382332,36.177017,-33.076927,42.047104,-35.957199,31.587845,-35.649925,-38.365253,0.0,29.976713,15.043647,47.445632,29.847938,55.199187,40.286907,59.132948,48.62262,66.1813,0.0,61.214069,23.000027,85.686848,13.427216,83.888866,3.686348,70.573208,-5.225269,50.160152,0.0,15.434713,26.546515,55.450079,43.979706,70.700517,56.346881,80.871316,64.266025,85.365808,-2.449179,305.925762,-45.205622,288.650281
23,5.27869,-0.802756,0.128746,-0.159896,0.0,-22.609829,-30.135326,29.237446,-38.521007,35.57008,-41.519485,25.243779,-41.627529,-48.593914,0.0,32.293848,12.981542,47.241659,28.473436,54.653042,39.85983,58.914241,49.279818,68.300859,0.0,61.031674,22.912869,85.569294,13.308437,83.781406,3.531715,70.397816,-5.391506,50.040859,0.0,15.510592,26.729036,55.612347,44.141294,70.870688,56.481768,81.108079,64.364936,85.39751,2.87166,305.11677,-45.034727,288.484149
24,-4.055866,1.23302,0.155331,-0.15061,0.0,-14.188545,-26.656826,34.648911,-34.407177,40.213829,-37.090359,30.698708,-36.720817,-39.605827,0.0,29.89519,13.378462,46.306807,28.589342,54.254567,39.593562,58.207668,48.275287,65.784764,0.0,60.841758,22.668411,85.424377,13.047741,83.682335,3.287773,70.293068,-5.5956,50.005394,0.0,15.7097,26.779116,55.774504,44.168909,71.061708,56.514434,81.319933,64.39417,85.320063,-1.162079,306.343917,-44.857269,288.327666
25,-1.558731,2.032169,0.008457,-0.108347,0.0,-18.038349,-24.6427,36.797722,-31.648453,42.45504,-33.909679,32.034439,-33.18029,-38.33884,0.0,33.010708,13.353663,46.470285,26.974161,51.593877,36.985619,56.323082,45.028611,64.945613,0.0,60.724491,22.674511,85.488293,13.057777,83.739132,3.283184,70.228489,-5.62294,49.995129,0.0,15.752024,27.135614,55.677222,44.499323,70.948432,56.722175,81.137312,64.481818,85.241232,-2.706831,308.367611,-44.834833,288.210844
26,0.429474,-0.113806,0.012222,-0.312247,0.0,-17.739201,-24.103088,36.805527,-31.429321,42.045731,-33.92902,30.944366,-33.25906,-38.712238,0.0,32.344384,13.392368,46.097844,27.123992,51.563015,37.25574,56.703749,45.297571,64.925816,0.0,60.654133,22.825173,85.4912,13.220123,83.746227,3.436135,70.182438,-5.50217,49.93697,0.0,16.020478,27.687712,55.767291,44.991437,71.08022,57.033928,81.262937,64.598687,85.417752,-2.268574,308.248856,-44.813828,287.893648
27,0.097275,-0.38836,0.080349,-0.379086,0.0,-17.135262,-23.880089,35.532394,-31.701439,40.585121,-34.563172,28.931373,-34.169014,-37.649815,0.0,32.349546,12.269683,45.730317,26.392471,51.477959,37.122581,57.139261,45.727501,65.547457,0.0,60.717293,22.905979,85.349671,13.228935,83.575722,3.414242,70.062149,-5.551632,49.67482,0.0,16.254956,27.99697,55.925027,45.224767,71.119605,57.125418,81.164433,64.509976,85.473216,-2.171173,307.840309,-44.733353,287.494375
28,-1.405106,-2.539832,0.31794,-0.621777,0.0,-8.334675,-20.112625,37.559212,-28.746082,41.097153,-32.719082,27.402191,-33.244411,-34.566456,0.0,22.802241,14.385697,44.986176,29.985247,52.81125,41.343457,59.13569,49.97246,67.901087,0.0,60.610565,22.712322,84.961281,13.048096,83.238899,3.296059,69.905662,-5.595532,49.423439,0.0,16.553038,28.147493,56.104745,45.334448,71.197731,57.187118,81.1115,64.50784,85.629976,-3.601181,305.267663,-44.440315,286.839784
29,-1.520107,4.658612,0.073013,-1.325917,0.0,-20.548828,-21.49617,35.096981,-27.428627,42.208866,-28.921509,31.464649,-27.293404,-23.564278,0.0,28.340685,13.821767,42.656184,24.32387,46.990779,31.288748,50.41332,36.216752,54.630256,0.0,60.453415,22.887417,84.802986,13.211106,83.131508,3.346161,69.755768,-5.687668,48.962471,0.0,16.554087,28.215257,56.48488,45.29883,71.572778,57.033001,81.551719,64.225776,85.997106,-5.182423,309.890852,-44.428437,285.478444
30,0.785168,-0.689999,0.388355,-2.608498,0.0,-21.783234,-21.740078,33.503357,-28.121018,40.564086,-29.878487,29.765625,-28.383042,-27.813034,0.0,26.726739,12.90118,42.824083,22.939314,47.574876,29.578805,50.359264,34.654158,54.465851,0.0,59.722287,22.678734,83.868359,13.154126,82.483944,3.330025,69.125439,-5.762363,47.902394,0.0,16.5592,27.453504,56.809169,44.568335,72.744962,56.5368,83.099938,64.047712,86.964501,-4.47789,309.157591,-44.120717,282.826684
31,-1.835976,-2.356495,1.018387,-5.301952,0.0,-26.654434,-19.525383,21.404228,-21.823883,29.368641,-20.624931,22.899055,-16.52108,-16.570976,0.0,25.427572,16.289215,39.687397,24.864483,44.379688,30.131299,47.353686,33.652184,53.602186,0.0,58.436543,21.857552,81.48888,12.006295,79.217938,1.67149,64.642971,-7.978683,39.821125,0.0,17.346703,26.848054,58.327969,43.687959,75.525286,55.696414,86.058486,63.116232,88.181873,-6.460522,306.772261,-43.248986,277.495897
32,6.464847,2.235698,0.208832,-9.962787,0.0,-35.140949,-22.380844,-2.711746,-22.02705,5.28447,-18.43412,4.419491,-12.301357,-21.888633,0.0,27.515095,14.74774,34.857404,19.279405,34.897925,21.08127,35.61113,21.503495,40.828101,0.0,57.453701,24.926869,78.2383,14.900047,73.822552,3.939697,59.031201,-6.783611,36.326798,0.0,18.827923,28.735295,61.372734,45.249319,78.643102,57.196467,89.213414,64.799314,90.065063,-0.217181,308.97571,-43.26166,267.500861
33,4.487229,-1.840878,-1.80732,-10.509698,0.0,-43.193653,-23.987137,-24.964211,-19.949558,-17.056572,-12.992878,-10.601704,-3.748753,-18.725613,0.0,29.407646,13.759103,33.049648,16.629682,33.885773,17.874533,35.862725,18.181285,39.817975,0.0,54.490506,28.919632,66.770016,22.114026,59.856778,13.146,47.080388,3.215882,32.183819,0.0,20.071156,26.139567,64.297715,42.202566,82.815256,54.643977,93.520394,63.17907,94.687724,4.024435,307.187765,-45.314593,257.044096
34,8.904991,-10.920499,-4.146011,-24.550506,0.0,-41.64275,-23.255424,-47.648907,-19.208199,-43.951881,-12.509869,-35.320564,-3.732983,-31.789238,0.0,24.779366,12.600394,30.339052,20.028475,36.582945,25.91566,43.414702,30.555512,53.706445,0.0,53.746891,31.534687,62.609676,23.865109,54.089001,13.766396,40.561752,2.604149,26.290638,0.0,24.502514,21.98411,62.889571,37.402088,82.011043,50.542786,91.814896,60.568608,91.546381,12.586166,296.384937,-49.803864,232.611261
35,15.184238,-18.628061,-8.19841,-33.170296,0.0,-53.41262,-31.404933,-77.244895,-25.446052,-73.99324,-16.979576,-59.760498,-6.732856,-38.798961,0.0,19.42826,15.817985,29.532715,26.291114,38.355169,34.42168,47.669502,40.209534,59.248297,0.0,55.185745,33.348896,59.945091,25.364033,49.986672,14.484181,36.986172,2.612297,22.715618,0.0,23.189873,17.483382,56.891753,32.333862,76.520332,46.005786,87.739159,57.242656,87.352997,27.131927,278.102796,-58.640751,199.786885
36,13.578461,-18.072246,-10.381794,-38.982134,0.0,-48.332405,-37.128353,-86.466591,-34.520347,-84.79224,-27.948028,-71.139049,-18.977119,-49.80851,0.0,7.39639,12.194175,26.359213,26.312517,37.562825,37.530949,49.107818,45.592478,59.256226,0.0,56.269558,33.731735,58.645844,26.184746,48.030579,16.111496,37.253998,5.377648,28.646313,0.0,20.975738,10.507679,47.116837,24.851108,66.218302,39.510155,78.556028,53.099377,80.500295,40.052873,260.656508,-69.68006,161.430709
37,10.929405,-29.767256,-10.4683,-43.532126,0.0,-43.470611,-39.235885,-85.723148,-39.644737,-87.906017,-35.236587,-77.809833,-27.559639,-58.473758,0.0,-9.342281,10.358595,18.615613,30.087543,36.603409,46.422478,54.722968,58.914191,71.818496,0.0,55.577065,29.121758,57.553734,22.072541,47.975029,13.137966,37.903256,4.175377,29.659195,0.0,19.879804,-0.040681,34.415394,13.312654,53.630622,28.737469,67.525027,44.256749,71.6168,49.908702,232.049026,-81.221936,119.058357
38,5.835915,-18.258127,-10.073112,-48.797127,0.0,-46.829155,-39.628372,-82.913876,-38.457207,-83.267979,-31.831398,-71.828739,-21.626152,-45.275814,0.0,-15.470676,5.898943,7.030223,19.898465,12.540249,31.423587,22.411966,40.1403,37.396494,0.0,59.273792,23.725868,64.630016,12.825805,55.509361,1.600307,43.359375,-8.158173,29.237411,0.0,15.606596,-9.462337,18.341595,2.266889,37.909955,17.729284,53.938405,34.468957,58.136852,54.14926,214.87658,-92.890405,71.346911
39,14.228188,-29.221999,-6.412937,-38.372663,0.0,-36.599808,-41.652489,-78.090249,-45.299698,-84.08495,-42.747323,-79.934967,-35.642029,-61.381714,0.0,-30.848542,-1.84359,-11.100773,11.401003,-7.743675,23.240582,3.680627,32.990046,25.283965,0.0,60.371315,19.707332,63.437679,8.211021,53.036029,-2.787678,39.894538,-11.856377,27.528785,0.0,5.876781,-19.867473,3.347193,-10.519059,24.676947,4.156791,42.4716,21.299267,47.768865,66.044919,187.283226,-101.635871,34.602893
40,8.630836,-19.655947,-2.276665,-33.660786,0.0,-19.185402,-37.677498,-65.847382,-45.371475,-80.177193,-46.538315,-83.879024,-42.820244,-73.495148,0.0,-42.223116,-13.854427,-37.923632,-4.564701,-36.906992,5.696933,-24.672358,16.008294,4.125502,0.0,58.855453,15.839767,60.569378,3.136471,46.726856,-7.761006,31.991524,-16.480225,22.227424,0.0,0.792585,-30.053548,-8.625884,-23.023882,15.765838,-9.248118,31.73694,7.824025,36.622595,71.726131,169.557659,-106.86216,2.872487
41,7.815834,-19.378156,0.424084,-29.755714,0.0,-5.16243,-32.56414,-54.972679,-42.768677,-78.137924,-47.159111,-89.442924,-46.571274,-84.533249,0.0,-50.697045,-22.969832,-60.244906,-17.53306,-62.265781,-9.275245,-48.637774,1.17968,-13.765976,0.0,57.923606,14.347446,58.772369,0.349353,39.057197,-11.615136,22.507232,-21.511139,12.774993,0.0,-2.706119,-37.737301,-15.121175,-33.070581,9.929009,-20.617734,23.346188,-4.589624,26.427559,76.106787,152.31733,-109.873254,-24.7454
42,5.682655,-14.491871,1.808029,-23.0234,0.0,5.373322,-28.772964,-45.296562,-40.573356,-73.725425,-47.233383,-90.556572,-49.339622,-92.654205,0.0,-54.462146,-29.016969,-76.374317,-27.208553,-82.94666,-21.302416,-69.486719,-11.448013,-32.566086,0.0,59.983223,14.746765,60.270149,-0.374485,30.943153,-13.866474,14.043663,-25.436188,4.125583,0.0,-6.273632,-44.056678,-18.033566,-41.621164,5.3912,-30.281741,15.551082,-14.996279,17.164231,78.602754,140.235429,-111.251913,-45.35883
43,9.931366,-20.167227,4.642376,-18.713561,0.0,22.912262,-27.762931,-37.493156,-46.034065,-75.634048,-59.519439,-103.527877,-68.34375,-122.330291,0.0,-63.324819,-35.611506,-93.259116,-29.74216,-91.581715,-19.580321,-66.88717,-5.174635,-21.244921,0.0,58.28952,15.193794,62.339035,-0.143372,25.658786,-14.527325,8.733558,-27.264908,-0.91285,0.0,-6.154509,-46.678156,-15.806019,-45.59258,3.256093,-35.286822,9.81059,-20.857888,10.001819,85.699808,122.594384,-109.443849,-61.546209
44,-0.172554,-8.012981,4.251777,-15.890314,0.0,26.549675,-26.106788,-31.7929,-44.12677,-71.318962,-57.788063,-100.916107,-67.205108,-122.150859,0.0,-63.71539,-37.293574,-100.725234,-32.810735,-101.475514,-23.889919,-76.121702,-10.16823,-31.320136,0.0,58.092671,16.778618,65.392628,1.975285,22.632626,-12.741634,7.453961,-26.050392,-1.586174,0.0,-2.006215,-45.716806,-8.026028,-44.910732,3.779903,-34.933242,8.133394,-21.226377,8.67634,83.436035,116.701937,-107.283291,-75.315989
45,-1.89878,-6.843125,5.966561,-11.0064,0.0,29.20063,-24.735466,-28.883194,-42.891266,-68.127663,-56.868691,-99.563874,-66.532311,-121.352349,0.0,-63.348364,-38.431721,-103.584087,-34.100257,-105.814499,-25.464122,-79.50991,-12.083123,-36.20891,0.0,58.563652,19.641094,68.038055,5.212028,20.878349,-10.396054,6.577079,-24.870747,-2.138912,0.0,4.190556,-43.311983,3.712836,-43.149289,4.925516,-33.645638,7.434145,-20.479975,8.616585,80.311347,111.541131,-102.542638,-84.64007
46,-3.079125,-3.866582,6.029182,-6.188027,0.0,31.071373,-23.860336,-26.921379,-42.519859,-65.718223,-56.880936,-98.464462,-66.741165,-121.121578,0.0,-62.75934,-39.438642,-105.777276,-35.590356,-109.245599,-27.157319,-82.892617,-13.908311,-40.038436,0.0,58.712139,22.521549,69.503071,8.345123,22.367203,-8.070316,7.907959,-23.599651,-0.395576,0.0,9.790732,-40.136582,13.450975,-40.380626,8.270721,-31.24853,9.156555,-18.454493,10.639874,76.212782,108.678227,-97.532896,-89.824419
47,-3.456619,-1.573629,8.351,-5.052879,0.0,31.938583,-23.527519,-25.153748,-42.230553,-63.609284,-56.704994,-97.961003,-66.536179,-120.637837,0.0,-61.798942,-40.461235,-107.0203,-36.924777,-111.476753,-28.452311,-85.435437,-15.181339,-42.628545,0.0,57.582819,24.280037,68.263567,9.922325,24.686165,-7.025808,7.436651,-22.978088,-0.975758,0.0,11.625926,-35.360956,17.246155,-35.207187,17.593631,-25.984453,15.158794,-13.726706,15.162981,71.76582,107.182972,-90.172239,-94.798924
48,-3.092674,0.051506,9.861328,-4.831284,0.0,32.341919,-23.25808,-23.987549,-42.155114,-62.572724,-56.809983,-98.184906,-66.55156,-120.875348,0.0,-61.232061,-40.52288,-107.49521,-37.215627,-112.254586,-28.76425,-87.210082,-15.641237,-44.119231,0.0,58.230944,25.631596,66.511087,10.98032,25.22818,-6.363928,3.67412,-22.350471,-5.213997,0.0,11.114756,-28.963537,15.503972,-28.173587,31.819882,-18.500229,23.639774,-6.843801,21.310821,67.624283,107.066295,-81.359774,-99.798391
49,-2.765168,1.470969,6.836804,0.218214,0.0,32.409989,-23.211845,-23.282592,-42.31842,-62.249405,-57.119018,-99.089126,-66.834297,-121.23896,0.0,-61.46239,-40.783918,-108.303344,-37.720863,-113.653344,-29.362414,-88.949863,-16.381557,-45.724229,0.0,55.728235,27.141998,68.327161,12.641967,28.032039,-4.628466,1.840673,-20.748768,-7.771031,0.0,15.628408,-22.940587,12.835823,-22.839716,41.959102,-14.105733,29.649775,-3.512169,26.292275,63.537271,107.97787,-75.844814,-100.139571
50,-2.433632,1.691918,5.48529,0.710771,0.0,32.205666,-23.146888,-22.909629,-42.329315,-62.105667,-57.248268,-99.572845,-67.013923,-121.648693,0.0,-61.230159,-40.606453,-108.356702,-37.710896,-114.15104,-29.502007,-90.108381,-16.688024,-46.660217,0.0,53.032808,27.924133,64.072798,12.960365,27.681439,-4.720751,0.84181,-21.26548,-8.922798,0.0,22.479216,-17.641472,20.199542,-18.429205,48.722885,-10.862802,35.292139,-0.906968,32.056566,59.571458,109.00129,-71.891705,-100.097298
51,-2.195411,1.742881,9.441654,-2.409056,0.0,31.943664,-23.257347,-22.53962,-42.428673,-62.325897,-57.35273,-99.597805,-67.137268,-121.696472,0.0,-61.34239,-40.073616,-108.174131,-37.253345,-114.017523,-29.202567,-90.501281,-16.58613,-47.35008,0.0,47.767027,26.773461,57.247355,10.10233,22.912304,-8.856721,-4.361612,-26.461037,-15.276981,0.0,25.756078,-18.587461,18.082852,-20.398678,47.897136,-13.483572,35.25979,-3.450181,32.134618,56.258543,110.277696,-63.567555,-102.972829
52,-2.041741,2.16894,11.751162,-3.910298,0.0,32.089554,-23.037002,-22.316871,-42.224807,-61.849891,-57.218902,-99.178573,-67.092819,-121.458011,0.0,-61.58804,-39.818216,-108.339845,-37.050346,-113.81392,-29.189358,-91.143473,-16.785948,-47.983325,0.0,39.069603,24.518555,47.813896,5.045151,15.089561,-16.127586,-11.450272,-35.767365,-24.179718,0.0,28.491958,-26.589225,11.241955,-30.00707,36.324145,-23.647673,27.590429,-12.87678,25.309147,53.40414,111.870903,-52.629055,-107.45886
53,-1.754242,2.156108,14.060669,-5.411541,0.0,32.198273,-22.750579,-21.727661,-41.871643,-60.903671,-56.924423,-98.410961,-66.947799,-120.950546,0.0,-61.289637,-39.949726,-108.249096,-37.289876,-113.739455,-29.508089,-91.736165,-17.100739,-48.717537,0.0,26.940536,21.159416,35.772423,-2.21117,4.213211,-26.533344,-20.424168,-49.184464,-35.631008,0.0,30.686855,-41.646763,-0.323146,-47.254379,14.003913,-41.355103,12.284059,-29.186765,11.580154,51.031791,113.26263,-39.186493,-113.634782
54,-1.492904,2.687254,9.895477,-9.047849,0.0,32.547432,-22.438637,-21.260903,-41.483094,-59.570755,-56.575287,-97.348549,-66.738121,-120.259209,0.0,-60.916503,-40.278688,-108.250788,-37.786343,-113.837656,-30.152294,-92.801421,-17.753904,-49.681318,0.0,21.585525,16.240586,20.499802,-7.974724,-6.238815,-32.930042,-27.012382,-56.740448,-43.870399,0.0,15.07301,-53.872107,-11.863916,-60.711289,-9.356843,-56.492841,-8.666961,-45.559856,-11.256582,49.206568,115.226336,-29.623335,-123.406179
55,-1.4385,2.916874,0.900387,-23.920999,0.0,32.886269,-22.035713,-20.521087,-41.067352,-57.926124,-56.282798,-96.045719,-66.637527,-119.582702,0.0,-60.557487,-40.089115,-108.296508,-37.816187,-114.582904,-30.400395,-94.291083,-18.167774,-50.755115,0.0,22.270168,13.10931,19.964184,-10.950279,-4.970192,-35.535942,-26.969719,-59.175122,-43.911106,0.0,-2.28629,-62.876254,-33.983715,-69.462263,-23.009907,-65.506029,-18.904274,-55.285178,-23.505059,47.712953,117.412641,-28.778063,-148.057747
56,-1.599083,3.185994,-4.458279,-21.833185,0.0,33.455933,-21.489761,-19.646164,-40.498855,-55.785576,-55.823661,-94.929496,-66.329223,-118.90694,0.0,-60.105165,-40.358896,-108.653166,-38.26318,-115.355395,-31.009087,-95.764454,-18.869975,-52.027291,0.0,25.213715,10.552727,23.115227,-11.800769,-1.626041,-34.570968,-23.044395,-56.712768,-38.272522,0.0,-17.850976,-66.787494,-46.331991,-73.06548,-30.64551,-69.874136,-25.009991,-60.807186,-31.180043,45.969572,119.808727,-33.38064,-170.68084
57,-1.733139,2.91218,-9.704838,-19.025509,0.0,33.90168,-21.046005,-18.711754,-40.078697,-54.336525,-55.522613,-93.840797,-66.176788,-118.25782,0.0,-59.551449,-40.258663,-108.860734,-38.446776,-116.35038,-31.425686,-97.155529,-19.496248,-53.516983,0.0,31.683392,8.958058,29.590405,-10.407772,4.166439,-30.173355,-15.495895,-49.74551,-27.830589,0.0,-30.766218,-65.745622,-50.355414,-71.256741,-31.780452,-68.953697,-26.516294,-61.433751,-33.989786,43.861404,122.138835,-43.460507,-190.288421
58,-1.868911,2.66298,-14.916172,-15.89966,0.0,34.374412,-20.638825,-18.316063,-39.717064,-53.112236,-55.30552,-93.210171,-66.110276,-117.953213,0.0,-59.262,-39.890247,-109.032171,-38.303299,-117.157019,-31.541752,-98.252531,-19.941832,-54.737745,0.0,40.760285,8.869561,38.045769,-6.345714,12.955914,-22.214733,-4.520576,-38.522976,-12.731346,0.0,-41.132818,-59.539918,-45.44033,-64.101526,-27.163018,-63.106352,-23.326169,-57.684601,-31.929474,41.615811,124.400774,-58.753361,-206.589122
59,-1.812836,2.006864,-8.840961,-15.360134,0.0,34.746254,-20.391953,-17.746468,-39.467903,-52.272125,-55.139443,-92.71003,-65.99897,-117.716801,0.0,-58.830383,-39.417931,-109.158494,-37.95633,-117.616769,-31.366925,-98.941913,-20.028499,-55.516127,0.0,45.609753,8.99477,46.099377,-5.467861,18.223434,-20.27829,1.483715,-35.029987,-3.785809,0.0,-40.204048,-57.011014,-41.847292,-60.368618,-18.114227,-58.090516,-12.768679,-51.463136,-21.003927,39.427866,126.087499,-67.969431,-222.269395
60,-1.69503,1.568825,-0.701752,-0.69555,0.0,35.180694,-20.266114,-17.177994,-39.325699,-51.642426,-55.003807,-91.921521,-65.870728,-117.36303,0.0,-58.613819,-39.312295,-109.454514,-38.010985,-117.714144,-31.605621,-99.593306,-20.468422,-56.234835,0.0,44.506062,7.617943,46.532238,-6.451263,16.359169,-20.567711,1.589321,-34.468826,-2.690929,0.0,-40.647376,-57.423302,-40.048665,-60.671134,-16.424863,-58.106965,-12.871086,-50.978019,-21.530856,37.257655,127.387018,-69.146364,-223.234251
61,-1.191994,1.110532,-0.893394,0.429449,0.0,35.23082,-20.165657,-17.11219,-39.249046,-51.47731,-54.996254,-91.527683,-65.975098,-117.462399,0.0,-58.609817,-39.136683,-109.691969,-37.989181,-118.101634,-31.739416,-100.216634,-20.782244,-56.740219,0.0,44.26086,6.775028,45.956142,-7.317421,15.03614,-21.235634,1.054287,-34.779293,-2.651207,0.0,-40.184127,-57.991351,-39.444766,-60.971908,-15.536163,-57.961688,-12.851786,-50.403712,-21.958925,35.628359,128.273918,-70.47706,-223.028434
62,-0.848946,0.502339,-1.124851,0.761207,0.0,35.221985,-20.152588,-16.973007,-39.196403,-51.23648,-54.95755,-91.402198,-66.036689,-117.700939,0.0,-58.430654,-38.837712,-109.80328,-37.744464,-118.195401,-31.594117,-100.241685,-20.772283,-56.613766,0.0,43.58599,6.464824,44.869354,-7.791996,14.487236,-21.787777,0.551364,-35.320839,-2.891751,0.0,-39.841768,-58.419677,-38.830957,-61.34535,-15.61035,-58.112268,-12.956003,-50.230878,-22.40229,34.485563,128.60435,-71.895761,-222.439134
63,-0.505691,0.303769,-1.446156,1.064472,0.0,35.224273,-20.280991,-16.728241,-39.279625,-51.055161,-54.998932,-90.939617,-66.132752,-117.819065,0.0,-58.365458,-38.50371,-110.07508,-37.520798,-118.222257,-31.571788,-100.473651,-20.960412,-56.661616,0.0,43.506649,6.187019,44.612011,-8.188854,14.060761,-22.200233,0.23299,-35.680069,-3.360889,0.0,-39.524713,-58.809132,-38.972314,-61.652649,-16.368506,-58.230298,-13.696174,-50.136521,-23.012906,33.754584,128.884642,-73.567205,-221.398139
64,-0.184548,0.048363,-1.34079,0.844949,0.0,35.078408,-20.320427,-16.684776,-39.293518,-51.041473,-55.009277,-90.878849,-66.295669,-117.989181,0.0,-58.291636,-38.292338,-110.110797,-37.377654,-118.149181,-31.581248,-100.347804,-21.124625,-56.626524,0.0,43.013546,5.850323,44.05386,-8.693916,13.659325,-22.714451,-0.096748,-36.060539,-3.755916,0.0,-39.293755,-58.818671,-38.795818,-61.552564,-16.802219,-57.982337,-14.235671,-49.76523,-23.386045,33.431591,128.980478,-75.04644,-220.505717
65,0.188164,-0.060194,-1.142727,0.865259,0.0,34.871727,-20.481422,-16.878799,-39.431007,-50.911537,-55.150749,-91.234005,-66.458244,-118.265407,0.0,-58.14278,-37.707507,-109.820539,-36.825674,-118.099936,-31.137831,-99.994672,-20.897674,-56.496552,0.0,42.702919,5.597111,43.655571,-9.020084,13.287278,-22.986705,-0.372734,-36.233722,-4.099571,0.0,-39.224558,-59.110714,-38.473406,-61.853682,-16.894953,-58.101575,-14.505437,-49.676678,-23.546543,33.527573,128.934271,-76.281349,-219.626471
66,0.149552,0.249224,-0.725074,0.650918,0.0,34.855888,-20.526352,-16.763009,-39.406678,-50.657685,-55.100922,-91.158371,-66.42524,-117.895924,0.0,-58.330896,-37.485291,-109.913177,-36.675996,-118.232976,-31.143832,-100.16057,-21.080559,-56.765103,0.0,42.149597,5.679954,43.174919,-9.01957,13.367099,-23.02295,-0.360753,-36.317276,-4.470658,0.0,-39.173009,-59.020888,-38.038668,-61.696029,-16.666622,-57.855166,-14.496323,-49.355152,-23.515054,33.540699,129.168153,-77.142849,-218.990895
67,0.248176,0.266077,-0.561585,0.80709,0.0,34.659897,-20.526878,-16.774933,-39.399147,-50.673981,-55.069405,-90.758663,-66.377197,-117.408886,0.0,-58.51784,-37.456176,-109.885291,-36.681789,-118.216656,-31.190115,-100.511689,-21.123229,-56.972882,0.0,42.016548,5.73579,42.751923,-9.037205,13.100979,-23.049133,-0.467182,-36.39418,-4.558891,0.0,-38.466299,-58.809516,-37.850243,-61.502364,-16.562029,-57.703091,-14.368213,-49.329388,-23.39587,33.621666,129.40245,-77.871643,-218.215585
68,0.337509,0.232725,-0.347568,0.473771,0.0,34.442505,-20.60646,-16.925468,-39.482277,-50.696274,-55.152855,-90.748775,-66.393883,-117.082672,0.0,-58.660144,-37.372282,-109.828462,-36.572448,-118.225518,-31.029928,-100.599659,-20.915056,-57.04952,0.0,42.291126,6.041095,42.809406,-8.872433,13.115432,-22.964917,-0.508358,-36.417904,-4.639035,0.0,-37.764237,-58.534008,-37.250128,-61.327274,-15.923514,-57.548093,-13.802375,-49.252608,-23.052396,33.804136,129.576732,-78.37425,-217.800257
69,0.310066,0.379505,-0.129994,0.38932,0.0,34.217583,-20.717536,-17.149589,-39.622146,-50.771759,-55.299247,-90.715919,-66.437049,-116.763061,0.0,-58.993349,-37.154086,-109.968097,-36.369572,-118.365561,-30.853488,-100.963208,-20.799002,-57.325742,0.0,42.747505,6.320629,43.221771,-8.716621,13.435993,-22.900635,-0.270172,-36.502018,-4.692947,0.0,-37.265154,-58.265408,-37.159937,-61.136551,-15.498436,-57.35641,-13.494129,-49.092371,-22.962894,33.982893,129.862024,-78.635553,-217.50515
70,0.185303,0.460214,-0.031986,0.730786,0.0,33.894676,-20.635505,-17.455948,-39.544761,-51.054886,-55.229484,-90.665199,-66.38372,-116.308685,0.0,-59.528472,-37.272518,-110.453401,-36.405863,-118.449134,-30.873953,-101.347728,-20.777538,-57.659133,0.0,43.264286,6.520054,43.554737,-8.621796,13.35387,-22.83308,-0.14431,-36.509045,-4.817459,0.0,-36.418667,-57.971593,-37.217313,-60.868924,-15.591742,-57.113557,-13.796305,-48.928123,-23.260886,34.084568,130.219726,-78.751167,-216.876876
71,0.229386,-0.026775,-0.1092,1.168083,0.0,33.772155,-20.632851,-17.732712,-39.543755,-51.443253,-55.230034,-90.528305,-66.430481,-116.096947,0.0,-59.562453,-37.100475,-110.41903,-36.146197,-118.044052,-30.594909,-101.103363,-20.50407,-57.475295,0.0,44.075215,6.834263,44.18311,-8.341392,13.628918,-22.510952,0.267987,-36.176605,-4.80859,0.0,-35.925028,-57.894439,-37.468887,-60.867653,-15.938226,-57.080258,-14.175974,-48.906146,-23.448543,34.256447,130.112277,-78.917874,-215.789467
72,0.323387,0.204851,0.136723,1.069251,0.0,33.912849,-20.744728,-18.043923,-39.707726,-51.720177,-55.404396,-90.479485,-66.590676,-115.845234,0.0,-59.723258,-37.135871,-110.540129,-36.104194,-117.869236,-30.538049,-101.214378,-20.465773,-57.791878,0.0,44.655327,7.290745,44.785858,-7.920513,14.264248,-22.134876,0.818928,-35.851685,-4.745945,0.0,-35.886573,-57.583974,-36.967195,-60.590509,-16.095288,-56.791338,-14.418236,-48.628673,-23.442117,34.529635,130.244991,-78.83135,-214.792353
73,0.217437,0.061342,0.42873,1.241702,0.0,34.059815,-20.572792,-18.150192,-39.578109,-51.994743,-55.286865,-90.303772,-66.486145,-115.676021,0.0,-59.839026,-36.947192,-110.56602,-35.924944,-117.940644,-30.397165,-101.196464,-20.393814,-57.660157,0.0,44.381573,7.330765,44.999782,-7.900875,14.292091,-22.11747,1.06406,-35.836865,-4.443764,0.0,-35.343138,-57.384599,-36.746913,-60.296236,-16.068812,-56.421255,-14.713317,-48.214309,-23.647119,34.638175,130.267739,-78.511517,-213.589245
74,0.343277,0.015623,0.486992,1.411998,0.0,34.127335,-20.513443,-18.40615,-39.592071,-52.095863,-55.31813,-90.09066,-66.531463,-115.541919,0.0,-59.940841,-37.045301,-110.362584,-36.034416,-117.861325,-30.474026,-101.247748,-20.426962,-57.57798,0.0,44.079494,7.300575,45.079365,-7.892533,14.303398,-22.083653,1.266163,-35.791363,-4.262066,0.0,-34.989784,-57.192931,-36.683956,-60.087231,-16.182113,-56.19728,-15.163252,-47.994078,-23.888978,34.844472,130.327817,-78.161505,-212.132792
75,0.46772,-0.162021,0.473453,1.324444,0.0,34.324402,-20.487899,-18.506309,-39.59999,-52.278213,-55.348548,-90.0928,-66.607681,-115.516948,0.0,-59.796233,-37.050568,-109.925026,-36.040121,-117.821786,-30.431146,-101.074581,-20.36137,-57.58082,0.0,43.668595,7.333042,45.10373,-7.821373,14.46143,-22.044765,1.496899,-35.767238,-3.880291,0.0,-35.145238,-57.030295,-36.515896,-59.915484,-15.896631,-55.987647,-14.896966,-47.747929,-23.511028,35.145755,130.262009,-77.854489,-210.712135
76,0.610932,0.059441,0.505143,1.197023,0.0,34.275856,-20.530266,-18.70269,-39.708687,-52.583153,-55.486084,-90.290177,-66.744805,-115.709416,0.0,-59.735236,-37.145676,-109.658265,-36.142985,-117.893164,-30.460552,-101.128316,-20.304554,-57.796916,0.0,43.205772,7.27946,45.223823,-7.853062,14.308845,-22.130539,1.400573,-35.875889,-3.679585,0.0,-35.366514,-56.839442,-36.133198,-59.722464,-15.272467,-55.788609,-14.594247,-47.558991,-23.1298,35.56917,130.384611,-77.536863,-209.451951
77,0.531372,-0.100542,0.397682,1.345597,0.0,34.264137,-20.543198,-18.755997,-39.728554,-52.659256,-55.504875,-90.537884,-66.764168,-115.853977,0.0,-59.634299,-36.962771,-109.31077,-35.985719,-117.90024,-30.306423,-100.839472,-20.16535,-57.754833,0.0,42.736999,7.02927,45.290474,-8.032334,14.084381,-22.263314,1.31496,-35.931874,-3.392533,0.0,-35.541067,-57.038116,-36.122901,-59.936795,-14.899112,-55.903588,-14.441075,-47.574626,-22.775238,35.887539,130.336421,-77.352184,-208.054002
78,0.514137,0.244236,0.097938,1.38495,0.0,34.295746,-20.639854,-18.771675,-39.861648,-52.641105,-55.647423,-90.494911,-66.935554,-115.761452,0.0,-59.777153,-37.233461,-109.230415,-36.235679,-117.818644,-30.519388,-101.035561,-20.29323,-58.197522,0.0,42.584702,6.933335,45.350487,-8.000198,14.231404,-22.142418,1.568768,-35.696205,-2.94762,0.0,-35.950009,-57.20924,-35.755331,-60.118964,-14.709031,-56.028095,-14.094781,-47.602766,-22.196015,36.199402,130.609331,-77.45652,-206.640378
79,0.556549,0.102752,0.079434,1.691678,0.0,34.209275,-20.6529,-18.865493,-39.892822,-52.838882,-55.677612,-90.511654,-66.953201,-115.604198,0.0,-59.778869,-37.226124,-109.041211,-36.174225,-117.559897,-30.395195,-100.852057,-20.099327,-58.185993,0.0,42.775348,6.760791,45.356289,-8.088982,14.438312,-22.143311,1.86914,-35.555054,-2.352848,0.0,-36.024441,-57.372228,-35.540472,-60.224483,-14.555585,-56.018199,-13.65431,-47.453966,-21.618085,36.514635,130.662028,-77.618402,-204.998755
80,0.529175,0.223685,-0.006157,2.10559,0.0,33.854416,-20.791214,-19.152443,-40.084534,-52.987266,-55.850098,-90.612442,-67.055443,-115.6073,0.0,-59.883154,-37.179306,-108.613065,-36.025431,-116.955039,-30.14699,-100.219066,-19.758267,-57.945315,0.0,42.011364,6.603046,45.693111,-8.162224,15.119533,-22.188824,2.241657,-35.497605,-2.045735,0.0,-37.310275,-57.424686,-34.93257,-60.209971,-14.308346,-55.948177,-13.321796,-47.368192,-21.202569,36.805052,130.808081,-77.863317,-202.970797
81,0.585068,0.06364,-0.114292,2.909364,0.0,33.047607,-21.02298,-20.240776,-40.307236,-53.708588,-56.006058,-90.344536,-67.135025,-115.245232,0.0,-60.202644,-36.601921,-107.855258,-35.208905,-116.049408,-29.173908,-99.454312,-18.726022,-57.32016,0.0,42.213615,6.327724,45.416198,-8.442101,15.177177,-22.442345,2.247802,-35.688504,-1.955166,0.0,-38.027175,-57.677226,-34.487877,-60.262959,-13.575334,-55.752287,-12.739357,-46.958656,-20.538431,37.1504,130.766865,-78.217329,-200.166289
82,0.9188,-0.206209,-0.692974,3.647718,0.0,30.20739,-21.374428,-23.376686,-40.575508,-56.190948,-56.176666,-90.423294,-67.212066,-115.369137,0.0,-61.45133,-35.14681,-106.305199,-33.183406,-113.649787,-26.814888,-97.105185,-16.342994,-55.338108,0.0,41.724987,6.452007,45.563518,-8.35801,16.104206,-22.423508,2.65345,-35.70488,-2.069195,0.0,-38.349841,-57.427731,-32.774356,-59.57568,-12.083775,-54.65853,-11.676244,-45.508776,-19.069161,37.829641,130.241444,-79.149862,-196.837783
83,0.894676,-0.536043,-1.06112,5.737632,0.0,24.335289,-22.365463,-29.469085,-41.28614,-61.290504,-56.551368,-91.955268,-67.197807,-115.47084,0.0,-63.651819,-33.373208,-103.803801,-30.246464,-109.50618,-23.156312,-92.528226,-12.483433,-51.654121,0.0,41.89951,6.622983,45.561963,-8.206512,16.848794,-22.312236,3.207631,-35.598392,-2.03223,0.0,-37.833054,-56.845086,-31.208566,-58.560006,-10.837488,-53.278947,-10.311649,-44.059858,-17.212258,38.532898,129.157227,-80.402401,-191.648325
84,0.841851,-0.935871,-0.9696,6.446063,0.0,15.358406,-23.822182,-39.079743,-42.24804,-69.7733,-56.934494,-96.002014,-66.885842,-116.121094,0.0,-65.599377,-30.311388,-98.981298,-25.400081,-102.175097,-17.208506,-84.356089,-6.147593,-45.060239,0.0,41.705292,6.436786,43.901859,-8.361866,16.849376,-22.578232,3.28244,-36.15675,-2.632027,0.0,-36.071216,-54.170641,-27.412863,-55.222624,-8.305603,-49.545443,-7.205464,-40.263896,-14.187953,39.3534,127.538066,-81.39335,-185.885552
85,-0.087708,-1.371328,-2.731602,7.699131,0.0,2.84729,-25.799446,-51.85437,-43.133629,-80.220474,-56.579956,-100.473804,-65.264099,-115.756382,0.0,-66.476641,-26.509601,-91.512617,-19.090665,-91.028154,-9.245482,-72.424657,2.478896,-34.741931,0.0,41.687897,8.185959,44.038868,-6.336651,18.649326,-20.364532,4.580212,-33.928516,-2.849659,0.0,-31.91181,-49.729298,-31.750123,-50.595505,-3.557478,-44.683805,-1.552745,-35.63624,-7.644071,39.473139,125.44243,-83.917505,-178.910729
86,-1.37606,-1.184651,-2.631718,14.898495,0.0,-11.988259,-28.500801,-66.902939,-43.774475,-91.941719,-54.964485,-105.748089,-61.527443,-114.648251,0.0,-65.247492,-22.448856,-80.121432,-12.127195,-75.293828,-0.16656,-55.013226,12.742796,-20.163745,0.0,42.318163,10.223139,44.220171,-4.247926,21.768254,-18.28894,6.038206,-32.040378,-3.01577,0.0,-29.952666,-47.091641,-39.744282,-47.988933,-2.630392,-42.087053,1.813133,-33.254018,-3.330653,38.65127,123.664191,-85.995032,-164.605822
87,-2.725823,0.064134,-2.063404,22.126274,0.0,-27.813537,-31.43676,-81.638328,-44.083122,-102.939754,-52.470337,-110.764091,-56.450958,-111.840992,0.0,-60.466609,-17.809183,-64.969109,-4.658371,-55.248471,9.220065,-34.373991,23.255545,-3.102008,0.0,45.090163,12.091261,43.602247,-2.624387,24.663472,-16.838951,6.693678,-30.919109,-3.539348,0.0,-30.529467,-46.887373,-52.587129,-48.091302,-5.526402,-42.414829,2.569796,-33.756946,-1.931304,36.749399,123.410144,-87.234484,-142.797729
88,-4.440033,1.29556,-2.245044,21.558323,0.0,-41.673671,-33.668564,-93.738624,-42.99971,-110.777263,-48.049713,-113.072891,-49.127449,-106.726627,0.0,-51.425286,-12.146676,-45.714145,3.372246,-31.70812,18.802865,-11.078882,33.555989,16.289876,0.0,45.667013,14.466207,42.529146,-0.321883,27.833095,-14.495842,7.287237,-28.519696,-4.39103,0.0,-27.698733,-45.689561,-63.830333,-46.161423,-3.535366,-39.133978,7.08685,-29.215362,4.286949,33.129329,124.610741,-88.659565,-121.334369
89,-6.291137,4.432822,-3.768196,29.46009,0.0,-52.622899,-35.58577,-101.900036,-41.282273,-114.084664,-42.663002,-111.340382,-40.644997,-98.475987,0.0,-40.492821,-7.114105,-25.748304,9.817506,-8.416236,26.093173,10.662981,41.040663,33.617733,0.0,47.661249,17.654474,47.764532,3.03911,34.052925,-10.863144,11.821409,-24.293656,-0.305546,0.0,-24.832284,-45.32611,-64.517423,-45.414629,-1.754376,-37.476649,10.663132,-26.242826,9.978105,27.634449,129.004923,-91.631504,-91.912919
90,-6.764832,8.059305,-2.827092,32.833729,0.0,-59.743572,-36.22435,-105.795742,-38.631798,-113.974834,-37.003166,-107.698906,-32.535072,-89.233601,0.0,-28.628349,-2.293663,-5.949745,14.762992,12.892924,30.63404,29.166968,44.791989,46.433871,0.0,51.193388,19.080271,51.90687,5.070849,40.295689,-8.213636,17.31415,-20.799723,5.331682,0.0,-20.269346,-44.107991,-53.75969,-42.24571,0.572907,-32.531908,14.742194,-19.264848,15.680743,22.375151,136.94806,-92.953062,-59.195358
91,-6.735443,11.133816,-3.72401,29.76192,0.0,-63.676426,-35.832298,-105.707508,-35.496712,-110.457092,-31.51799,-100.935391,-25.124611,-77.288258,0.0,-17.261957,2.733876,11.601846,19.198956,31.202298,33.793888,42.967678,46.141402,54.358406,0.0,53.744934,20.478779,57.48222,8.112064,48.018368,-3.722128,25.340755,-14.694849,13.091406,0.0,-11.013575,-38.14737,-35.628364,-33.14182,9.146035,-20.928509,24.198927,-5.455584,27.073254,18.009985,147.872431,-94.306795,-29.642883
92,-7.018593,13.828436,-4.599587,29.324869,0.0,-63.312344,-34.799652,-102.834961,-31.92897,-104.557388,-25.857468,-93.056236,-17.659996,-64.603592,0.0,-7.593571,6.545544,26.484443,21.301558,44.542116,33.904793,52.673608,43.895478,57.446199,0.0,56.151032,24.139675,64.322056,14.429341,55.069931,4.524176,34.577958,-4.760233,21.512118,0.0,-1.040248,-28.748729,-13.298526,-19.985675,21.974115,-5.26057,36.254534,11.730049,40.069728,13.554451,161.041014,-96.343323,-0.977867
93,-5.798698,15.860001,-2.69181,32.898792,0.0,-61.753785,-33.722374,-98.886795,-29.347573,-98.168667,-22.099114,-86.164593,-12.862473,-54.816719,0.0,-0.597164,9.558803,38.139957,22.266013,53.65087,32.702709,58.669424,40.376137,57.067347,0.0,59.994724,24.836323,71.968036,15.947078,63.40147,6.643999,45.378444,-2.011614,30.207144,0.0,3.501995,-19.991656,8.659349,-9.142402,32.98083,5.76662,45.388223,22.5927,49.594012,10.549004,175.905481,-96.241882,30.925391
94,-3.934845,16.177101,-1.190472,32.448087,0.0,-60.039849,-32.391838,-95.094349,-26.964432,-92.961457,-19.116669,-80.372315,-9.440255,-47.624863,0.0,4.739937,12.115382,46.976787,23.296442,60.675671,31.988912,63.638382,37.70868,56.892915,0.0,64.080402,27.883679,74.737061,19.930939,68.504265,11.117964,52.382549,2.760309,37.244402,0.0,6.919597,-9.183506,21.520541,4.324419,42.524245,20.156585,53.820699,36.714748,58.329189,9.609478,191.039988,-94.437035,62.330884
95,-2.487969,16.86363,-0.660335,32.341214,0.0,-58.637558,-31.801735,-92.046238,-24.927452,-88.676983,-15.834114,-75.696247,-5.492958,-42.035763,0.0,5.645902,13.171005,50.246384,23.531526,59.714081,31.26663,60.03506,36.247937,55.180144,0.0,68.78738,30.080921,78.324989,21.955181,73.562404,12.764362,58.974071,3.55117,40.858165,0.0,7.883032,-1.054691,31.959537,13.189443,50.928504,28.538391,61.339685,44.03336,65.303302,9.518755,206.912706,-92.700124,93.681186
96,-3.212436,15.776471,1.947601,33.785768,0.0,-57.450749,-29.530209,-85.761406,-21.92569,-82.776919,-12.633706,-72.013287,-2.595704,-40.026432,0.0,8.330211,12.874707,49.928758,23.088454,57.400311,31.087028,58.205679,36.442499,56.919368,0.0,71.368469,33.15699,79.650032,24.017944,74.741238,13.49453,61.708351,2.793285,43.149204,0.0,5.357046,5.276301,40.294058,20.159206,58.019335,35.005092,66.673186,49.144905,68.71487,7.86077,221.644175,-89.198072,126.421952
97,-3.670304,14.270705,3.042114,29.487866,0.0,-57.529758,-25.654026,-76.565746,-18.002357,-75.372637,-9.504204,-67.820331,-0.82711,-40.065525,0.0,13.225648,11.678257,46.093219,23.090048,54.843771,32.977209,58.173446,39.996977,62.696774,0.0,72.993599,32.026131,81.605759,21.031906,77.239906,9.341721,64.553959,-2.22718,44.287445,0.0,3.413797,9.995613,47.039407,24.510245,63.693648,38.633688,71.760697,51.911015,73.545877,5.608766,235.09644,-84.737658,155.091378
98,1.727165,21.997658,3.509319,27.878755,0.0,-58.242267,-23.651767,-76.771442,-16.618881,-77.546098,-9.090042,-69.155067,-1.936958,-44.270851,0.0,18.477483,11.263491,41.165326,17.526459,39.268032,22.128328,36.796614,24.584507,39.620028,0.0,73.102856,35.132618,82.534092,24.352307,76.127209,12.332314,63.039746,0.135533,44.345684,0.0,4.026843,16.451297,55.191048,32.185426,71.272313,46.774677,81.409483,59.340762,82.474949,8.81155,256.466606,-79.75272,182.342641
99,1.110375,19.60496,2.120648,21.913875,0.0,-59.756556,-23.661816,-76.833412,-17.258898,-77.41004,-10.467098,-68.942579,-4.432755,-47.832567,0.0,23.893864,12.019779,34.56767,13.540482,22.778961,13.00681,14.948058,10.768006,17.904278,0.0,72.673141,34.861004,84.792641,23.993271,78.51638,12.186024,65.042106,0.25264,44.364967,0.0,4.561268,19.934811,58.774252,36.736567,75.277247,51.174011,86.317801,62.510325,86.387887,11.408844,275.499081,-76.145153,203.684031
100,0.478775,16.22723,2.726417,18.457222,0.0,-62.097136,-25.52956,-76.894798,-20.3739,-75.592844,-14.749775,-66.969881,-9.649864,-50.932818,0.0,32.461685,15.095752,29.486464,12.252615,12.342931,6.725484,1.342034,-0.792684,1.097385,0.0,71.109742,34.220044,86.504517,23.543518,80.868805,12.221604,67.337655,1.205349,46.992737,0.0,4.814445,23.173102,61.811434,41.354041,78.751647,56.268384,90.108005,66.954688,90.099249,13.220478,291.171582,-72.085877,221.586524
101,2.923359,6.584032,0.944676,13.653967,0.0,-62.724478,-25.612702,-81.278813,-21.188398,-80.073647,-16.563137,-71.576792,-12.383927,-56.522948,0.0,31.423383,22.335316,25.307672,19.308292,8.129535,12.279718,0.125539,2.492117,2.596624,0.0,70.68211,32.808243,89.276333,22.390732,84.346424,11.797222,69.985027,1.610824,47.796787,0.0,6.027631,25.912301,63.147503,44.218964,80.835378,58.607279,92.594694,68.263661,93.154227,17.299124,297.30537,-69.985914,234.790247
102,5.164741,9.63262,1.328121,11.759378,0.0,-63.006414,-30.87902,-81.139103,-26.818548,-74.885387,-21.800297,-64.145147,-16.820457,-52.290018,0.0,30.137431,24.663405,25.67442,17.523359,4.53466,5.796308,-8.257907,-8.288455,-10.897966,0.0,69.779938,33.023094,90.276627,23.030685,86.756584,12.760574,71.879631,2.919582,49.566971,0.0,7.641083,28.67268,65.008722,47.424095,83.377778,61.497013,95.103206,70.282664,95.714979,23.484913,306.744495,-67.636745,246.35613
103,0.105355,1.31763,0.328537,9.063207,0.0,-61.60187,-36.30914,-66.365742,-31.910654,-55.776512,-26.084164,-46.597681,-19.708809,-40.35026,0.0,30.134146,23.241836,27.729535,17.998307,14.522999,8.774543,5.027682,-2.818282,3.187748,0.0,70.947578,30.943222,91.788551,21.028965,91.407188,11.470802,76.883034,2.461693,52.869679,0.0,7.826853,29.114776,63.581818,47.229111,80.042305,60.393064,91.29628,68.531793,92.473292,24.550032,308.069245,-66.348444,255.426457
104,0.032592,3.535539,2.288509,7.252845,0.0,-59.728317,-40.5004,-50.91275,-36.369941,-37.503902,-30.113731,-29.524074,-22.648063,-29.960472,0.0,30.156653,19.695874,29.115727,15.079228,21.522846,7.290476,14.563266,-2.494853,11.706569,0.0,70.462292,29.743149,92.343029,19.832383,93.220631,10.356022,78.595448,1.266346,53.887677,0.0,7.600229,29.064684,62.902045,46.182751,80.309289,58.749911,91.658138,66.874993,94.076358,25.43851,311.759281,-63.204049,262.833799
105,-0.167976,3.205315,2.607674,6.041105,0.0,-56.016895,-42.210972,-34.306091,-38.515285,-19.948906,-31.982883,-13.350277,-23.802589,-19.569958,0.0,29.964017,15.420511,31.884122,10.628012,28.234919,3.771543,23.371259,-4.43379,17.236455,0.0,69.472309,29.292618,91.465176,19.544163,92.627621,10.110649,77.564266,0.911545,53.412907,0.0,8.040435,29.524169,61.585699,46.178033,79.261816,58.152858,90.579543,65.934929,93.23386,26.165382,315.153468,-59.701527,269.063776
106,-1.572487,9.326832,2.69791,4.440287,0.0,-51.947937,-46.27438,-16.055305,-43.439174,1.54319,-36.597977,8.28447,-27.540207,-8.68499,0.0,36.589009,8.71528,35.999095,-0.433278,29.344747,-10.375959,19.317258,-20.341327,3.003058,0.0,68.744202,28.633427,90.731072,18.995659,92.16845,9.583157,77.079346,0.406037,53.524384,0.0,8.486532,29.459615,60.629197,45.916285,78.017113,57.627991,89.454919,65.305247,92.491632,25.492184,324.618804,-56.104328,273.642567
107,-2.191589,-2.622713,2.147004,2.866652,0.0,-47.931679,-47.242768,-4.618309,-47.36491,9.398987,-42.529381,11.119354,-35.199188,-21.867245,0.0,35.320235,9.002123,39.9642,3.875283,34.62768,-2.644955,27.303007,-8.958577,15.466552,0.0,67.834968,28.160396,89.984321,18.675819,91.180755,9.268226,76.234222,0.085212,53.550704,0.0,9.865171,29.578694,60.057734,46.002414,76.424594,57.511653,87.513338,64.941414,90.779243,24.171959,322.029686,-53.08596,276.542814
108,-4.86541,-5.32496,1.427856,1.824959,0.0,-40.129223,-43.742146,5.057991,-47.005463,15.629127,-44.413845,13.28936,-38.925488,-34.337883,0.0,30.214649,11.815336,41.984451,11.702209,39.327911,9.047077,35.303365,6.011501,28.25847,0.0,66.345222,27.981846,89.591148,18.5075,90.12291,8.912693,74.860062,-0.379898,52.812355,0.0,11.110986,29.443041,59.859935,46.004007,75.737448,57.544863,85.966034,64.876242,88.980936,20.054987,316.668349,-50.909666,278.331396
109,-7.227928,-6.10798,0.718918,0.858837,0.0,-26.755829,-36.696396,16.72261,-42.056614,23.351143,-41.662445,16.846985,-38.063095,-42.675041,0.0,23.597796,14.330245,44.757563,19.46594,45.398977,21.387465,44.776718,22.45114,42.779919,0.0,65.246177,27.494396,89.027389,17.998283,89.123382,8.248501,73.32415,-1.079933,51.549476,0.0,12.959201,29.241883,59.961873,45.950346,75.676847,57.484162,84.980559,64.683742,87.496061,13.447552,310.45668,-49.570255,279.086544
110,-8.208676,-4.218381,0.341915,0.458744,0.0,-15.79343,-28.211002,27.836987,-35.394641,31.424023,-37.188972,21.588261,-35.54599,-47.403442,0.0,19.749881,15.38866,44.915854,24.869855,49.308457,31.071449,52.184483,36.23035,55.277808,0.0,64.391178,26.9893,88.494312,17.443039,88.304981,7.599335,72.430515,-1.736641,50.739063,0.0,14.222528,28.586513,59.835606,45.402546,75.473033,57.065865,84.047312,64.350005,86.572311,5.707414,306.127427,-48.759802,279.434416
111,-0.395027,0.817798,0.160011,0.152264,0.0,-20.397022,-29.293899,27.592198,-36.576519,30.646717,-38.531421,19.70216,-37.31353,-57.146621,0.0,19.189669,14.125579,43.569658,23.193566,47.651533,28.982679,49.575145,33.88749,54.828277,0.0,63.897114,26.656494,88.2346,17.144703,88.032658,7.282208,72.419758,-2.051044,50.816105,0.0,15.346126,28.123706,59.302576,45.048766,75.173161,56.853876,83.462635,64.248883,86.011902,5.673042,306.831493,-48.239136,279.472948
112,-0.727638,7.647875,0.139103,0.01114,0.0,-21.832066,-29.472095,25.983135,-34.94022,32.026714,-35.317543,24.81728,-32.539799,-43.186558,0.0,23.751592,11.566766,39.90177,15.688433,40.872264,17.310839,40.350559,18.302525,39.819037,0.0,63.540756,26.200058,88.232483,16.597996,87.767052,6.678463,72.258362,-2.635071,50.378197,0.0,15.751801,27.750758,59.058897,44.812434,75.162008,56.753741,83.407442,64.191171,85.70021,5.219553,314.358964,-47.825884,279.363684
113,2.384514,4.928152,0.107575,0.039446,0.0,-31.724785,-32.157211,20.189861,-35.480518,28.341808,-34.636459,22.502712,-31.356434,-44.938843,0.0,30.739392,8.88087,35.895008,10.409946,35.208665,10.239404,33.625705,9.87809,34.00736,0.0,63.313957,25.965557,88.08728,16.30529,87.468246,6.324508,71.978645,-3.016743,49.893219,0.0,16.131517,27.523344,58.925392,44.586304,75.257425,56.552065,83.44905,63.962695,85.472487,7.825464,319.169833,-47.496912,279.285847
114,4.161919,5.538851,0.154323,-0.11351,0.0,-43.376771,-37.312283,12.59975,-38.915486,23.889095,-36.337372,20.176219,-31.827187,-45.474701,0.0,36.724341,7.174163,32.044166,4.579757,28.745385,0.907015,25.288795,-2.611276,24.584173,0.0,63.04549,25.709095,87.909863,15.966076,87.108959,5.939964,71.790722,-3.381649,49.558949,0.0,16.490398,27.484578,58.949722,44.629308,75.46876,56.625906,83.715651,63.950184,85.455482,12.199717,324.585943,-47.130255,279.049596
115,7.722896,-2.087349,-0.059555,-0.035407,0.0,-54.467606,-44.792118,3.369553,-45.83725,14.571213,-42.672283,10.355255,-38.016254,-56.877788,0.0,39.663377,7.223267,33.478011,5.428084,29.608668,2.075049,25.685986,-1.165984,26.111965,0.0,63.120632,25.870869,87.820759,16.061337,86.825329,5.987332,71.641262,-3.323765,49.399166,0.0,16.630015,27.51602,58.853021,44.732504,75.497955,56.730103,83.783959,63.981664,85.357952,20.137997,322.386711,-46.974426,278.902306
116,-2.15625,-0.43849,0.092388,-0.165183,0.0,-52.439094,-44.208561,5.669106,-44.998707,17.50708,-41.490726,12.811707,-36.291584,-57.417744,0.0,39.784544,7.922862,33.457757,6.657016,29.657155,3.996129,26.676759,1.442663,28.290655,0.0,62.86409,25.751347,87.514641,15.857621,86.395684,5.736672,71.42585,-3.568142,49.073044,0.0,16.845982,27.684167,59.045732,44.971417,75.598399,56.959679,83.909523,64.099818,85.352346,18.196655,321.841094,-46.66713,278.629996
117,-1.197143,-3.375907,0.011376,0.04057,0.0,-48.067543,-42.199357,8.441139,-44.07145,18.473442,-41.514222,12.155525,-37.149788,-63.398335,0.0,33.675476,8.184931,33.518457,10.524617,32.606404,11.336227,32.536144,12.004811,37.790351,0.0,62.839325,25.697925,87.277221,15.770977,86.19786,5.654171,71.490738,-3.606251,49.268509,0.0,16.968149,27.683006,59.003112,44.942098,75.459201,56.882677,83.823393,63.987321,85.383246,17.20534,318.375537,-46.449926,278.580916
118,-1.382813,-3.662627,0.130474,-0.03311,0.0,-43.067802,-40.676857,10.871292,-43.833916,19.982277,-42.258934,12.544006,-38.603508,-62.946739,0.0,33.010424,10.049867,35.512983,14.232606,35.651045,16.44285,36.42185,18.261882,43.036172,0.0,62.817226,25.412361,86.962887,15.440689,85.937221,5.341129,71.610454,-3.809475,49.553821,0.0,17.089957,27.560444,59.15687,44.892203,75.338503,56.897867,83.684566,64.029755,85.21789,16.003956,314.637492,-46.138023,278.472388
119,-3.338356,-6.071498,-0.070713,0.000531,0.0,-32.295387,-36.452007,16.75145,-41.534431,23.50589,-41.764847,14.285591,-39.425491,-63.747322,0.0,26.397288,11.357642,39.196617,19.864663,41.661398,25.807757,44.620638,31.006203,52.988893,0.0,63.024536,25.420669,86.907326,15.473156,85.869529,5.371387,71.742897,-3.774307,49.892532,0.0,17.018747,27.378416,59.064689,44.714066,75.13411,56.766598,83.431772,63.990692,85.061476,12.849878,308.507371,-46.024458,278.414296
120,-6.026916,0.922959,0.006454,-0.199948,0.0,-20.65614,-30.439351,25.068168,-36.439156,30.695961,-37.608937,20.819847,-35.703805,-57.791794,0.0,17.330166,11.010543,39.018072,19.656848,41.634301,25.904965,45.372189,31.333073,52.543166,0.0,62.968804,25.157559,86.689865,15.231503,85.7024,5.134987,71.891991,-4.000374,50.118462,0.0,17.206184,27.452887,59.083708,44.785314,75.179509,56.845194,83.556915,64.092741,85.222163,6.993268,309.379426,-45.847698,278.163444
