takenoko1/special-research/HandMotion_SimilarSearch_自分用/NewProject/handData/test_key/d4_feature_d3/66.csv
frame,vel_0x_L,vel_0y_L,vel_0x_R,vel_0y_R,posFromWrist_0x_L,posFromWrist_1x_L,posFromWrist_2x_L,posFromWrist_3x_L,posFromWrist_4x_L,posFromWrist_5x_L,posFromWrist_6x_L,posFromWrist_7x_L,posFromWrist_8x_L,posFromWrist_9x_L,posFromWrist_0y_L,posFromWrist_1y_L,posFromWrist_2y_L,posFromWrist_3y_L,posFromWrist_4y_L,posFromWrist_5y_L,posFromWrist_6y_L,posFromWrist_7y_L,posFromWrist_8y_L,posFromWrist_9y_L,posFromWrist_0x_R,posFromWrist_1x_R,posFromWrist_2x_R,posFromWrist_3x_R,posFromWrist_4x_R,posFromWrist_5x_R,posFromWrist_6x_R,posFromWrist_7x_R,posFromWrist_8x_R,posFromWrist_9x_R,posFromWrist_0y_R,posFromWrist_1y_R,posFromWrist_2y_R,posFromWrist_3y_R,posFromWrist_4y_R,posFromWrist_5y_R,posFromWrist_6y_R,posFromWrist_7y_R,posFromWrist_8y_R,posFromWrist_9y_R,posFromBody_0x_L,posFromBody_0y_L,posFromBody_0x_R,posFromBody_0y_R
6,-1.815331,6.480347,0.074604,0.107025,0.0,-45.277622,-39.385414,14.154453,-40.907947,23.560513,-38.408592,19.156483,-33.151554,-22.816498,0.0,41.162183,9.889403,30.916629,11.746213,31.489265,11.909271,29.877752,11.238094,33.848884,0.0,66.925632,21.817932,84.393917,13.080299,83.248592,5.096489,71.42522,-1.596886,51.741863,0.0,16.253808,31.014343,51.574686,48.045884,65.462082,59.409034,78.147432,65.504912,84.991897,6.023106,318.501076,-49.312259,283.66652
7,6.123058,-4.639703,0.093647,0.006991,0.0,-49.972515,-43.52267,9.557534,-46.40847,16.098862,-44.864021,10.53344,-40.485603,-34.473827,0.0,42.353916,10.904196,33.215608,15.064988,35.323199,17.253917,34.830443,18.208381,40.190898,0.0,66.655197,21.824558,84.459823,13.069587,83.186279,5.064594,71.342239,-1.640442,51.767006,0.0,16.295637,31.061395,51.760578,48.12627,65.560412,59.493422,78.118495,65.567081,84.903395,11.835554,313.521446,-49.529222,283.333584
8,-5.600189,1.781153,0.121605,-0.029591,0.0,-48.207573,-40.045109,14.130684,-41.680996,22.22509,-39.039654,16.345024,-33.483742,-28.36282,0.0,41.435404,12.49017,32.343989,15.543765,33.37448,16.547061,32.663721,16.414581,38.251824,0.0,66.413612,21.607052,84.3078,12.808296,83.082847,4.79694,71.271492,-1.883927,51.727615,0.0,16.391585,31.05774,51.794899,48.173089,65.62462,59.56194,78.168587,65.601946,84.973667,6.050217,315.036763,-49.592765,283.038157
9,1.3106,-7.76588,-0.050125,-0.057095,0.0,-47.137779,-39.88211,15.3704,-43.305679,20.548005,-42.320594,12.25161,-38.271995,-39.926536,0.0,41.890924,14.982058,35.291238,22.866314,39.783988,28.212331,41.897741,31.965768,52.228672,0.0,66.389923,21.49617,84.275459,12.69144,83.07637,4.731857,71.387603,-1.839032,51.874076,0.0,16.461055,31.118194,51.850525,48.313325,65.608059,59.745043,78.194732,65.753124,85.070616,7.260595,307.074023,-49.743112,282.784202
10,-5.31649,3.201228,-0.263592,-0.127786,0.0,-45.607212,-36.128013,19.522202,-38.389938,26.940468,-36.396126,18.99202,-31.400127,-33.570923,0.0,39.601564,14.835969,33.770955,21.460183,36.710978,25.505106,38.479831,28.192274,47.359034,0.0,66.572193,21.552772,84.447773,12.708641,83.235592,4.755295,71.640438,-1.754036,52.155201,0.0,16.533809,31.110105,52.035924,48.372506,65.735351,59.835198,78.297164,65.825556,85.172146,1.882032,310.103511,-50.068777,282.484676
11,2.039269,-6.719013,-0.254711,-0.049944,0.0,-44.954327,-36.40622,20.089645,-40.298344,25.154022,-39.749382,14.84008,-36.219853,-47.238568,0.0,39.913799,16.211657,36.295793,27.156732,42.419125,35.085794,46.740381,41.153217,59.928602,0.0,66.654327,21.665439,84.69651,12.781551,83.527679,4.810123,71.923484,-1.662712,52.465301,0.0,16.488583,31.024161,52.204342,48.38477,65.921591,59.887526,78.306303,65.852258,85.147396,3.890064,303.24651,-50.354725,282.296744
12,-5.727928,2.646289,-0.248509,0.043695,0.0,-43.354821,-32.315678,25.030769,-35.321892,32.226333,-34.07729,22.076156,-29.889771,-39.498322,0.0,38.845752,15.738451,35.474315,25.871892,40.198938,33.052489,44.231685,38.43605,55.917296,0.0,66.919659,21.68272,84.952503,12.701672,83.716908,4.691368,72.033932,-1.781742,52.495091,0.0,16.374554,30.762005,52.225967,48.155552,65.913958,59.679871,78.182913,65.657002,85.07789,-1.861759,305.784245,-50.627129,282.231885
13,4.642067,-5.199446,-0.089195,0.150387,0.0,-43.230172,-35.472073,22.554313,-40.422066,27.791725,-40.496979,16.897201,-37.588749,-49.038403,0.0,37.347785,17.071692,37.715991,29.824436,44.846792,39.108845,50.066715,46.181108,62.833971,0.0,67.277286,21.863811,85.207317,12.843269,83.9091,4.773697,72.014683,-1.746906,52.555401,0.0,16.163961,30.484993,52.206046,47.904166,65.981859,59.488754,77.935886,65.570984,84.786131,2.763445,300.513743,-50.733187,282.311216
14,-5.183293,2.308243,0.070003,0.082363,0.0,-40.867161,-32.166332,27.36192,-36.265056,34.039341,-35.594993,23.593151,-31.950657,-38.954361,0.0,36.181184,16.047116,36.262509,28.415143,42.607945,37.592811,47.860015,44.582241,58.716478,0.0,67.660973,21.976536,85.310418,12.859967,83.968667,4.709931,71.829117,-1.905693,52.412934,0.0,15.947006,30.147267,52.218754,47.622263,66.036718,59.260561,77.755847,65.449249,84.557173,-2.436653,302.758503,-50.679989,282.330096
15,4.663925,-5.159704,0.111489,0.088179,0.0,-40.330181,-35.522724,24.828656,-41.342182,29.148548,-41.886097,17.737507,-39.363201,-46.763706,0.0,35.302933,17.716452,38.204375,32.486348,47.22627,43.475933,53.292544,51.777041,66.153352,0.0,67.882644,22.068237,85.421425,12.885132,84.073746,4.680576,71.706802,-2.004605,52.269653,0.0,15.782504,29.938181,52.206071,47.433863,66.056367,59.078324,77.530384,65.320043,84.358806,2.209951,297.55793,-50.585821,282.377406
16,-6.56765,3.344266,0.023449,0.011152,0.0,-39.625946,-31.4095,29.859616,-35.264991,36.755436,-34.337116,26.672917,-30.480892,-35.109134,0.0,35.097798,17.670054,37.411364,30.543372,44.451763,39.961631,49.640502,46.953766,60.179754,0.0,68.187343,22.170204,85.596393,12.942878,84.196415,4.712093,71.678364,-2.013726,52.226474,0.0,15.73629,29.798403,52.232772,47.307967,66.107324,58.961825,77.430126,65.263566,84.224314,-4.382412,300.876094,-50.587085,282.362456
17,5.533127,-3.135155,0.068012,-0.043213,0.0,-39.977325,-35.283989,25.370236,-40.286579,30.704167,-40.113945,20.261204,-37.014003,-45.091495,0.0,32.937053,18.670028,38.292086,32.787419,47.219911,43.056068,52.798245,50.638401,65.375174,0.0,68.430428,22.292084,85.617073,13.05986,84.272942,4.818489,71.659744,-1.942783,52.206184,0.0,15.648024,29.721919,52.200847,47.270706,66.146387,58.937261,77.404636,65.296911,84.185918,1.132576,297.720799,-50.537212,282.299103
18,-6.294136,4.198954,-0.117485,-0.111175,0.0,-39.56456,-31.173465,29.416889,-34.041916,37.270214,-32.424671,28.411549,-28.005226,-31.330021,0.0,34.993613,17.747365,37.281577,29.538211,43.835506,37.959905,48.192813,44.040752,58.208483,0.0,68.539833,22.430248,85.749344,13.189201,84.429428,4.964447,71.875717,-1.777908,52.403343,0.0,15.71049,29.725623,52.27659,47.337038,66.079116,58.994837,77.398757,65.327292,84.173061,-5.178406,301.897822,-50.671543,282.165997
19,5.523571,-2.663085,-0.104679,-0.059849,0.0,-41.26395,-35.01313,24.178757,-38.921276,31.302407,-37.96297,22.115708,-34.188961,-43.211689,0.0,33.127355,18.801025,38.795573,31.473197,46.605988,40.27047,51.212593,46.487143,63.19405,0.0,68.561519,22.691345,85.964275,13.456672,84.541065,5.177788,71.954601,-1.649471,52.475269,0.0,15.761855,29.872219,52.159005,47.456304,66.01129,59.072149,77.448763,65.388734,84.199812,0.325046,299.206922,-50.796341,282.078333
20,-5.711151,3.065439,0.065208,-0.080522,0.0,-38.356006,-30.485287,28.586746,-33.159118,37.235504,-31.492962,28.75866,-27.09462,-29.558212,0.0,33.658964,17.487642,37.657933,28.809766,44.239674,36.805999,48.08013,42.490137,57.870633,0.0,68.534466,22.854836,85.945736,13.601452,84.36446,5.243672,71.768383,-1.705536,52.316288,0.0,15.788654,30.028978,52.11053,47.553893,65.953157,59.129724,77.536794,65.463044,84.261883,-5.405823,302.234527,-50.750851,281.959977
21,7.042191,-4.515215,0.207733,0.032666,0.0,-37.659165,-34.64938,23.099418,-39.70784,29.050644,-39.645172,19.087188,-36.614857,-43.213383,0.0,29.797921,18.624282,38.921939,32.342729,48.275929,42.074434,53.171736,49.094863,65.583099,0.0,68.468663,22.847237,85.73766,13.521183,84.029034,5.092255,71.367909,-1.927196,51.957127,0.0,15.79394,30.052073,51.994106,47.568491,65.876574,59.14515,77.531224,65.496451,84.235812,1.621474,297.681452,-50.558012,281.954783
22,-6.401299,1.788082,0.056488,-0.044189,0.0,-33.602428,-29.786911,28.976807,-33.785763,36.05262,-33.133896,26.63237,-29.469314,-30.922771,0.0,31.798239,17.556087,38.201596,30.864412,46.86524,40.516421,51.43608,47.510372,61.583303,0.0,68.474316,22.972687,85.510014,13.591999,83.673031,5.082253,70.923809,-2.02415,51.757702,0.0,15.85921,30.072006,51.946472,47.623412,65.907796,59.238368,77.603435,65.630734,84.268886,-4.802399,299.426735,-50.524098,281.867795
23,7.31836,-4.402817,0.355248,-0.092823,0.0,-32.125672,-34.236729,23.396392,-40.39515,27.840568,-41.225224,17.200607,-38.925969,-45.033131,0.0,26.84672,18.149459,39.678839,34.178829,51.173122,45.868713,56.928742,54.433038,69.474302,0.0,68.399357,23.289699,85.219265,13.795978,83.193592,5.057259,70.220478,-2.349918,51.125965,0.0,15.944278,30.188047,52.092092,47.731006,66.052304,59.34968,77.74698,65.786641,84.426448,2.491877,294.981851,-50.192934,281.732905
24,-5.237664,0.930171,0.572742,-0.227007,0.0,-21.968376,-28.928341,29.042702,-34.92168,33.534302,-35.823806,22.581757,-33.415249,-36.708263,0.0,24.996258,16.916081,38.600751,33.322733,51.039458,45.383626,56.509494,54.146541,67.090069,0.0,68.235924,23.626889,84.78669,14.106594,82.840004,5.168518,69.623909,-2.58934,50.374833,0.0,16.277285,30.334347,52.550379,47.831993,66.369257,59.446159,77.957623,65.949786,84.674339,-2.769568,295.878232,-49.643973,281.472108
25,1.035336,-5.520079,1.241055,-0.920575,0.0,-10.123867,-26.449677,30.350406,-34.25576,32.7281,-37.63924,18.775875,-37.688919,-47.573445,0.0,17.642179,18.940136,42.758542,37.184937,57.969373,50.132171,64.593339,59.56036,74.745317,0.0,67.712688,23.822044,83.951076,14.312233,82.258861,5.118256,68.554424,-3.138451,48.751934,0.0,16.827506,30.648236,54.501099,47.766858,68.604288,59.150954,79.189902,65.686112,86.058029,-1.783075,290.334555,-48.451761,280.527935
26,-3.991608,-3.619216,3.481773,-2.976987,0.0,4.622463,-19.789753,35.317944,-27.899139,33.430882,-32.704777,13.824864,-33.903992,-45.488514,0.0,19.385665,19.303944,47.202805,37.760624,62.733515,51.002419,68.914682,61.125189,76.922562,0.0,67.169735,24.289376,81.638203,14.235134,78.905995,3.935326,63.007382,-5.798538,40.896584,0.0,18.491655,30.058952,58.109385,46.695365,73.085527,57.996061,82.617284,64.689188,87.083901,-5.85688,286.717213,-45.052185,277.552822
27,6.750366,-5.11102,3.005654,-0.011091,0.0,-0.030349,-23.845539,8.119114,-29.917934,4.90028,-32.955791,-10.034271,-32.502582,-54.192249,0.0,8.235553,22.556054,51.51927,40.977944,68.645623,53.911135,75.843684,63.692685,83.713354,0.0,56.953846,25.580097,69.83329,16.614441,63.452957,6.176159,44.302871,-4.731205,23.955459,0.0,27.89155,28.402016,61.454974,40.263912,74.595227,48.165742,79.739542,52.591282,79.773258,0.835733,281.704873,-42.104284,277.640411
28,-0.715713,-2.68434,7.39365,-14.984206,0.0,-4.596565,-20.659218,-11.514153,-23.919228,-15.881367,-24.808663,-25.801495,-22.288696,-51.230599,0.0,9.129181,24.307741,53.651673,42.029343,72.231927,54.692957,80.406792,64.206288,85.703928,0.0,55.091034,25.995048,66.396847,17.639625,59.91663,7.470646,41.944645,-3.725373,21.789676,0.0,24.626941,24.243273,60.071541,35.002739,71.601541,42.523149,75.221894,47.373656,72.87691,0.080372,279.246759,-34.750282,262.882431
29,6.19915,-4.273116,5.166137,-28.672915,0.0,-19.681629,-23.901627,-38.638241,-24.158272,-43.877461,-22.639984,-48.127316,-18.318409,-57.016457,0.0,11.556071,27.585761,58.149622,44.752067,76.68486,56.952874,86.088522,66.003064,90.662869,0.0,53.896134,29.492032,70.059254,21.570729,63.024296,11.581204,45.650746,0.265915,26.683835,0.0,14.805458,19.149951,57.750714,30.464467,68.939728,39.600984,72.111711,46.599331,69.214147,6.155989,275.508537,-29.707678,234.74441
30,6.507397,-1.142086,2.690072,-37.551908,0.0,-38.829689,-28.822014,-67.310269,-25.721764,-72.686531,-20.449265,-69.259495,-12.71061,-58.311917,0.0,17.511848,28.73874,59.177902,45.581153,77.155361,57.832607,87.060214,66.560052,91.404676,0.0,50.934127,33.080932,74.647121,27.535228,69.017086,19.607952,53.124973,10.024921,36.221889,0.0,0.768873,11.198283,44.775842,23.552083,54.920823,34.379443,59.751144,43.276085,56.994717,12.473637,275.067164,-27.207355,197.893215
31,4.775367,0.466265,-1.152329,-45.225736,0.0,-59.292137,-33.581359,-93.969589,-26.880603,-95.491653,-17.818405,-80.829414,-7.075813,-57.470432,0.0,17.400747,30.0076,58.297353,46.572988,76.41401,58.592224,87.801885,66.412815,91.466229,0.0,46.48922,40.788483,80.427326,38.265587,76.951115,32.450604,65.062603,24.160503,53.053917,0.0,-12.030746,3.608095,24.146011,15.576208,32.232585,26.914714,38.694259,37.211898,40.000651,17.113803,276.270288,-28.494885,153.404338
32,0.279419,-0.232392,-0.699852,-56.605614,0.0,-64.000133,-32.250744,-94.484172,-25.456295,-96.384864,-16.464683,-81.450771,-6.212288,-58.19173,0.0,27.402622,29.733602,58.65064,46.698305,76.38095,59.093008,88.259592,67.011164,91.490621,0.0,48.878769,42.53318,93.075829,42.566071,95.765923,39.599556,89.75837,34.417969,79.028572,0.0,-37.718412,-6.041142,-3.423573,10.303556,7.471478,26.128334,19.266128,40.968496,27.811737,17.162555,276.926734,-29.425404,97.687562
33,0.642838,-0.768657,-6.402557,-43.491859,0.0,-65.168472,-32.674908,-95.852532,-25.609383,-97.197762,-16.615311,-82.276119,-6.739266,-58.860386,0.0,28.668086,30.402248,59.946288,47.800031,76.67335,60.268551,88.538062,68.032084,91.93825,0.0,42.006294,43.643005,97.978111,46.919609,102.86055,47.161583,98.732963,45.231582,89.732391,0.0,-50.411258,-13.828529,-27.653959,2.18941,-16.391579,18.399313,-2.624806,34.354008,11.195627,17.410795,277.489706,-36.222559,55.527332
34,-0.431557,-0.186301,-5.349232,-39.00789,0.0,-65.134998,-32.786339,-95.955597,-25.645534,-97.271461,-16.656074,-82.427513,-6.832809,-59.016346,0.0,28.811372,30.742196,60.177555,48.190874,76.488927,60.595408,88.356392,68.235589,91.883675,0.0,33.854668,45.381718,95.000393,52.089031,102.983494,55.004299,100.835896,55.08086,93.759785,0.0,-57.437652,-23.059746,-59.218293,-8.69962,-48.962803,6.631581,-31.446471,22.487617,-12.566487,16.600033,279.302436,-41.950996,18.518473
35,-0.27697,-0.082819,-4.555904,-29.107051,0.0,-64.64994,-33.07473,-95.862385,-25.941948,-97.115318,-16.979851,-82.370876,-7.153335,-58.933765,0.0,28.631776,30.949133,59.704065,48.337617,76.070024,60.634088,87.962091,68.218138,91.57407,0.0,25.171096,45.55537,93.902046,55.215339,101.492706,60.107757,100.138046,61.318107,94.088333,0.0,-63.003889,-29.947739,-78.405878,-17.087784,-69.234966,-2.785783,-50.004551,12.350268,-27.669804,16.084247,281.347045,-46.745716,-8.46115
36,-0.144401,-0.204085,-2.925465,-20.695125,0.0,-64.178971,-33.374565,-95.741524,-26.236679,-96.953797,-17.251396,-82.268051,-7.387505,-58.773217,0.0,28.474523,31.033336,59.310282,48.387598,75.720738,60.608782,87.586376,68.143172,91.232615,0.0,17.280704,41.859672,92.80164,54.168766,101.192539,61.678493,100.118214,65.326435,94.469685,0.0,-70.678145,-35.773891,-89.274195,-22.907755,-81.116462,-8.827191,-60.981441,5.743615,-36.907116,15.675196,283.385874,-49.935831,-26.913361
37,-0.109406,-0.114449,-2.382877,-12.72852,0.0,-63.777031,-33.490024,-95.360676,-26.392845,-96.612728,-17.440475,-81.921856,-7.583931,-58.468403,0.0,28.279207,31.132965,58.823035,48.522499,75.386324,60.700063,87.157595,68.158487,90.8766,0.0,12.190658,42.945179,94.290023,56.414863,102.403175,64.844627,101.090332,68.94239,94.089637,0.0,-72.655807,-38.408454,-92.103861,-26.109316,-87.193512,-12.809728,-66.460419,0.629798,-41.407128,15.361742,285.390721,-52.522756,-37.522585
38,0.030853,-0.195316,-1.125595,-10.559833,0.0,-63.514629,-33.547119,-95.021736,-26.507194,-96.2112,-17.581855,-81.522754,-7.774612,-58.268211,0.0,28.244675,31.19264,58.30674,48.679183,74.970805,60.883695,86.878137,68.308701,90.575492,0.0,8.89318,44.959751,95.045516,59.234939,103.589241,67.853141,101.800575,71.545097,94.987884,0.0,-74.492486,-40.05309,-93.187837,-27.467948,-89.437602,-13.976323,-67.612508,-1.004297,-41.88796,15.296613,286.931956,-53.744333,-46.345867
39,0.257401,-0.159205,-0.378926,-0.523335,0.0,-63.410568,-33.44854,-94.632603,-26.482876,-95.876827,-17.604836,-81.14035,-7.900749,-58.185036,0.0,28.195102,31.205212,57.653816,48.712714,74.643503,60.914237,86.526653,68.340663,90.200124,0.0,7.618984,43.408173,97.228375,58.268955,105.298611,67.52599,103.594586,71.843548,96.140385,0.0,-75.283867,-38.771737,-85.279974,-26.199267,-82.435611,-13.349482,-62.693754,-1.571344,-38.631175,15.42536,287.587696,-54.251913,-46.054257
40,0.297386,-0.245569,0.062943,0.279785,0.0,-63.541283,-33.127853,-94.528885,-26.219696,-95.745483,-17.426422,-80.940628,-7.890404,-58.150589,0.0,28.183938,31.066348,57.430785,48.69062,74.414001,60.970097,86.415181,68.414059,90.082699,0.0,9.460693,43.689125,97.357212,57.7271,106.34753,66.498882,105.376865,70.610836,97.53844,0.0,-73.213474,-36.785603,-80.026345,-24.543794,-77.643418,-12.167554,-59.246056,-0.846456,-36.64422,15.363212,288.014944,-54.548504,-45.101655
41,0.322838,-0.085339,-1.076111,2.132977,0.0,-63.554787,-32.831532,-94.439369,-26.033569,-95.680687,-17.372887,-80.769539,-8.033112,-58.17873,0.0,28.127844,30.903821,57.021985,48.666537,74.078536,61.042135,86.186248,68.561198,89.807823,0.0,12.622513,43.958118,98.7495,57.24654,108.257847,65.425884,107.066105,69.105846,97.547436,0.0,-70.571249,-34.369267,-75.158051,-22.31634,-72.475131,-10.228246,-54.948259,0.72913,-33.889991,15.204958,288.472891,-56.105707,-42.425392
42,0.477608,-0.257969,-2.52927,3.173897,0.0,-63.532654,-32.740391,-94.54509,-26.046135,-95.90324,-17.433815,-80.934174,-8.127732,-58.433121,0.0,28.16151,30.865092,56.798462,48.644431,73.833424,61.061833,85.990709,68.657702,89.57889,0.0,16.113556,44.628479,100.570472,57.092651,110.395179,64.38517,108.431991,67.291855,97.820778,0.0,-68.449616,-31.534843,-69.676791,-19.464971,-65.859748,-7.714609,-49.658014,2.73156,-30.848938,15.113056,288.627912,-59.204487,-38.838505
43,0.463142,-0.194341,-4.636196,3.483056,0.0,-63.503174,-32.665958,-94.642559,-26.010086,-96.179317,-17.432236,-81.273949,-8.138443,-58.750648,0.0,28.056226,30.793832,56.763869,48.572022,73.694683,61.014224,85.748697,68.668459,89.333655,0.0,19.515552,45.815185,103.207775,57.437839,113.394115,63.736003,111.093509,65.664493,98.648403,0.0,-66.395648,-28.099432,-63.39548,-15.925536,-58.265354,-4.528707,-43.422272,5.429269,-26.807916,15.043871,288.572398,-64.37301,-35.216622
44,0.303635,-0.12886,-6.365056,3.423733,0.0,-63.527733,-32.523102,-94.788277,-25.909539,-96.434738,-17.371697,-81.566975,-8.071038,-58.961872,0.0,27.817967,30.655189,56.86178,48.447002,73.485522,60.918893,85.709448,68.594037,89.154899,0.0,22.128342,47.101937,106.189476,57.886391,116.591034,63.226674,113.139313,64.141755,98.430016,0.0,-63.523297,-24.526707,-56.516218,-12.106687,-50.270899,-0.894553,-36.7771,8.757913,-22.251217,14.918129,288.346776,-71.167443,-31.889651
45,0.310386,-0.010547,-7.972995,3.034533,0.0,-63.55133,-32.694648,-94.986911,-26.085319,-96.662532,-17.505798,-81.838977,-8.141166,-59.218895,0.0,27.520689,30.543606,56.951219,48.323402,73.264023,60.827638,85.505659,68.553874,88.84606,0.0,24.374016,48.01062,109.049457,57.871616,119.722423,62.112842,114.146084,61.809654,94.826603,0.0,-61.08268,-21.204783,-49.649573,-8.107625,-41.781996,3.489275,-29.515505,13.264229,-16.425023,14.967178,287.741933,-79.401775,-29.449414
46,0.227738,-0.043683,-9.320263,3.267875,0.0,-63.59959,-32.765579,-95.06266,-26.152268,-96.86974,-17.499138,-82.169483,-8.016861,-59.594032,0.0,27.305971,30.522303,57.067125,48.24251,73.220082,60.743164,85.437673,68.485851,88.709642,0.0,26.462711,48.705013,111.791107,57.762268,122.582886,61.221428,116.006012,60.145614,94.014976,0.0,-59.889656,-18.699772,-44.045778,-5.201737,-35.60543,6.717148,-24.193422,16.845395,-12.379476,14.970354,286.705625,-88.9466,-27.174164
47,0.17688,0.031419,-10.366871,3.168827,0.0,-63.601067,-32.927113,-95.238785,-26.236267,-96.888737,-17.477761,-82.319973,-7.891251,-59.782139,0.0,27.007358,30.431072,57.154218,48.109425,73.255094,60.615131,85.340823,68.420864,88.468457,0.0,28.064094,49.089134,114.438801,57.7771,125.074436,60.810631,117.556904,59.278141,92.920223,0.0,-58.654388,-16.463277,-39.243813,-2.677862,-31.394662,9.496553,-20.529486,19.899694,-9.765259,14.777767,285.413276,-99.682938,-25.329105
48,0.048111,0.121648,-10.808693,2.591622,0.0,-63.523018,-32.815075,-95.254269,-26.093811,-96.803753,-17.262017,-82.265568,-7.572213,-59.750817,0.0,26.76663,30.342955,57.215672,47.960026,73.294281,60.446935,85.275566,68.305997,88.324887,0.0,29.139404,48.930656,116.608463,57.812405,127.904308,60.95327,119.75655,59.521374,94.306503,0.0,-57.828822,-15.198808,-36.108967,-0.911498,-28.138755,11.661133,-17.886686,22.399523,-8.407874,14.111235,283.763912,-111.206274,-24.508495
49,-0.058113,0.060997,-10.439026,1.925964,0.0,-63.441559,-32.829541,-95.285557,-26.012902,-96.635617,-17.040345,-82.098244,-7.213715,-59.532189,0.0,26.549763,30.289553,57.276644,47.872773,73.437172,60.34422,85.368636,68.236058,88.251232,0.0,29.269466,48.139721,116.969193,57.339752,129.147709,60.629494,119.959694,59.394962,93.705883,0.0,-58.966357,-14.891111,-34.763067,0.01881,-25.394776,13.030788,-16.166399,24.039041,-7.468403,13.165707,281.669255,-122.532715,-24.738185
50,-0.074547,0.150066,-9.073448,1.046868,0.0,-63.371601,-32.784909,-95.187573,-25.955063,-96.423031,-16.942841,-82.062435,-7.054779,-59.418789,0.0,26.372403,30.274745,57.173645,47.803896,73.486127,60.217248,85.444688,68.08083,88.175637,0.0,29.162693,47.598461,117.264084,56.98249,130.372456,60.558151,121.440159,59.798469,96.677524,0.0,-60.349277,-14.803414,-33.97086,0.404977,-24.046506,13.45203,-15.385653,24.43486,-7.701629,12.137095,279.87765,-132.560228,-25.632988
51,-0.186402,0.171778,-6.958042,0.2208,0.0,-63.27404,-32.739669,-95.160736,-25.923042,-96.273685,-16.920021,-81.902069,-7.020721,-59.10522,0.0,26.260128,30.339175,57.277533,47.848591,73.540492,60.203107,85.588689,68.002579,88.156308,0.0,28.789776,46.916542,116.951488,56.566978,131.22805,60.405727,122.478756,59.989528,98.417782,0.0,-61.587489,-15.160337,-34.029997,0.460325,-23.113796,13.71087,-14.819462,24.669049,-7.863204,11.096649,278.309286,-140.372314,-27.15233
52,-0.286628,0.262365,-5.240227,-0.842553,0.0,-63.135945,-32.594605,-94.927494,-25.86644,-96.084195,-16.944168,-81.716996,-7.111107,-58.853039,0.0,26.154658,30.36101,57.360945,47.837822,73.509296,60.143678,85.632433,67.920093,88.080639,0.0,28.382298,46.744526,116.275909,56.592293,131.877354,60.63311,123.388035,60.484669,101.254646,0.0,-62.970007,-15.717474,-34.670893,0.271998,-22.635472,13.753984,-14.363794,24.829767,-7.58179,10.216244,276.984085,-146.206318,-29.582449
53,-0.4609,0.392115,-3.242409,-1.461564,0.0,-63.105583,-32.535438,-94.620826,-25.808326,-95.666267,-16.958519,-81.299217,-7.181625,-58.448078,0.0,26.201824,30.496083,57.414039,48.03031,73.728411,60.289101,85.881571,67.931369,88.193334,0.0,27.433857,46.831993,115.299877,56.570309,131.082848,60.566345,121.948368,60.416977,99.990212,0.0,-64.680457,-16.515426,-35.1409,-0.207914,-22.754157,13.596835,-14.328325,24.892288,-7.330781,9.606342,276.382818,-149.597729,-32.037395
54,-0.408302,0.57518,-2.076851,-2.078637,0.0,-63.026951,-32.344448,-94.175114,-25.704941,-95.340855,-17.001183,-81.085373,-7.35379,-58.431107,0.0,26.270787,30.572592,57.499563,48.021554,73.629919,60.216878,85.722762,67.824454,88.190889,0.0,26.708554,47.273575,115.325982,56.952107,131.298397,61.045796,122.756447,61.05708,101.675126,0.0,-65.661695,-17.255164,-35.704168,-0.878572,-24.108182,13.146669,-14.759416,24.737419,-7.198177,9.339369,276.518712,-151.533251,-34.555318
55,-0.484314,0.499771,-1.601612,-2.507795,0.0,-62.727894,-32.147552,-93.662716,-25.548637,-94.971806,-16.912674,-80.702064,-7.301193,-58.194042,0.0,26.436858,30.649335,57.661436,48.033472,73.699697,60.157523,85.620515,67.729149,88.210772,0.0,26.045723,47.599217,115.094273,57.389042,131.348477,61.667862,123.229317,61.884991,103.558754,0.0,-66.49616,-18.067979,-36.685654,-1.73313,-25.787342,12.495227,-15.771321,24.441054,-6.985985,9.121284,276.738627,-152.868634,-37.342969
56,-0.407799,0.463239,-1.578987,-3.11931,0.0,-62.599296,-31.920685,-93.113685,-25.291168,-94.433635,-16.660537,-80.268551,-7.043976,-57.8489,0.0,26.598607,30.662612,57.662893,47.989901,73.699796,60.086881,85.501449,67.639833,88.502111,0.0,25.316689,47.796501,114.694107,57.608322,130.9636,62.02018,122.981014,62.446198,104.477085,0.0,-67.148651,-18.668977,-37.693859,-2.355253,-27.382034,12.112097,-16.736436,24.490133,-6.37389,9.1497,277.244122,-154.011406,-40.420023
57,-0.307617,0.398871,-1.458034,-3.083599,0.0,-62.514793,-31.763283,-92.850552,-25.061256,-94.049457,-16.410759,-79.995586,-6.802574,-57.639954,0.0,26.661988,30.729475,57.752159,48.067052,73.805105,60.159153,85.583132,67.640067,88.784483,0.0,24.987178,47.409393,114.648056,57.333011,130.898929,61.999958,123.203395,62.759205,105.221569,0.0,-67.835718,-19.324507,-38.850148,-2.999483,-28.821968,11.662096,-17.9334,24.347743,-6.481021,9.436003,278.061568,-154.87552,-43.085047
58,-0.183403,0.188931,-1.510758,-3.062641,0.0,-62.259396,-31.606979,-92.684166,-24.883461,-93.936413,-16.178123,-79.947246,-6.524597,-57.54919,0.0,26.537067,30.740628,57.823234,48.022962,73.628265,60.139122,85.545193,67.667769,88.992558,0.0,25.138527,47.559162,114.996689,57.574276,131.218209,62.445019,124.3144,63.456906,107.055977,0.0,-68.133769,-19.728874,-39.779394,-3.507418,-30.266051,11.22799,-18.847961,24.051933,-6.411336,9.789099,278.668173,-155.849779,-45.730014
59,-0.155868,0.03321,-1.160774,-2.686279,0.0,-62.199246,-31.606041,-92.72921,-24.819787,-93.901772,-16.041504,-79.863911,-6.314896,-57.398118,0.0,26.572931,30.91086,57.959999,48.277287,73.693164,60.428088,85.85345,67.897591,89.333024,0.0,25.396248,47.543026,115.025127,57.53064,131.376549,62.510605,125.076427,63.672913,108.118263,0.0,-68.733575,-20.30201,-40.651828,-4.217986,-31.34388,10.597976,-19.485083,23.624411,-6.321155,10.150561,279.195127,-156.493223,-47.922549
60,-0.10936,0.073829,-1.038025,-2.376743,0.0,-62.323002,-31.482948,-92.97258,-24.617935,-93.994538,-15.760712,-79.73172,-5.982765,-57.190201,0.0,26.611426,31.065829,57.968952,48.544592,73.858766,60.756946,86.407104,68.176913,89.749814,0.0,25.661121,47.616154,115.426884,57.566872,131.500156,62.628697,126.002941,63.877602,108.617558,0.0,-68.91956,-20.65395,-41.071181,-4.611514,-31.970751,10.309417,-19.864854,23.512841,-6.718105,10.519312,279.866956,-157.053137,-49.701292
61,0.07608,-0.062084,-0.552658,-2.006264,0.0,-62.406601,-31.591438,-93.386547,-24.680282,-94.325283,-15.758674,-79.845463,-5.950767,-57.367138,0.0,26.379553,31.19406,57.945425,48.763843,74.111016,61.052533,86.967279,68.509735,89.99547,0.0,25.61784,47.592064,115.315578,57.566059,131.285568,62.721279,126.385471,64.025631,108.689816,0.0,-68.883542,-20.852281,-41.313348,-4.862716,-32.392321,10.093765,-20.023837,23.382818,-6.733025,10.916015,280.441793,-157.285172,-51.070635
62,-0.039207,-0.018303,-0.270287,-1.432561,0.0,-62.406578,-31.620404,-93.64111,-24.680832,-94.517155,-15.715119,-79.682854,-5.864434,-57.17109,0.0,26.300847,31.140424,57.806808,48.785209,74.295292,61.161301,87.476128,68.679216,90.233382,0.0,25.307167,47.759297,115.096562,57.633465,130.907227,62.763531,126.470845,64.030941,108.372975,0.0,-68.878577,-21.235336,-41.476837,-5.355545,-32.820072,9.664323,-20.180386,23.124054,-6.773266,11.024443,280.98792,-157.407824,-51.938766
63,-0.016274,0.046461,0.101075,-0.810832,0.0,-62.547626,-31.667564,-93.942718,-24.721527,-94.863968,-15.726723,-79.760067,-5.821335,-57.168995,0.0,26.286916,30.992087,57.745947,48.65021,74.485866,61.062648,87.899377,68.592815,90.460019,0.0,25.020172,47.474796,114.887249,57.287956,130.282276,62.413078,126.250843,63.670383,107.850288,0.0,-68.864195,-21.610279,-41.800181,-5.776702,-33.242846,9.308936,-20.465852,22.920839,-6.695653,11.095184,281.584086,-157.219734,-52.199893
64,0.036141,0.016957,0.133564,-0.411103,0.0,-62.620869,-31.74012,-94.178067,-24.817795,-95.193352,-15.827523,-79.927174,-5.923531,-57.282303,0.0,26.075482,30.785618,57.635105,48.498514,74.707093,60.999465,88.195692,68.606004,90.619334,0.0,24.839561,47.231689,114.817497,57.040981,129.868686,62.224182,126.29599,63.551113,107.726188,0.0,-68.640622,-21.76602,-41.988076,-5.98309,-33.65048,9.138937,-20.808172,22.834722,-6.820055,11.111046,282.104393,-157.106449,-52.107646
65,0.040168,0.00757,0.287979,0.023724,0.0,-62.696983,-31.822185,-94.323326,-24.94622,-95.415607,-16.001678,-80.21656,-6.11753,-57.577503,0.0,25.771102,30.547311,57.621372,48.223799,74.737981,60.772817,88.239116,68.457952,90.688631,0.0,24.642391,46.998241,114.480606,56.73452,129.314438,61.90583,125.82288,63.245064,107.62801,0.0,-68.366968,-22.079712,-42.392633,-6.387475,-33.993478,8.818941,-21.046491,22.690634,-6.417041,11.121088,282.46482,-156.848596,-51.731065
66,-0.016616,0.128972,0.100273,1.030084,0.0,-62.698666,-31.838826,-94.391121,-25.032784,-95.649136,-16.135643,-80.518925,-6.220093,-57.785695,0.0,25.607711,30.390515,57.793236,48.051911,74.79179,60.587763,88.230187,68.254595,90.727818,0.0,24.774628,47.000828,114.518532,56.767525,129.218399,62.029896,125.920967,63.470982,107.953537,0.0,-68.531052,-22.448498,-43.451283,-6.913391,-34.946819,8.170085,-22.124259,21.937803,-7.590614,11.04839,282.765575,-156.804405,-50.529198
67,-0.074936,0.271615,0.414642,1.959322,0.0,-62.717068,-31.892201,-94.395733,-25.150315,-95.884083,-16.285469,-80.861126,-6.328423,-58.064129,0.0,25.212632,30.117875,57.808785,47.715952,74.74328,60.232896,88.044405,67.917883,90.677418,0.0,25.054894,46.828423,114.126423,56.529866,128.353146,61.8032,125.560089,63.251061,107.937287,0.0,-68.412992,-22.446609,-44.900565,-7.075653,-36.699394,7.845149,-23.607152,21.384278,-8.709772,10.925789,283.061761,-156.437428,-48.545305
68,-0.194847,0.08135,0.716881,3.805258,0.0,-62.701996,-31.951859,-94.292256,-25.245175,-95.694947,-16.351159,-80.701928,-6.298554,-57.953637,0.0,25.001359,30.093051,57.919232,47.682569,74.956775,60.190733,88.051321,67.882735,90.6871,0.0,25.413963,46.842442,112.747582,56.389938,126.501617,61.582146,124.062744,62.978783,107.348911,0.0,-68.367037,-22.473612,-46.79119,-7.44053,-38.463653,7.241069,-25.038687,20.596812,-10.005883,10.834208,283.128461,-155.617281,-44.754697
69,-0.348565,0.116486,1.79147,5.992161,0.0,-62.550556,-31.930446,-94.058681,-25.25806,-95.509334,-16.358619,-80.485347,-6.229774,-57.811477,0.0,24.77329,29.992805,57.963741,47.539728,75.000161,60.039901,88.010034,67.776092,90.733709,0.0,25.738163,46.904239,111.1455,55.971908,124.427021,60.961177,122.820087,62.272235,106.540741,0.0,-67.884686,-22.029423,-47.473847,-7.294286,-39.335643,7.017372,-25.374535,20.10108,-10.582249,10.777153,283.214547,-153.534301,-38.792936
70,-0.482093,0.085735,3.135097,8.947919,0.0,-62.488198,-31.944626,-93.766606,-25.246891,-95.173954,-16.282654,-80.115429,-6.03843,-57.493927,0.0,24.677354,29.918717,57.977338,47.498021,75.107001,60.029502,88.103512,67.791319,91.036076,0.0,26.965908,46.32217,108.449959,54.677902,121.368702,59.470047,120.876091,60.880612,105.115196,0.0,-67.17442,-21.114621,-47.459014,-6.903308,-39.35896,6.817344,-25.343889,19.511919,-11.157652,10.860867,283.127591,-149.833397,-30.017708
71,-0.600541,0.122019,5.152371,11.486126,0.0,-62.396793,-31.971439,-93.480308,-25.232311,-94.752342,-16.211265,-79.670425,-5.891532,-56.943363,0.0,24.556064,29.820261,57.863149,47.374175,75.160958,59.927453,88.307621,67.705263,91.243816,0.0,28.821544,45.338504,106.151069,51.76474,118.430065,55.098484,117.675144,55.357692,101.005416,0.0,-64.953733,-18.473556,-45.766343,-4.801743,-37.504644,8.45034,-23.061902,20.680577,-8.108181,11.109998,282.945782,-143.831354,-18.83541
72,-0.689804,-0.096702,5.973066,17.680023,0.0,-62.297905,-32.005474,-93.197101,-25.182861,-94.165386,-16.066635,-79.16431,-5.604515,-56.350559,0.0,24.710021,30.058384,57.916391,47.582126,75.263181,60.10038,88.674321,67.812413,91.683109,0.0,32.612131,45.021761,105.358675,50.136698,116.499023,52.358654,115.153404,51.7141,98.67758,0.0,-62.575518,-15.75953,-43.200691,-1.916332,-34.394384,11.362245,-19.795064,23.464604,-4.600431,11.881811,282.358708,-136.396671,-1.645759
73,-0.485,-0.097022,6.772133,22.869814,0.0,-62.350376,-32.089474,-93.129948,-25.243801,-93.822487,-16.125458,-78.964749,-5.629944,-56.110874,0.0,25.059305,30.24203,58.050908,47.819087,75.355609,60.360484,89.147934,68.068208,92.336601,0.0,38.28103,45.12414,106.428331,49.448061,115.865089,50.846122,113.598873,49.485237,97.997595,0.0,-59.900267,-12.819944,-39.58792,1.995557,-30.500106,15.87354,-15.918151,28.148503,-0.537543,13.010582,281.701918,-128.010767,20.664287
74,-0.460648,-0.016821,7.464672,24.774297,0.0,-62.348636,-32.167671,-93.033439,-25.293011,-93.367721,-16.159881,-78.725063,-5.61985,-55.610195,0.0,25.326388,30.168238,58.045227,47.7521,75.423213,60.344973,89.548916,68.109766,92.770423,0.0,44.569445,44.395929,106.533171,47.772772,115.261196,48.42184,112.230915,46.660068,97.027056,0.0,-55.332652,-8.051844,-33.788613,6.800856,-24.04399,20.345985,-10.350623,31.92165,3.815279,14.033232,281.037866,-119.062797,44.791353
75,-0.38697,-0.170085,7.947727,29.699367,0.0,-62.164376,-32.216389,-92.931588,-25.358288,-93.004292,-16.23674,-78.52422,-5.667092,-55.160717,0.0,25.433945,30.159877,58.112461,47.714679,75.457707,60.331622,89.847936,68.14605,93.088672,0.0,51.177332,44.771982,107.394751,47.594175,114.742172,47.277878,109.858372,44.428139,95.277495,0.0,-47.671606,-2.205877,-27.755672,13.818612,-17.637076,27.608581,-3.479581,38.510357,10.967805,14.895527,280.345497,-109.865805,73.968436
76,-0.142731,-0.086055,7.300392,31.550576,0.0,-62.170612,-32.333599,-92.953045,-25.389587,-92.598564,-16.226532,-78.30748,-5.63253,-54.892319,0.0,25.433438,29.993039,58.05024,47.548533,75.466845,60.1779,89.970029,68.033034,93.363004,0.0,57.428416,45.018522,108.561018,47.630408,114.194264,47.318928,109.326371,44.813542,97.040114,0.0,-40.646872,3.157098,-20.145235,19.285006,-9.629739,32.372761,4.337534,42.129728,16.360555,15.767532,279.779767,-101.550677,105.039337
77,-0.007919,-0.064814,7.86604,31.657568,0.0,-62.169011,-32.153504,-92.868027,-25.146584,-92.249817,-15.997467,-78.139161,-5.494996,-54.731816,0.0,25.071001,29.725414,57.973918,47.276005,75.594175,59.948091,90.065533,67.882747,93.693283,0.0,61.35823,43.785169,107.539907,45.657199,112.057256,45.005596,106.28663,42.461746,94.64689,0.0,-29.824763,9.717156,-8.663688,24.919404,1.963916,36.229838,14.545124,44.027272,23.012174,16.173409,279.447367,-93.270841,136.429319
78,-0.877854,2.24737,8.431686,31.76456,0.0,-59.429706,-31.141193,-91.782955,-24.52502,-91.407978,-15.554535,-77.513511,-5.06797,-53.819446,0.0,23.279757,27.705693,55.585633,44.401078,73.092962,56.836067,86.981988,64.946835,90.735857,0.0,62.966778,41.071924,104.331419,41.674553,108.331152,40.337883,100.739153,37.372753,88.097826,0.0,-15.205279,17.474299,6.688972,30.721806,17.143891,39.179809,27.14319,44.202989,30.922661,15.432174,281.464137,-84.702536,167.963279
79,-1.313598,1.895095,6.297317,28.082186,0.0,-57.606606,-30.214611,-90.253235,-23.815922,-89.821026,-14.934128,-75.459618,-4.298356,-52.079499,0.0,22.459576,26.777152,52.565199,42.717157,70.575534,54.661403,83.541947,62.396013,87.988286,0.0,63.723187,38.771216,103.261717,37.705353,106.005232,35.23169,96.483782,31.4767,82.211581,0.0,-3.098741,23.110258,20.94992,37.107551,31.901325,45.743334,43.419493,50.574297,45.977603,14.209288,283.205075,-78.314507,195.891308
80,0.456756,1.910434,3.893292,23.373815,0.0,-57.49427,-27.81348,-85.923363,-22.765743,-88.649769,-15.235084,-76.673595,-5.740425,-53.395019,0.0,16.531005,24.902311,43.405439,40.676417,63.198731,52.495038,77.955684,60.005333,85.487999,0.0,64.300426,35.338812,101.990587,32.215816,103.651148,28.714634,92.849859,24.748009,76.615854,0.0,5.817624,27.90477,35.046786,41.656494,46.032413,49.858308,57.602328,54.169345,58.461338,14.753185,284.930924,-74.334074,219.080538
81,0.089195,0.317731,2.633125,20.497988,0.0,-55.416343,-25.854549,-77.651081,-21.995842,-84.914531,-15.800994,-76.532123,-7.35585,-55.728675,0.0,13.750841,25.196848,38.61704,40.778366,57.51831,52.52742,73.787321,60.097909,84.611662,0.0,64.082794,32.414606,99.315737,27.791748,99.967226,23.105049,87.511877,18.185955,68.126055,0.0,14.885856,31.868949,46.996429,46.28076,57.962024,54.702812,69.063488,58.913134,69.475129,14.928468,285.099278,-71.614861,239.429149
82,0.141266,2.260324,0.952612,14.777163,0.0,-51.223125,-27.181835,-60.358886,-25.015171,-66.295646,-20.203365,-62.806503,-12.951004,-52.198333,0.0,14.81779,24.402812,36.489974,38.844739,53.275082,49.831879,67.695791,57.168445,78.92335,0.0,64.275124,29.911755,97.822575,23.72295,98.067433,17.950882,84.598057,12.430641,61.977001,0.0,20.121125,34.788219,55.455983,50.257907,67.190772,59.41863,78.591997,63.976638,79.831847,15.172067,287.181585,-70.559916,254.028295
83,1.000157,2.080711,-0.810676,8.342271,0.0,-51.684912,-29.846335,-45.111958,-28.644745,-49.314217,-24.765753,-49.981682,-18.625809,-52.58856,0.0,18.971215,24.38157,35.512582,37.088088,49.529456,46.31137,61.667426,52.159925,73.599205,0.0,64.875469,28.630336,97.542903,20.835021,97.541233,14.004718,84.216877,8.054283,59.540714,0.0,21.242722,35.945779,58.899371,53.014075,71.764106,63.690141,84.75149,69.2613,87.761995,16.27933,289.106774,-71.263486,262.215044
84,1.584915,4.368595,-0.056775,8.530535,0.0,-53.433317,-32.988493,-31.617531,-32.681832,-34.206757,-29.542265,-38.967487,-24.491936,-57.07152,0.0,24.309649,22.625857,34.356923,32.151056,43.973845,38.562706,53.20957,42.242648,65.595672,0.0,65.7277,27.840924,96.53048,19.390652,95.970017,12.075611,82.41433,5.879929,57.819168,0.0,22.296543,36.973529,59.667028,53.941295,72.549917,64.199236,83.491979,69.08856,86.685649,18.024067,293.326434,-71.160439,270.596644
85,0.710998,0.122982,0.776757,5.401346,0.0,-49.38434,-37.022947,-20.113666,-36.411461,-17.659721,-32.944021,-24.406871,-27.791027,-51.876863,0.0,29.68501,22.228926,40.909901,31.608542,47.733865,38.236713,53.437145,42.54315,63.267607,0.0,65.777687,27.868892,96.281044,19.006897,95.5681,11.228141,81.894539,4.624752,57.209816,0.0,22.836105,37.297829,59.766495,54.290765,73.393415,64.352735,83.22802,68.895441,85.669039,18.887998,293.368995,-70.230749,275.917569
86,0.657063,5.934894,1.343158,3.361791,0.0,-50.631443,-42.153379,-11.959396,-41.458202,-2.860107,-37.426088,-9.363819,-31.842728,-48.16571,0.0,33.489113,18.517028,41.944362,25.11175,46.263915,29.367316,47.094581,31.825681,52.157065,0.0,65.855839,27.521553,96.310696,18.400692,95.668087,10.460003,81.782399,3.844689,57.842068,0.0,22.800969,37.05436,58.894592,54.289234,73.434381,64.508433,83.29996,69.096711,85.573771,19.654947,299.244337,-68.777705,279.219808
87,0.435036,8.36129,1.755501,2.157473,0.0,-57.519368,-45.977881,-12.470947,-44.695576,-2.208962,-39.738036,-6.156567,-33.110379,-52.929943,0.0,35.081002,14.640572,38.93918,16.747273,39.629105,16.753535,37.409708,15.427784,38.448079,0.0,65.698883,27.572045,96.289478,18.265812,95.230511,10.122105,81.313557,3.377049,58.709027,0.0,22.414029,36.282702,57.448977,53.752511,72.335828,64.2362,82.408951,69.0008,84.449617,20.170779,307.573856,-66.941408,281.34551
88,0.831676,7.160238,2.193192,1.570721,0.0,-59.610437,-48.240394,-12.59452,-46.502655,-0.656055,-40.922561,-2.467209,-33.32666,-46.56193,0.0,34.459058,10.706132,36.69551,9.503493,35.128173,6.545593,30.471327,2.401603,26.798456,0.0,65.257839,27.334728,95.81258,17.876095,94.583255,9.536705,80.554378,2.656563,58.493854,0.0,22.141351,35.786982,56.797485,53.342426,71.906206,63.924026,82.005807,68.718365,84.072346,21.056162,314.696241,-64.694509,282.878378
89,1.067528,0.583183,2.019367,0.779735,0.0,-56.032408,-48.501,-10.294739,-47.166504,1.724064,-41.908402,0.32206,-34.282162,-38.026537,0.0,32.117791,9.554326,37.227527,9.337471,36.463563,7.490041,32.265128,4.349767,26.9133,0.0,64.762871,26.736179,94.509155,17.108047,93.337349,8.548794,79.438591,1.42099,57.343872,0.0,22.559537,35.449157,56.825075,53.050729,72.296345,63.73097,82.943215,68.591801,85.030799,22.109459,315.179274,-62.689373,283.557963
90,-0.28759,6.044723,1.813442,0.626136,0.0,-58.950148,-50.331139,-8.37735,-49.368456,3.583637,-44.077463,3.371612,-36.197783,-40.020762,0.0,35.490926,7.469281,35.863411,3.977844,32.196776,-0.743938,26.035283,-6.187434,19.566026,0.0,64.044537,25.723457,92.940296,15.953453,91.838848,7.359947,78.143978,0.25264,56.250046,0.0,23.061556,34.973927,56.861978,52.64855,72.251058,63.465258,83.118574,68.456927,85.404365,21.759876,321.052841,-60.937924,284.012943
91,-0.650929,2.828626,1.046986,0.323091,0.0,-60.746578,-51.383411,-6.445221,-50.700296,5.236656,-45.497217,5.261216,-37.656526,-43.26083,0.0,38.092959,6.14926,35.480947,1.430028,30.352359,-4.185881,23.539609,-10.072752,17.997503,0.0,63.738441,25.236534,91.833389,15.401138,90.728096,6.797653,77.241165,-0.246723,55.641552,0.0,23.441234,34.746574,57.517977,52.495223,72.33941,63.394665,83.172272,68.450455,85.55527,21.022356,323.662129,-59.977529,284.116696
92,0.390587,0.778697,0.738029,0.020168,0.0,-56.711586,-49.329403,-6.875038,-48.998354,5.016815,-44.407247,4.993721,-37.208204,-35.773716,0.0,37.663386,5.546342,35.433461,1.043545,30.841954,-4.168628,24.006801,-9.883277,17.94856,0.0,63.504776,24.848465,90.667374,15.022728,89.695862,6.40194,76.442528,-0.681907,54.96357,0.0,24.021033,34.5693,57.839116,52.239823,72.442817,63.127619,83.25277,68.220867,85.891402,21.295601,324.186436,-59.356842,283.882474
93,-0.315662,-0.220683,0.358933,-0.226896,0.0,-57.283093,-49.339794,-6.440106,-49.034466,5.008758,-44.53208,5.080902,-37.599163,-37.214133,0.0,37.712539,5.73607,35.677511,1.359596,31.06134,-3.799874,24.317115,-9.334236,18.201767,0.0,63.46225,24.547416,89.809204,14.755726,88.908279,6.154529,75.710197,-0.93853,54.414596,0.0,24.525448,34.533152,57.962012,52.095587,72.416993,62.940873,83.176212,68.088239,86.23739,20.855078,323.675291,-59.12277,283.365116
94,-0.861122,4.155938,0.112209,-0.294994,0.0,-63.333344,-51.854508,-7.175801,-50.521569,5.287033,-44.94298,6.904953,-37.038815,-38.617213,0.0,37.745909,3.877827,34.198922,-3.578881,27.308077,-11.826167,18.484863,-20.028258,9.052024,0.0,63.358326,24.752552,89.653851,14.893169,88.373737,6.162689,74.865612,-1.077038,53.696571,0.0,24.715812,34.369106,58.111793,51.835803,72.412361,62.63222,82.900298,67.827233,86.3127,19.863739,327.556718,-59.140778,282.795611
95,0.2509,4.173587,0.154163,-0.470822,0.0,-65.415161,-51.415043,-9.722385,-49.510809,3.671425,-43.473358,6.345795,-35.095808,-34.019171,0.0,36.134452,1.576581,31.488672,-8.60881,23.368542,-19.531525,12.57018,-30.491384,-0.481424,0.0,63.380654,25.016751,89.467118,15.052437,87.813996,6.12426,73.985527,-1.380615,52.820195,0.0,25.021353,34.395424,58.242445,51.726047,72.543569,62.419514,82.793618,67.58727,86.411031,19.991564,331.492094,-59.10969,282.086578
96,1.723732,-0.5406,0.270939,-0.408998,0.0,-61.824429,-49.683998,-12.420879,-47.88608,0.722626,-42.192661,3.71711,-33.9102,-27.14633,0.0,35.216013,1.422736,31.050874,-8.988452,23.936547,-20.084315,12.894727,-31.509339,-1.190332,0.0,63.466313,25.100224,89.429386,15.011788,87.47192,5.918473,73.373555,-1.778137,52.051163,0.0,25.303689,34.364759,58.202036,51.597817,72.53958,62.236005,82.6489,67.338009,86.198771,21.60529,330.725002,-58.948757,281.451088
97,0.011707,-3.599326,0.397843,-0.526583,0.0,-61.772919,-50.058591,-12.012039,-48.096525,0.139137,-42.250242,2.424614,-33.779548,-31.786096,0.0,36.478197,2.851183,32.025035,-5.942008,26.200137,-15.495297,16.351348,-25.335991,5.748074,0.0,63.486042,25.054813,89.127674,14.733856,86.9454,5.512378,72.811786,-2.250378,51.439533,0.0,25.62279,34.270738,58.293105,51.577699,72.412596,62.254493,82.615456,67.285583,86.066897,21.513244,326.894498,-58.654667,280.693327
98,-0.599796,-4.189877,0.394409,-0.395622,0.0,-61.039181,-50.082899,-10.481976,-48.1745,0.857071,-42.384848,1.699242,-34.070383,-38.783798,0.0,37.989848,5.453908,33.283608,-0.837842,28.979018,-8.093071,20.932544,-15.740229,14.834765,0.0,63.470501,24.962803,88.929142,14.556278,86.545818,5.302368,72.56702,-2.453774,51.171467,0.0,25.824812,34.030874,58.286201,51.401709,72.276807,62.137056,82.628769,67.123574,85.933417,20.818806,322.488297,-58.3549,280.081381
99,0.567993,1.390718,0.604648,-0.229131,0.0,-58.890312,-48.447778,-10.319881,-46.98159,1.139969,-41.807321,0.747734,-34.084105,-35.367428,0.0,36.374704,5.678852,31.824557,-1.107333,27.397985,-9.085252,19.076264,-17.720269,11.607589,0.0,63.48951,24.67099,88.71563,14.256295,86.40532,5.065316,72.689301,-2.581615,51.22855,0.0,25.938297,33.606402,58.03789,51.039037,71.946454,61.873159,82.566512,66.897024,85.821352,21.299475,323.685066,-57.837576,279.658301
100,-0.131332,-1.24353,0.676358,-0.068025,0.0,-53.061024,-47.293768,-8.155552,-46.610573,2.766311,-42.178145,1.315201,-35.185702,-32.475163,0.0,37.420558,7.926098,32.460636,0.985561,28.034792,-7.388894,19.559931,-16.398093,12.11356,0.0,63.351825,24.529781,88.504246,14.148834,86.303821,5.01329,72.738682,-2.567837,51.165527,0.0,26.088191,33.376518,57.828199,50.774696,71.772245,61.587552,82.454584,66.555866,85.532336,21.079697,322.271954,-57.249664,279.420694
101,-2.580048,-2.183939,0.773643,-0.084376,0.0,-43.564579,-44.302831,-2.92757,-44.547123,7.412178,-40.78739,4.237106,-34.550623,-30.887924,0.0,31.344281,9.188363,30.779394,5.391984,28.715306,-0.337095,22.87389,-7.124837,17.620684,0.0,63.242466,24.396733,88.193859,14.080124,86.131817,5.003575,72.719273,-2.547249,51.186905,0.0,26.175123,33.154377,57.624435,50.533487,71.585598,61.3519,82.33695,66.353066,85.569881,18.417223,319.952164,-56.558447,279.200467
102,-0.937626,3.690075,0.491936,0.133221,0.0,-47.391174,-44.977329,-2.637336,-44.468319,9.093361,-40.028892,7.034317,-33.33332,-31.146663,0.0,29.595083,7.889665,28.76086,2.032638,24.9238,-5.826757,17.769175,-14.552016,10.576289,0.0,63.241482,24.483856,88.298756,14.314522,86.415859,5.306408,73.083195,-2.242813,51.539921,0.0,26.133836,33.03526,57.250659,50.384063,71.345265,61.194374,82.101335,66.237246,85.441871,17.410743,323.556721,-56.135365,279.24817
103,1.096802,5.244475,0.720737,0.155636,0.0,-48.965561,-44.647259,-4.557861,-43.895657,8.088089,-39.410625,7.300232,-32.661461,-20.642979,0.0,26.850672,5.234434,26.521851,-4.056187,20.799972,-15.16621,11.12567,-27.176048,-1.153658,0.0,63.095856,24.529702,88.215683,14.386826,86.35302,5.371285,72.975289,-2.228439,51.402237,0.0,26.178222,32.900063,56.956628,50.253325,71.094558,61.078938,81.869499,66.195243,85.360842,18.445541,328.750203,-55.476632,279.352813
104,0.208191,-0.496696,0.550415,0.071408,0.0,-48.367001,-43.661499,-5.107086,-43.084717,7.477592,-38.797852,6.995064,-32.359623,-19.615254,0.0,27.456333,5.243018,26.99754,-4.23567,21.377178,-15.429958,11.452182,-27.476006,-0.006866,0.0,62.935776,24.662888,88.268418,14.520115,86.204682,5.480084,72.790558,-2.166,51.263695,0.0,26.321829,32.99238,56.874229,50.320806,71.052111,61.099995,81.700908,66.226168,85.378416,18.593159,328.226911,-54.98679,279.397625
105,-0.176193,-3.439312,0.473866,0.124155,0.0,-45.473282,-43.238652,-3.849129,-42.672055,8.398819,-38.448899,7.972091,-32.024357,-19.286053,0.0,27.215407,5.959952,29.084431,-0.907707,25.085623,-9.481677,16.930456,-19.04216,8.075113,0.0,62.95499,24.825748,88.46442,14.675571,86.237995,5.600201,72.733349,-2.059032,51.239536,0.0,26.375528,32.935694,56.696215,50.34768,70.912555,61.194411,81.490821,66.400996,85.478329,18.361771,324.769046,-54.568119,279.503227
106,1.155349,6.165877,0.288185,0.175347,0.0,-60.606285,-48.240474,-7.966758,-45.704315,6.456482,-39.713401,8.812775,-31.637477,-17.459999,0.0,31.159591,3.926523,29.200918,-8.340764,20.827883,-22.116392,8.47722,-36.309786,-6.237533,0.0,62.893787,25.03957,88.638462,14.88263,86.293247,5.77478,72.744084,-1.903473,51.323719,0.0,26.369364,32.956133,56.638342,50.38074,70.800713,61.212047,81.348226,66.442121,85.611783,19.458692,330.92295,-54.338362,279.666601
107,0.977623,0.919995,0.342018,0.211853,0.0,-59.247219,-47.837459,-8.328918,-45.575752,5.634911,-39.791793,7.872826,-31.77,-8.92321,0.0,30.85174,3.187358,29.205265,-9.921155,20.761871,-24.449076,7.494795,-39.498429,-9.01645,0.0,62.780491,25.06255,88.701084,14.919468,86.193615,5.821667,72.596913,-1.820228,51.26128,0.0,26.226264,32.939868,56.588905,50.369255,70.74452,61.196461,81.200705,66.450569,85.619503,20.36963,331.829949,-54.063029,279.865458
108,-0.031723,-0.197676,0.242558,0.174519,0.0,-57.601501,-46.801162,-8.151649,-44.728958,5.929276,-39.057953,7.929039,-31.176612,-8.377121,0.0,31.332369,3.292495,29.519155,-9.866481,21.082381,-24.557447,7.747614,-39.737168,-8.799829,0.0,62.826919,25.073112,88.68663,14.948456,85.996605,5.887459,72.500152,-1.678814,51.363899,0.0,26.125438,32.970867,56.521473,50.402502,70.723117,61.21201,81.120207,66.457646,85.582675,20.256672,331.616369,-53.901706,280.024073
109,0.19542,-1.848609,0.126137,0.098776,0.0,-53.106114,-46.832577,-7.229256,-45.106224,6.630363,-39.644429,8.553886,-31.71888,-7.241249,0.0,32.326217,4.624266,30.545137,-7.653458,22.647358,-21.373806,9.774769,-35.599076,-5.977984,0.0,62.80561,25.150589,88.461456,15.092857,85.879028,6.047573,72.432907,-1.53835,51.471061,0.0,26.170096,32.992986,56.607936,50.433167,70.82377,61.292755,81.182526,66.633548,85.637694,20.35116,329.756658,-53.876501,280.111747
110,-0.686097,-0.509898,0.009876,0.028664,0.0,-51.117771,-45.271167,-5.634956,-44.03976,7.525429,-38.936233,8.61216,-31.389564,-7.703201,0.0,27.573856,4.614855,28.043554,-5.474335,22.143327,-17.180422,11.153643,-29.569432,-2.822031,0.0,62.629841,25.23278,88.445881,15.225506,85.86993,6.178654,72.463428,-1.468014,51.652988,0.0,26.284063,33.044931,56.726387,50.457719,70.926227,61.329003,81.319834,66.740587,85.839792,19.50971,329.239501,-54.021978,280.133152
111,-0.909347,-0.497017,-0.036804,-0.036148,0.0,-50.447239,-45.006855,-4.255096,-43.921612,8.745644,-38.899178,9.855858,-31.478989,-5.920212,0.0,28.218555,5.118516,28.308192,-4.480832,22.65052,-15.819492,11.750313,-27.806816,-1.759492,0.0,62.472759,25.176899,88.385593,15.178917,85.80875,6.146186,72.3418,-1.502003,51.603069,0.0,26.579983,33.095343,56.94534,50.506588,71.314266,61.399608,81.595475,66.868805,85.993698,18.397488,328.744018,-54.261657,280.098538
112,-1.186386,-0.403551,-0.148957,-0.086821,0.0,-50.959294,-44.958126,-3.59285,-43.575588,9.72258,-38.393566,11.157005,-31.035141,-4.895714,0.0,28.663997,6.146809,29.090038,-3.418553,23.107411,-14.8097,12.560886,-26.832654,-1.152819,0.0,62.300297,25.208737,88.243664,15.19146,85.586644,6.139641,72.117794,-1.544964,51.500622,0.0,26.992229,33.230947,57.213683,50.636881,71.585066,61.526146,81.846515,67.016536,86.19535,16.957895,328.364658,-54.663821,280.035908
113,-1.792877,0.107038,-0.328308,-0.126885,0.0,-50.291497,-45.342636,-2.305825,-43.651532,11.002189,-38.140492,12.820587,-30.466988,-2.86995,0.0,28.604507,6.524894,28.858598,-2.659282,23.147401,-13.618547,12.884013,-25.192279,-0.230589,0.0,62.207051,25.273339,88.24387,15.214852,85.605686,6.10437,72.036312,-1.653168,51.438046,0.0,27.236921,33.397772,57.758347,50.764063,71.971921,61.634815,82.109584,67.125353,86.388802,14.865504,328.524804,-55.291643,279.962131
114,-3.234124,1.03301,-0.243782,0.043744,0.0,-48.148407,-44.715019,0.612259,-42.81435,14.507676,-36.984729,15.895478,-29.129058,0.054795,0.0,28.103712,6.430663,28.346366,-2.507919,22.613964,-13.249712,12.504224,-24.562782,-0.152449,0.0,62.19643,25.156323,88.327915,14.991406,85.594448,5.838444,71.972775,-1.900291,51.242535,0.0,27.387296,33.519087,57.833855,50.867211,71.971488,61.685858,82.14083,67.075681,86.42127,11.323276,329.63147,-55.843529,280.079531
115,0.24495,5.918172,-0.309288,0.062368,0.0,-61.483704,-49.489037,-2.400994,-45.9753,13.349167,-38.609951,16.740761,-29.351269,-2.372681,0.0,31.320216,4.160829,28.71099,-9.887562,18.343293,-25.648466,4.291332,-41.536798,-14.412645,0.0,62.30698,24.968605,88.061543,14.768166,85.332722,5.644787,71.810246,-1.999008,51.108593,0.0,27.51439,33.546714,57.934459,50.871681,72.038438,61.671334,82.226441,67.015573,86.517897,11.264832,335.644022,-56.456211,280.236279
116,1.528496,0.39188,-0.215572,0.244359,0.0,-60.641041,-49.248768,-4.466011,-46.029854,11.105346,-39.027615,14.056778,-30.217495,-3.51027,0.0,31.722323,3.580055,29.08663,-10.935294,18.460261,-26.902678,4.195249,-43.085522,-14.081909,0.0,62.229973,24.889263,87.938186,14.688778,85.226143,5.571728,71.739555,-2.039417,50.968551,0.0,27.47508,33.515011,57.785208,50.767767,71.785175,61.540892,82.084303,66.854738,86.494431,12.494957,336.13879,-56.970154,280.583526
117,1.455665,0.37958,-0.167301,0.159686,0.0,-59.847267,-49.073639,-6.678726,-46.387779,8.912705,-39.852012,11.59401,-31.405037,-5.411339,0.0,31.647185,2.983842,28.866453,-11.551081,18.583515,-27.552737,4.134697,-43.782067,-13.952123,0.0,62.171459,24.788669,87.782924,14.556324,85.141971,5.431995,71.65179,-2.160508,50.791751,0.0,27.494989,33.393079,57.626942,50.636931,71.680162,61.42852,82.019083,66.741167,86.481884,13.674608,336.608186,-57.413469,280.833028
118,1.56942,-0.293253,-0.123482,0.168171,0.0,-58.837498,-48.543629,-8.332603,-46.561443,7.17588,-40.673138,9.610794,-32.710705,-7.557678,0.0,32.211572,2.95892,28.987558,-11.590626,18.962996,-27.60893,4.436496,-43.83495,-13.613261,0.0,61.925159,24.656387,87.7271,14.432258,85.056576,5.331116,71.601757,-2.235283,50.673832,0.0,27.815189,33.347483,57.45929,50.591582,71.568135,61.396471,82.004103,66.715133,86.514909,15.00103,336.402205,-57.779949,281.088471
119,1.635063,0.654221,-0.214485,0.112633,0.0,-59.854671,-48.268627,-9.739288,-46.679695,5.125122,-41.243774,7.410713,-33.708847,-10.16716,0.0,32.65,2.846077,28.439177,-12.22211,18.153535,-28.866242,3.286147,-45.734553,-15.830842,0.0,61.800853,24.545448,87.880108,14.366901,85.081501,5.339367,71.689167,-2.116402,50.778545,0.0,27.968342,33.293858,57.493623,50.50518,71.61262,61.304611,82.131345,66.622581,86.63216,16.399189,337.141287,-58.231338,281.285965
120,0.643799,-0.491298,-0.177819,0.186461,0.0,-59.830593,-48.669434,-10.368118,-47.119675,4.313644,-41.610191,6.869705,-33.942135,-13.518929,0.0,33.059157,3.087508,28.501014,-11.602495,18.569188,-27.829268,4.038637,-44.284061,-14.179537,0.0,61.659474,24.399937,88.162297,14.237801,85.415097,5.260895,71.995297,-2.147438,50.881932,0.0,28.1037,33.367675,57.381596,50.471095,71.50263,61.215185,82.07703,66.539663,86.614932,16.832445,336.725367,-58.6197,281.547804
