takenoko1/special-research/HandMotion_SimilarSearch_自分用/NewProject/handData/test_key/d4_feature_d3/69.csv
frame,vel_0x_L,vel_0y_L,vel_0x_R,vel_0y_R,posFromWrist_0x_L,posFromWrist_1x_L,posFromWrist_2x_L,posFromWrist_3x_L,posFromWrist_4x_L,posFromWrist_5x_L,posFromWrist_6x_L,posFromWrist_7x_L,posFromWrist_8x_L,posFromWrist_9x_L,posFromWrist_0y_L,posFromWrist_1y_L,posFromWrist_2y_L,posFromWrist_3y_L,posFromWrist_4y_L,posFromWrist_5y_L,posFromWrist_6y_L,posFromWrist_7y_L,posFromWrist_8y_L,posFromWrist_9y_L,posFromWrist_0x_R,posFromWrist_1x_R,posFromWrist_2x_R,posFromWrist_3x_R,posFromWrist_4x_R,posFromWrist_5x_R,posFromWrist_6x_R,posFromWrist_7x_R,posFromWrist_8x_R,posFromWrist_9x_R,posFromWrist_0y_R,posFromWrist_1y_R,posFromWrist_2y_R,posFromWrist_3y_R,posFromWrist_4y_R,posFromWrist_5y_R,posFromWrist_6y_R,posFromWrist_7y_R,posFromWrist_8y_R,posFromWrist_9y_R,posFromBody_0x_L,posFromBody_0y_L,posFromBody_0x_R,posFromBody_0y_R
6,-0.959038,-1.077471,0.592518,0.388163,0.0,29.742336,7.496144,52.202419,-0.483799,49.003338,-9.401928,37.927174,-19.202946,19.08553,0.0,-22.478854,6.188429,19.015558,27.333425,40.56245,45.069748,52.265018,59.311518,58.496919,0.0,68.179218,20.248203,83.544262,11.452045,83.058987,4.0299,71.275669,-1.59193,52.517956,0.0,11.238019,32.848675,49.824221,49.610071,64.419289,60.456802,74.092565,66.026282,77.679066,-12.525547,307.71252,-40.773525,297.91252
7,-2.75592,-0.62316,0.134766,0.026207,0.0,32.618694,9.939319,55.123501,1.812572,51.600597,-7.454212,40.582775,-17.568283,21.77576,0.0,-22.481275,6.111388,19.11337,27.327768,40.999,45.215911,53.040121,59.653466,59.299105,0.0,68.101032,20.238166,83.352893,11.380725,82.863086,3.91967,71.136486,-1.730061,52.257145,0.0,11.286616,32.662559,49.558855,49.454324,64.267889,60.352987,74.018563,65.885898,77.66621,-15.690359,307.09945,-41.047651,297.948817
8,0.884514,0.948264,-0.158432,0.246347,0.0,31.264171,9.302501,53.646434,1.39191,50.563465,-7.499646,39.531177,-17.394207,20.924343,0.0,-23.100718,5.63885,17.356756,26.929589,39.55146,44.811767,51.381492,59.197168,57.664547,0.0,68.151729,20.393394,83.488597,11.604057,83.043972,4.149021,71.370975,-1.51521,52.480007,0.0,11.08116,32.588174,49.413322,49.377766,63.954728,60.262708,73.599377,65.746268,77.419517,-15.008194,308.077919,-41.408432,298.225369
9,1.224357,0.723751,-0.07853,0.021168,0.0,30.641201,8.580998,51.73534,0.668873,49.032887,-7.916496,37.832188,-17.618648,19.701817,0.0,-23.958283,4.866884,16.063172,26.308479,38.378956,44.260497,50.070347,58.636463,56.311708,0.0,68.072056,20.465481,83.528446,11.587258,82.969563,4.065262,71.304165,-1.657917,52.363941,0.0,11.134254,32.579715,49.510072,49.352003,63.930362,60.19009,73.594758,65.592633,77.358495,-13.85931,308.845537,-41.562435,298.290404
10,3.22134,0.844092,-0.179031,0.020871,0.0,26.097496,6.451676,48.204552,-1.459579,45.89367,-9.985244,34.449074,-19.68148,16.237038,0.0,-24.616629,4.753633,15.379718,26.095798,37.742259,43.8195,48.882626,58.057885,54.936748,0.0,68.201763,20.77288,83.744968,11.916263,83.229114,4.369823,71.586124,-1.400448,52.680164,0.0,11.177739,32.707242,49.499131,49.500538,63.854372,60.32157,73.540171,65.708083,77.326559,-10.676583,309.714552,-41.780079,298.336198
11,1.14235,0.493929,-0.22411,-0.00426,0.0,24.94416,6.085029,47.400947,-1.681343,45.153122,-10.116864,33.540229,-19.739949,15.380745,0.0,-25.052587,4.240425,14.536887,25.577317,37.186765,43.301019,48.258638,57.553631,54.200164,0.0,68.401909,20.731075,83.870613,11.91481,83.526169,4.432755,71.870613,-1.243355,52.933182,0.0,11.150914,32.704623,49.265824,49.569278,63.84527,60.416294,73.507826,65.789234,77.212888,-9.526714,310.23533,-41.99667,298.358787
12,2.340477,0.397364,-0.112392,0.084363,0.0,21.775131,4.10218,45.157768,-3.558586,43.233101,-11.841534,31.536644,-21.328354,12.989868,0.0,-25.133826,4.537358,14.869511,25.881351,37.244884,43.438747,47.793744,57.575861,53.637988,0.0,68.458614,20.80299,83.937,12.06475,83.806446,4.619808,72.144069,-1.040508,53.193249,0.0,11.042925,32.721988,49.133061,49.623854,63.747791,60.497101,73.420882,65.907499,77.115224,-7.156591,310.646359,-42.079416,298.456815
13,2.57682,0.228773,0.120231,-0.030443,0.0,17.614655,0.951782,43.408813,-6.754074,41.390373,-14.951511,30.096107,-24.263683,11.435371,0.0,-23.489795,4.667898,15.405492,25.671449,37.692933,43.012533,48.335752,57.179955,54.226914,0.0,68.551083,20.734429,83.846959,11.882607,83.576397,4.400105,71.871357,-1.248115,52.93459,0.0,11.167982,32.377902,49.03126,49.353288,63.827486,60.352197,73.459278,65.914045,76.989636,-4.543888,310.874218,-41.923302,298.425458
14,-0.323547,-0.440145,0.074868,0.000247,0.0,16.856872,-1.230091,44.970611,-8.843823,43.133468,-16.249913,32.041832,-24.232647,13.707115,0.0,-19.480254,6.618026,18.981867,26.767445,40.024987,43.195216,50.327623,56.407433,56.037239,0.0,68.663395,20.66201,83.820247,11.804844,83.659023,4.364914,71.938785,-1.237782,53.01733,0.0,11.194016,32.018441,48.854234,49.081932,63.704837,60.251124,73.315202,66.038645,76.848042,-4.826706,310.424135,-41.807705,298.415767
15,-0.670876,0.186523,0.025142,0.005903,0.0,19.320351,-1.450916,45.874695,-9.25803,43.949524,-16.649219,33.625763,-24.659088,15.454491,0.0,-18.734074,6.22112,18.665075,26.199144,39.831325,42.667917,50.687517,56.051936,56.49954,0.0,68.744568,20.50232,83.852532,11.589775,83.696343,4.179943,71.939713,-1.344543,52.969208,0.0,11.162709,31.64285,48.686285,48.804611,63.745729,60.110346,73.325008,66.058677,76.785156,-5.452704,310.59564,-41.737685,298.406652
16,0.098396,0.241333,0.128163,-0.100109,0.0,18.629265,-2.614254,45.864396,-10.341396,44.129792,-17.428058,33.983208,-25.171886,15.867966,0.0,-17.638103,6.794991,19.381133,26.598595,39.965793,42.778845,50.743574,55.89635,56.418276,0.0,68.982959,20.247219,83.700588,11.230934,83.541835,3.838485,71.819217,-1.613308,52.850795,0.0,11.268845,31.373828,48.72578,48.626843,63.78778,60.056277,73.383979,66.137272,76.744116,-5.309447,310.821267,-41.564661,298.290837
17,-0.936218,0.261921,0.113205,-0.097356,0.0,19.831764,-2.472233,47.01487,-10.26218,45.039482,-17.318344,35.007157,-25.0849,17.157623,0.0,-16.848205,6.45193,19.215394,26.043347,39.806575,42.194945,50.803274,55.362085,56.41257,0.0,69.247615,19.956894,83.430988,10.86605,83.319683,3.537906,71.730526,-1.796414,52.886318,0.0,11.342711,31.071016,48.712874,48.43438,63.615608,60.007346,73.330825,66.240828,76.670633,-6.196106,311.063897,-41.401897,298.17419
18,-1.643486,-0.246743,-0.13702,-0.062294,0.0,23.07312,-1.134739,48.905525,-9.052059,46.276383,-16.227001,35.988785,-24.108845,18.214668,0.0,-16.938792,6.704613,19.865664,26.33786,39.979588,42.439564,51.041644,55.449079,56.381844,0.0,69.482803,19.820262,83.29113,10.779464,83.391403,3.540676,71.918609,-1.707173,53.152473,0.0,11.249159,31.015985,48.580173,48.459537,63.507137,60.070653,73.402134,66.310223,76.722911,-7.770561,310.798842,-41.469886,298.093584
19,0.279945,0.566709,-0.105275,-0.095454,0.0,23.267418,0.396172,48.253922,-7.70446,44.974755,-15.738109,34.556351,-24.971282,16.463654,0.0,-19.068392,5.028076,16.986624,25.225994,38.056025,42.001284,49.585963,55.841799,54.875257,0.0,69.718403,19.740704,83.150151,10.698773,83.272488,3.499363,71.935788,-1.678218,53.37727,0.0,11.220878,30.9715,48.595487,48.471122,63.406163,60.13002,73.515533,66.38914,76.842225,-7.418141,311.351929,-41.502686,297.984508
20,0.350579,-0.123909,-0.086082,-0.193822,0.0,21.782684,-0.109383,48.245338,-8.060074,45.007232,-15.99551,34.006576,-25.097866,15.743271,0.0,-18.559271,5.491724,17.873855,25.600943,38.508533,42.156327,49.685308,55.776999,54.711841,0.0,69.9547,19.7024,83.089977,10.603042,83.152759,3.415146,71.968746,-1.709507,53.620502,0.0,11.313034,30.938204,48.728745,48.505245,63.361591,60.240824,73.582767,66.540861,76.932121,-6.997312,311.212202,-41.518518,297.774868
21,0.321098,0.092552,-0.120873,-0.098084,0.0,22.933502,-0.244949,47.817124,-8.433586,44.30896,-16.520954,33.247215,-25.732281,15.196495,0.0,-18.357545,5.080997,17.325251,25.157883,38.218096,41.810092,49.660089,55.597527,54.853669,0.0,70.135861,19.812367,83.147107,10.701153,83.168072,3.511723,72.108914,-1.587204,53.992138,0.0,11.325939,30.920815,48.695177,48.540875,63.28155,60.319753,73.639107,66.653271,77.073381,-6.601547,311.285053,-41.564724,297.657083
22,1.039993,-0.044337,-0.098808,-0.111793,0.0,23.431504,-1.549301,46.430466,-9.907058,43.153016,-17.913242,32.246659,-26.916572,14.303605,0.0,-18.001394,5.098509,17.143989,25.191081,38.180539,41.888108,49.857431,55.715223,55.081195,0.0,70.079098,19.93697,83.196018,10.811073,83.16901,3.592735,72.15247,-1.525715,54.169659,0.0,11.448687,30.926545,48.756631,48.54332,63.372496,60.324237,73.862434,66.682047,77.30229,-5.484993,311.224658,-41.586971,297.529232
23,1.893906,-0.059021,-0.058559,-0.064628,0.0,21.140053,-3.6278,44.050987,-12.016216,41.337502,-19.762814,30.572731,-28.379311,12.682686,0.0,-17.448233,5.321045,17.099702,25.379382,38.247192,42.01808,49.822159,55.808454,55.118689,0.0,70.101997,19.86787,83.326011,10.747249,83.26625,3.578018,72.313408,-1.444565,54.490928,0.0,11.461691,30.902685,48.7128,48.604799,63.349735,60.452801,73.888184,66.854083,77.289705,-3.528225,311.149903,-41.582668,297.44887
24,-2.169731,-0.521989,-0.003262,-0.035371,0.0,25.483017,-3.434898,45.66172,-11.45866,44.798263,-18.252789,35.211365,-25.494896,17.426948,0.0,-14.907846,6.015516,18.662864,26.0246,39.479027,42.579762,51.03332,56.108092,56.226159,0.0,70.139111,19.900944,83.418377,10.727886,83.320965,3.518612,72.347431,-1.505882,54.562695,0.0,11.463655,30.876528,48.650643,48.657089,63.41834,60.5291,73.902844,66.936879,77.27701,-5.638435,310.612982,-41.526409,297.398567
25,-0.604363,-0.001976,0.016926,0.015734,0.0,28.001519,-3.585846,45.915482,-11.771267,45.335679,-18.474689,36.200638,-25.457038,18.229042,0.0,-14.480632,5.098213,18.041013,25.337788,39.105734,42.356992,51.153387,56.352871,56.585299,0.0,70.091881,19.830517,83.380096,10.793152,83.496185,3.684311,72.528488,-1.283077,54.75975,0.0,11.311342,31.044081,48.586916,48.790347,63.318156,60.617341,73.766067,67.009262,77.199106,-6.189446,310.598388,-41.456131,297.401683
26,0.550599,-0.337206,-0.178906,-0.004347,0.0,28.073913,-5.435051,45.197616,-13.626229,45.104415,-19.9987,36.136138,-26.450924,17.583641,0.0,-13.906489,4.794956,18.506215,25.203072,39.51173,42.510095,51.843114,56.776465,57.234654,0.0,70.047467,19.926098,83.595166,10.970467,83.804661,3.947525,72.860699,-0.924945,55.019474,0.0,11.085718,31.141251,48.608825,48.877872,63.221072,60.71277,73.613037,67.137777,77.090338,-5.597539,310.243342,-41.593729,297.379496
27,1.05558,-0.274234,-0.047664,-0.123328,0.0,27.132225,-7.147751,43.96685,-15.266831,44.277351,-21.298886,35.376365,-27.231903,16.478805,0.0,-13.232743,4.4794,18.59957,25.083573,39.499837,42.691098,52.075098,57.275063,57.763262,0.0,70.233215,20.007717,83.847221,11.069412,83.968483,4.070091,72.983619,-0.777798,55.065193,0.0,10.914299,31.345707,48.75074,49.061073,63.324665,60.864639,73.658954,67.248805,77.075222,-4.512708,309.934488,-41.612142,297.221548
28,-3.128128,-1.064182,-0.093579,-0.066221,0.0,31.31401,-5.481835,49.195953,-13.624752,48.848716,-19.309147,39.477081,-24.389546,20.766815,0.0,-11.435991,5.256467,21.897623,25.501475,42.051512,42.820157,54.129078,57.026765,59.831963,0.0,70.37328,20.058232,84.014317,11.1698,84.251988,4.213875,73.23808,-0.594738,55.169438,0.0,10.801975,31.396071,48.825594,49.074707,63.302768,60.86827,73.631092,67.255338,77.255483,-7.621902,308.831353,-41.686787,297.116374
29,2.527313,0.368687,-0.079422,-0.085907,0.0,27.561882,-6.408028,47.022789,-14.8228,45.215355,-21.280701,35.125763,-27.507546,16.071579,0.0,-13.561106,4.249071,20.057374,24.675119,40.581988,42.371614,52.919634,57.208595,59.042101,0.0,70.479847,19.969906,84.125165,11.226609,84.54942,4.391453,73.536427,-0.33823,55.368908,0.0,10.661678,31.49376,48.838746,49.098938,63.210698,60.868171,73.645319,67.240048,77.387925,-5.081137,309.162975,-41.752757,296.993402
30,0.306358,-0.166108,-0.118297,-0.103161,0.0,25.975891,-6.071068,46.768181,-14.386059,44.825569,-20.976585,34.475304,-27.509044,15.519768,0.0,-13.995571,4.714903,20.464062,24.999889,40.839017,42.463819,52.762824,57.074522,58.835311,0.0,70.593521,20.234928,84.22467,11.441013,84.573578,4.513321,73.602333,-0.301643,55.43502,0.0,10.685267,31.40053,48.88564,49.041906,63.174562,60.828886,73.69209,67.204443,77.420728,-4.758459,308.958192,-41.854734,296.851566
31,-2.356682,-1.261487,0.046234,-0.304293,0.0,27.779824,-2.55336,49.253838,-10.654815,46.803177,-17.624622,36.361542,-24.699039,17.99231,0.0,-13.821842,5.619683,21.297149,25.86516,41.366218,43.179605,53.194621,57.564475,59.276505,0.0,70.460312,20.159557,84.063583,11.330841,84.217163,4.339417,73.190048,-0.597988,54.978287,0.0,10.761627,31.247128,49.234974,48.875167,63.320391,60.645438,74.04214,66.976485,77.60604,-7.087939,307.653909,-41.781298,296.504477
32,-4.710136,-1.603066,0.055149,-0.394795,0.0,34.225182,2.690117,53.88105,-5.212326,50.776817,-12.473774,40.548477,-20.003437,22.86779,0.0,-13.852284,6.174091,21.638222,26.643216,41.73598,44.058969,53.623268,58.239025,59.791887,0.0,70.127804,20.354324,83.935238,11.607147,84.086048,4.595478,73.230732,-0.437382,55.149502,0.0,10.758502,31.081995,49.017872,48.692497,62.94627,60.503276,73.849429,66.900322,77.605719,-11.775221,306.022904,-41.703295,296.081743
33,-0.609833,-1.664556,0.004189,-1.152238,0.0,34.550995,5.292366,52.503136,-2.609733,49.264527,-10.712196,39.753136,-19.499565,22.314102,0.0,-14.533342,6.117305,20.302053,27.071578,40.905634,44.898811,53.196733,59.473254,59.643154,0.0,69.461231,20.827263,84.500118,12.210468,84.187877,5.147186,73.501728,-0.075886,55.452152,0.0,10.559789,30.958062,49.421028,48.463934,62.937218,60.272551,74.069532,66.72563,78.125299,-12.374537,304.33454,-41.688589,294.905697
34,-2.649982,-4.638049,-0.321373,-2.41107,0.0,35.340648,8.158687,54.018345,0.111236,50.070568,-8.431778,40.786068,-17.430565,23.774837,0.0,-12.653672,9.112607,25.233985,29.889707,44.953016,47.060063,56.256009,60.744757,62.711113,0.0,68.627735,21.971042,85.264537,13.579044,84.704532,6.310478,73.946148,0.597885,55.558147,0.0,9.186325,30.590302,50.289276,48.051429,63.464702,59.906113,74.691187,66.520508,79.352466,-15.016737,299.654371,-42.00218,292.452507
35,0.600517,-5.920345,-0.534279,-4.667454,0.0,32.196728,6.501217,52.483097,-1.688324,48.815105,-10.330238,39.665669,-19.017036,21.274738,0.0,-10.522517,11.640928,31.112056,32.068804,49.947994,48.487831,60.706101,61.381453,67.17232,0.0,67.495685,22.896492,85.868465,14.996807,85.595615,7.598556,74.252483,1.15916,55.264446,0.0,7.751159,29.541471,51.111063,46.838885,64.947762,58.850477,76.461916,66.117599,81.627931,-14.423727,293.684629,-42.543966,287.735656
36,3.103981,-7.478642,-0.812371,-7.30805,0.0,25.675587,3.03075,44.660969,-5.20871,42.011776,-13.858269,33.227612,-22.308987,14.854603,0.0,-2.90779,13.222109,33.394042,33.29108,52.127561,49.168963,62.179898,61.369301,69.890203,0.0,65.959569,23.687245,85.629857,16.394681,85.597859,8.915635,73.269871,1.91541,53.403637,0.0,5.377781,27.25657,50.01692,44.478624,66.005571,56.913391,78.530617,65.148068,84.37433,-11.327179,286.16308,-43.36377,280.384699
37,5.21624,-9.743054,0.791337,-10.892748,0.0,15.830532,-2.041294,31.862171,-8.82946,30.680706,-16.039524,23.07169,-22.769405,6.035213,0.0,0.391127,13.576322,32.727039,33.150017,51.753205,48.55036,61.912741,60.622541,71.872996,0.0,64.124164,26.176654,80.411006,20.395454,78.835132,13.54533,66.748729,6.028186,49.559383,0.0,-1.904692,24.232257,44.834121,42.046374,64.140647,55.937314,78.507016,66.417977,86.830465,-6.084263,276.315325,-42.545757,269.38725
38,14.264099,-15.549013,-3.117028,-15.446643,0.0,-2.292835,-12.023609,2.587532,-15.196495,3.488606,-18.333183,0.977566,-20.719139,-8.833408,0.0,9.882153,16.117882,34.178594,34.932714,52.445069,49.751714,63.095398,61.065933,74.702561,0.0,62.149304,32.930191,78.733303,27.827614,76.258198,20.504505,63.623326,11.41491,46.861187,0.0,-6.305063,24.272407,46.58677,42.116053,67.269021,55.998855,80.408286,66.964913,87.344253,8.245766,260.596319,-45.596855,253.770614
39,18.265057,-17.812672,-5.390339,-22.588178,0.0,-21.340325,-22.40165,-23.529431,-22.46362,-20.533402,-21.889962,-19.662918,-20.343968,-22.901505,0.0,18.443563,16.035248,35.052955,33.990428,53.902885,48.629931,63.839428,59.894614,74.895358,0.0,60.685959,33.674206,76.867974,29.865166,79.355851,23.242916,66.692047,14.249691,47.302277,0.0,-10.511402,20.3806,40.63497,38.525366,64.223257,53.218555,78.252382,65.417214,84.625099,26.572815,242.657476,-50.925202,231.056265
40,19.963394,-24.599784,-7.490009,-26.155273,0.0,-37.954743,-28.325775,-47.162739,-26.031578,-44.141029,-22.644425,-38.925179,-17.89848,-32.859558,0.0,24.203741,13.018716,30.10839,31.722941,50.458115,47.540655,61.141133,59.791195,72.429022,0.0,59.112379,33.026711,72.571484,29.647888,77.655933,23.542711,66.109491,15.333944,44.969576,0.0,-17.647533,13.447736,26.50437,31.108021,52.104099,46.578296,68.808413,60.606656,78.345666,46.606545,217.960358,-58.344875,204.803658
41,20.810051,-28.66459,-9.615143,-29.159143,0.0,-51.453232,-31.450859,-65.372852,-26.637222,-61.47567,-20.481537,-51.826172,-12.904953,-39.043007,0.0,20.50967,7.029451,25.734002,25.296686,45.751485,42.06627,57.619939,56.170472,69.853054,0.0,57.705362,31.309445,66.595288,27.625614,72.602703,21.810019,63.332274,14.608183,41.489233,0.0,-26.779073,4.159134,5.810102,20.383795,32.156413,36.427695,52.518228,53.07053,68.746224,67.517607,189.272868,-67.859007,175.621615
42,21.707748,-31.746233,-11.28582,-27.423679,0.0,-62.243248,-33.012588,-78.07941,-27.702575,-75.93885,-20.712478,-63.72615,-12.287109,-43.038872,0.0,16.305863,0.757875,14.771711,17.403242,34.748649,34.148392,47.18144,49.183981,62.340499,0.0,58.736979,27.122383,63.75594,21.680409,69.0508,14.659762,62.093199,7.756983,39.192084,0.0,-26.437754,-5.842482,-16.435052,7.729462,5.412223,22.718683,28.470425,39.29455,49.52279,89.320129,157.946417,-79.050053,148.617718
43,8.9152,-25.352656,-4.621513,-27.400949,0.0,-62.956925,-28.302704,-66.670968,-22.904503,-65.137185,-15.822098,-53.355195,-7.818879,-33.680672,0.0,3.040775,-9.650583,-11.797516,4.695297,5.522734,19.976085,18.608857,34.926218,36.827291,0.0,57.417909,16.865375,54.744186,9.976421,57.899334,2.73916,51.25205,-2.849859,28.371901,0.0,-26.678191,-22.238309,-48.340174,-11.608136,-30.207446,2.954445,-5.652167,20.915176,22.268245,98.270188,133.573079,-83.636707,122.196087
44,4.563926,-27.706324,-4.70818,-22.357595,0.0,-61.894706,-22.492332,-56.4375,-16.939338,-54.273742,-10.125824,-42.569572,-2.835502,-23.729896,0.0,-8.645224,-23.022017,-42.274572,-10.942345,-29.415784,3.390641,-14.662338,18.857804,8.52601,0.0,57.493418,13.295174,46.796471,4.607346,43.282425,-3.691824,35.820071,-9.352827,16.800448,0.0,-24.757994,-33.206818,-72.58564,-25.807458,-60.5175,-12.822458,-36.155098,5.201222,-3.216341,102.867748,106.930187,-88.311253,100.901924
45,0.753182,-22.890883,-2.761322,-18.988267,0.0,-60.523156,-17.997139,-47.64901,-11.239151,-43.339966,-3.657486,-31.171166,3.599922,-13.92025,0.0,-16.594485,-32.079438,-68.936999,-23.661178,-61.155324,-11.391198,-46.067092,3.620136,-16.325451,0.0,58.557759,10.843655,40.982071,0.813858,32.343018,-8.575206,23.39645,-14.968036,8.055554,0.0,-19.379144,-40.297726,-89.654158,-35.110222,-83.819003,-23.335611,-60.399381,-5.815469,-22.593012,103.779311,85.146986,-90.914194,83.021339
46,-1.085884,-18.588566,-0.388927,-14.240862,0.0,-61.651452,-16.924782,-41.773407,-9.178849,-35.364876,-0.564515,-23.417931,7.301445,-6.547944,0.0,-20.14204,-37.963511,-93.596298,-32.134001,-89.811664,-21.794493,-74.549667,-7.835319,-39.549824,0.0,60.037308,10.151527,38.969833,-0.509697,27.267013,-10.963635,15.397396,-18.765518,2.510754,0.0,-10.552756,-44.160967,-99.117902,-40.399781,-99.446926,-29.888329,-79.119426,-13.934659,-39.837247,102.88381,67.588729,-91.112738,69.810786
47,-3.802781,-14.032707,-0.357983,-12.546195,0.0,-64.987175,-17.216125,-37.193275,-7.94593,-25.715263,2.12677,-13.891914,10.98436,-1.097763,0.0,-18.586893,-42.284132,-107.44836,-38.12255,-109.012653,-29.259346,-94.026686,-16.259588,-57.767678,0.0,59.384114,10.270466,39.276558,-0.742332,27.245499,-11.544525,11.439114,-20.08691,-2.549892,0.0,-5.942712,-46.843029,-102.688206,-44.092141,-104.99995,-34.354373,-86.980278,-18.712944,-47.298463,99.295921,54.177521,-91.255829,57.88609
48,-2.252471,-14.029811,-2.936691,-7.475968,0.0,-66.224877,-18.194413,-39.557831,-8.803803,-24.119774,1.328384,-12.833771,10.21035,-1.288193,0.0,-14.964675,-45.995888,-110.5889,-42.226346,-113.43668,-32.696609,-97.903568,-18.387834,-58.153074,0.0,61.301056,12.080349,41.437283,1.09061,29.660248,-9.906223,12.959301,-19.074451,-1.013512,0.0,-3.588527,-45.886361,-103.510641,-43.299865,-106.422723,-33.641137,-87.356023,-18.104091,-46.15508,97.372948,40.253349,-93.863022,50.515761
49,-1.421494,-8.154031,-0.615143,-5.070327,0.0,-67.956734,-19.955612,-43.798897,-9.903397,-25.583817,1.009254,-13.459694,10.457634,-2.444389,0.0,-12.254962,-45.655346,-111.724736,-41.919255,-114.787131,-31.940771,-97.061836,-16.781663,-52.808792,0.0,61.803784,12.56147,42.483559,1.236122,29.406613,-10.115112,12.499191,-19.818031,-1.790474,0.0,-1.77743,-46.142211,-104.625847,-43.611833,-107.328897,-33.565572,-87.500321,-17.529793,-43.804674,96.292746,31.999832,-94.136873,45.345948
50,-2.413628,-5.157444,-0.509857,-3.921527,0.0,-67.802192,-20.108024,-45.353416,-9.604522,-24.618026,1.636849,-13.130081,11.12883,-2.551712,0.0,-10.538696,-46.880462,-112.647843,-43.024538,-116.05733,-32.608379,-96.487081,-16.653265,-50.354404,0.0,61.557335,12.686142,43.225765,1.135391,28.785564,-10.373566,11.243305,-20.062225,-3.537643,0.0,-0.458806,-46.904508,-106.003475,-44.345324,-108.124459,-33.962005,-87.884774,-17.627644,-44.698481,94.123661,26.49972,-94.402187,41.081753
51,-1.52481,-4.085006,-1.744652,-4.71504,0.0,-66.307732,-19.435067,-44.512551,-8.732117,-22.285309,2.554939,-10.793564,11.859535,-1.565873,0.0,-10.044785,-48.119175,-113.080868,-44.051342,-117.416834,-33.394499,-96.876609,-16.987828,-48.75224,0.0,61.137268,12.436604,41.235466,0.450108,25.268635,-11.227238,8.515263,-20.847565,-6.546856,0.0,-0.010442,-47.382888,-107.486688,-44.730621,-108.910677,-34.008928,-87.651128,-17.323757,-45.499506,92.83956,21.73177,-95.90613,35.683769
52,0.688362,-4.689999,-3.305225,-6.996167,0.0,-64.66301,-17.685631,-41.583985,-6.971146,-19.21106,4.136078,-7.675736,13.128067,1.140999,0.0,-10.21589,-48.915095,-114.079774,-44.200148,-118.421711,-32.887177,-96.318145,-15.828483,-45.849817,0.0,60.830692,11.414738,37.801838,-0.908352,20.514187,-12.686749,4.515953,-21.981468,-10.295437,0.0,0.436724,-47.816363,-109.609791,-44.72607,-109.744363,-33.29108,-88.235127,-15.85821,-45.523731,93.73585,15.796188,-99.003427,27.442019
53,3.604202,-6.597606,-5.023499,-9.268971,0.0,-62.991646,-15.456024,-37.009804,-4.458504,-14.202393,6.566483,-2.90062,15.02401,6.536041,0.0,-9.905785,-48.197876,-114.382653,-42.866913,-117.242228,-30.949936,-94.126603,-13.427411,-42.601695,0.0,60.466473,9.865185,33.52311,-2.735538,14.981964,-14.560444,-0.685501,-23.436928,-14.894371,0.0,0.92357,-48.519411,-112.295076,-44.912785,-110.856378,-32.699721,-88.792042,-14.637238,-45.468663,97.400883,7.106873,-103.966095,16.081339
54,6.000206,-7.717041,-6.664821,-11.519805,0.0,-60.619652,-13.130562,-30.576324,-1.89212,-7.758453,9.122475,3.084892,17.168564,13.149857,0.0,-10.860447,-47.779252,-114.183761,-41.942127,-115.284889,-29.673556,-92.115121,-11.998099,-41.425696,0.0,58.976761,7.659027,27.806385,-5.020523,8.273609,-16.720425,-6.150719,-24.880772,-20.25166,0.0,1.055043,-48.678875,-114.444941,-44.573547,-110.764456,-31.818308,-88.312099,-13.475169,-45.42243,103.327612,-2.927179,-110.704393,2.244523
55,8.100243,-8.893239,-9.004715,-12.791234,0.0,-57.935303,-10.636551,-23.510102,0.225792,-1.195519,10.782074,8.312027,18.132774,18.887191,0.0,-11.721358,-46.540421,-113.302496,-40.462773,-112.341364,-28.294879,-89.930929,-11.277317,-41.685159,0.0,57.625694,5.280658,22.096126,-6.867829,2.213218,-17.872364,-9.706936,-24.995945,-24.075234,0.0,1.151423,-47.274392,-114.374023,-43.904228,-108.738468,-32.091071,-88.226228,-15.007202,-48.107158,111.259856,-14.037715,-119.877107,-12.764008
56,15.913124,-8.839497,-13.521063,-11.649388,0.0,-58.440789,-8.684532,-20.146065,2.583709,4.330696,12.878105,13.607048,20.021576,23.268058,0.0,-12.708556,-48.904771,-115.556881,-43.118917,-113.453489,-30.683249,-91.09251,-13.549016,-41.388053,0.0,57.930845,3.490219,19.840982,-8.754278,-2.362444,-19.251755,-13.073713,-25.461187,-26.239346,0.0,0.117699,-48.178814,-115.71506,-45.249028,-109.345795,-33.95368,-89.002221,-17.590979,-47.811535,126.636395,-24.609262,-133.934755,-26.145446
57,16.732956,-8.303041,-17.838776,-9.800568,0.0,-57.941094,-6.311852,-16.842774,5.820465,11.511589,16.303573,21.029525,23.025421,30.248291,0.0,-13.846258,-51.135529,-117.782958,-45.370806,-115.505952,-32.564284,-92.807893,-15.00719,-40.782924,0.0,59.794195,2.796147,20.552439,-10.214544,-5.539083,-20.536148,-16.013826,-26.387781,-27.183163,0.0,-2.769973,-51.366142,-118.337314,-48.770599,-112.970749,-37.836015,-90.610258,-21.910624,-45.527326,142.497116,-33.678452,-152.645766,-36.712163
58,21.936493,-6.826533,-18.582115,-9.448641,0.0,-59.025101,-5.18406,-16.207352,7.612564,15.071571,17.927742,24.866569,24.650848,32.114707,0.0,-15.542529,-55.224338,-120.731028,-50.509182,-119.207852,-38.167318,-96.974276,-20.984105,-43.731771,0.0,61.964899,1.973865,20.843989,-11.610529,-9.883009,-21.951015,-20.119646,-27.681147,-29.830948,0.0,-4.500583,-53.481939,-119.534675,-51.096638,-115.777768,-40.209312,-92.987423,-24.32199,-45.99611,163.608559,-39.99677,-172.052931,-45.652589
59,21.424392,-5.381931,-19.698486,-6.214895,0.0,-59.612777,-2.893272,-14.75164,10.61879,21.737091,20.942093,31.94323,27.565476,37.252213,0.0,-17.228569,-58.437719,-122.841262,-54.048759,-123.415655,-41.751355,-100.604358,-24.672921,-45.081253,0.0,64.13558,1.452976,21.372671,-13.265036,-14.360018,-23.857361,-24.436495,-29.710619,-32.604561,0.0,-7.617688,-55.729598,-121.502716,-53.477197,-119.32155,-42.751249,-95.860324,-27.162947,-45.67602,184.441498,-43.882674,-192.34287,-50.371457
60,22.760445,-3.659336,-20.053196,-3.184987,0.0,-61.089501,-0.55893,-12.801636,14.169342,28.770859,24.768814,40.184257,31.448387,43.512565,0.0,-19.440258,-61.357346,-125.649633,-56.937541,-127.154586,-44.001979,-102.715172,-26.115015,-42.956087,0.0,66.268621,1.045017,21.288786,-15.219549,-19.83771,-26.389538,-30.643679,-32.696005,-38.539341,0.0,-10.665806,-59.005971,-124.266397,-55.646606,-123.097736,-43.88516,-97.494147,-27.437181,-43.423186,206.686278,-45.684545,-212.911731,-51.698979
61,17.519005,-1.489932,-17.075575,-1.870661,0.0,-59.610054,2.655739,-5.866997,17.719162,37.499656,28.203666,47.828819,34.236053,50.165908,0.0,-21.996923,-60.320884,-125.196453,-55.267946,-125.384567,-42.111509,-99.241446,-24.357907,-40.865466,0.0,66.188232,-0.658848,17.892826,-17.62183,-26.536125,-28.824131,-37.328842,-34.907925,-45.012829,0.0,-12.394228,-59.248112,-124.292298,-54.694804,-122.864653,-42.068184,-97.207409,-25.294735,-42.69321,224.099779,-45.213303,-230.09281,-51.608466
62,18.125175,1.074902,-13.925274,0.534993,0.0,-58.962524,5.714676,0.057129,20.748139,44.465744,30.624024,53.209236,36.074227,52.953049,0.0,-24.280596,-59.438261,-124.361678,-54.495937,-121.966703,-41.653765,-94.932916,-24.64819,-40.095994,0.0,64.493065,-3.345383,11.715786,-20.024117,-34.362751,-30.516689,-43.991924,-35.530518,-50.913494,0.0,-12.769077,-56.618273,-121.925108,-51.084325,-118.472392,-37.972458,-94.166769,-21.521013,-42.277901,242.330257,-42.556309,-243.912781,-49.491381
63,12.760643,3.196923,-12.381157,4.193946,0.0,-56.491882,10.370361,7.728356,25.235733,54.183472,34.515335,61.517464,38.794281,59.086601,0.0,-25.529194,-57.048933,-121.727728,-50.919513,-117.690289,-37.611243,-89.185406,-20.665954,-35.506456,0.0,61.724533,-6.530445,4.98745,-23.30769,-42.009224,-33.106464,-51.152515,-36.951107,-55.571526,0.0,-13.372231,-54.097405,-119.785169,-47.726375,-113.273742,-34.285311,-86.940727,-18.334722,-34.727351,255.265566,-38.19167,-256.119272,-44.129719
64,12.69825,5.508903,-9.706501,5.748747,0.0,-55.142647,13.2201,13.713615,28.198379,59.597099,36.970322,67.287392,40.641472,62.854774,0.0,-26.006612,-55.266576,-120.579128,-48.799585,-114.024421,-35.568793,-85.432411,-19.005999,-31.794404,0.0,59.093662,-9.900364,-2.323345,-26.458649,-49.16898,-35.523537,-58.914871,-38.402138,-61.317661,0.0,-13.615546,-51.762153,-117.325656,-44.766739,-108.552657,-31.065131,-82.434163,-15.46318,-30.319353,267.934416,-32.260768,-265.855173,-37.958973
65,9.537643,7.460839,-7.016899,7.484434,0.0,-53.781234,15.131928,18.544144,30.325768,63.657738,39.054245,72.735192,42.765198,67.756188,0.0,-26.698167,-54.579256,-119.819622,-47.926563,-112.678181,-34.736774,-83.624316,-18.184626,-30.714365,0.0,56.827824,-12.537952,-8.710201,-29.015408,-54.387566,-37.762196,-65.141041,-40.218453,-64.986294,0.0,-15.417528,-50.435921,-116.306644,-42.980164,-106.230564,-28.926887,-79.864636,-12.913795,-27.469288,277.392757,-24.760473,-272.951374,-30.435083
66,5.96473,7.82403,-3.647049,7.595153,0.0,-52.190323,16.681732,21.631691,32.181129,66.331741,41.09832,77.898948,45.092216,73.912239,0.0,-28.416563,-54.128743,-120.034359,-47.627499,-113.201423,-34.466387,-84.562842,-17.696025,-30.076841,0.0,55.312157,-14.632793,-13.617817,-31.013397,-58.573631,-39.605759,-69.430893,-42.008949,-68.299152,0.0,-17.769552,-50.432988,-116.758639,-43.110056,-106.199708,-28.959146,-79.430302,-12.362284,-26.246253,283.155264,-17.186582,-276.800646,-23.090069
67,2.758575,6.241646,-0.579437,5.361726,0.0,-51.289535,17.029518,23.354004,32.904465,67.412018,42.360787,81.938599,46.946961,80.562584,0.0,-30.008897,-54.009591,-120.832827,-47.541482,-115.43309,-34.137802,-87.271808,-16.63503,-29.048709,0.0,54.347145,-16.200016,-17.736546,-32.711472,-61.489609,-41.569359,-72.830601,-44.453476,-72.329258,0.0,-20.659458,-50.897153,-117.676173,-43.863633,-107.305086,-29.75585,-80.774719,-12.655197,-27.798108,285.805687,-11.268027,-277.488235,-18.051434
68,0.492073,4.718312,0.804451,2.991437,0.0,-51.017647,16.651772,24.50663,32.824311,67.296845,42.815987,84.073792,48.132591,85.85289,0.0,-32.504608,-54.79568,-122.621764,-48.635471,-118.306096,-35.115496,-90.719704,-16.980691,-30.454149,0.0,54.164188,-16.748657,-19.92825,-33.185887,-61.829304,-42.200764,-72.985016,-45.582058,-74.445111,0.0,-24.49905,-52.094209,-119.561314,-45.403176,-110.383412,-31.423278,-85.308787,-13.857064,-33.462387,286.10337,-6.863789,-276.878174,-15.374071
69,-1.189384,2.620854,1.440433,1.160612,0.0,-51.03962,16.079429,24.581703,32.213951,66.822029,42.523475,83.936531,48.251289,88.707275,0.0,-35.125086,-55.668478,-124.356129,-49.720419,-120.987687,-35.995748,-93.438241,-17.255523,-32.338747,0.0,54.383686,-16.753155,-20.036373,-33.141907,-61.060066,-42.382541,-71.461075,-46.211094,-74.918678,0.0,-27.461211,-53.708409,-121.798872,-47.3835,-113.876948,-33.380383,-88.22353,-15.079883,-37.161293,284.80283,-4.464974,-275.548897,-14.435498
70,-1.850052,0.583436,1.987576,-0.910313,0.0,-50.901901,15.877922,23.972511,31.992279,66.302971,42.388824,83.345833,48.134491,89.535004,0.0,-36.639613,-56.019949,-125.251825,-50.310148,-122.546953,-36.645609,-95.484934,-17.745753,-32.976961,0.0,54.258522,-16.86961,-19.820069,-33.147125,-60.916214,-42.375218,-70.026615,-46.312878,-74.366272,0.0,-29.003637,-54.690715,-123.069015,-48.744972,-115.906554,-34.787607,-89.986843,-16.27516,-38.872489,282.864699,-3.955658,-273.6494,-15.419931
71,-1.444222,-0.302725,1.535568,-1.293677,0.0,-51.252548,15.382737,23.273919,31.512612,65.715729,41.987915,82.517304,47.791512,89.325463,0.0,-36.896198,-56.516009,-125.71893,-50.766996,-123.254465,-37.006701,-96.101888,-17.894782,-33.356121,0.0,54.300201,-16.888321,-19.925411,-33.164658,-60.668037,-42.420467,-69.557877,-46.401295,-74.052841,0.0,-29.779371,-55.048788,-123.672132,-49.190279,-116.360364,-35.249339,-90.580796,-16.684195,-39.852326,281.319082,-4.262128,-272.215227,-16.717353
72,-0.822807,0.267941,1.119816,-0.233824,0.0,-51.271385,15.13163,22.669808,31.304764,65.056023,41.664757,81.822922,47.40287,88.748543,0.0,-37.133505,-56.906611,-125.959287,-51.124092,-123.638052,-37.36292,-96.325313,-18.290441,-33.780637,0.0,54.085201,-16.98349,-20.023087,-33.28125,-60.482426,-42.562832,-69.484978,-46.539551,-73.970616,0.0,-29.937013,-55.439507,-124.286721,-49.581573,-116.845327,-35.589825,-91.398977,-16.852904,-40.294657,280.387041,-3.906294,-271.204645,-16.863284
73,-0.657738,0.465234,0.559147,0.829191,0.0,-51.120575,15.073197,22.658615,31.279496,64.763512,41.561806,81.81894,47.219971,88.552666,0.0,-37.19554,-56.920289,-125.923947,-51.03398,-123.566922,-37.23209,-95.812544,-18.201138,-33.60781,0.0,54.088737,-16.847752,-19.867104,-33.226422,-60.364849,-42.604122,-69.345372,-46.599278,-73.981156,0.0,-30.007897,-56.032775,-125.062727,-50.135808,-117.257938,-36.072158,-91.932945,-17.144613,-40.136014,279.614622,-3.356888,-270.760179,-15.949921
74,-0.343574,0.722072,0.304126,1.269959,0.0,-51.083908,15.197479,22.783333,31.42511,64.80883,41.626694,82.097259,47.182022,88.427398,0.0,-37.106298,-56.747894,-125.679971,-50.785459,-123.240435,-36.971892,-95.300355,-18.003289,-32.988756,0.0,54.405842,-16.592136,-19.672908,-32.992206,-60.255523,-42.37508,-69.301128,-46.333614,-73.324424,0.0,-30.103159,-56.455876,-125.685078,-50.473614,-117.567956,-36.244627,-92.249546,-17.070673,-40.056529,279.133896,-2.579195,-270.593205,-14.624341
75,-0.069672,0.780007,0.114785,1.228932,0.0,-50.955185,15.305191,22.971314,31.464867,64.905556,41.583367,82.171028,47.07795,88.138825,0.0,-37.255012,-56.630803,-125.505996,-50.562294,-122.825052,-36.672792,-94.826088,-17.66331,-32.254513,0.0,54.513931,-16.317787,-19.295483,-32.775479,-59.851776,-42.207608,-69.207699,-46.18602,-73.0047,0.0,-30.40389,-56.818234,-126.033005,-50.759821,-117.515474,-36.437906,-92.290801,-17.147126,-39.864813,278.914152,-1.811951,-270.628492,-13.408172
76,-0.050239,0.649416,0.090992,0.865197,0.0,-50.859627,15.489326,23.13224,31.607139,64.974083,41.686432,82.214172,47.182983,87.995842,0.0,-37.412487,-56.506492,-125.409788,-50.336472,-122.608332,-36.406857,-94.611387,-17.406879,-31.782937,0.0,54.397361,-16.143128,-18.873104,-32.568306,-59.569348,-41.965302,-68.827813,-45.901486,-72.54847,0.0,-30.627062,-57.045907,-126.116083,-50.91361,-117.546411,-36.474536,-92.13992,-17.082375,-39.550799,278.70179,-1.218497,-270.699623,-12.598937
77,-0.039116,0.213533,0.054107,0.422836,0.0,-50.822914,15.575477,23.296554,31.661201,64.977379,41.760406,82.15908,47.300354,87.878357,0.0,-37.367409,-56.389253,-125.366266,-50.105389,-122.396343,-36.090997,-94.474622,-17.000512,-31.350295,0.0,54.227921,-15.940887,-18.328743,-32.331459,-59.250366,-41.704616,-68.29145,-45.634071,-72.170986,0.0,-30.702663,-57.174787,-126.02515,-50.991051,-117.502778,-36.447316,-91.872448,-16.972471,-39.333722,278.474127,-1.119613,-270.834063,-12.29075
78,0.13678,0.077059,0.164681,0.190908,0.0,-51.029526,15.487609,23.018623,31.62181,64.780975,41.761528,81.925369,47.356292,87.611709,0.0,-37.426894,-56.463558,-125.556613,-50.121044,-122.434197,-36.03504,-94.622589,-16.85002,-31.28279,0.0,54.045856,-15.860356,-18.086666,-32.168678,-59.056458,-41.475025,-67.878639,-45.38364,-71.782368,0.0,-30.704837,-57.24015,-125.929826,-51.030281,-117.342487,-36.4497,-91.729848,-16.933112,-39.270107,278.399529,-1.168321,-270.88076,-12.225609
79,0.18441,-0.203993,0.286148,0.070006,0.0,-51.16008,15.369667,22.780746,31.527259,64.468025,41.68618,81.554512,47.31974,87.316932,0.0,-37.477696,-56.598149,-125.685584,-50.200312,-122.558167,-36.036676,-94.639675,-16.738511,-31.461285,0.0,53.996887,-15.912609,-18.043957,-32.161183,-58.963852,-41.399403,-67.618755,-45.269989,-71.438358,0.0,-30.721664,-57.31701,-125.769633,-51.064312,-116.965253,-36.44161,-91.443202,-16.864951,-39.044625,278.340357,-1.495685,-270.838194,-12.278974
80,0.188232,-0.375066,0.242809,0.1313,0.0,-51.249802,15.105904,22.398033,31.350655,64.129898,41.589432,81.265366,47.296417,87.132019,0.0,-37.525873,-56.728269,-125.783637,-50.338923,-122.65948,-36.167037,-94.623243,-16.821139,-31.654033,0.0,54.1432,-15.836975,-17.8946,-32.04792,-58.805786,-41.248249,-67.191753,-45.120048,-71.055496,0.0,-30.612761,-57.383633,-125.733404,-51.147156,-116.781706,-36.532569,-91.35025,-16.952828,-38.934685,278.24754,-1.981232,-270.876434,-12.258155
81,0.129936,-0.500425,0.249012,0.223907,0.0,-51.393928,14.912041,21.944,31.223282,63.802071,41.49305,80.979218,47.218048,86.987091,0.0,-37.541756,-56.843045,-125.736788,-50.480264,-122.621615,-36.302308,-94.472869,-16.901582,-31.832949,0.0,54.190739,-15.66576,-17.678181,-31.911449,-58.495846,-41.120659,-67.038471,-45.01363,-70.739971,0.0,-30.682576,-57.500841,-125.830729,-51.261364,-116.717967,-36.647894,-91.352534,-17.043935,-38.902883,278.095974,-2.569858,-270.908924,-12.122449
82,-0.023895,-0.373781,0.288574,0.257789,0.0,-51.474793,14.770409,21.505096,31.135277,63.595871,41.430862,80.782562,47.173645,86.978302,0.0,-37.777661,-57.121447,-125.862302,-50.81321,-122.708492,-36.627393,-94.601681,-17.160082,-32.386554,0.0,54.192856,-15.566185,-17.553119,-31.779762,-58.23555,-40.950771,-66.902961,-44.834655,-70.551681,0.0,-30.852704,-57.577757,-125.966746,-51.306632,-116.648615,-36.701802,-91.276315,-17.083615,-38.796585,277.809002,-2.981563,-270.883427,-11.902584
83,0.029938,-0.350107,0.172852,0.201344,0.0,-51.421692,14.597213,21.019867,30.944984,63.181091,41.222831,80.257347,46.977127,86.826782,0.0,-37.878734,-57.294718,-125.880759,-51.037283,-122.80355,-36.921176,-94.602816,-17.513411,-32.919033,0.0,54.246517,-15.370606,-17.138832,-31.58725,-57.807255,-40.744618,-66.649132,-44.640232,-70.362854,0.0,-30.961441,-57.685574,-126.064664,-51.391731,-116.606422,-36.752382,-91.108015,-17.092885,-38.7079,277.62061,-3.355888,-270.928905,-11.725458
84,-0.148545,-0.26565,0.148819,0.080547,0.0,-51.232383,14.375016,20.542809,30.726632,62.768647,41.029839,79.916657,46.814415,86.72651,0.0,-37.973582,-57.411643,-125.990211,-51.184422,-122.841867,-37.113115,-94.767659,-17.748717,-33.434291,0.0,54.170471,-15.1115,-16.685051,-31.320328,-57.451733,-40.478394,-66.451103,-44.400467,-70.072002,0.0,-31.191603,-57.748528,-126.309251,-51.450801,-116.698855,-36.810649,-91.045091,-17.146589,-38.774597,277.293937,-3.635688,-270.958214,-11.659061
85,-0.041862,-0.175476,0.224922,-0.102444,0.0,-51.418877,14.029564,19.828171,30.388092,62.167808,40.713455,79.198105,46.502357,86.557136,0.0,-38.006292,-57.543999,-126.276252,-51.353977,-123.070411,-37.312211,-94.845224,-18.016708,-34.074452,0.0,54.243141,-14.879642,-16.29641,-31.118523,-57.016468,-40.326233,-66.134846,-44.306351,-69.560715,0.0,-31.247758,-57.79586,-126.453729,-51.489655,-116.745841,-36.821734,-90.819709,-17.105759,-38.819847,277.089346,-3.822156,-270.896021,-11.772497
86,-0.299812,-0.199738,0.246895,-0.072618,0.0,-51.590813,13.780517,19.230468,30.127945,61.569877,40.430923,78.773529,46.168304,86.331184,0.0,-38.037414,-57.581586,-126.53133,-51.413677,-123.300536,-37.406504,-95.083365,-18.185614,-34.420272,0.0,54.573852,-14.606575,-15.778336,-30.829216,-56.560124,-40.093391,-65.54734,-44.181633,-69.088406,0.0,-31.319661,-57.879242,-126.598268,-51.661686,-116.952854,-37.0454,-90.825223,-17.348779,-39.169979,276.650797,-4.034824,-270.787863,-11.858045
87,-0.366578,-0.105828,0.439156,-0.142212,0.0,-51.62709,13.519936,18.538971,29.814812,60.817566,40.075379,78.143807,45.760735,86.027413,0.0,-37.995652,-57.485996,-126.601701,-51.30402,-123.402746,-37.354325,-94.792471,-18.291194,-34.565003,0.0,54.810596,-14.250824,-15.084332,-30.471406,-56.000691,-39.802563,-64.812539,-44.02034,-68.21568,0.0,-31.555751,-57.832515,-126.699655,-51.661154,-117.073544,-37.071495,-90.533452,-17.414227,-39.386876,276.158695,-4.147593,-270.474231,-12.007198
88,-0.629539,0.174624,0.912048,-0.076564,0.0,-51.767876,13.168716,17.692886,29.474762,59.92186,39.785316,77.493988,45.49807,85.632637,0.0,-38.375794,-57.51195,-126.675888,-51.315963,-123.377286,-37.357628,-94.664697,-18.346078,-34.895096,0.0,55.059036,-13.940495,-14.541504,-30.152561,-55.434551,-39.583981,-63.886929,-43.963989,-67.017941,0.0,-31.844045,-57.742316,-126.755818,-51.594482,-117.112058,-37.051402,-90.063328,-17.430017,-39.646278,275.365648,-3.970984,-269.725691,-12.081777
89,-0.992317,0.553994,1.529423,0.295334,0.0,-52.046814,12.815071,16.527878,29.135055,58.579742,39.522262,76.160568,45.307777,84.826721,0.0,-39.436141,-57.573725,-126.644414,-51.388619,-123.256601,-37.477227,-94.481366,-18.559809,-35.496502,0.0,55.287243,-13.493443,-13.918076,-29.601426,-54.435906,-39.12196,-62.365334,-43.692032,-65.82248,0.0,-32.461902,-57.629079,-126.596527,-51.48498,-117.074817,-37.001718,-89.476446,-17.413054,-40.110301,274.171114,-3.408011,-268.398485,-11.777464
90,-1.94046,1.167101,2.706642,0.510645,0.0,-51.870873,12.7042,15.168685,28.881111,56.534614,39.275047,74.333793,45.16658,83.576705,0.0,-41.09987,-57.384787,-126.008656,-51.341139,-122.695561,-37.715743,-94.623077,-19.101539,-36.752604,0.0,55.745853,-13.270981,-13.351856,-29.296337,-53.10307,-38.970452,-60.675774,-43.880871,-63.583534,0.0,-33.169302,-57.178887,-125.865754,-51.086591,-116.443005,-36.852955,-88.811413,-17.51288,-38.997448,272.063439,-2.238342,-265.859058,-11.264251
91,-3.264496,2.38721,4.091812,1.117503,0.0,-50.916298,12.293403,13.220764,28.242393,53.191063,38.602569,70.454017,44.606941,80.78041,0.0,-43.734934,-57.338833,-124.706761,-51.461188,-120.378785,-38.153493,-94.507154,-19.878032,-38.751762,0.0,55.849663,-13.048657,-12.493996,-28.847294,-51.068401,-38.632198,-57.471451,-43.885895,-60.237042,0.0,-34.408935,-56.632192,-124.772709,-50.578157,-115.554966,-36.638656,-87.792499,-17.637609,-38.642809,268.637244,0.156164,-261.928945,-10.139452
92,-4.83387,3.897229,5.64402,2.032836,0.0,-50.073876,11.158264,9.856201,26.432327,46.690681,36.734916,62.806297,43.198128,74.240547,0.0,-47.137369,-56.498886,-121.758808,-50.827376,-115.818048,-37.938391,-92.74836,-20.215579,-40.561166,0.0,56.042232,-12.495918,-11.017765,-28.109631,-47.634636,-38.02034,-52.691151,-43.648006,-53.878201,0.0,-36.288414,-56.055882,-123.214648,-50.002655,-113.686479,-36.294947,-86.516878,-17.564633,-36.900922,263.651568,4.097789,-256.436731,-8.06222
93,-7.000511,5.461292,7.298424,3.24822,0.0,-49.056931,9.538284,4.467842,23.985351,35.157371,34.122528,50.48616,41.044075,63.510177,0.0,-49.787121,-54.083604,-115.91423,-48.36701,-108.121711,-36.072503,-87.444752,-19.290557,-40.850404,0.0,56.12614,-11.366101,-8.326287,-26.357884,-41.63332,-36.216339,-46.364342,-42.115208,-47.821232,0.0,-38.499554,-55.092958,-120.612103,-48.918263,-110.994859,-35.546174,-85.03974,-17.28972,-37.563208,256.441304,9.65358,-249.34806,-4.719501
94,-9.131539,6.983287,9.515419,4.78465,0.0,-49.042625,7.575806,-4.035576,20.861824,20.858048,30.396721,35.480164,36.945648,48.966431,0.0,-51.048418,-50.634844,-106.344355,-44.814318,-95.172174,-33.275945,-76.98461,-17.80186,-38.814759,0.0,55.206379,-10.452519,-5.413582,-24.983986,-35.022503,-34.815617,-39.783989,-40.94664,-42.151005,0.0,-40.612529,-53.762675,-117.207691,-47.243264,-106.866374,-33.874874,-81.825835,-15.82224,-36.529993,246.91135,16.819448,-240.231056,0.24773
95,-11.58633,8.710568,10.815113,6.219928,0.0,-50.802944,3.842239,-15.606903,15.505359,2.986129,24.017372,16.532043,29.907142,30.286732,0.0,-47.866952,-47.040846,-91.049083,-40.298356,-77.27863,-28.628824,-61.39753,-13.641626,-31.446076,0.0,53.780903,-9.373604,-0.651833,-23.355618,-26.301933,-32.975098,-31.880596,-38.86314,-36.604305,0.0,-42.637425,-51.610198,-112.179862,-44.559239,-100.043084,-30.99184,-75.657377,-13.153214,-33.752238,234.991745,25.524863,-229.749218,6.462505
96,-13.363678,9.852797,12.109543,7.628911,0.0,-54.784344,-1.413323,-30.082604,8.138683,-17.962052,15.243622,-5.383118,20.237938,8.543323,0.0,-39.818756,-42.967005,-70.26923,-34.602948,-55.81486,-22.094587,-40.796672,-6.96159,-18.888876,0.0,52.012413,-7.817929,6.116775,-21.532299,-16.07626,-31.271977,-24.22752,-37.160122,-31.471745,0.0,-42.617158,-48.524721,-104.304195,-41.551055,-88.834809,-28.660601,-65.826322,-12.205283,-30.069134,221.850506,35.473731,-217.417236,14.187487
97,-9.445015,10.843984,11.66962,5.84435,0.0,-56.028454,-10.847283,-52.133011,-3.368878,-46.809929,2.717995,-34.423508,7.024887,-18.71394,0.0,-37.548255,-37.105359,-50.313603,-26.756639,-33.89565,-13.135622,-19.292351,2.242766,-3.014501,0.0,47.557423,-6.789837,14.415711,-18.727409,-2.070305,-26.688434,-11.023269,-30.737011,-17.961971,0.0,-42.197521,-42.90636,-90.39205,-35.322767,-74.790815,-22.359281,-54.407899,-6.666982,-26.26786,212.798006,46.649994,-205.355101,20.364116
98,-17.134094,14.696691,12.569681,8.049749,0.0,-60.859715,-17.30777,-69.148087,-11.331311,-66.28331,-5.919182,-54.488434,-1.884522,-37.463551,0.0,-30.535496,-30.97192,-29.860162,-19.246029,-12.514447,-4.798112,0.714832,10.985191,12.832865,0.0,45.009396,-5.182668,23.593712,-15.952423,11.491923,-22.648756,2.395993,-25.323555,-4.671083,0.0,-38.792495,-36.840595,-73.745182,-28.208474,-57.352084,-14.668285,-38.835013,1.089231,-14.530146,196.276961,61.657219,-192.172371,28.724399
99,-16.524102,16.498845,12.635251,9.698421,0.0,-65.8232,-23.728706,-83.461715,-19.120273,-84.941368,-14.364074,-74.305069,-10.315841,-55.574146,0.0,-24.468554,-25.370496,-13.913779,-11.968378,3.204646,3.882508,16.080687,20.641604,28.796718,0.0,45.330196,-2.299513,34.633884,-12.030888,26.359617,-17.835314,17.102508,-19.560712,8.711717,0.0,-32.460218,-30.390203,-54.248496,-20.362769,-37.146189,-6.121485,-20.469243,10.087501,1.198783,180.796251,78.584852,-178.493728,38.851608
100,-19.609325,19.541517,11.027423,14.079564,0.0,-68.745003,-30.493057,-94.044869,-27.184456,-98.08699,-22.546326,-88.622795,-17.644295,-68.567047,0.0,-20.193144,-17.865796,-0.622382,-2.534509,16.664757,14.181766,29.776938,30.88642,41.681355,0.0,48.445256,3.220957,48.201771,-5.049305,44.196081,-10.062235,35.024872,-11.546665,24.636824,0.0,-28.442737,-25.16455,-36.194047,-13.624596,-19.635131,1.622627,-3.932853,18.480684,14.877344,162.209599,98.780062,-166.443632,53.584865
101,-18.935165,21.034024,10.703877,16.460313,0.0,-70.633255,-33.782021,-101.199074,-30.460282,-107.302025,-25.124222,-98.1568,-18.951027,-76.045784,0.0,-20.857918,-10.268605,7.08465,5.812233,25.843406,22.403809,38.998232,38.527546,51.461417,0.0,52.327846,7.267851,59.537578,0.321338,59.917711,-3.877596,51.662487,-5.10101,40.061125,0.0,-27.853669,-20.395146,-21.306696,-6.816224,-5.694098,9.958841,8.724765,28.364246,27.71909,143.607439,120.31131,-155.40675,70.542402
102,-26.530838,23.191053,12.069397,22.543525,0.0,-73.77665,-33.659409,-99.09121,-29.945229,-103.760537,-24.063035,-95.003712,-16.83236,-73.429116,0.0,-12.502804,-4.169011,16.224513,12.527275,34.061101,28.814416,47.417407,43.998718,58.341993,0.0,59.75552,15.239565,68.830272,8.848057,70.428011,3.997965,61.603729,1.210281,45.363733,0.0,-26.193317,-16.346066,-9.165762,-0.959351,7.160665,17.048023,22.295394,36.597361,40.439669,117.144059,143.725381,-143.269895,93.308945
103,-18.314187,20.071638,11.659784,22.653414,0.0,-74.259864,-34.036743,-96.899368,-30.36589,-103.844535,-24.735443,-96.154609,-17.730972,-75.083633,0.0,-8.882686,0.572185,19.388987,18.671021,39.558604,35.550978,54.08382,50.475781,65.458716,0.0,65.163048,21.339581,77.834484,14.715363,80.775913,8.683903,71.068325,3.957172,51.266235,0.0,-26.176821,-11.751684,0.340072,4.525459,18.402116,22.833067,34.463133,42.58782,51.226703,98.868192,163.998205,-131.571791,116.163545
104,-17.473983,19.600044,11.483505,23.523906,0.0,-71.792885,-34.303368,-94.670735,-30.494454,-101.115715,-24.578774,-93.575077,-17.091568,-72.517319,0.0,-4.047196,6.684914,25.276086,25.271949,46.371608,41.603784,61.302561,55.072018,70.773567,0.0,67.777497,26.221436,83.894554,18.942364,85.74915,11.164914,73.640122,3.829846,50.481228,0.0,-28.517786,-7.220217,7.875091,8.289418,25.935858,25.213693,40.753635,42.877219,54.387805,81.306799,183.600259,-120.175696,139.689461
105,-15.064202,29.135647,14.101181,22.418456,0.0,-72.887111,-34.394966,-93.264644,-31.197349,-98.799396,-26.557319,-92.850631,-20.539146,-74.05719,0.0,1.81398,7.145696,17.112361,18.09523,31.005734,27.064477,38.513708,33.594485,42.959811,0.0,67.679924,31.887394,86.400959,24.851452,85.400277,16.534104,73.467602,7.898449,52.096104,0.0,-27.997439,1.03038,19.379335,17.869834,38.614657,34.557704,53.897945,50.934691,66.164763,66.228664,212.724087,-106.088448,162.096098
106,-13.157844,17.620925,11.723683,22.053196,0.0,-71.99865,-33.026871,-87.187214,-29.99746,-92.47554,-26.199509,-88.193665,-21.637299,-72.781792,0.0,11.469843,9.622011,11.008073,20.713064,24.39802,29.280687,32.577838,34.42415,38.5483,0.0,68.881428,36.370365,90.797722,29.197368,87.466072,20.529064,75.238849,11.135364,54.113468,0.0,-24.562776,8.140742,30.906822,25.897518,50.334836,42.465215,65.330689,57.543739,76.085017,53.278301,230.366887,-94.157284,184.171169
107,-7.963463,14.741367,9.624035,20.294656,0.0,-70.941055,-30.091621,-82.106243,-27.3246,-90.03297,-24.424072,-88.211185,-21.064407,-73.82,0.0,10.546143,14.688373,3.687784,25.931987,18.296375,33.610317,28.429408,37.014259,39.804402,0.0,69.521255,36.328766,93.883518,28.2388,89.349231,18.836483,75.671001,8.686786,52.922378,0.0,-21.479844,14.801574,40.020232,32.249795,59.488877,47.493588,74.281633,60.480601,84.728963,45.763395,245.058699,-84.084692,204.41627
108,-6.37088,18.098638,9.837627,19.539349,0.0,-68.204601,-31.946778,-76.211003,-28.287781,-79.164173,-24.693855,-76.063729,-21.01371,-64.890038,0.0,15.589596,16.663584,8.034396,23.319253,16.324438,26.685367,21.505792,25.934803,29.215516,0.0,68.410572,39.163834,93.345657,30.891987,85.213623,20.899635,70.876419,9.902985,49.538452,0.0,-18.543303,22.411497,47.677049,40.834066,64.85216,55.564565,78.881261,66.628584,88.264014,39.826155,263.028421,-73.813425,223.826703
109,-3.705025,21.832056,6.203648,17.532276,0.0,-67.979004,-36.473946,-64.335594,-33.389923,-62.972843,-30.207825,-60.515957,-26.735962,-54.10833,0.0,20.643422,12.853879,9.519073,13.505186,12.055175,11.693404,11.358964,6.704415,14.227134,0.0,69.727329,40.356479,94.98492,32.565548,88.036457,23.376995,74.700428,13.20774,55.461181,0.0,-15.708774,28.144097,54.859819,47.825682,72.487265,62.884483,87.001106,73.451695,95.781212,36.615,284.721517,-67.115907,241.220019
110,-0.368477,8.39771,3.535778,14.377003,0.0,-65.810165,-40.112354,-50.679954,-36.483146,-45.650116,-32.097313,-41.65329,-27.105514,-38.169983,0.0,23.595796,12.693069,21.714409,14.309905,26.350074,13.587894,26.937407,9.954451,30.227123,0.0,70.935219,37.930137,95.559906,29.141956,90.372253,19.441143,75.638832,9.295051,54.485653,0.0,-12.915951,29.936538,57.529228,48.310644,74.257081,62.126558,86.457221,71.443806,92.67792,36.792429,292.971597,-63.034223,255.449392
111,-0.091438,16.730953,4.135448,11.652426,0.0,-64.766407,-46.832039,-40.802628,-43.543488,-30.586132,-38.31823,-25.433373,-31.663216,-27.252319,0.0,23.55924,10.770705,30.740837,6.447595,30.340843,0.458472,25.464252,-7.195269,21.847679,0.0,70.517338,37.464935,93.753422,28.279392,90.03336,18.179867,74.34605,7.777348,52.694573,0.0,-10.546995,32.598092,59.793047,50.201825,75.114436,62.974651,86.738334,71.288405,91.794569,37.287649,309.553707,-58.312117,266.952975
112,0.827431,8.744007,3.543251,9.240159,0.0,-61.561032,-52.590866,-28.164345,-50.699513,-13.867585,-45.92252,-8.159546,-39.3032,-15.879822,0.0,26.145013,8.47927,41.972113,2.374884,38.358726,-4.48597,28.355851,-12.054162,17.88161,0.0,70.061451,37.367386,92.726429,27.905274,89.403362,17.536732,73.588749,7.213211,52.621433,0.0,-8.006534,34.03632,60.565335,51.631903,75.388892,63.944947,85.857303,71.604024,89.817011,38.684979,318.182151,-54.198967,276.077571
113,0.182556,1.973926,0.339924,6.548248,0.0,-55.848129,-53.125305,-16.896584,-54.068058,-4.241409,-51.004406,-2.118439,-45.310799,-13.876213,0.0,19.895699,7.928864,42.247384,5.731352,41.93137,2.327731,35.391149,-1.95261,27.270674,0.0,71.475426,34.948116,93.80349,25.606773,93.021675,15.873802,77.140045,6.585388,55.497551,0.0,-5.815308,33.16748,61.309675,49.854578,76.342973,61.461716,85.656182,68.728628,89.341274,39.558369,320.051036,-53.168209,282.520778
114,-2.898033,-3.520762,1.162937,4.076429,0.0,-45.597782,-49.468117,-10.145966,-51.80595,1.087578,-49.357876,1.38993,-44.02636,-13.747948,0.0,15.762583,11.189793,42.063726,13.508644,44.713461,14.03514,42.170616,13.221962,38.096868,0.0,71.24168,34.043793,93.364163,24.699188,92.689533,15.02425,76.689686,6.022534,55.538967,0.0,-3.634296,33.194564,60.396472,49.727767,74.378507,61.020547,83.252572,68.083262,87.201684,37.441212,316.362548,-51.224396,286.429481
115,-1.017289,-6.578135,0.449124,2.275996,0.0,-39.912117,-47.56549,-5.484603,-52.026168,2.705315,-51.222026,-0.184204,-47.526351,-27.302387,0.0,7.985452,14.921789,43.017412,23.355327,49.57223,28.834602,51.176741,32.488682,52.78708,0.0,71.278335,33.107689,92.899932,24.037387,92.418937,14.702854,76.960945,6.044025,56.575035,0.0,-1.640794,33.641044,59.465203,50.25771,72.45597,61.364621,81.178463,68.242184,85.84856,37.174507,309.602755,-50.024688,288.523819
116,-6.193107,-7.047464,-0.154541,1.002457,0.0,-26.843926,-41.863953,4.535454,-48.772762,9.009613,-50.005211,2.97155,-48.288025,-24.886929,0.0,-0.183892,17.348359,44.289668,31.959235,55.357454,42.732459,60.465745,50.849279,65.163407,0.0,71.247688,32.346576,92.459472,23.555042,92.133293,14.486126,77.103263,6.115917,57.514091,0.0,0.092662,33.689246,58.731656,50.411406,71.507891,61.485552,80.059705,68.337427,84.869395,31.763867,302.385972,-49.396762,289.356957
117,-10.496704,2.959303,-0.214886,0.091477,0.0,-11.584442,-31.958943,17.508865,-39.488972,20.221275,-41.80045,11.670479,-41.1343,-23.795094,0.0,-7.988923,13.801562,37.105859,29.789053,51.252891,41.862926,58.791159,51.128871,65.144362,0.0,70.729511,31.690109,92.221538,23.093902,92.09396,14.153641,77.412838,5.840584,58.30846,0.0,1.482417,33.28898,58.029023,50.11535,70.765527,61.2736,79.433309,68.28153,84.59095,22.074469,305.178277,-48.804342,289.281436
118,-7.656761,1.218693,0.065334,-0.11498,0.0,-3.972405,-26.850872,24.783142,-34.444577,27.08876,-36.914292,18.926559,-36.344433,-17.885731,0.0,-8.934803,13.973019,35.890735,29.571359,50.025578,41.123638,57.068583,49.95412,63.753336,0.0,70.257088,31.100098,91.777176,22.495938,91.74289,13.511753,77.074837,5.146054,57.903374,0.0,2.415887,32.912081,57.643701,49.818047,70.547537,61.02792,79.438275,68.020179,84.492447,15.211344,306.240244,-47.945372,289.00973
119,-0.317505,-1.649995,-0.018459,0.029789,0.0,-8.496918,-29.333737,25.26535,-37.953118,26.508087,-41.32798,17.218094,-41.764138,-30.487896,0.0,-12.313909,14.251772,37.276401,31.511198,51.756824,43.857118,58.672462,53.509115,66.923058,0.0,70.19672,30.564937,91.46426,22.072426,91.586391,13.217102,77.039806,5.022022,57.865688,0.0,3.096795,32.798842,57.551841,49.8507,70.458998,61.183642,79.382711,68.193969,84.260512,15.628996,304.484187,-47.228674,288.933457
120,-10.160694,-0.108953,-0.223904,0.082758,0.0,3.875026,-20.527325,36.630191,-29.027264,37.47781,-32.993821,28.242588,-34.208119,-14.320919,0.0,-13.579755,14.122591,37.19688,32.015749,52.437104,44.956424,59.565226,54.56443,65.646246,0.0,69.90445,30.399845,91.194672,21.83408,91.355576,12.885258,76.757469,4.62299,57.617203,0.0,3.580301,32.59761,57.394241,49.764768,70.601963,61.171193,79.591217,68.163896,84.194785,6.21555,304.263882,-46.70533,288.904863
121,1.941375,-0.727333,-0.332142,0.067394,0.0,-0.411129,-21.65522,34.119999,-30.108673,35.24049,-34.498478,25.673573,-36.047802,-25.094021,0.0,-12.680484,15.336888,37.896709,32.786554,52.827057,44.979086,59.517295,54.199695,67.622925,0.0,69.911007,30.049725,91.492161,21.436261,91.486096,12.481923,76.957684,4.249295,57.630947,0.0,3.926338,32.524683,57.177745,49.787147,70.684696,61.208169,79.756672,68.095205,84.14268,8.829054,303.427267,-46.365343,288.862975
122,0.436318,-2.62937,-0.222541,0.018352,0.0,-3.038738,-24.25755,32.557766,-32.882527,34.730541,-36.877018,25.007915,-37.826008,-24.197457,0.0,-6.651186,16.971224,42.721825,34.955883,55.572419,47.336322,61.500335,56.723286,67.563374,0.0,70.128398,29.968402,91.757869,21.322986,91.588863,12.296699,77.038158,3.958808,57.557292,0.0,4.004934,32.481322,56.865066,49.721123,70.697541,61.155608,79.835737,68.012942,84.173753,9.862879,300.704437,-45.990377,288.787867
123,1.579307,-2.341687,-0.14629,0.193995,0.0,-6.14574,-25.712391,30.736508,-35.079918,32.606724,-40.272937,21.307148,-42.446491,-35.676338,0.0,-5.837167,18.306182,44.195289,36.968786,57.467243,49.324982,63.24271,58.699633,69.665457,0.0,70.271576,29.900631,91.861175,21.305202,91.678825,12.302765,77.146774,3.955536,57.510154,0.0,3.969613,32.432083,56.53559,49.612974,70.507226,61.025981,79.606705,67.857627,83.966704,11.925235,298.306314,-45.653618,288.925426
124,-7.468139,1.514528,-0.050469,0.163997,0.0,4.020618,-19.062996,39.281879,-27.72844,40.955051,-32.61216,29.159374,-34.231716,-22.844456,0.0,-4.792635,17.694988,43.775336,36.312404,56.655336,48.875278,62.734294,58.191773,66.453052,0.0,70.158325,29.694123,91.856987,21.114338,91.553582,12.155216,77.130066,3.805435,57.425194,0.0,4.156482,32.264837,56.085182,49.424721,70.325692,60.822711,79.465741,67.639944,83.717566,4.837046,299.758832,-45.324137,289.027413
125,4.179989,-1.201799,-0.009338,0.236047,0.0,-2.183373,-22.777932,34.202339,-31.607438,35.906982,-36.635491,23.808059,-38.123223,-31.825299,0.0,-3.556391,18.926934,44.672409,37.167919,57.607898,49.152204,63.454279,58.286214,68.204195,0.0,70.244774,29.362026,92.023086,20.913025,91.622108,12.126926,77.482269,3.964474,57.687355,0.0,3.992473,32.142782,55.927324,49.2854,70.2447,60.691949,79.487699,67.499833,83.57512,9.278452,298.505647,-45.072058,289.212074
126,-5.343247,1.379381,0.054691,0.223006,0.0,5.176277,-18.39584,40.277893,-26.879402,41.36499,-31.327846,29.262039,-32.320656,-19.942806,0.0,-2.914434,17.147114,43.506228,36.03218,56.886826,48.856172,63.137734,58.608613,65.273236,0.0,70.276852,29.277432,92.093502,20.854786,91.565014,12.12917,77.457928,4.041149,57.618542,0.0,3.657415,32.006831,55.800611,49.084859,70.037823,60.458445,79.340943,67.243136,83.402712,4.123512,299.838984,-44.82906,289.389036
127,-0.8825,0.998257,-0.086677,0.199034,0.0,8.51603,-15.830062,41.608063,-24.451961,42.922806,-29.466774,29.978119,-31.304855,-17.115234,0.0,-3.406634,16.477752,40.880811,34.745944,55.594736,47.501776,62.382218,57.42482,66.174792,0.0,70.292667,29.250686,92.279606,20.877296,91.666225,12.246471,77.601688,4.298618,57.736965,0.0,3.476313,31.913811,55.927681,48.979463,69.989757,60.348517,79.321146,67.104691,83.265453,3.358389,300.802392,-44.79836,289.553221
128,-3.992431,-0.207148,0.05928,0.08939,0.0,12.228195,-11.193226,45.848213,-19.793736,47.105118,-25.469055,34.13768,-28.152581,-12.293301,0.0,-3.78078,16.334182,40.564513,34.737806,55.489797,47.690547,62.694341,57.685765,66.029728,0.0,70.233456,29.129231,92.236828,20.755589,91.547916,12.155674,77.492992,4.27454,57.612408,0.0,3.393728,31.698721,56.071621,48.841982,70.242773,60.285618,79.522094,67.081609,83.273913,-0.587591,300.566274,-44.692629,289.613641
129,0.256485,-2.617723,0.054794,0.134356,0.0,10.185562,-9.34718,45.073013,-18.467984,46.4412,-25.671868,33.77021,-30.256703,-13.747181,0.0,-4.676865,18.10611,40.905436,36.564185,57.281114,49.309161,64.452042,59.157265,69.550785,0.0,70.415005,29.300034,92.356373,20.924172,91.524662,12.273846,77.448864,4.372364,57.603917,0.0,3.261595,31.440544,56.185045,48.605034,70.347922,60.117163,79.57741,66.996171,83.282015,-0.338636,297.935287,-44.645365,289.734733
130,-2.270691,0.168554,0.164555,0.053649,0.0,13.123146,-6.288231,47.607879,-15.269978,49.315681,-22.819874,36.464538,-28.032475,-10.511742,0.0,-5.373781,17.708869,40.215906,36.221075,56.813034,49.166233,64.390612,59.196168,69.383466,0.0,70.439484,29.419235,92.248238,21.000229,91.407967,12.268627,77.247253,4.267559,57.378433,0.0,3.406004,31.218551,56.145895,48.396984,70.367941,59.938494,79.476633,66.858937,83.207309,-2.655893,298.097505,-44.527376,289.782046
131,3.883072,-1.930084,0.169132,0.001062,0.0,7.761406,-8.812455,43.273636,-18.111615,45.479049,-26.461029,33.044677,-32.406693,-17.373619,0.0,-6.607689,19.932317,41.184919,38.142427,58.058997,50.559459,65.676108,60.043878,72.387217,0.0,70.405186,29.461167,92.09531,21.075051,91.334507,12.316612,77.252896,4.258908,57.458187,0.0,3.778779,31.133323,56.254909,48.356612,70.442696,59.960033,79.519266,66.962628,83.252535,1.161719,296.168474,-44.423704,289.784161
132,1.32106,-1.401154,0.401905,-0.039755,0.0,5.488014,-10.961632,42.208237,-20.186485,43.695785,-28.192532,31.99221,-33.422608,-22.091812,0.0,-6.709281,21.438879,44.584675,40.007117,59.983622,52.195314,67.366328,61.3045,73.044044,0.0,70.429367,29.41222,91.924851,20.973416,91.191101,12.119316,77.074311,3.954552,57.228035,0.0,4.03907,31.011143,56.24067,48.276225,70.508498,59.925527,79.574965,66.99175,83.356881,2.397406,294.763121,-44.107172,289.740207
133,0.631554,2.944544,0.160733,-0.106791,0.0,8.932777,-12.583947,42.760963,-21.473145,44.736351,-28.316769,32.515754,-32.249268,-15.594738,0.0,-7.293996,19.168674,43.946805,37.481525,58.29749,50.096183,65.472937,59.694173,70.285813,0.0,70.576847,29.418125,91.935344,20.970874,91.222995,12.065288,77.195606,3.820896,57.409755,0.0,4.34135,30.803341,56.257528,48.135138,70.534038,59.85933,79.710001,67.013362,83.471724,2.93993,297.699279,-44.035469,289.62503
134,-0.187867,2.931675,0.365547,-0.17941,0.0,13.643051,-12.838165,43.974861,-21.443779,46.276497,-27.282303,33.476418,-30.001888,-9.595413,0.0,-7.631215,16.881192,42.385458,34.883648,56.264172,47.848851,63.604468,57.904399,67.24116,0.0,70.431873,29.177559,91.605526,20.697761,91.048588,11.733478,77.113437,3.393173,57.351894,0.0,4.615177,30.606197,56.515533,48.026643,70.776421,59.855008,80.047529,67.111978,83.775302,2.649444,300.619694,-43.772541,289.43436
135,-0.933792,1.667805,0.416015,-0.08503,0.0,18.982041,-11.651344,45.740936,-20.263572,48.152481,-25.523941,34.45031,-27.48143,-6.711559,0.0,-5.419476,14.844811,40.941066,32.668388,55.438396,45.913518,63.091828,56.310472,66.122291,0.0,70.37637,28.927872,91.427914,20.406155,90.865483,11.365002,77.024197,2.926529,57.251393,0.0,4.845407,30.38098,56.559289,47.852827,70.853954,59.78518,80.259653,67.153869,83.980326,1.615659,302.273886,-43.456519,289.335717
136,0.857575,0.395153,0.474976,-0.005595,0.0,18.396492,-12.673462,45.239433,-21.376145,47.849487,-26.49273,33.69088,-28.377365,-11.850346,0.0,-4.988581,14.549298,41.635141,32.30148,55.601713,45.466359,62.918458,55.91149,66.987909,0.0,70.233456,28.729076,91.082897,20.158562,90.541683,11.016231,76.757641,2.445991,56.979824,0.0,4.911196,30.005328,56.625029,47.561329,71.007565,59.64807,80.424083,67.177051,84.068864,2.353398,302.626969,-43.101379,289.288052
137,-1.00042,0.482345,0.398838,-0.072692,0.0,13.586666,-12.263946,45.909279,-20.82344,49.008934,-25.671684,35.348923,-27.512009,-9.059692,0.0,-2.268216,14.082626,41.98303,31.680604,55.178167,44.817646,62.15258,55.313586,65.903534,0.0,70.054253,28.42876,90.674332,19.84338,90.227348,10.6688,76.627121,2.030788,56.985214,0.0,5.236682,29.909466,56.9188,47.563094,71.307338,59.774868,80.80628,67.419952,84.292783,1.189104,303.045902,-42.866415,289.151948
138,5.843651,-1.439575,0.460064,0.036581,0.0,4.190517,-17.741089,39.579391,-27.030625,42.366188,-32.16584,29.335602,-34.273361,-24.554066,0.0,-1.841719,15.652605,42.859207,33.400785,56.232518,46.030226,62.920384,56.141597,68.160314,0.0,70.028789,28.280628,90.326511,19.732006,89.929539,10.530956,76.35474,1.793209,56.766346,0.0,5.356564,29.923978,56.837919,47.528069,71.407176,59.756244,80.983528,67.457916,84.508489,6.784836,301.528676,-42.65427,289.110878
139,0.400566,-0.390078,0.371658,0.114609,0.0,0.358578,-19.239487,37.645111,-28.669075,40.748703,-33.61655,29.064079,-35.616909,-23.752384,0.0,-2.15089,15.267098,43.058414,33.547295,56.626437,46.569185,62.835021,56.814035,68.060477,0.0,69.930302,28.208508,90.028141,19.720928,89.634121,10.535877,76.061314,1.757183,56.458615,0.0,5.416276,30.057939,56.88543,47.59429,71.425886,59.788304,81.044476,67.488754,84.545057,6.832169,301.045685,-42.635845,289.132574
140,-1.10883,3.759724,0.191563,0.051573,0.0,-0.096176,-17.566028,38.770077,-26.842288,41.427052,-31.980606,30.15128,-34.667507,-17.703723,0.0,-8.282176,12.517253,38.713951,30.350636,52.762824,43.729925,59.258078,54.558119,64.560895,0.0,69.866157,28.1311,89.789223,19.6371,89.317291,10.44817,75.719627,1.614532,56.034096,0.0,5.540544,30.209858,56.967757,47.690708,71.633825,59.824936,81.346795,67.466142,84.648898,5.235551,304.702265,-42.93207,289.081003
141,-2.218002,0.400821,0.082363,0.01524,0.0,2.909752,-14.246269,41.295902,-23.540188,43.726628,-29.177513,32.25903,-32.516785,-12.951988,0.0,-8.863382,12.250516,37.912926,30.015715,52.572646,43.470512,59.23554,54.242007,63.487266,0.0,70.04282,27.814156,89.55582,19.381851,89.093159,10.335377,75.57597,1.645432,55.893597,0.0,5.699934,30.497603,56.918233,47.892755,71.725549,59.916438,81.564934,67.434019,84.859911,2.42839,305.00138,-43.438866,288.994537
142,1.78553,-1.697383,0.159588,0.156328,0.0,4.809986,-13.626583,39.457272,-23.29937,41.928669,-30.209919,30.162403,-35.143398,-19.613342,0.0,-11.943344,13.915172,37.171847,31.825274,53.855425,45.067501,60.473673,55.54704,67.15671,0.0,70.041847,27.537849,89.334389,19.179405,88.845955,10.243252,75.547989,1.637913,55.976807,0.0,5.638368,30.43516,56.744541,47.752322,71.727932,59.768569,81.683581,67.306664,84.919883,3.556131,303.212581,-43.937067,289.059449
143,-4.022392,-0.614194,0.340519,0.049944,0.0,9.939114,-8.860817,43.710285,-18.190189,46.315807,-25.619396,34.576572,-31.241123,-11.258606,0.0,-11.88835,14.13856,36.928463,32.1516,54.538594,45.608484,61.343662,56.09689,67.625939,0.0,69.964062,27.339958,89.124309,18.918491,88.511822,9.958957,75.38673,1.355758,55.862675,0.0,5.834401,30.475137,57.078808,47.753495,71.948146,59.770385,81.905301,67.299835,85.017695,-1.14259,302.527652,-44.272877,289.038658
144,3.933243,-1.720823,0.160343,0.042756,0.0,6.090351,-11.513695,40.471447,-21.036335,42.525455,-29.001377,30.178448,-35.207405,-26.149899,0.0,-11.53867,16.308555,38.406162,34.326535,55.924767,47.176191,62.888212,57.230825,71.985221,0.0,70.021202,27.223869,89.263206,18.71925,88.428223,9.704144,75.417801,1.074554,55.821281,0.0,6.008796,30.516189,57.291081,47.727943,72.197593,59.683613,82.210904,67.1462,85.120621,2.167294,300.755039,-44.735893,289.029624
145,2.030788,-2.291941,0.275391,0.228427,0.0,3.257057,-15.173023,38.246956,-24.82703,40.337586,-32.209156,28.648384,-37.368484,-30.663093,0.0,-7.60644,18.961576,42.887403,37.898426,58.732101,50.616553,64.577914,60.180791,72.205732,0.0,70.031227,26.907829,89.125328,18.494087,88.465438,9.624046,75.688934,1.187233,56.154327,0.0,6.158405,30.374163,57.3091,47.639553,72.102572,59.677104,82.106386,67.218905,85.055499,3.658619,298.424171,-44.999965,289.219124
146,-1.425316,3.177837,0.377243,0.261105,0.0,7.886856,-15.088005,39.37928,-24.351642,42.392372,-30.511997,30.448655,-34.175754,-26.762008,0.0,-4.891436,17.304849,41.94335,35.258843,56.71532,47.784902,62.930709,57.433688,68.860379,0.0,69.964759,26.834232,89.029998,18.447784,88.494415,9.576038,75.95153,1.122345,56.402847,0.0,6.234989,30.169016,57.454683,47.447596,72.067498,59.569017,82.05496,67.243655,84.919389,1.760393,301.585764,-45.095632,289.463985
147,-0.444488,4.27193,0.320114,0.306702,0.0,11.98217,-14.581787,40.065994,-23.909363,43.350769,-29.322544,31.09449,-31.961083,-20.032826,0.0,1.525211,14.053999,39.830004,30.830857,53.997636,43.448788,60.446787,53.623367,63.989161,0.0,70.041137,26.657993,88.899925,18.35234,88.54985,9.568496,76.101517,1.205784,56.430885,0.0,6.223552,30.113379,57.346607,47.39743,71.789164,59.498288,81.770019,67.159378,84.631805,0.92292,305.857114,-45.168503,289.770107
148,1.736458,-0.020167,0.198829,0.344481,0.0,9.651031,-16.521641,38.033203,-25.959412,41.179916,-31.208336,28.392906,-33.632092,-26.009251,0.0,2.113099,14.628141,40.163406,31.404925,53.74021,43.824885,60.271168,53.850694,65.110709,0.0,70.085198,26.289654,88.754837,18.119271,88.717438,9.535298,76.385468,1.382252,56.612137,0.0,6.158541,30.073883,57.066087,47.376151,71.426578,59.452617,81.476149,67.092119,84.356756,2.328993,305.834696,-45.300059,290.112337
149,-4.330925,2.006406,0.254906,0.358029,0.0,14.285179,-13.09084,42.395393,-22.11517,45.424461,-26.577736,32.837631,-28.238148,-11.268311,0.0,4.1025,13.742332,39.465862,30.055247,52.631791,42.505452,58.708834,52.711992,60.405451,0.0,70.093094,25.994167,88.505951,17.952358,88.784638,9.567146,76.575279,1.620976,57.003937,0.0,6.058518,30.07681,56.704749,47.441507,71.019087,59.555357,81.077648,67.23701,84.119622,-2.293579,307.839475,-45.3368,290.468739
150,-0.548378,1.669497,0.320561,0.163601,0.0,16.364296,-10.846699,43.24134,-19.737305,46.835243,-24.556023,33.060493,-26.930592,-9.193177,0.0,9.830073,11.828748,37.306079,27.062711,52.03522,39.556276,58.293599,50.290758,60.598087,0.0,70.08633,25.626663,88.311985,17.598713,88.693668,9.312137,76.554576,1.46743,57.164119,0.0,5.995731,30.215304,56.506419,47.569282,70.699072,59.648749,80.95794,67.286683,84.07804,-3.093795,309.502503,-45.268077,290.625871
