takenoko1/special-research/HandMotion_SimilarSearch_自分用/NewProject/handData/test_key/d4_feature_d3/7.csv
frame,vel_0x_L,vel_0y_L,vel_0x_R,vel_0y_R,posFromWrist_0x_L,posFromWrist_1x_L,posFromWrist_2x_L,posFromWrist_3x_L,posFromWrist_4x_L,posFromWrist_5x_L,posFromWrist_6x_L,posFromWrist_7x_L,posFromWrist_8x_L,posFromWrist_9x_L,posFromWrist_0y_L,posFromWrist_1y_L,posFromWrist_2y_L,posFromWrist_3y_L,posFromWrist_4y_L,posFromWrist_5y_L,posFromWrist_6y_L,posFromWrist_7y_L,posFromWrist_8y_L,posFromWrist_9y_L,posFromWrist_0x_R,posFromWrist_1x_R,posFromWrist_2x_R,posFromWrist_3x_R,posFromWrist_4x_R,posFromWrist_5x_R,posFromWrist_6x_R,posFromWrist_7x_R,posFromWrist_8x_R,posFromWrist_9x_R,posFromWrist_0y_R,posFromWrist_1y_R,posFromWrist_2y_R,posFromWrist_3y_R,posFromWrist_4y_R,posFromWrist_5y_R,posFromWrist_6y_R,posFromWrist_7y_R,posFromWrist_8y_R,posFromWrist_9y_R,posFromBody_0x_L,posFromBody_0y_L,posFromBody_0x_R,posFromBody_0y_R
6,0.503952,0.206382,8.709686,0.03458,0.0,-72.917839,-36.375149,-90.25977,-28.645203,-90.535652,-18.993118,-76.625965,-8.331459,-55.138012,0.0,5.214736,32.212881,61.539683,48.1506,76.791627,59.40607,85.51633,66.166048,88.522427,0.0,-3.342453,15.956589,-42.157791,22.991936,-48.140945,26.738503,-42.574276,28.123078,5.888707,0.0,13.601887,12.212787,53.905665,25.387027,59.697236,35.394126,63.95384,42.451198,66.608824,26.154167,287.218746,-17.091065,299.606385
7,-0.695297,0.117054,-6.496765,-0.571315,0.0,-72.122624,-35.682049,-89.537052,-28.03244,-90.090443,-18.36303,-76.135231,-7.682854,-54.540379,0.0,5.251367,31.545853,61.427915,47.64915,76.701373,59.089142,85.243542,65.977697,88.313204,0.0,6.857712,22.127449,-36.524071,30.743614,-41.398899,35.075958,-35.453499,36.633545,20.326355,0.0,13.896091,11.771815,55.163076,24.741736,59.002704,34.847635,64.165656,42.153944,66.265319,25.969843,287.159348,-23.076857,298.858618
8,-0.685456,0.162194,6.826012,0.894603,0.0,-71.326767,-35.158287,-89.078556,-27.565887,-89.56208,-17.832,-75.771217,-7.011314,-53.996006,0.0,5.225221,31.07214,61.077332,47.194321,76.503598,58.725864,84.996565,65.755,87.935032,0.0,-6.523098,13.963463,-43.636803,22.113647,-48.83424,26.697098,-42.170918,28.855064,5.886635,0.0,7.484113,10.509562,50.082055,24.638316,58.773116,36.085052,65.00109,44.846484,68.441712,25.647474,287.177587,-15.887758,299.609266
9,-0.583694,0.081041,-4.277138,-1.86485,0.0,-70.420921,-34.684319,-88.478886,-27.04097,-88.920456,-17.061379,-74.971848,-5.842644,-52.700111,0.0,5.16935,30.705195,60.81577,46.649658,76.39598,58.114079,85.129019,65.173929,88.05857,0.0,3.487999,19.27478,-40.262604,27.99884,-44.035538,32.505112,-38.09182,34.402313,15.617912,0.0,13.98763,11.273921,54.593873,24.830854,59.924403,35.640547,65.861211,43.767667,68.035468,25.296879,287.127735,-19.931797,297.613523
10,-0.47786,-0.031937,0.552303,1.666212,0.0,-70.029831,-34.274231,-88.119747,-26.590347,-88.422592,-16.45729,-74.356842,-5.01741,-51.851028,0.0,5.287021,30.399641,60.640584,46.293827,76.409305,57.746441,85.242504,64.829016,88.123902,0.0,4.924244,18.846943,-40.602401,27.176159,-44.503509,31.470028,-38.912235,33.256291,11.346325,0.0,14.53617,10.051966,53.949087,22.627277,58.618579,32.650839,64.481706,40.12664,65.803363,24.981107,286.986367,-19.217406,299.170304
11,-0.304527,0.032691,-4.954113,-0.135629,0.0,-69.870632,-34.239178,-88.053074,-26.567871,-88.412235,-16.356354,-74.275314,-4.769691,-51.611652,0.0,5.172325,30.117652,60.519454,45.96792,76.205306,57.441628,85.141566,64.632106,87.976268,0.0,11.734234,22.467957,-38.011802,31.619912,-39.683464,36.507363,-33.879055,38.841843,20.210003,0.0,15.328342,9.637609,55.297482,22.085097,58.248398,31.993345,64.186194,39.422822,64.787334,24.79042,286.9366,-24.057679,298.952217
12,-0.258087,0.032838,-0.200294,0.204295,0.0,-69.589611,-34.212971,-88.010044,-26.572266,-88.396568,-16.323624,-74.344036,-4.607391,-51.444752,0.0,5.046294,30.000302,60.183619,45.736542,75.883637,57.164617,84.951018,64.381227,87.94679,0.0,12.480274,22.397026,-37.945358,31.330925,-39.929318,36.111099,-34.335091,38.513603,21.051372,0.0,15.48541,9.724529,55.475916,21.892077,58.069556,31.543136,63.925249,38.74232,64.104313,24.615692,286.921196,-24.174614,299.10827
13,-0.276878,0.010782,-0.640503,0.150177,0.0,-69.322895,-34.184887,-88.047089,-26.509003,-88.453148,-16.220765,-74.378277,-4.402565,-51.470662,0.0,4.85336,30.070746,60.02534,45.705309,75.667127,57.065594,84.855292,64.281463,88.058619,0.0,12.440586,23.100368,-37.735394,32.165268,-40.001541,36.948235,-34.012482,39.215538,24.415432,0.0,14.496576,8.88087,53.70216,21.461566,57.551619,31.569886,63.882814,39.163742,63.606358,24.402203,286.886381,-24.751728,299.21285
14,-0.289055,0.132776,-2.340408,-1.982287,0.0,-69.123448,-34.047982,-88.097855,-26.377327,-88.534184,-16.202797,-74.585312,-4.591278,-52.017025,0.0,4.647768,29.987741,59.811832,45.718856,75.387817,57.163517,84.422063,64.465479,87.81762,0.0,11.267933,25.203357,-35.891167,34.300941,-37.890232,38.895996,-31.394051,40.962204,33.487117,0.0,11.550476,10.498052,54.707543,23.986528,59.487556,34.589728,65.629919,42.635597,65.035015,24.175947,286.977148,-27.029337,297.188554
15,-0.25438,0.121142,6.866672,-1.859194,0.0,-68.822971,-33.958923,-88.078125,-26.279525,-88.529102,-16.193344,-74.776027,-4.732566,-52.428508,0.0,4.542471,30.094755,59.643772,45.858968,75.188364,57.32718,84.117164,64.652533,87.668603,0.0,-2.745895,18.17379,-42.081035,27.214131,-45.768665,32.370655,-37.822426,35.243191,26.490372,0.0,7.231789,10.371068,52.546279,26.168368,61.328398,38.889582,68.669126,48.633439,68.576896,23.977729,287.05764,-20.106503,295.28871
16,-0.145866,0.142643,1.586014,-1.533559,0.0,-68.709629,-33.937054,-87.98283,-26.270142,-88.36409,-16.236671,-74.656403,-4.836777,-52.495262,0.0,4.38297,30.236769,59.423027,45.952014,75.103667,57.349362,83.972842,64.618262,87.669789,0.0,-8.099373,16.187324,-44.993855,24.772465,-47.737095,29.950802,-38.988487,33.177486,31.0303,0.0,3.205501,11.327854,52.084571,28.277712,62.711174,41.778452,70.200499,52.254261,70.196189,23.876324,287.178528,-18.476028,293.733396
17,-0.165001,0.111126,0.296173,-0.65595,0.0,-68.66431,-33.891884,-87.946644,-26.208526,-88.264091,-16.226074,-74.542248,-4.927917,-52.619236,0.0,4.253529,30.289429,59.392201,45.993486,75.106545,57.376631,83.840165,64.621881,87.560368,0.0,-8.950333,17.039887,-45.538261,25.813442,-47.559071,30.531292,-38.597889,32.836521,27.050514,0.0,2.869233,11.055275,48.718,29.678977,62.440103,44.541635,71.173809,56.265568,72.306089,23.747606,287.269181,-18.143572,293.056973
18,-0.089996,0.071655,-3.9631,-3.986112,0.0,-68.644135,-33.990658,-87.769707,-26.314316,-88.029442,-16.287232,-74.231575,-4.913498,-52.24728,0.0,4.203647,30.298593,59.307912,45.99892,75.160811,57.343668,83.892801,64.525031,87.579609,0.0,-3.901955,22.198402,-42.284169,31.065788,-42.966946,35.52523,-34.396111,37.656532,34.063671,0.0,5.54247,14.035127,56.149081,33.240432,65.663511,48.030989,73.604478,59.475749,75.272702,23.691748,287.323762,-22.072534,289.053787
19,-0.074066,0.064838,2.074413,1.282469,0.0,-68.79863,-34.340927,-87.634999,-26.604332,-87.689507,-16.428772,-73.753212,-4.871842,-51.608528,0.0,4.155717,30.34997,59.370984,46.018482,75.403626,57.300554,84.10994,64.383857,87.475424,0.0,-2.933006,21.13734,-44.293774,30.040752,-45.121456,34.118328,-36.981205,35.506634,26.446083,0.0,8.696718,12.657859,52.714487,32.179412,63.617572,47.361208,72.732859,59.17463,74.864224,23.646738,287.368707,-19.969065,290.316363
20,-0.175713,0.092663,-4.407417,-1.527446,0.0,-68.858242,-34.493854,-87.424358,-26.670021,-87.310089,-16.314056,-73.158131,-4.522293,-50.860107,0.0,3.87248,30.482881,59.301774,46.1004,75.53508,57.275224,84.294549,64.224492,87.316503,0.0,3.165046,25.790233,-41.660489,34.27161,-40.433545,37.769291,-33.068745,38.771495,32.10791,0.0,7.327625,14.494601,55.58703,34.019056,64.807873,48.862916,73.378089,60.618083,76.466857,23.495104,287.438158,-24.352403,288.765705
21,-0.121399,-0.018587,-1.16787,3.358198,0.0,-68.942779,-34.577202,-87.27079,-26.65123,-87.10675,-16.167732,-72.978229,-4.256126,-50.644317,0.0,3.8533,30.478114,59.419964,46.131473,75.654258,57.354203,84.369218,64.318562,87.315009,0.0,13.966335,29.253376,-39.235359,37.525372,-38.898754,39.847973,-33.141563,39.050457,28.807594,0.0,16.135679,13.346104,53.44266,30.770514,61.609152,44.045655,70.177812,54.594663,72.146316,23.391094,287.388171,-25.502884,292.092503
22,-0.088783,0.059281,1.01318,-1.180569,0.0,-68.945732,-34.691059,-87.145832,-26.672173,-86.984493,-16.069267,-72.972347,-4.035118,-50.567986,0.0,3.78751,30.475927,59.390965,46.169214,75.656555,57.442863,84.395621,64.456648,87.217899,0.0,10.08094,27.50544,-41.135182,35.21299,-40.918236,37.915031,-34.637913,38.144279,31.759872,0.0,11.556836,14.503195,56.737563,31.78495,63.539259,44.800875,71.507508,55.167682,73.281572,23.315718,287.406119,-24.476297,290.870601
23,0.161201,0.054883,-0.81062,3.312761,0.0,-68.96735,-34.710743,-87.280998,-26.641868,-87.148475,-16.003738,-73.231567,-3.980026,-50.788868,0.0,3.833886,30.539,59.482418,46.275895,75.666535,57.594523,84.444319,64.640702,87.144652,0.0,20.231358,29.83199,-39.565212,37.409306,-39.667614,39.240246,-34.650684,38.042508,29.63237,0.0,20.313255,13.403557,54.265657,28.88562,60.547885,40.494796,68.385976,49.682974,69.160548,23.486011,287.406461,-25.277825,294.128821
24,0.212906,0.044646,2.029129,-1.477156,0.0,-69.230415,-34.584091,-87.464092,-26.528938,-87.447933,-15.920654,-73.602379,-3.932029,-51.15731,0.0,3.802467,30.53401,59.467709,46.318725,75.498252,57.681418,84.439637,64.771131,87.316898,0.0,13.746289,26.682049,-42.312835,33.773907,-42.222106,36.265332,-36.713859,36.524289,25.037499,0.0,14.536516,14.248907,56.500231,30.114515,62.442757,42.081448,69.907073,51.629186,71.682385,23.694654,287.381635,-23.252959,292.582193
25,0.478661,0.072384,-1.114368,0.543848,0.0,-69.507294,-34.687226,-87.822693,-26.731362,-88.030335,-16.199959,-74.255963,-4.211106,-51.726677,0.0,3.849459,30.349475,59.36955,46.172956,75.235059,57.624274,84.314654,64.829337,87.689747,0.0,15.272644,27.235748,-40.6623,34.677475,-40.342667,37.421951,-34.810558,37.799881,31.01659,0.0,15.039412,14.092136,56.483584,29.643532,62.108392,41.37968,69.273848,50.577848,69.9996,24.144957,287.363558,-24.395685,293.03558
26,0.27198,0.004606,2.264225,-2.904332,0.0,-69.405521,-34.740429,-88.1609,-26.868942,-88.373028,-16.387344,-74.321159,-4.32502,-51.650448,0.0,3.890634,30.166361,59.335366,45.959708,75.117919,57.397762,84.386656,64.663031,88.030486,0.0,3.021904,23.867855,-42.224579,32.149212,-43.169117,36.18964,-35.788353,37.982998,26.578743,0.0,8.828259,14.355205,58.542133,32.111277,65.863978,45.555712,72.931646,55.930238,75.569586,24.373976,287.247025,-22.174421,290.010109
27,0.356209,-0.298316,4.41267,2.274997,0.0,-69.28466,-34.458687,-88.481621,-26.53299,-88.662129,-16.043221,-74.292057,-3.98497,-51.4025,0.0,4.274907,30.037315,59.942274,45.783015,75.615096,57.149265,85.099861,64.363294,88.552116,0.0,-3.605518,18.428181,-45.568359,27.02829,-47.831634,31.880196,-39.691006,34.364983,19.242588,0.0,8.46072,12.267707,54.127348,29.670245,64.485016,43.227153,71.57589,53.707544,74.566055,24.669445,286.822482,-17.822491,292.158879
28,0.255615,-0.696816,-3.907162,-1.353285,0.0,-69.156498,-33.929661,-88.637558,-25.914596,-88.744629,-15.401367,-74.284046,-3.393951,-51.25383,0.0,4.713532,29.764365,60.897391,45.548227,76.443329,56.999063,86.042653,64.344658,89.360614,0.0,-3.731735,20.92273,-40.081295,30.478421,-42.290771,36.220791,-33.075222,39.47057,27.672215,0.0,4.565195,11.785449,57.132679,29.682916,66.733904,43.60199,73.083428,54.300545,75.489199,24.849478,285.986366,-21.805235,290.666294
29,0.325722,-1.277555,-1.089065,2.63552,0.0,-68.372315,-32.878384,-88.415749,-24.799095,-88.389794,-14.268974,-73.98761,-2.336311,-51.024571,0.0,5.658611,29.049197,61.736457,45.012062,77.572325,56.794065,87.400718,64.534195,90.813133,0.0,3.610245,24.140419,-34.839237,33.318409,-38.626671,37.945003,-29.694717,39.68993,30.043064,0.0,13.199138,11.718919,59.313691,26.716266,66.712526,37.8223,70.34003,45.696157,70.149653,25.070818,284.565627,-22.998682,293.15863
30,1.087944,-3.061956,-2.457378,7.043066,0.0,-67.340309,-31.723206,-87.874203,-23.552925,-87.543972,-13.02356,-73.371174,-1.239967,-50.238957,0.0,7.039016,28.53862,63.071476,44.724749,79.690661,56.791916,89.590845,64.857162,92.848673,0.0,18.474552,29.981586,-26.990262,37.500137,-32.855015,39.799232,-26.799431,38.994277,22.127288,0.0,21.31229,8.259056,56.411101,17.283138,60.128834,23.235952,59.300983,26.305157,54.275463,26.07011,281.395167,-25.544712,300.093192
31,2.602249,-5.456217,-4.114071,5.991779,0.0,-66.208992,-30.717464,-87.301231,-22.400276,-86.442295,-11.887321,-72.461174,-0.354927,-49.014347,0.0,8.440516,28.551094,64.400123,45.00212,81.406359,57.307013,91.170198,65.537701,94.222941,0.0,37.077861,35.668487,-14.206547,39.510715,-21.315285,38.51152,-18.982453,34.857422,26.352253,0.0,25.23538,4.77448,50.911399,8.390028,50.15592,9.769582,46.097868,8.954205,35.887746,28.591232,275.891235,-29.73991,306.037256
32,3.906807,-7.79778,-6.177315,5.259529,0.0,-64.964848,-28.403446,-86.328232,-20.241096,-85.377777,-10.333145,-71.567825,0.177704,-48.183586,0.0,8.486582,26.3397,63.215453,43.591444,80.809912,56.751506,90.283598,65.751851,93.927786,0.0,58.129795,44.279491,3.224235,45.936687,-4.61713,42.201279,-6.219086,35.401703,32.503269,0.0,28.042678,2.678535,43.140752,-0.265255,35.349604,-4.780371,27.638818,-10.375724,11.794156,32.463644,268.072877,-35.95162,311.276207
33,6.908604,-13.31823,4.430569,-1.532275,0.0,-61.713061,-30.615898,-87.803673,-22.963475,-85.360073,-13.381634,-70.74202,-3.053547,-47.960587,0.0,6.450565,24.644485,58.957027,42.423601,78.72941,56.026939,88.50145,65.433139,92.767959,0.0,60.202812,41.923507,11.749454,41.123588,2.576797,36.559787,-0.717236,29.636661,27.398964,0.0,28.468558,0.588889,29.998499,-9.234255,17.717206,-19.366201,6.008019,-29.908046,-12.414772,39.434515,254.762103,-31.458784,309.751388
34,9.955169,-18.682488,-4.251921,-7.531487,0.0,-56.96763,-37.732841,-92.191177,-30.885669,-86.854786,-21.369037,-70.47282,-10.482158,-48.768104,0.0,1.970919,23.894007,52.228764,41.86108,75.266311,55.370051,85.71595,64.704002,90.387604,0.0,69.716486,46.04207,30.607172,44.120584,21.907797,39.284563,16.004888,31.919815,35.390711,0.0,24.346026,-4.060905,12.047616,-18.317692,-2.964607,-31.609567,-15.719988,-44.492302,-34.744493,49.510488,236.21554,-35.589901,302.355826
35,12.162598,-24.887219,-4.326473,-17.669066,0.0,-52.540689,-44.730949,-92.417141,-39.328571,-85.494781,-30.272816,-68.625366,-19.041584,-49.36235,0.0,-3.105781,22.120004,45.666078,40.549735,67.221862,54.469248,77.622336,64.458828,82.902725,0.0,72.088834,49.060598,51.175901,46.830351,43.560602,42.340673,36.289312,34.860878,49.248258,0.0,18.345702,-6.52687,-5.186145,-20.660193,-19.562376,-33.415827,-29.616028,-45.13826,-44.705711,61.817327,211.587129,-39.772133,284.945568
36,13.561169,-29.61087,-7.168064,-29.759561,0.0,-47.442839,-51.81514,-91.599701,-48.569161,-84.559284,-40.550366,-68.317452,-29.410607,-51.921971,0.0,-8.807646,17.416139,36.737102,36.180008,57.598098,50.762155,68.359262,61.79947,74.414505,0.0,71.730623,50.675405,68.115709,49.025293,61.562124,45.42901,52.561609,39.052505,57.099386,0.0,11.060759,1.529854,-5.378819,-7.899656,-15.589256,-17.458249,-21.798636,-26.890335,-31.630222,75.571295,183.119009,-46.747398,256.328757
37,14.927994,-34.313537,-8.149956,-36.548537,0.0,-41.51813,-60.74199,-90.088555,-60.144723,-83.721749,-53.229802,-68.955002,-41.874962,-55.54881,0.0,-13.861547,12.419994,27.74011,30.917138,47.939371,45.819541,59.349346,57.694161,65.973946,0.0,71.966051,53.510759,83.105478,50.592607,77.377264,46.226583,65.547254,39.780327,62.785326,0.0,8.546565,8.839818,1.859403,6.400961,-4.2493,2.165414,-7.275224,-3.705711,-10.547767,90.746069,150.397586,-54.650574,221.372334
38,13.905464,-34.250761,-9.110642,-33.796297,0.0,-36.740719,-64.500447,-86.732621,-66.293656,-82.933995,-60.860607,-70.96558,-50.134358,-59.949772,0.0,-18.390103,6.109333,18.389353,24.254185,36.320018,39.56883,47.847359,52.627381,55.651657,0.0,75.579615,56.405005,97.098902,51.912958,91.210379,45.772242,74.838118,37.84417,66.912695,0.0,1.876323,15.199691,9.790836,21.204288,9.316871,23.235148,10.422741,22.187324,12.278594,104.855336,118.292834,-63.557413,189.722046
39,12.882934,-34.187986,-4.638181,-31.906747,0.0,-33.110607,-63.090511,-81.531898,-67.015961,-82.196022,-63.442783,-74.349186,-54.188793,-65.124859,0.0,-22.393314,-1.515843,8.684831,16.191149,22.74004,32.010024,33.853302,46.599133,43.447639,0.0,75.513485,55.915145,105.440563,50.19762,100.246914,42.666034,82.42638,33.927085,69.847732,0.0,-4.96921,22.566565,21.888916,35.746387,25.936161,43.01388,30.780382,45.670481,35.33555,118.081198,86.52987,-67.852666,160.240321
40,13.069016,-27.935442,-0.741154,-28.855072,0.0,-32.672322,-56.90054,-84.636795,-62.289894,-89.610947,-61.206104,-84.302204,-55.148701,-74.914776,0.0,-28.127507,-8.131553,-4.692759,9.506198,9.678988,25.939718,21.297301,41.373468,33.588322,0.0,72.16626,51.48904,106.586243,44.994289,102.453689,36.851829,84.744186,28.294727,68.209293,0.0,-10.010816,31.043902,37.950056,50.647237,46.48148,62.564177,53.818145,68.318797,59.641308,131.699782,61.205869,-68.044252,133.99669
41,10.981624,-20.991876,2.576923,-15.245522,0.0,-33.269863,-48.760631,-88.382709,-54.93584,-97.037784,-56.054615,-93.456184,-53.026222,-84.091358,0.0,-34.045698,-12.243085,-16.188757,5.126831,-2.562321,21.813277,9.941146,37.701951,24.636163,0.0,71.672894,50.161583,107.59734,43.349373,105.346401,34.79599,88.105488,25.907879,70.430706,0.0,-11.406438,29.91419,40.733801,50.16588,49.294458,63.045991,56.643054,69.811428,61.817047,143.451845,42.137234,-64.69689,120.674409
42,7.83403,-13.313537,3.501972,-7.513154,0.0,-34.811748,-39.84019,-93.255283,-46.264766,-103.914447,-49.045429,-101.202919,-48.514869,-91.220706,0.0,-39.354751,-12.897534,-24.18257,4.696764,-11.503126,21.47381,1.413575,37.365782,18.160521,0.0,72.000527,48.92054,109.060387,42.447979,107.773499,34.007458,91.84607,25.226258,73.550045,0.0,-12.817688,29.121716,42.947251,49.335701,52.229659,62.569519,60.28421,69.870912,63.987012,152.100265,30.239869,-60.380528,114.577427
43,5.844372,-5.690288,3.949872,-0.381223,0.0,-37.258095,-32.728454,-97.708877,-39.301895,-109.908416,-43.495102,-107.441391,-45.183494,-97.147567,0.0,-42.517901,-12.108324,-28.804017,5.872081,-16.404572,22.693622,-3.359124,38.267298,15.141083,0.0,72.561779,48.211212,109.420154,41.917282,109.550754,33.423934,95.350765,24.501674,75.999034,0.0,-12.294581,29.09898,45.510758,48.929779,55.649188,62.197152,64.81816,69.837901,66.795322,159.065918,25.32921,-55.309375,114.975833
44,3.239067,1.641795,4.084888,4.585462,0.0,-40.259971,-26.054191,-101.800071,-32.644478,-114.784973,-38.023544,-112.187553,-41.755027,-100.963485,0.0,-43.40857,-9.632756,-29.658754,9.053697,-17.53813,26.033825,-4.113529,40.859303,15.276539,0.0,73.002914,46.79314,107.537247,40.133755,107.928658,31.535843,93.411346,22.618641,73.714485,0.0,-9.970153,30.148985,48.359305,49.795199,59.217065,63.099116,68.421655,71.033945,69.921783,163.5168,27.439867,-50.012672,120.030157
45,-0.188759,3.835639,3.844002,6.442896,0.0,-40.781044,-23.807991,-101.749053,-30.589874,-114.658035,-36.339523,-112.671157,-40.508125,-101.448211,0.0,-42.048647,-7.58426,-27.368135,11.248406,-16.046042,27.947638,-2.066008,42.154209,16.948592,0.0,72.751396,46.021442,105.945236,38.855598,105.912643,29.887207,90.765175,20.828006,71.322372,0.0,-7.408604,31.484232,50.890411,50.579485,61.320315,63.548294,70.251499,71.494634,71.641525,164.383586,31.417162,-45.113125,126.614709
46,-0.589393,3.308192,2.306259,4.31339,0.0,-41.385979,-23.727699,-101.871506,-30.836998,-114.512673,-36.730683,-113.178955,-40.995163,-101.813576,0.0,-40.477296,-5.683613,-25.437076,13.624111,-14.084269,30.070975,-0.190506,43.659196,18.433844,0.0,72.642013,44.988739,104.333977,37.734043,104.063942,28.607426,89.222259,19.238972,69.44014,0.0,-5.865153,32.0604,52.504714,51.200039,63.268515,64.152299,71.810511,71.949475,72.735668,164.630562,34.556966,-41.970497,130.759711
47,-0.610222,0.84548,0.838806,0.042182,0.0,-41.961227,-23.873978,-101.072845,-31.097603,-113.924606,-37.054527,-113.315506,-41.471352,-102.247398,0.0,-39.53065,-5.038271,-25.360221,14.103794,-14.067571,30.239122,-0.075428,43.414264,18.528502,0.0,72.854462,44.627232,103.531723,37.481312,103.397347,28.254833,88.843163,18.650974,68.693344,0.0,-4.927467,33.147041,52.82702,52.33508,63.730167,65.04261,72.21949,72.441619,72.784395,164.711037,35.297128,-40.440994,130.696575
48,-1.206161,-2.62764,-0.343998,-4.802663,0.0,-41.71138,-22.113808,-98.654892,-29.442856,-111.378685,-35.750428,-112.27105,-40.781777,-101.488038,0.0,-40.253513,-5.562786,-26.645531,13.356879,-15.879347,29.42735,-1.5312,42.485734,16.800922,0.0,72.977932,44.437111,103.220135,37.457646,103.16692,28.136696,88.863201,18.324749,68.58363,0.0,-5.369575,33.851847,52.396706,53.208897,63.280562,65.81869,71.735342,72.920123,72.457476,163.974793,32.539571,-40.315075,125.763995
49,-0.689278,-5.22503,-1.533142,-7.723038,0.0,-41.229881,-20.513764,-95.246727,-28.264687,-108.58049,-35.20768,-110.732277,-40.99633,-101.099007,0.0,-42.403322,-7.102946,-29.204493,11.405888,-18.919529,27.414861,-4.519519,40.598086,13.378073,0.0,72.539783,44.860313,103.693211,38.44899,103.56451,29.305412,89.826153,19.363174,69.386524,0.0,-6.417936,33.020589,50.259537,52.554109,61.332387,65.279979,69.816745,72.529749,71.019865,163.549307,26.694857,-41.584425,117.421273
50,0.328537,-6.051843,-1.528633,-7.417521,0.0,-40.601601,-20.232399,-93.015862,-28.373543,-106.580727,-35.739235,-109.338135,-42.025452,-101.24794,0.0,-45.071385,-8.487995,-31.812577,9.7779,-21.694605,25.740734,-7.428716,39.038178,10.339489,0.0,72.229328,45.228012,103.914951,39.140304,103.783459,30.18251,90.195682,20.338383,70.059116,0.0,-7.994986,31.879651,47.847517,51.599904,58.868965,64.576543,67.684478,72.082812,69.435881,164.137779,19.909651,-42.853123,109.270389
51,0.386741,-3.191076,-0.926788,-4.834409,0.0,-39.706375,-20.248237,-92.667251,-28.224746,-105.841644,-35.4841,-108.229522,-41.839828,-100.645408,0.0,-46.491799,-9.50169,-33.465172,8.376901,-23.364806,24.45961,-9.201206,38.050197,8.918427,0.0,72.113056,45.488605,103.680141,39.415706,103.358173,30.579254,89.681179,20.876495,69.692264,0.0,-8.677569,31.61576,46.175742,51.215712,56.754798,64.231772,65.953991,71.942349,68.626388,164.791946,15.91489,-43.512485,103.632295
52,-9.1e-05,1.996064,-0.116112,-0.159513,0.0,-37.526482,-20.726715,-92.327957,-28.51767,-105.044655,-35.429009,-106.93364,-41.42086,-99.817932,0.0,-47.311875,-9.835736,-33.984648,7.542979,-23.501664,23.202458,-9.629514,36.444469,8.594033,0.0,71.828922,45.255295,103.022518,39.018162,102.292087,30.298611,88.763431,20.775055,68.785526,0.0,-8.823461,30.931195,45.503267,50.216676,55.575673,63.351025,64.904295,71.464412,68.565564,165.070507,17.099554,-43.349945,102.661382
53,0.417229,6.012483,0.481167,4.704245,0.0,-37.001793,-22.634102,-92.695679,-30.303498,-105.628029,-36.462822,-106.17453,-41.500878,-98.461464,0.0,-44.496939,-8.616387,-31.220601,7.566309,-20.397736,21.913647,-7.217394,33.77847,9.773565,0.0,71.330703,44.562652,101.641662,38.04087,100.490226,29.344242,86.80323,19.922447,66.741989,0.0,-7.404437,31.017102,45.916278,49.869058,55.882338,62.881031,65.21779,71.084203,69.180302,165.644532,22.406264,-42.711982,106.659854
54,0.117668,12.10129,0.685512,8.167418,0.0,-37.032738,-25.702858,-94.046379,-33.824867,-106.817871,-39.702576,-107.005005,-43.857811,-99.093956,0.0,-42.750965,-7.825488,-29.820206,8.695298,-18.536541,22.786637,-5.431986,34.079311,10.507296,0.0,71.503842,43.28151,100.124554,36.289948,98.715466,27.533192,84.969578,18.335804,64.995564,0.0,-4.830457,32.096574,47.763036,50.682571,56.850597,63.434315,66.032562,71.377233,70.071953,165.867216,34.397916,-41.921454,114.717634
55,0.437805,13.772429,0.24194,8.917229,0.0,-36.751717,-26.765076,-95.612549,-34.651382,-108.720635,-40.174416,-108.152206,-43.721878,-99.234764,0.0,-40.688087,-6.185761,-28.788332,10.338902,-17.15918,24.119538,-4.168431,34.845893,11.750554,0.0,71.869262,42.039379,98.744819,34.536049,96.626747,25.552849,83.161422,16.253677,62.597213,0.0,-2.027946,33.881802,49.676224,52.18539,58.606445,64.407464,67.43957,71.718318,70.972212,166.368113,48.34474,-41.616422,123.809258
56,0.970688,11.429649,-0.60149,7.643534,0.0,-37.122551,-27.094734,-95.548165,-35.28067,-109.170044,-40.951698,-109.063111,-44.381104,-99.771103,0.0,-38.76626,-4.344283,-27.563111,12.537594,-16.64817,26.072611,-3.564042,36.234315,12.423572,0.0,72.332714,41.406589,98.155552,33.554706,95.64172,24.192077,82.1124,14.553028,61.377628,0.0,0.384192,35.374995,51.086313,53.478586,60.05913,65.168334,68.723799,71.898919,71.523847,167.350239,60.303248,-42.206474,131.981651
57,1.963234,8.084926,-1.363529,5.054197,0.0,-38.741478,-27.204392,-96.301758,-35.725228,-110.834175,-41.815041,-111.303978,-45.658219,-101.363526,0.0,-37.171352,-2.599698,-27.635545,14.855044,-17.593779,28.543714,-4.10292,38.496207,11.975295,0.0,73.052558,41.409702,98.197563,33.276031,95.317634,23.45589,81.116889,13.367019,60.059806,0.0,1.9467,36.568199,51.71944,54.697181,61.429655,65.987466,69.757785,72.272756,71.650905,169.322846,69.08487,-43.56063,137.732544
58,2.03421,5.385439,-1.335904,1.869901,0.0,-39.611504,-27.039986,-98.038582,-35.860153,-112.972115,-42.580399,-114.06459,-47.073875,-104.14048,0.0,-38.517128,-2.168607,-30.146354,16.719708,-20.740364,31.500904,-6.254699,42.218899,10.915577,0.0,73.826969,41.786866,98.72778,33.414826,95.601414,23.11813,81.209072,12.628567,60.190831,0.0,2.834974,37.414179,52.034096,55.684595,61.789512,66.840795,70.131697,72.935067,71.654734,171.312138,75.240744,-44.941452,140.37288
59,2.228828,0.247928,-1.233169,-0.534746,0.0,-40.245002,-25.810592,-99.352935,-34.202018,-114.471565,-40.975685,-115.377777,-45.95256,-104.902999,0.0,-38.207747,-1.308349,-30.783723,17.610699,-22.459224,32.505213,-7.629597,43.326188,11.081327,0.0,74.160518,42.518406,99.244297,34.142978,95.870373,23.557606,81.172107,12.644256,59.996509,0.0,2.684414,37.717275,51.872112,56.005524,62.48765,67.109495,70.892313,73.183735,71.871798,173.420888,76.145384,-46.294699,140.494846
60,0.924317,-1.094248,-0.831814,-1.289497,0.0,-40.571526,-25.724007,-99.480286,-34.186226,-114.43602,-41.052704,-115.751221,-46.23317,-105.304688,0.0,-38.00418,-1.296098,-30.949622,17.712877,-23.585039,32.675242,-8.473256,43.577846,10.780979,0.0,74.646263,43.023972,99.460648,34.646049,96.34758,23.892609,81.313408,12.685558,59.984894,0.0,2.222385,37.358308,51.908063,55.665193,63.094397,66.944103,71.509731,73.324848,72.336792,174.164761,75.549206,-47.306957,139.703419
61,0.045891,-0.59189,-0.306084,-1.058229,0.0,-40.653557,-25.938561,-99.773575,-34.391991,-114.68644,-41.262795,-115.924508,-46.487824,-105.755562,0.0,-38.525348,-1.686447,-31.730017,17.106766,-24.093227,32.050353,-8.631319,43.087368,10.430928,0.0,74.848755,43.272698,99.628807,34.838677,96.907082,23.97139,81.460694,12.667454,60.048752,0.0,1.988598,37.152246,52.270452,55.33011,63.807491,66.751269,72.029348,73.405444,72.824126,173.978932,75.256419,-47.844761,138.944293
62,-0.369828,-0.219344,-0.075874,-0.672203,0.0,-40.935836,-26.312233,-100.128685,-34.785484,-114.499191,-41.655532,-115.702789,-46.759094,-106.041366,0.0,-38.873805,-2.260207,-31.759157,16.532184,-24.189168,31.571899,-8.407856,42.877979,10.539745,0.0,74.866333,43.370499,99.680374,34.93483,97.315933,24.039471,81.886047,12.75198,60.855263,0.0,2.154015,37.067896,52.603361,55.089111,63.881617,66.577615,72.1878,73.39307,73.084071,173.334011,75.163299,-48.195728,138.398314
63,-0.420295,1.015899,-0.478947,0.114164,0.0,-41.012879,-26.34375,-99.792504,-34.909081,-113.980294,-41.874642,-115.405953,-46.982071,-106.238686,0.0,-39.35213,-2.625837,-31.892927,16.056565,-25.078015,31.100218,-9.313654,42.701552,9.95371,0.0,75.020451,43.302578,99.839367,34.98135,97.989041,24.21262,82.500859,13.02134,61.263714,0.0,1.450196,36.753784,52.196278,54.690488,63.565368,66.244706,71.706246,73.255663,72.789855,172.561987,76.25286,-49.026404,138.58614
64,-0.791085,1.692999,-0.668232,0.659754,0.0,-41.198318,-26.517494,-100.107261,-35.153526,-113.945205,-42.20066,-115.38256,-47.329902,-106.44445,0.0,-39.924124,-2.668692,-32.217419,15.964044,-25.316706,30.975902,-9.365068,42.626964,9.847474,0.0,75.452797,43.348629,100.308861,35.07296,98.952874,24.36731,83.362862,13.313107,62.010636,0.0,0.798137,36.526307,51.44622,54.449883,62.76176,66.06789,70.960597,73.182599,72.24424,171.433708,77.962461,-50.03183,139.262496
65,-1.178718,2.333702,-0.497669,1.108618,0.0,-41.834404,-27.015496,-101.028443,-35.66787,-114.390839,-42.702027,-115.628655,-47.735527,-106.680313,0.0,-40.580394,-2.74215,-32.308254,15.892494,-25.029801,30.905816,-8.878968,42.590013,9.949245,0.0,75.139515,43.143242,100.724247,34.999764,99.202709,24.467285,83.939587,13.630177,62.899326,0.0,-0.479949,35.999588,50.740375,53.982247,61.751795,65.649098,70.198461,72.775886,71.724709,169.878027,80.307108,-50.906462,140.382059
66,-2.071266,2.655855,-0.918777,1.33681,0.0,-42.395371,-27.082169,-101.805588,-35.622803,-114.797356,-42.583374,-115.838837,-47.540383,-106.586358,0.0,-41.078085,-2.68665,-31.781097,16.072292,-24.229714,31.084916,-8.342197,42.695963,10.226936,0.0,75.225872,43.046539,101.433712,34.96265,100.029316,24.593502,85.049274,13.98809,64.011829,0.0,-1.820971,35.197154,49.911894,53.329249,60.829083,65.122145,69.778706,72.32722,71.676939,167.452876,83.007164,-52.179124,141.76307
67,-2.607354,3.563881,-1.122597,1.860577,0.0,-43.377159,-27.708046,-102.82093,-35.938224,-115.31504,-42.512741,-115.929725,-47.171264,-105.997856,0.0,-41.750892,-2.68442,-30.64818,15.962383,-22.829201,30.973038,-7.137205,42.697582,11.150031,0.0,75.366543,42.914532,102.310032,34.932232,101.024815,24.814476,86.270931,14.591366,65.414509,0.0,-2.973505,34.129354,48.743577,52.508129,59.737978,64.560907,69.201068,71.983887,71.82882,164.481794,86.615101,-53.665449,143.667703
68,-3.557167,4.063529,-1.198094,2.629147,0.0,-45.492576,-28.689148,-104.83612,-36.33126,-116.572609,-42.303886,-116.18161,-46.535751,-105.506149,0.0,-41.69087,-2.317851,-28.421936,16.408184,-19.344094,31.46249,-3.711483,43.233977,13.964757,0.0,75.432656,42.686497,103.192933,34.821614,101.651734,24.984181,87.194733,15.089448,66.586052,0.0,-3.522034,32.327131,47.748098,50.978509,58.668412,63.449203,68.77094,71.291542,72.306892,160.547664,90.641435,-55.240506,146.259655
69,-5.025192,5.020655,-1.022083,3.82976,0.0,-48.491363,-29.361809,-106.130585,-35.981026,-117.140854,-40.997497,-115.696587,-44.527908,-104.268196,0.0,-40.544129,-1.712049,-24.610176,17.116109,-14.370772,32.274859,1.218305,44.227281,18.195697,0.0,75.523556,42.422093,103.530819,34.819748,102.151417,25.319641,88.27303,15.786495,68.326184,0.0,-3.781879,29.916408,46.727871,48.849121,58.156032,61.962105,68.904272,70.50814,73.437604,155.114559,95.323701,-56.670502,149.751026
70,-6.70578,6.135928,-1.090015,5.406521,0.0,-51.920563,-29.601585,-106.681206,-34.881111,-117.242683,-38.641136,-114.024147,-41.160622,-101.085045,0.0,-37.974422,-0.500369,-18.551935,18.342991,-7.479395,33.580899,7.191564,45.707649,23.432157,0.0,75.877464,42.180233,103.997909,35.004604,103.63623,25.936844,89.930626,16.775665,70.346031,0.0,-3.200734,27.370129,45.13534,46.60968,57.383262,60.378947,68.561371,69.586317,74.213893,148.024109,100.577039,-58.145187,154.274957
71,-8.240799,8.137741,-0.760414,7.143436,0.0,-55.40245,-29.523903,-106.275535,-33.208168,-115.450859,-35.35556,-110.127548,-36.457512,-94.897728,0.0,-34.232761,0.393881,-11.017261,18.804162,0.791319,33.897907,14.752995,45.962999,29.573304,0.0,74.51461,41.592292,103.745041,35.017559,104.30088,26.475872,90.912231,17.588539,71.688675,0.0,-2.273811,25.090316,43.583922,44.558887,56.610307,58.903619,68.183854,68.712289,74.742241,139.33572,107.062037,-59.353191,159.76565
72,-9.970734,10.262474,-0.535687,8.62484,0.0,-58.216072,-28.891983,-104.310813,-30.812896,-111.817153,-31.106437,-104.115921,-30.368957,-86.607032,0.0,-29.427764,1.616669,-2.63526,18.979644,9.9545,33.292692,22.01559,44.660226,34.989161,0.0,72.756031,40.887554,103.455563,34.717518,104.621761,26.525494,91.831295,17.772183,72.800709,0.0,-1.10511,23.074573,42.888811,42.696162,56.51415,57.582173,68.412281,67.968308,75.431698,128.835931,115.079266,-60.417933,166.145245
73,-11.462997,12.669295,-0.114727,9.927614,0.0,-59.444984,-27.2696,-98.868416,-27.394203,-104.602776,-25.962959,-95.263756,-23.598679,-75.98291,0.0,-23.563086,1.650237,4.515122,17.517413,17.687177,30.861553,27.451028,41.385738,38.04262,0.0,70.95591,40.037361,102.359253,34.15955,103.862023,26.299553,91.510941,17.59932,72.720726,0.0,0.171753,22.457204,42.707635,41.351213,57.381978,56.070115,68.764999,66.510751,75.186733,116.968437,125.154395,-60.937157,173.478693
74,-11.660339,15.862421,0.145752,12.605161,0.0,-62.128167,-28.964745,-99.116719,-27.04493,-103.145474,-23.350251,-92.65123,-18.712738,-71.28019,0.0,-16.670493,4.402953,14.835209,20.501279,29.481209,34.07938,40.152693,44.566699,49.436398,0.0,69.238678,38.441082,102.449799,32.979412,103.788597,25.374733,91.45871,16.410874,71.468422,0.0,2.507882,21.351045,40.074288,38.206548,50.644724,51.409898,60.914003,61.119644,70.026264,105.017046,138.50027,-61.082457,183.567308
75,-9.984558,17.459651,-0.120689,14.12511,0.0,-64.928513,-30.433983,-98.233704,-26.931267,-100.608571,-21.638672,-89.305184,-15.371476,-66.821137,0.0,-10.568922,7.887208,24.8281,24.004189,40.984552,37.487638,52.306144,47.502209,59.47759,0.0,66.919464,35.672195,102.122566,31.228031,103.498054,24.735614,92.203331,16.477878,71.750175,0.0,7.147759,22.126741,37.379933,35.418048,43.816771,45.262237,52.060957,52.038987,60.513836,94.801667,153.81173,-61.433967,195.544227
76,-10.582444,19.693491,0.658081,11.799998,0.0,-67.070263,-31.984703,-98.342537,-27.121353,-99.307502,-20.557434,-87.626701,-13.196617,-64.76461,0.0,-4.972563,12.283182,32.848972,28.913568,51.019426,42.446109,63.358776,52.121893,69.345515,0.0,66.950409,31.358345,98.995674,27.407284,101.192367,22.234085,91.324287,15.537472,72.472114,0.0,7.702005,21.915344,32.200913,35.415343,38.992902,45.575669,50.298934,52.827304,62.576212,84.085235,171.954946,-60.909874,205.79395
77,-9.401321,19.484034,0.942432,12.072687,0.0,-70.03038,-33.198029,-98.826622,-27.084206,-99.433285,-19.500939,-87.208923,-11.329262,-63.745857,0.0,0.454989,16.673167,41.995479,34.333723,61.042962,48.239594,74.534056,57.777094,78.657032,0.0,68.712353,27.122807,96.026196,23.398544,98.334698,19.03957,88.799915,13.504131,71.178486,0.0,6.124282,23.068558,27.640793,36.324433,37.072638,46.115751,51.00605,52.827761,64.229678,74.716518,190.441559,-59.934838,216.869216
78,-8.075249,18.331733,0.442085,11.954274,0.0,-73.193847,-35.57254,-102.258945,-28.562919,-102.559421,-20.04982,-89.938373,-10.959434,-66.045753,0.0,4.726685,22.078724,51.960588,41.171791,71.864426,55.678334,87.19525,65.173114,89.467171,0.0,70.101002,23.062901,92.889233,19.484768,95.877697,15.829857,86.571751,11.559597,70.076809,0.0,5.036747,24.441209,24.785974,37.987248,36.77121,47.478274,53.879693,53.487861,67.626829,66.705511,208.187065,-59.428511,228.237263
79,-6.877991,15.859618,-0.333664,10.583626,0.0,-73.779567,-35.378654,-101.437316,-28.148597,-100.862262,-19.525772,-87.50727,-10.217857,-63.291423,0.0,6.715629,24.889627,57.106398,43.365746,76.474637,56.968262,90.259107,65.484817,90.15712,0.0,70.514157,22.448445,85.248127,18.424656,87.373215,14.690621,79.729077,10.80526,66.420949,0.0,2.539387,25.109409,27.079359,39.740058,44.067897,50.005348,63.213514,56.300432,73.705057,59.938322,223.678669,-59.651373,238.452875
80,-7.717918,14.128062,-0.746601,9.128724,0.0,-73.321632,-35.936371,-101.299713,-28.368965,-99.815895,-19.212982,-85.861668,-9.168571,-60.847687,0.0,8.142866,26.486999,59.613712,44.539312,78.793414,57.533476,92.243321,65.49776,90.519237,0.0,70.515908,24.898602,71.27797,21.173779,71.516716,17.293568,66.271534,13.351628,64.056885,0.0,-2.841606,23.39218,28.923139,41.305703,51.587393,54.872984,73.451757,64.217649,84.082164,52.368021,237.602908,-60.250357,247.377776
81,-5.927284,10.390421,-2.08255,11.04148,0.0,-73.587685,-37.29427,-100.926602,-29.800186,-99.857586,-20.2985,-85.268727,-9.458176,-59.737026,0.0,8.210038,27.165327,61.005949,44.600964,79.515548,56.994111,92.294524,64.496749,89.712888,0.0,68.58141,31.505173,56.047142,28.77483,53.90213,24.492222,51.267323,19.417992,62.488289,0.0,-4.827783,21.808096,36.920979,39.047762,57.598586,52.103429,75.555544,61.030723,82.574664,46.579382,247.938519,-62.194262,258.364446
82,-5.618637,8.187857,-1.698028,8.709661,0.0,-73.516182,-39.579094,-101.929688,-32.515812,-100.995713,-23.073624,-86.609837,-11.95356,-61.139088,0.0,7.113462,27.40923,58.732274,44.464508,77.441402,56.558079,90.038597,63.940736,88.414944,0.0,63.651066,37.856025,38.116756,36.569847,35.08398,32.35897,35.954109,26.501964,63.676872,0.0,-3.73879,19.214394,42.357658,36.119224,60.36992,49.461672,74.926431,59.065269,82.068866,41.079912,256.106561,-63.773123,267.054292
83,-5.589432,6.027371,0.736461,6.396391,0.0,-73.316025,-40.863796,-102.354652,-34.197853,-101.451851,-24.874397,-86.983486,-13.64772,-61.398296,0.0,5.55198,27.428076,55.471421,44.28174,74.298664,56.19684,86.607609,63.584684,86.797627,0.0,55.804001,42.061135,17.491688,42.671906,14.250264,39.020256,21.608632,32.805417,65.105336,0.0,-3.192953,16.736845,45.147011,33.576614,61.111432,47.584967,72.542408,58.307395,80.34424,35.594742,262.098323,-62.9324,273.415074
84,-5.59671,4.028758,4.856427,4.24013,0.0,-72.983425,-41.275074,-101.069927,-34.770825,-100.944718,-25.5038,-86.63752,-14.38884,-61.550606,0.0,4.784335,27.528926,52.892352,44.422567,72.055247,56.409767,83.871855,63.903167,85.147124,0.0,43.130424,39.647255,-5.060875,42.793464,-5.707283,41.233234,7.46157,36.49078,66.228149,0.0,-2.375255,16.096838,46.470173,33.213126,62.268905,47.784654,72.13446,59.004223,79.940922,30.043339,266.046864,-58.030666,277.574987
85,-4.598168,3.031031,7.135402,4.931474,0.0,-72.528373,-41.602501,-100.138229,-35.29208,-100.185814,-26.175167,-86.332855,-15.361381,-62.232673,0.0,4.347192,27.685711,51.362326,44.616143,70.42406,56.604429,81.390872,64.110476,84.030974,0.0,27.720063,33.575695,-19.830356,38.320919,-20.545784,38.647854,-5.547203,35.84491,62.987217,0.0,-4.017729,13.209463,45.449032,30.165434,60.391594,44.73952,69.421542,56.225343,75.848414,25.472219,269.007596,-50.868216,282.436162
86,-3.588958,2.406438,9.72202,1.038802,0.0,-71.884575,-41.298581,-98.970784,-34.866509,-98.647728,-25.757756,-85.423062,-15.199425,-62.219273,0.0,4.465235,28.011877,51.044744,45.068687,69.385382,57.148636,79.584228,64.6491,83.017069,0.0,13.778755,25.057273,-33.149506,30.518314,-32.465012,32.352928,-17.907807,31.781467,60.296173,0.0,-4.428295,14.126383,44.425544,31.508679,60.048497,45.92004,68.884845,57.115686,73.053739,21.951313,271.315604,-41.078144,283.376534
87,-2.628228,1.938136,5.3157,1.599818,0.0,-71.138591,-40.239692,-97.272136,-33.788246,-96.438091,-24.679218,-83.587257,-14.29573,-61.174049,0.0,4.699256,28.524973,51.079323,45.594997,68.97127,57.667302,79.128423,65.032175,82.8199,0.0,6.510555,19.580818,-41.19841,26.088432,-40.160179,29.701149,-24.87252,31.374905,58.290997,0.0,-3.560887,14.228838,45.39931,31.440728,59.220226,44.935416,67.398055,55.159469,68.863911,19.445795,273.110395,-35.639734,284.833007
88,-1.350746,1.461299,8.29628,3.09514,0.0,-71.037323,-39.821251,-96.375034,-33.368671,-95.244323,-24.184387,-82.660698,-13.805877,-60.689552,0.0,4.939897,29.026485,51.147977,45.908862,68.446145,57.8229,78.518625,64.99568,82.363798,0.0,-7.049,11.50264,-51.25906,18.590824,-50.279343,23.654434,-36.193268,27.141083,50.657925,0.0,-5.740565,11.242379,42.868915,28.585439,56.352265,42.101901,64.931188,52.499904,64.755138,18.300504,274.429532,-27.137999,287.785985
89,-0.231125,1.258424,3.563679,-0.125662,0.0,-71.495361,-39.94717,-95.937629,-33.518863,-94.432926,-24.228515,-81.901004,-13.730507,-59.85379,0.0,4.723412,28.963561,51.231723,45.667443,67.757751,57.462463,77.866714,64.501047,82.076795,0.0,-10.256596,9.46558,-53.79641,16.344726,-53.957108,21.623497,-43.172276,26.06195,50.001869,0.0,-6.4698,10.705768,43.373453,29.007565,55.620091,42.676439,63.630428,53.067452,62.672185,18.337577,275.585892,-23.306122,287.558259
90,0.131997,0.629866,1.723674,-2.405895,0.0,-72.158684,-39.547944,-95.695084,-33.278847,-94.406846,-24.078461,-82.150177,-13.726136,-60.121228,0.0,4.047147,28.830625,50.598955,45.515229,66.68264,57.324921,77.150434,64.301087,81.698821,0.0,-9.597484,9.944928,-57.006168,16.221863,-55.469982,20.946316,-45.880966,25.191914,50.798596,0.0,-4.312587,12.602259,46.600542,31.616471,57.299751,45.484304,64.87607,55.703343,64.745999,18.791497,276.133031,-21.260525,285.069637
91,0.235931,0.366489,0.523327,-0.282779,0.0,-72.582241,-39.290302,-95.669357,-33.165836,-94.489266,-24.082798,-82.356377,-13.873215,-60.130589,0.0,3.362026,28.620192,49.803449,45.258063,65.862001,57.050885,76.668027,63.990952,81.362726,0.0,-9.742344,9.954037,-57.819946,15.79731,-56.299003,20.098572,-46.703521,23.941567,49.664818,0.0,-3.333461,12.236597,46.633392,31.591671,57.181906,45.813124,64.677974,56.287661,65.504948,19.393524,276.451244,-20.371102,284.738582
92,0.237671,0.076953,5.387192,-0.966382,0.0,-72.661595,-39.083473,-95.622585,-32.959179,-94.576401,-23.855129,-82.489071,-13.629822,-59.938191,0.0,3.154619,28.381638,49.569415,45.05935,65.745862,56.928594,76.661445,63.922273,81.238447,0.0,-15.163273,6.565533,-62.181736,11.432991,-60.460007,15.05262,-52.146274,18.565613,44.983406,0.0,-4.961423,12.461665,46.145428,32.824172,57.661349,47.892594,65.354808,59.17479,66.872596,19.996113,276.533007,-14.618992,283.77701
93,-0.009567,0.118722,1.209675,-2.250012,0.0,-72.404057,-38.640656,-95.131737,-32.474225,-94.331875,-23.391163,-82.363404,-13.223649,-59.78246,0.0,3.286702,28.286826,49.664337,44.957066,65.848453,56.864312,76.685737,63.932437,81.093988,0.0,-12.105743,7.38327,-61.669762,11.202095,-60.453369,14.012478,-54.402466,17.28709,44.809055,0.0,-3.942554,14.841007,48.999125,35.90469,59.66557,50.877967,66.442109,61.7936,68.513626,20.338492,276.664048,-13.057371,281.539317
94,-0.004349,0.041496,2.381607,0.272628,0.0,-72.111981,-38.223175,-94.853737,-32.119023,-94.445389,-23.097576,-82.484608,-12.996666,-60.014099,0.0,3.244021,28.173835,49.401886,44.849547,65.746417,56.811725,76.722763,63.995583,81.032361,0.0,-14.082848,5.85347,-63.382988,8.97385,-62.396782,11.423435,-57.331924,14.579762,41.376492,0.0,-4.159063,14.952257,48.13231,35.982422,59.137653,50.845907,65.914613,61.684623,68.653997,20.666725,276.722106,-10.343182,281.828507
95,0.077293,0.066431,1.946182,-0.121611,0.0,-71.961033,-38.002144,-94.658615,-31.865375,-94.5046,-22.826225,-82.514362,-12.720634,-59.976711,0.0,3.370918,28.088015,49.297552,44.737099,65.768573,56.728646,76.829295,64.019307,80.981071,0.0,-15.824581,3.94233,-64.973304,6.615544,-63.649337,9.09161,-58.784408,12.459904,39.274807,0.0,-4.190235,15.555793,48.059901,36.519638,59.366982,51.110186,65.558288,61.726551,68.468807,21.027471,276.793233,-8.113547,281.711592
96,0.242089,-0.067283,0.937237,0.074273,0.0,-71.955403,-37.737568,-94.61221,-31.629422,-94.649312,-22.610093,-82.614327,-12.533341,-60.141255,0.0,3.666641,28.128597,49.248954,44.788364,65.878489,56.777268,76.979965,64.085948,80.952246,0.0,-16.858383,2.71352,-65.908493,5.428482,-64.866028,8.251614,-59.467483,12.124123,37.042488,0.0,-3.392568,15.542048,47.603961,36.357778,59.104098,50.742117,65.101706,61.240428,68.398597,21.491095,276.725629,-6.954775,281.785544
97,0.259254,-0.076299,2.75909,0.000716,0.0,-72.070633,-37.680004,-94.713993,-31.56855,-94.852867,-22.520405,-82.78117,-12.43222,-60.625465,0.0,3.915557,27.989325,49.196529,44.679165,65.991776,56.737711,77.089943,64.202064,81.047576,0.0,-14.824001,1.647984,-67.789638,2.672894,-67.590442,4.394795,-62.809501,7.641427,32.547558,0.0,-1.991179,15.551187,46.387157,36.351838,58.273383,50.798754,64.292862,61.26803,68.198094,21.935686,276.637813,-4.010348,281.774743
98,0.469048,-0.090081,-0.969612,-0.604388,0.0,-72.335324,-37.848416,-95.034588,-31.750958,-95.161641,-22.659302,-82.946801,-12.526703,-60.738556,0.0,4.04601,27.950496,49.394512,44.685858,66.280471,56.793422,77.426655,64.291305,81.360181,0.0,-14.887882,2.900563,-66.653331,3.750927,-66.745582,5.22448,-61.837051,8.224182,34.27145,0.0,-1.284656,15.928544,47.226703,36.787549,59.043027,51.33192,65.083255,61.869911,68.759121,22.538613,276.544318,-4.846081,281.166941
99,0.283149,-0.096936,-1.091251,-0.435316,0.0,-72.42334,-37.86177,-95.038914,-31.75954,-95.231186,-22.646496,-82.924415,-12.506241,-60.725246,0.0,4.408325,27.939851,49.621421,44.699431,66.65931,56.81417,77.752599,64.314141,81.617606,0.0,-15.431637,4.192154,-65.66827,5.304176,-66.108925,6.783234,-60.435745,9.651203,36.088074,0.0,-0.209358,15.903436,47.98338,36.842322,59.473983,51.555049,65.541418,62.319665,69.102935,22.911203,276.441111,-5.847891,280.725354
100,0.182465,-0.025651,-0.588055,-0.262834,0.0,-72.345062,-38.063988,-95.172707,-32.011231,-95.393566,-22.838562,-82.854801,-12.479691,-60.667191,0.0,4.56007,27.860501,49.704005,44.502175,66.735214,56.552484,77.823784,64.092333,81.86404,0.0,-15.058387,5.17368,-65.007888,6.132283,-65.866882,7.373337,-60.139663,10.04226,36.89066,0.0,0.981967,16.067136,48.546568,37.029153,59.698186,51.718885,65.826013,62.454404,69.341526,23.161257,276.402992,-6.368357,280.450052
101,-0.06601,-0.03279,-0.268844,-0.227279,0.0,-72.016994,-38.238762,-95.23558,-32.171161,-95.370838,-22.897464,-82.636551,-12.315376,-60.342006,0.0,4.598739,27.739557,49.627707,44.289557,66.858925,56.297344,77.824168,63.88589,81.904944,0.0,-15.462479,5.809467,-64.860226,6.490345,-65.76733,7.431919,-60.103524,9.89257,37.298572,0.0,2.080125,16.21551,49.058813,37.199622,59.871286,51.915399,65.862212,62.691143,69.317332,23.147987,276.340707,-6.584461,280.193278
102,-0.108169,-0.032542,-3.03265,-0.165268,0.0,-71.746823,-38.262646,-95.183785,-32.206867,-95.331185,-22.9151,-82.451203,-12.223984,-60.035008,0.0,4.463208,27.735728,49.702227,44.201896,66.913771,56.140127,77.782622,63.706801,81.888542,0.0,-18.634049,6.871742,-62.873211,9.051246,-63.163994,11.123371,-56.632679,14.331779,41.645645,0.0,2.304513,16.21115,50.337268,37.213367,60.899849,51.885758,66.776364,62.665972,69.753697,23.073561,276.262174,-9.583368,279.982019
103,-0.268822,-0.026923,-0.637104,0.253485,0.0,-71.343773,-38.093708,-94.96946,-31.959652,-95.128258,-22.561111,-82.006496,-11.703117,-59.33519,0.0,4.417204,27.640077,49.6797,44.161498,66.978461,56.144425,77.856932,63.763277,81.824742,0.0,-19.094857,6.235977,-63.069226,8.986061,-62.833683,11.664276,-55.743496,15.402248,42.085819,0.0,3.119273,15.593202,50.229181,36.588725,60.608116,51.318816,66.47501,62.169697,69.309737,22.819136,276.164475,-10.206075,280.164728
104,-0.171204,0.062898,-1.431221,0.616454,0.0,-71.129173,-38.176689,-95.02835,-32.037792,-95.035446,-22.560516,-81.760013,-11.542419,-58.989418,0.0,4.253851,27.600594,49.62725,44.0646,66.908498,56.024087,77.770569,63.682052,81.848727,0.0,-16.643624,6.471428,-62.463204,9.512489,-61.953152,12.524585,-54.648136,16.555378,41.941646,0.0,4.133017,15.248301,50.151783,35.841113,60.011632,50.219091,65.839586,60.720057,68.736014,22.65941,276.146588,-11.625818,280.700397
105,-0.106475,-0.134035,-1.907147,0.651541,0.0,-70.918992,-38.060418,-94.969197,-31.84171,-94.922963,-22.2594,-81.46391,-11.128533,-58.465256,0.0,4.356788,27.622417,49.696917,44.079926,67.147102,56.015627,78.015606,63.647199,81.980477,0.0,-14.104637,7.438133,-61.311985,10.857582,-60.726116,14.090046,-52.731663,18.099861,42.868607,0.0,5.064399,14.809392,49.989034,34.910732,59.284163,49.027431,65.046896,59.356411,67.840164,22.557673,275.905642,-13.528227,281.245027
106,-0.005516,-0.096219,0.734356,2.422222,0.0,-70.791081,-38.032574,-94.940747,-31.784455,-94.919243,-22.187336,-81.479943,-11.014527,-58.494198,0.0,4.391998,27.652847,49.799249,44.065353,67.216299,55.991235,78.056818,63.674715,82.129776,0.0,-17.884586,6.194161,-61.568905,10.208542,-62.201626,13.495857,-53.655006,17.056034,36.73692,0.0,3.534902,14.025532,45.580116,33.41048,55.647199,47.261727,62.325419,57.666944,67.904619,22.542424,275.692458,-12.803604,283.550284
107,-0.042298,-0.095306,-3.037079,0.834001,0.0,-70.57402,-37.907226,-94.750145,-31.615837,-94.78561,-21.984329,-81.310112,-10.797798,-58.274174,0.0,4.49622,27.601903,49.746922,44.048187,67.281335,56.011946,78.175626,63.735428,82.320919,0.0,-13.030597,8.591389,-58.997451,12.907952,-59.77145,16.215329,-50.620605,19.530361,39.187878,0.0,4.324023,13.866166,45.772258,32.520706,54.910282,45.814323,61.468324,55.806972,66.852552,22.471893,275.474167,-15.868916,284.2613
108,0.038407,-0.218757,0.680752,3.322098,0.0,-70.445492,-37.996914,-94.714428,-31.643795,-94.67363,-21.880578,-81.200009,-10.424653,-58.063111,0.0,4.642902,27.761491,49.827889,44.028056,67.504661,55.857274,78.380897,63.578286,82.703747,0.0,-15.795341,6.612202,-60.791187,11.49416,-60.442589,15.130875,-49.564739,18.2822,37.148781,0.0,0.117746,11.404153,40.18376,29.575187,50.702041,43.066849,58.469897,53.478512,64.872636,22.465456,275.133614,-15.233008,287.461602
109,0.207298,-0.161811,-0.301987,1.45358,0.0,-70.352062,-37.71262,-94.718468,-31.265293,-94.682877,-21.488102,-81.270905,-10.098679,-58.101277,0.0,4.857078,27.753772,49.812254,44.10207,67.624741,56.003264,78.55864,63.768589,82.862088,0.0,-13.908084,7.295151,-60.016822,11.977181,-60.471851,15.63358,-49.654026,18.797825,36.483239,0.0,1.866147,11.047742,39.168484,27.978766,48.728003,40.518879,56.388056,50.029085,63.137833,22.606373,274.846174,-15.601376,288.789553
110,0.031494,-0.103209,0.105687,0.944967,0.0,-70.138538,-37.217926,-94.626457,-30.74699,-94.546589,-21.063435,-81.327724,-9.959221,-58.372879,0.0,5.058914,27.690576,49.810883,44.262337,67.684441,56.344459,78.55838,64.189108,82.866286,0.0,-14.608681,6.496078,-60.040959,11.666416,-61.119072,16.067482,-50.261456,20.000221,35.173015,0.0,1.523308,10.735099,38.286478,26.972135,47.568763,38.880751,55.502493,47.750766,62.327074,22.531368,274.633689,-15.602188,289.625244
111,0.094757,-0.06511,-2.377316,-0.776833,0.0,-70.07539,-36.812588,-94.539345,-30.317688,-94.449635,-20.656403,-81.172943,-9.717979,-58.270569,0.0,5.199607,27.616291,49.886157,44.321901,67.800161,56.502541,78.723476,64.364887,82.966199,0.0,-8.383484,7.825127,-58.163074,13.178604,-58.858028,18.388722,-48.039562,23.39336,41.094338,0.0,3.16356,10.858798,41.550395,26.652268,49.50638,37.876184,56.836339,45.751201,60.554591,22.509247,274.47566,-18.096382,288.755492
112,0.11261,-0.140421,1.433521,1.197884,0.0,-69.995499,-36.585171,-94.502953,-30.006294,-94.16906,-20.242642,-80.75132,-9.249527,-57.625053,0.0,5.351081,27.615575,50.054119,44.366856,68.099355,56.562686,79.053026,64.400876,83.099506,0.0,-10.322994,5.571282,-59.475689,11.526043,-60.501732,17.714196,-49.443866,23.708039,38.610386,0.0,4.112392,10.183557,40.291662,25.149461,47.987011,35.633594,55.376485,42.746624,59.042496,22.50448,274.24914,-16.780238,289.867277
113,0.238518,-0.053401,-1.993469,-1.507513,0.0,-69.867176,-36.21444,-94.643624,-29.628067,-94.178513,-19.970501,-80.800553,-9.274201,-57.942078,0.0,5.430022,27.467324,49.990811,44.387048,68.142123,56.729733,79.058336,64.636688,83.070235,0.0,-4.129715,8.203674,-55.91605,13.840302,-58.735886,20.139633,-49.234474,26.558247,41.120487,0.0,9.757467,12.27019,45.139996,26.307306,50.579108,35.397843,56.429947,41.007905,58.895555,22.624655,274.121148,-18.89205,288.285173
114,-0.071938,-0.197108,1.390102,4.770565,0.0,-69.567638,-35.822468,-94.406856,-29.211044,-93.86562,-19.55064,-80.507183,-8.896912,-57.695915,0.0,5.567133,27.457482,50.174915,44.351937,68.342676,56.697475,79.260433,64.642567,83.219586,0.0,-0.337314,7.924542,-55.846744,12.78138,-59.66138,18.605267,-50.8591,24.625203,33.934697,0.0,11.570064,10.210999,43.064824,21.069685,46.18154,27.233883,49.641589,30.076069,50.090848,22.432377,273.849615,-17.622288,292.981313
115,0.18187,-0.113077,1.305542,4.905836,0.0,-69.598835,-35.908688,-94.353253,-29.244427,-93.712281,-19.499543,-80.269307,-8.68229,-57.288735,0.0,5.571764,27.588343,50.347013,44.302191,68.520912,56.533021,79.479573,64.460749,83.391659,0.0,4.537594,8.453511,-55.614017,11.822365,-60.370983,16.652001,-52.468345,21.863469,28.727818,0.0,14.984577,8.139198,40.705217,15.770499,41.441084,19.122213,42.545219,19.311206,41.5932,22.522374,273.672969,-16.408619,297.82358
116,0.265228,-0.164429,0.284638,3.05441,0.0,-69.543697,-35.990593,-94.249123,-29.32378,-93.525421,-19.576813,-80.177948,-8.712593,-57.205593,0.0,5.64878,27.72013,50.556742,44.324359,68.720502,56.488375,79.650757,64.419561,83.558002,0.0,9.529186,9.493126,-54.951851,11.768234,-60.159874,15.924133,-52.749367,20.62579,27.246632,0.0,18.121189,6.968929,39.522697,12.50867,38.670121,14.088258,38.261234,12.631936,36.388814,22.702932,273.443397,-16.208651,300.812847
117,0.32135,-0.20285,0.054531,0.47738,0.0,-69.498505,-36.122143,-94.130024,-29.432968,-93.461002,-19.660469,-80.132904,-8.687393,-56.988693,0.0,5.882381,27.891315,50.717305,44.374241,68.885882,56.471135,79.849001,64.410842,83.848711,0.0,11.215828,10.673321,-54.161327,11.952267,-59.749832,15.317253,-53.028191,19.368988,25.698212,0.0,18.75302,7.116426,39.340817,12.391875,38.416697,13.803304,37.819003,12.218974,36.121644,22.943327,273.190449,-16.235075,301.240129
118,0.238724,-0.115683,0.235142,0.853267,0.0,-69.417778,-36.140957,-94.061795,-29.458454,-93.345005,-19.714028,-80.097565,-8.750931,-56.977822,0.0,5.918295,27.861069,50.922378,44.233166,68.954869,56.291317,79.960966,64.248352,84.020327,0.0,12.404148,10.836983,-53.930638,11.721531,-59.675709,14.876095,-53.22353,18.858318,24.729572,0.0,19.148889,6.804402,38.553376,11.677818,37.453811,12.777272,36.738309,10.897342,35.182483,23.110091,273.01785,-16.071893,302.03648
119,0.387817,-0.115041,-1.02158,-3.557466,0.0,-69.4216,-36.428055,-94.142647,-29.713989,-93.202675,-19.854652,-79.802044,-8.644066,-56.390842,0.0,5.919098,27.957005,50.878572,44.247924,69.096908,56.211449,80.210833,64.11281,84.236725,0.0,9.071251,10.486084,-53.676636,12.227795,-58.468254,16.211002,-51.252274,20.987629,31.635372,0.0,17.120203,8.164948,39.558586,15.694732,40.923233,19.224089,42.130701,19.664098,42.183522,23.433563,272.840849,-17.157818,298.417054
120,0.295693,-0.064529,-0.333069,-5.277215,0.0,-69.300625,-36.356598,-94.348767,-29.681157,-93.285027,-19.896126,-80.021027,-8.79094,-56.868874,0.0,5.652719,27.748362,50.742882,44.199228,69.065551,56.34215,80.107772,64.411891,84.449888,0.0,3.298577,9.614834,-53.661701,12.771469,-57.468807,17.615616,-49.221874,23.040814,37.455013,0.0,12.016569,10.255706,41.840622,21.642952,46.470594,28.492171,50.054835,32.042499,51.13459,23.657336,272.697681,-17.562807,293.0612
