takenoko1/special-research/HandMotion_SimilarSearch_自分用/NewProject/handData/test_key/d4_feature_d3/70.csv
frame,vel_0x_L,vel_0y_L,vel_0x_R,vel_0y_R,posFromWrist_0x_L,posFromWrist_1x_L,posFromWrist_2x_L,posFromWrist_3x_L,posFromWrist_4x_L,posFromWrist_5x_L,posFromWrist_6x_L,posFromWrist_7x_L,posFromWrist_8x_L,posFromWrist_9x_L,posFromWrist_0y_L,posFromWrist_1y_L,posFromWrist_2y_L,posFromWrist_3y_L,posFromWrist_4y_L,posFromWrist_5y_L,posFromWrist_6y_L,posFromWrist_7y_L,posFromWrist_8y_L,posFromWrist_9y_L,posFromWrist_0x_R,posFromWrist_1x_R,posFromWrist_2x_R,posFromWrist_3x_R,posFromWrist_4x_R,posFromWrist_5x_R,posFromWrist_6x_R,posFromWrist_7x_R,posFromWrist_8x_R,posFromWrist_9x_R,posFromWrist_0y_R,posFromWrist_1y_R,posFromWrist_2y_R,posFromWrist_3y_R,posFromWrist_4y_R,posFromWrist_5y_R,posFromWrist_6y_R,posFromWrist_7y_R,posFromWrist_8y_R,posFromWrist_9y_R,posFromBody_0x_L,posFromBody_0y_L,posFromBody_0x_R,posFromBody_0y_R
6,-6.779571,2.165167,-0.297809,0.135184,0.0,18.876331,-10.136799,32.925991,-22.003247,30.150386,-30.236573,15.328411,-35.836979,-12.491043,0.0,-8.272617,5.775763,27.282357,24.868681,42.687763,40.71196,50.847327,53.231609,55.965596,0.0,71.375312,23.066597,83.445991,12.450279,79.162033,3.357101,66.046531,-3.584999,47.478859,0.0,17.115151,38.069845,56.060259,55.199137,68.246468,64.909242,79.949098,69.153088,82.694595,5.542769,303.713396,-37.352445,281.750343
7,6.451835,-2.658701,0.120163,0.418124,0.0,10.491566,-18.660198,26.340283,-31.153598,22.994374,-38.70845,8.58791,-43.271953,-18.883758,0.0,-6.70649,7.16059,29.16693,27.366152,44.13833,43.591764,52.941295,56.388858,57.726508,0.0,71.043159,22.420223,82.671432,12.011226,78.94123,3.113777,65.849784,-3.563725,47.326995,0.0,17.000456,37.196608,56.461069,54.393838,68.043471,64.419648,79.765811,68.992525,82.529586,11.641828,301.434399,-37.585058,282.548171
8,-8.259727,2.026574,0.356552,0.337713,0.0,25.182529,-9.080315,34.753475,-20.859078,31.950222,-28.852638,16.314388,-34.221989,-9.719502,0.0,-9.430338,5.863572,26.677944,25.512837,42.696952,41.603673,51.031689,54.327877,55.947676,0.0,70.236992,22.125217,81.750251,11.726486,78.315742,2.868816,65.338829,-3.806786,46.84243,0.0,16.629707,36.433163,56.564724,53.699035,67.878461,63.94349,79.491812,68.771434,82.199271,3.15457,303.753154,-37.456037,283.178065
9,6.564342,-2.238057,0.400932,0.321361,0.0,16.066979,-16.155063,28.83284,-28.527946,25.024269,-36.32381,9.296219,-41.228462,-18.352409,0.0,-9.016869,6.807797,28.413291,27.195486,43.824181,43.437673,52.679869,56.251414,57.468169,0.0,69.849174,21.592312,81.100616,11.193478,78.161911,2.438782,65.288292,-4.167652,46.66436,0.0,16.38546,35.699396,56.452808,53.08436,67.609773,63.585067,79.054508,68.659419,81.656819,9.578716,301.696829,-37.195301,283.681158
10,-5.167339,1.469166,0.391296,0.249336,0.0,24.756008,-11.068142,33.926868,-22.817654,31.221119,-30.446457,15.749325,-35.312817,-10.668674,0.0,-8.794284,5.498738,26.881597,25.411196,43.008631,41.74271,51.612352,54.767971,56.670761,0.0,69.680031,21.062313,80.583298,10.607541,78.056946,1.939316,65.262726,-4.560413,46.407051,0.0,15.944265,34.967517,56.215476,52.436968,67.153771,63.179144,78.531494,68.468869,81.324268,4.298532,303.266873,-36.91685,284.031372
11,0.535481,-2.741496,0.288037,0.263749,0.0,23.208,-11.78991,35.228324,-23.822308,30.054862,-31.540799,15.155479,-36.282738,-10.202614,0.0,-6.224763,8.444603,32.170791,27.692812,46.910651,42.974631,55.088481,54.881913,59.550973,0.0,69.413509,20.62762,80.025249,10.095154,77.89278,1.43359,65.114376,-5.063771,46.116085,0.0,15.653013,34.251311,55.974723,51.74624,66.789542,62.651894,77.876174,68.116027,80.716804,4.728917,300.585964,-36.733909,284.355708
12,1.04203,-0.27768,0.212276,0.334514,0.0,21.207504,-12.320309,33.905182,-24.361908,29.058334,-32.137871,13.989235,-36.965813,-14.919766,0.0,-5.666205,8.474133,33.103384,27.513983,47.648483,42.696125,55.747914,54.543695,60.267328,0.0,69.40036,20.387329,79.672943,9.771572,77.891121,1.050911,65.008003,-5.554149,45.854576,0.0,15.097482,33.602981,55.576248,51.051165,66.365292,62.058794,77.254891,67.678242,80.065967,5.681488,300.349483,-36.611092,284.731421
13,0.921284,-1.236885,0.03495,0.205542,0.0,19.623035,-14.912693,31.729419,-26.947369,27.738246,-34.281373,14.517414,-38.638905,-13.579228,0.0,-4.173476,9.792133,34.578279,28.825524,48.763226,43.813399,56.762424,55.395899,60.844089,0.0,69.613381,20.052052,79.971291,9.417309,78.262093,0.831002,65.517998,-5.522197,46.387825,0.0,14.760251,33.270258,55.429121,50.796186,65.867782,61.976592,76.57676,67.705017,79.571952,6.514361,299.137894,-36.664553,284.962259
14,-4.487183,-0.432055,-0.157505,-0.170517,0.0,21.961018,-12.384567,36.655025,-23.731991,33.165836,-30.095913,20.722195,-33.27063,-4.692947,0.0,-1.719441,11.432693,34.801408,30.326331,48.743848,44.964451,56.578988,56.155824,60.619416,0.0,69.659054,19.940907,80.18565,9.303086,78.428364,0.826893,65.951352,-5.3451,46.888012,0.0,14.461452,33.579454,55.544582,51.140925,65.744293,62.305511,76.275282,67.983894,79.639259,1.952906,298.719215,-36.89633,284.805118
15,-0.175644,0.967826,-0.365284,-0.1071,0.0,19.000591,-11.942951,37.553135,-23.310711,33.781528,-29.490177,20.590107,-32.425873,-5.167488,0.0,0.661273,11.039603,33.499241,29.607964,47.738527,43.980187,55.231742,54.924015,58.656593,0.0,69.957665,20.048367,80.523903,9.500199,78.796715,1.138195,66.531693,-4.897407,47.555764,0.0,14.30226,33.97583,55.354119,51.593791,65.662325,62.750694,75.807486,68.414232,79.486019,1.722479,299.686031,-37.316397,284.697008
16,8.553967,0.712341,-0.343597,-0.24363,0.0,5.970153,-19.739308,26.994689,-31.139821,24.915229,-36.908329,11.433471,-39.568211,-15.222897,0.0,-1.537993,10.04736,29.998893,29.741616,44.944827,45.136352,53.125509,56.893544,57.208829,0.0,70.267342,20.286037,81.040649,9.794735,79.258186,1.552071,67.18943,-4.253689,48.372459,0.0,14.234001,34.494966,55.287848,52.2057,65.590658,63.400815,75.78943,69.05845,79.807406,10.232832,300.39634,-37.703608,284.451346
17,-5.745461,3.278959,-0.443356,-0.38641,0.0,13.653832,-13.346603,32.772102,-24.031506,31.098885,-29.689121,17.757294,-32.491459,-5.588173,0.0,-5.161112,8.321782,24.957664,27.402449,40.769203,42.646193,49.109361,54.082863,53.744644,0.0,70.543225,20.675618,81.578694,10.239945,79.710904,2.098732,67.832257,-3.498996,49.151837,0.0,14.279968,35.118003,55.389972,52.926563,65.725114,64.124382,76.029257,69.724008,80.310351,4.45134,303.674781,-38.182995,284.064418
18,7.916233,-1.291016,-0.294342,-0.275629,0.0,0.994938,-19.826214,25.204617,-30.42437,22.965786,-35.76376,9.021549,-38.132412,-15.206154,0.0,-5.152133,9.487321,25.575452,28.918051,41.078622,44.319024,49.984167,55.79088,55.260283,0.0,70.446591,21.07663,81.605244,10.653706,79.75597,2.423768,67.809437,-3.31612,49.132885,0.0,14.276696,35.645413,55.591488,53.411698,66.163171,64.487919,76.476268,69.997859,80.568653,12.347866,302.387531,-38.497044,283.792555
19,0.772682,3.128757,-0.193222,-0.023724,0.0,2.518421,-18.199436,23.828625,-28.589092,22.023251,-34.384929,7.29546,-37.614292,-19.45142,0.0,-10.893945,6.31498,21.562491,25.196861,37.933933,40.776391,47.186417,52.296153,52.866245,0.0,70.600766,21.386147,81.765828,10.984108,79.947544,2.712902,67.886959,-3.061649,49.23238,0.0,14.19516,35.663827,55.566763,53.429321,66.182152,64.526735,76.530793,70.098018,80.571345,13.103193,305.524276,-38.707621,283.776819
20,4.2178,-0.45883,-0.024788,-0.087834,0.0,-3.548675,-23.112808,20.664277,-33.435779,17.609414,-38.828842,3.727593,-41.326389,-23.641708,0.0,-14.927273,7.439035,24.086317,25.986031,38.820817,40.950638,48.298171,51.84283,54.398272,0.0,70.389576,21.653378,81.773816,11.247746,79.899159,2.866608,67.600491,-3.04636,48.925976,0.0,14.318488,35.751846,56.017874,53.467199,66.579838,64.509655,77.164328,70.03423,80.735564,17.306293,305.073662,-38.747109,283.697201
21,-9.547714,5.441385,-0.09431,0.04488,0.0,6.314003,-13.189682,32.191178,-23.009205,28.533898,-28.811016,13.451294,-32.131359,-15.149013,0.0,-21.091162,3.583438,18.555529,20.927066,34.405119,35.493136,43.458816,46.355157,48.888369,0.0,70.51078,21.884056,81.890831,11.44297,79.885231,2.954143,67.455345,-3.113308,48.668632,0.0,14.360009,35.775571,56.349968,53.412378,66.982772,64.364986,77.456259,69.817276,80.651756,7.743999,310.524254,-38.855999,283.751288
22,8.06987,-2.315332,0.035808,0.052179,0.0,-6.649887,-20.210403,23.599961,-30.335941,19.899811,-36.165973,4.059609,-39.396972,-26.000427,0.0,-18.562038,6.01922,21.853002,23.670823,37.12872,38.13661,46.331544,48.924407,50.966888,0.0,70.449017,21.91507,81.920712,11.444344,79.721844,2.875214,67.185963,-3.324978,48.342167,0.0,14.494946,35.789897,56.635366,53.333028,67.306307,64.184811,77.649575,69.560777,80.572358,15.804405,308.218573,-38.829655,283.813118
23,-5.260277,1.506303,-0.105686,0.011486,0.0,1.458802,-15.451881,29.607605,-25.360061,25.798806,-31.302097,9.580628,-34.93024,-19.936351,0.0,-20.754092,5.049775,20.438645,22.37599,35.678128,36.569162,44.825118,47.093161,49.14651,0.0,70.738495,22.009964,82.051575,11.504471,79.715241,2.896649,67.153061,-3.350487,48.273445,0.0,14.552312,35.686662,56.737328,53.201537,67.448382,64.03593,77.717006,69.390901,80.58656,10.53364,309.732215,-38.945829,283.831943
24,-3.405017,1.910384,-0.03091,0.02412,0.0,5.858058,-11.36554,33.332759,-21.348736,29.334514,-28.034363,12.595378,-32.609562,-17.220761,0.0,-22.009341,3.735406,19.492704,20.63495,35.061687,34.681218,43.367512,45.354604,47.413066,0.0,70.804813,22.070446,82.077175,11.524028,79.554004,2.829551,66.84859,-3.569035,47.826908,0.0,14.677961,35.577845,57.011883,53.018842,67.754997,63.781741,78.034761,69.05509,80.578952,7.11759,311.643708,-38.987772,283.857172
25,4.673126,-1.262005,0.289249,0.003099,0.0,-0.061947,-14.514221,26.426525,-24.812645,23.770763,-31.892475,6.024845,-37.058796,-26.773487,0.0,-20.03954,4.391529,19.578623,21.990396,35.340069,36.602396,44.310045,47.698797,48.549681,0.0,70.916702,21.612076,81.811432,10.966862,79.354042,2.293076,66.590584,-4.065273,47.514427,0.0,14.987332,35.073444,56.924791,52.56552,67.487446,63.419736,77.879089,68.776757,80.531664,11.779719,310.377229,-38.70952,283.855797
26,3.910286,-4.022842,0.256336,0.068679,0.0,-1.200589,-20.16687,21.07687,-30.709671,19.229885,-37.246983,2.438656,-41.545006,-28.278923,0.0,-14.76976,7.51894,24.01103,25.698299,38.575038,40.405456,47.85589,51.299859,52.42773,0.0,70.838001,21.249527,81.554089,10.511616,79.072346,1.803097,66.284008,-4.57814,47.209957,0.0,15.190281,34.549603,56.796201,52.086917,67.098801,63.021223,77.673299,68.460027,80.472754,15.68026,306.346535,-38.462929,283.916624
27,-7.626961,3.236463,0.290863,0.086537,0.0,10.800625,-14.632175,28.778057,-24.777844,27.419575,-31.14101,11.81377,-35.274982,-17.095745,0.0,-17.39929,5.071796,22.327788,22.434641,36.833244,36.84342,44.866083,47.700526,49.576466,0.0,70.768811,20.814823,81.264805,9.973915,78.773243,1.257283,66.04707,-5.08564,46.994396,0.0,15.301629,33.994084,56.623671,51.612403,66.643206,62.670197,77.343552,68.214433,80.316328,8.042736,309.573273,-38.182629,283.993436
28,-2.274822,-0.680589,0.370789,0.060861,0.0,14.621177,-13.081604,32.054626,-23.57666,29.534958,-30.094918,14.140915,-33.843155,-15.957333,0.0,-15.683196,5.742418,25.023182,22.677135,38.92583,36.650945,46.388935,47.100955,50.929764,0.0,70.545307,20.364452,80.914982,9.477997,78.457226,0.816936,65.890995,-5.424912,46.839763,0.0,15.269778,33.437589,56.363875,51.130688,66.164801,62.305635,77.11925,67.942312,80.245723,5.759863,308.882733,-37.819891,284.044346
29,9.948841,-4.278031,0.474289,-0.050363,0.0,0.512363,-23.491162,21.607555,-34.623436,19.242657,-40.747341,4.027004,-43.618984,-24.362915,0.0,-10.412713,8.814661,29.603271,26.622282,42.595409,40.92001,50.619727,51.455853,55.522191,0.0,70.354603,19.693199,80.516819,8.710899,78.15176,0.109268,65.783626,-5.996132,46.719738,0.0,15.285228,32.868645,56.143697,50.709315,65.722149,62.074503,76.767248,67.852526,80.110872,15.703314,304.596208,-37.350992,283.985489
30,-5.165611,0.747476,0.111866,-0.025565,0.0,8.443027,-19.789502,26.506221,-30.303669,24.629802,-36.114075,10.133892,-38.838364,-13.453721,0.0,-10.124301,8.268677,28.382725,25.634992,42.048795,39.756089,49.012611,50.017859,53.818066,0.0,70.198746,19.711773,80.426262,8.73611,78.12767,0.177383,66.000023,-5.865063,46.988571,0.0,14.87418,32.681628,55.809948,50.581134,65.339988,62.035254,76.179964,67.884167,79.739987,10.527821,305.341168,-37.249008,283.957408
31,-3.964406,3.164832,0.244137,-1.0925,0.0,9.405671,-14.073417,30.513199,-24.057025,28.231568,-30.369255,12.160538,-33.792285,-18.308361,0.0,-15.93289,6.757533,26.50082,23.465923,39.826929,36.923635,45.386998,46.872108,50.005916,0.0,69.619823,19.121337,80.409175,8.05719,77.900768,-0.405533,65.791935,-6.294766,46.573162,0.0,14.429712,32.621557,56.694942,50.488742,66.007201,62.019878,76.195105,67.972161,79.529924,6.548847,308.514972,-37.019439,282.87388
32,5.561417,1.363832,0.179775,-2.533694,0.0,-7.834934,-22.181248,21.801384,-29.45097,22.683014,-32.828659,10.079155,-33.288666,-17.357151,0.0,-3.482624,7.286055,29.649522,19.179295,39.018814,28.148086,41.329415,34.24999,41.927777,0.0,68.351669,19.118351,80.302482,7.95805,77.495636,-0.810494,64.336738,-7.145107,44.104797,0.0,13.690993,32.208212,58.369021,49.835621,68.759899,61.488207,79.007269,67.798087,81.985405,12.097011,309.9597,-36.852917,280.421082
33,7.755764,5.720843,-1.15147,-4.42207,0.0,-24.604557,-32.141361,7.851666,-36.649979,13.127827,-36.764431,4.552082,-33.805595,-17.978748,0.0,5.74306,5.05821,28.584451,10.920548,34.244382,14.719482,31.8869,16.714329,28.113517,0.0,67.012859,19.636665,79.809757,8.743675,76.884281,-0.326237,63.092846,-7.388466,41.972191,0.0,13.334791,31.293021,61.198375,48.783393,73.822382,60.690009,83.919032,67.57103,86.493283,19.825922,315.855346,-38.03124,276.173815
34,-5.632393,1.152497,-1.701817,-6.56129,0.0,-21.131069,-26.926391,4.086617,-25.980869,12.971661,-21.406906,10.169598,-14.61462,-4.131969,0.0,14.396046,4.129793,29.047283,6.273508,32.624966,7.033619,29.204524,6.672292,23.762966,0.0,64.676743,19.061565,77.156227,8.065464,73.169197,-1.582901,59.362564,-9.642391,38.451439,0.0,12.854274,28.240748,63.367445,45.397816,78.140255,57.757,87.640704,65.718234,88.944601,14.167316,317.30632,-39.75927,269.911002
35,11.145355,-16.283757,-0.885693,-5.916135,0.0,-28.339107,-27.98014,-12.181137,-22.505241,-2.321628,-13.963966,1.384678,-3.708686,-4.334003,0.0,26.792652,8.860419,43.894799,9.724468,47.748469,9.548516,43.981707,8.577837,36.041962,0.0,59.498211,15.532769,70.271519,4.094056,64.116818,-6.13908,50.508374,-14.887023,29.332798,0.0,12.276131,22.622461,61.297473,37.898674,76.138555,49.678503,84.02428,58.180621,83.538601,25.22133,301.685562,-40.736304,264.657866
36,20.104214,-25.316409,-9.764396,-20.277328,0.0,-38.945869,-36.446674,-33.729618,-26.621441,-21.601066,-13.139911,-10.33461,1.91201,-1.133858,0.0,46.828116,14.443508,60.392829,14.175289,65.467985,13.180539,62.047197,11.622082,51.538314,0.0,59.549663,16.410507,67.995792,3.92831,61.319149,-7.67926,47.597202,-17.813416,26.779438,0.0,16.784416,21.361839,66.102729,35.889759,81.905141,47.646284,88.38765,56.62819,86.664517,45.12097,277.713505,-50.705274,245.72489
37,14.009468,-32.427722,-12.685879,-27.207738,0.0,-33.377598,-31.603946,-40.426975,-19.565494,-29.382362,-4.550491,-16.991089,11.409874,-2.546562,0.0,51.34527,18.219928,71.633232,20.985643,80.62687,23.279016,80.159506,24.984735,71.449141,0.0,59.76376,16.048599,64.300598,2.214272,56.610958,-10.68433,43.674431,-22.026501,23.355057,0.0,22.590227,20.026968,70.811124,33.203073,85.818611,44.341872,90.675219,53.305784,87.542126,58.821396,247.371462,-63.700195,220.602831
38,15.096772,-41.370677,-13.602013,-33.04162,0.0,-32.809754,-25.731869,-43.108761,-10.911393,-31.568528,5.65345,-17.825158,22.034568,0.319427,0.0,56.747937,21.448092,81.564761,28.289753,93.425385,34.745055,97.103906,40.347929,91.083216,0.0,59.266766,14.881886,59.302895,-0.853626,50.15767,-15.419666,37.297245,-28.132244,17.440991,0.0,29.39511,18.801444,74.497969,30.127482,86.863687,40.28498,89.602787,48.914477,84.76621,73.475058,208.770165,-77.745318,190.330591
39,22.562599,-42.070938,-14.495075,-37.555848,0.0,-39.482964,-27.93956,-45.190476,-12.675019,-32.549446,3.929466,-19.065354,20.301635,-2.37957,0.0,60.707669,20.780625,87.061819,27.775026,97.668119,35.177431,100.82338,42.240153,94.794848,0.0,59.188729,15.1497,53.924549,-2.291244,44.622448,-18.47422,31.434677,-32.383026,11.329937,0.0,37.401268,20.950612,77.928242,30.579385,87.568605,39.270113,88.678149,46.476226,82.709725,95.500254,170.013702,-92.777796,156.089218
40,10.767952,-27.77536,-15.510967,-40.833429,0.0,-42.994286,-26.867318,-37.959114,-10.806794,-22.471642,6.151863,-10.420578,22.385101,3.078025,0.0,59.760307,14.166662,75.903495,19.344181,82.975387,25.96585,85.569089,33.142088,81.32654,0.0,60.355865,17.211891,51.075565,-1.445515,42.297455,-19.099377,28.553078,-34.392975,9.355797,0.0,46.116671,25.45615,84.286169,34.510095,93.507395,42.360418,94.708972,48.564921,88.394659,105.696974,145.657579,-108.859995,118.675026
41,10.484321,-28.491801,-6.547211,-29.354417,0.0,-47.231346,-27.940223,-35.90863,-11.158493,-15.964782,6.184296,-3.734894,22.552849,8.073258,0.0,56.438765,4.28567,64.555344,7.402522,62.541163,13.506624,64.408471,20.791388,62.115048,0.0,55.570725,13.281578,39.406105,-5.784084,29.069332,-23.800026,14.531857,-39.533912,-3.730327,0.0,48.532582,24.751232,75.407467,32.473171,83.93728,39.054425,85.290089,44.545562,80.2883,115.659679,120.889232,-115.928822,93.044063
42,7.230034,-23.344293,-2.619632,-22.676011,0.0,-48.1203,-28.576218,-34.987976,-11.52935,-10.745201,6.246071,1.906792,22.920731,13.56736,0.0,50.359913,-5.559025,50.558755,-4.057539,41.147622,1.288837,42.449296,8.313693,42.387033,0.0,49.595237,9.317379,28.509304,-9.765141,16.557861,-27.727559,1.648876,-43.15313,-15.092171,0.0,49.357895,22.685601,64.338576,29.371096,71.767873,35.002641,72.718304,39.781252,68.749204,122.464182,100.631077,-118.973985,73.45419
43,4.200737,-18.303952,-0.092308,-16.662225,0.0,-44.140434,-28.153061,-33.043991,-10.819336,-7.477753,7.305199,5.990204,24.31881,16.90622,0.0,43.951751,-13.697155,36.38459,-13.657437,23.764047,-8.871842,24.096808,-1.974605,25.394129,0.0,43.745143,5.984104,18.731483,-13.468197,5.622596,-31.452977,-9.964932,-46.564637,-25.178776,0.0,51.208647,21.30937,52.953498,26.262383,59.433098,30.499739,59.963991,34.438977,57.026493,126.331438,84.791642,-119.399774,59.256482
44,0.647942,-15.232894,1.073947,-11.579499,0.0,-38.442742,-25.88292,-29.530815,-8.14666,-4.761544,10.277755,9.480171,27.505027,20.224479,0.0,39.961174,-17.534844,26.527057,-17.953586,14.130699,-13.295253,14.036462,-6.354272,15.608788,0.0,37.874669,3.09002,11.963025,-16.659244,-2.873428,-34.658626,-19.321872,-49.509189,-33.460819,0.0,53.698665,19.379286,43.336495,22.833913,49.003565,26.138703,48.931965,29.880685,47.319372,126.616139,71.351344,-118.689068,49.469579
45,2.643013,-13.363845,-2.444744,-0.784736,0.0,-35.645302,-26.629875,-29.114685,-8.284287,-5.378952,10.476242,10.108452,27.948623,21.594703,0.0,36.492048,-22.774182,19.404808,-23.824704,6.705175,-19.295089,6.750709,-12.222265,8.521353,0.0,36.381798,6.761845,10.9735,-12.420776,-5.280452,-30.217495,-21.854175,-45.290989,-36.18441,0.0,43.827034,8.077645,27.648494,8.44556,31.963736,10.427971,30.015436,13.987104,29.435118,128.227701,59.654606,-122.165263,50.35195
46,-1.112023,-7.151902,-2.117225,7.297058,0.0,-30.837799,-24.275253,-23.65892,-5.227203,-2.754478,13.813958,12.771447,31.261597,23.821381,0.0,35.700859,-23.265351,13.906391,-24.403849,5.372014,-19.7916,5.251607,-12.500963,7.037682,0.0,35.510101,12.552246,14.035503,-5.701779,-2.689762,-23.590439,-18.648789,-39.263878,-32.402138,0.0,29.967667,-5.153597,15.510092,-8.189858,17.837657,-7.978264,15.0579,-5.235842,13.29248,126.063858,53.715584,-125.334308,58.861888
47,-0.40892,-5.522944,-5.914341,12.362217,0.0,-28.674522,-22.548225,-19.56356,-2.523148,-1.789009,16.766647,14.089165,34.112,24.850227,0.0,36.843636,-21.840608,13.706763,-22.927434,9.706164,-17.78478,9.254157,-9.900339,10.243473,0.0,35.415733,21.101291,19.153198,3.628761,3.001613,-14.365586,-12.875988,-31.029099,-26.533768,0.0,16.358869,-15.369882,6.624504,-22.178068,6.474147,-24.121903,2.777786,-22.118096,0.886692,124.310869,49.292106,-132.592718,72.323571
48,1.149353,-2.887974,-5.669094,12.862351,0.0,-29.466179,-22.357979,-18.257126,-2.009697,-1.723274,17.467415,13.870125,34.837738,24.835213,0.0,37.996158,-20.350411,16.707068,-21.489564,13.648168,-16.081012,13.4499,-7.780663,14.178154,0.0,34.024612,26.580436,20.959167,9.929924,5.470356,-8.108735,-9.528511,-25.336647,-23.615204,0.0,4.235479,-27.614661,-2.069133,-36.327564,-3.77166,-38.801421,-7.66112,-36.606861,-10.484226,123.902309,47.309597,-139.819725,86.091387
49,2.268311,-0.0654,-4.57647,6.4585,0.0,-31.112893,-23.370392,-18.918068,-2.719025,-2.576683,17.034874,12.769867,34.502311,23.91838,0.0,38.38271,-20.535989,19.493728,-22.037932,15.828205,-16.511708,15.561931,-7.949261,16.375264,0.0,30.200054,29.077526,21.690468,12.324372,5.97844,-5.648689,-8.463558,-22.884441,-23.103344,0.0,-2.850331,-35.520782,-6.98231,-45.675699,-10.146957,-48.143468,-14.184532,-45.197355,-17.003451,124.366814,48.127237,-146.200001,93.432927
50,0.293815,0.031443,-2.601448,-3.398403,0.0,-29.356315,-21.514572,-17.445488,-0.985107,-1.028343,18.865059,13.912079,36.56456,24.564263,0.0,39.520387,-18.879941,21.86295,-20.386386,18.913947,-14.637843,18.412392,-5.742782,18.541741,0.0,27.505325,28.219792,20.14904,10.265225,3.592587,-8.762558,-10.941662,-26.41349,-24.879169,0.0,2.592795,-34.390576,-3.973324,-43.453987,-9.077446,-44.74383,-11.861575,-40.948285,-14.955048,123.194469,48.654919,-150.267609,90.530763
51,1.056404,0.262415,-2.488975,-9.906272,0.0,-28.612014,-20.546882,-16.838241,-0.073471,-0.45243,19.802971,14.560822,37.548111,25.146721,0.0,39.830664,-18.026811,22.470011,-19.394033,20.586333,-13.506822,20.281719,-4.346637,20.156273,0.0,24.906074,27.344604,17.91006,7.604621,1.36306,-12.530308,-13.436543,-30.631005,-27.858605,0.0,14.562173,-29.97596,3.073725,-37.865162,-3.17654,-37.535785,-5.478374,-32.298411,-8.491009,122.508865,48.998767,-154.498592,80.705924
52,1.649964,-0.389911,2.598014,-24.235617,0.0,-26.526398,-20.224892,-15.847206,0.182922,0.471656,20.11029,15.573166,38.063736,26.131736,0.0,39.778566,-18.687132,20.742606,-19.72804,19.037195,-13.714291,18.99823,-4.483413,18.659894,0.0,22.021443,22.557187,12.636715,1.657334,-3.790271,-19.302177,-18.685684,-37.742969,-32.727127,0.0,35.111383,-18.965219,17.381815,-24.371196,10.26085,-22.329498,7.683801,-16.328902,4.363797,122.783673,48.576477,-153.275734,56.437928
53,1.633117,-0.816236,2.618592,-23.762028,0.0,-24.668884,-19.707412,-15.252617,0.843659,0.962357,20.772103,16.099022,38.579979,26.401841,0.0,39.16168,-20.087483,18.462114,-21.060218,17.429085,-14.890259,17.584394,-5.454877,17.005379,0.0,22.672359,19.553581,12.105102,-2.532772,-5.01923,-24.025841,-20.712193,-42.479439,-34.117928,0.0,51.469129,-6.349251,29.022682,-9.676728,22.093131,-6.887017,19.906795,-0.934537,17.740832,123.304367,47.797403,-151.769565,32.713062
54,1.114792,-1.608252,1.327732,-14.293769,0.0,-22.894661,-18.787307,-14.554527,2.0289,1.346352,21.919602,16.585694,39.509423,26.793022,0.0,38.620282,-20.907627,16.160904,-21.745661,16.121711,-15.310996,16.666214,-5.541612,16.398334,0.0,26.9034,20.06472,13.18903,-1.45388,-3.585858,-23.080467,-19.525028,-42.108135,-31.999008,0.0,60.209437,0.95413,40.184877,-1.253089,30.548935,1.722775,28.557145,7.292248,26.389483,123.559107,46.212925,-151.301885,18.443067
55,1.307236,-1.428793,1.729832,-0.054445,0.0,-22.658638,-18.74675,-14.470551,2.333862,1.85495,22.199226,16.653603,39.606445,26.603439,0.0,38.020074,-21.43891,15.680436,-22.074945,14.644734,-15.461507,15.045704,-5.643469,15.330231,0.0,25.980789,19.886718,13.231452,-1.061692,-2.483964,-21.862519,-18.608998,-40.477685,-31.197487,0.0,52.623009,-2.152379,35.63268,-5.228006,28.375734,-3.043666,26.09849,2.180382,23.233796,124.300003,44.790492,-150.138393,18.394982
56,1.41806,-0.945078,1.081626,7.087959,0.0,-24.381546,-19.051803,-15.198189,1.975182,1.773766,21.67115,15.938393,38.910805,25.705651,0.0,37.638315,-21.433679,16.649134,-22.018332,14.610858,-15.351301,14.94271,-5.539852,15.643707,0.0,26.648941,19.966439,14.911675,0.429017,-1.829338,-19.431564,-17.580539,-37.626594,-29.485633,0.0,39.909044,-7.592349,28.347891,-11.65439,22.686342,-10.658757,20.192348,-6.611857,16.939676,125.528217,43.674875,-149.246613,25.312402
57,0.453507,-0.153697,-0.554535,20.271258,0.0,-26.814469,-19.153794,-15.719811,1.88649,1.286888,21.513771,15.051635,38.542579,24.580444,0.0,37.809907,-21.016672,18.22858,-21.797457,15.601038,-15.157571,16.19294,-5.255929,17.541829,0.0,28.414238,22.019429,19.2254,3.291379,-0.291286,-15.98933,-15.29916,-33.855239,-27.045284,0.0,18.478966,-21.530411,9.815068,-27.062136,8.71399,-26.621288,6.869876,-22.841082,2.87899,125.771067,43.224084,-150.011805,45.286566
58,-0.413361,0.537303,1.741116,21.759635,0.0,-28.729065,-19.517372,-15.895431,1.592674,1.181282,21.117897,14.360481,37.999283,23.784371,0.0,39.02652,-19.717499,20.320307,-20.277341,16.987754,-13.574315,17.493188,-3.679448,19.575745,0.0,29.809776,24.738922,22.519512,7.295906,1.679386,-11.447994,-12.627434,-29.36261,-24.010036,0.0,-3.822548,-36.832725,-5.926181,-43.986535,-4.894782,-43.968831,-6.817171,-40.040436,-11.522799,125.111069,43.370844,-148.517326,66.655658
59,-0.393379,1.807089,3.267334,19.224725,0.0,-30.958649,-20.374695,-16.764061,0.645721,0.000549,20.349953,13.1819,37.581299,22.95916,0.0,39.319111,-19.267685,22.790873,-19.862521,19.192182,-13.261192,19.841389,-3.507584,21.481961,0.0,29.682484,25.564671,23.493187,8.622105,2.254761,-9.858387,-11.443554,-27.602451,-22.713879,0.0,-25.628576,-51.90621,-25.433235,-60.348906,-19.69391,-60.936047,-21.135585,-57.102681,-26.12713,124.632385,44.803657,-145.335297,85.506107
60,-0.80896,1.981187,4.226864,3.239754,0.0,-31.29348,-20.902954,-16.888184,0.148888,-0.644394,20.054489,12.625053,37.511284,22.61554,0.0,39.934233,-18.471999,23.742416,-19.251271,20.655272,-12.85257,21.53311,-3.305746,23.036733,0.0,31.419582,24.566505,25.095325,8.600567,2.88755,-9.425881,-10.318188,-27.11586,-21.745514,0.0,-32.758383,-54.398377,-32.457628,-62.717547,-23.2314,-63.78741,-24.323456,-60.462255,-28.722938,123.980902,46.328512,-140.950956,88.289529
61,-0.706627,1.840237,4.066555,-3.550241,0.0,-30.792892,-21.283585,-17.13089,-0.347237,-1.593429,19.674088,12.212952,37.243515,22.544037,0.0,39.83335,-18.808398,23.457117,-19.814979,20.844129,-13.641617,21.546411,-4.252096,22.706238,0.0,30.954025,23.217064,26.480244,7.490547,3.834606,-10.178295,-9.332565,-27.829456,-21.430481,0.0,-36.820073,-55.266082,-38.862307,-63.184071,-24.554934,-64.36456,-25.393251,-60.996372,-29.571161,123.429279,47.730994,-136.729397,84.301533
62,-0.693329,1.242091,3.312389,-7.048803,0.0,-29.968941,-21.369438,-17.284973,-0.599922,-1.653579,19.371323,12.478913,36.961373,22.916588,0.0,39.455308,-19.442525,22.429571,-20.480383,20.217647,-14.312152,20.499815,-4.931073,21.212971,0.0,30.23671,21.596215,25.270592,5.904305,4.521904,-11.623409,-8.968345,-29.239757,-21.325367,0.0,-39.575889,-56.878095,-40.121818,-64.250798,-25.722357,-65.429292,-26.128693,-61.814114,-29.795815,122.872221,48.352882,-133.280737,76.632527
63,-1.072883,0.081405,0.294903,-8.148029,0.0,-28.817757,-20.902153,-16.341408,-0.179123,-0.744141,19.785163,13.674041,37.473838,24.127601,0.0,38.772961,-20.23937,20.216252,-21.427337,18.592488,-15.277119,18.946694,-5.901752,19.198142,0.0,28.14045,20.080685,24.403221,4.353939,4.132679,-13.067665,-9.159725,-30.634037,-21.779377,0.0,-41.055743,-57.811662,-41.598153,-65.078765,-26.047559,-66.159132,-25.950234,-62.295965,-29.33633,122.000382,47.683368,-132.78479,67.733579
64,-0.705529,-0.621974,-1.01905,-7.115204,0.0,-28.152214,-20.577049,-15.788566,0.130989,0.159737,19.807755,14.491906,37.135002,24.478501,0.0,38.55532,-20.785942,17.820045,-21.82146,16.034717,-15.599661,16.221401,-6.241788,16.978751,0.0,26.757957,18.925483,24.201496,3.220973,3.860927,-14.042897,-9.430779,-31.583622,-22.066739,0.0,-41.937502,-58.250299,-42.260425,-65.334381,-25.812555,-66.10833,-25.228384,-61.933761,-28.635876,121.510574,46.320871,-133.588119,59.877852
65,-0.357994,-1.063812,-0.73462,-3.114826,0.0,-29.282661,-20.673271,-16.38549,-0.191826,-0.270469,19.299065,14.364601,36.487725,24.309769,0.0,37.88549,-21.326332,17.140155,-22.117472,15.686556,-15.689106,15.851269,-6.118762,16.451286,0.0,24.636773,17.857006,23.035012,1.699196,2.499939,-15.886081,-10.87175,-33.606914,-23.058357,0.0,-41.251011,-60.159258,-40.593511,-67.150263,-25.64205,-67.126051,-24.583654,-62.278205,-28.057634,121.340303,44.648438,-134.135016,56.154405
66,-1.24411,-0.642433,-0.770816,-0.369113,0.0,-29.564186,-20.442489,-15.836517,0.162483,0.135498,19.696106,14.600739,36.886048,24.376534,0.0,37.269851,-21.184003,16.741673,-21.780796,15.920634,-15.167327,16.673198,-5.472451,17.410035,0.0,23.504722,16.784088,21.190063,0.240966,1.105934,-17.583367,-12.140454,-35.30151,-24.220025,0.0,-39.768921,-62.05239,-37.521397,-69.085824,-25.290956,-68.29322,-23.786352,-62.660502,-27.103331,120.39501,43.535324,-134.607015,55.314611
67,-0.964439,-0.432821,-1.001164,1.597921,0.0,-30.030785,-20.626991,-15.697563,0.204391,0.25637,19.813362,14.337456,36.995933,24.19059,0.0,37.7827,-20.123403,17.992094,-20.681151,16.853361,-14.152478,17.825195,-4.638159,18.615199,0.0,22.726559,16.23309,21.464356,-0.451343,0.498196,-18.342625,-12.588386,-36.062508,-24.783108,0.0,-38.93293,-62.526287,-37.671172,-69.751734,-24.666615,-68.441699,-22.873174,-62.293871,-26.142333,119.709423,43.032587,-135.329327,56.842616
68,-0.447075,0.766774,-0.753044,2.280073,0.0,-31.27462,-20.898445,-17.264877,-0.148819,-1.260727,19.600319,12.865768,36.93837,23.217773,0.0,37.534889,-20.046055,20.966549,-20.886991,19.610727,-14.531811,20.493714,-4.999962,20.759599,0.0,22.044342,15.342911,21.337177,-1.39706,-0.175427,-19.25219,-13.365841,-36.971226,-25.511215,0.0,-37.941683,-62.123206,-37.334954,-69.176122,-23.808403,-67.546244,-21.740801,-61.214888,-25.133017,119.525763,43.944465,-135.818956,59.267793
69,-0.584335,1.165854,-0.700195,2.64787,0.0,-31.030404,-21.037835,-17.897942,-0.342362,-1.996331,19.580017,12.161888,37.070915,22.940712,0.0,37.327951,-19.963976,22.700989,-21.004959,21.382247,-14.726146,22.426687,-5.184398,22.344602,0.0,21.691566,15.164646,22.017711,-1.648373,-0.423603,-19.570153,-13.637719,-37.369709,-25.834237,0.0,-37.176842,-61.955899,-38.580417,-69.013447,-23.711492,-67.308141,-21.508533,-60.890334,-24.943672,119.229636,45.334732,-136.230943,62.140076
70,-0.580399,1.134898,-0.714295,2.240484,0.0,-30.436729,-20.856606,-18.228058,-0.203133,-2.195137,19.795555,11.809891,37.379059,22.826408,0.0,37.444357,-20.125151,24.127547,-21.280186,22.250477,-15.049829,23.256873,-5.513027,22.985869,0.0,21.558678,15.143292,22.125996,-1.689468,-0.459904,-19.601978,-13.703762,-37.343559,-25.775436,0.0,-37.014667,-62.100883,-39.032992,-69.185946,-23.531878,-67.439441,-21.544052,-60.983676,-24.881965,118.97608,46.724585,-136.618395,64.635515
71,-0.196037,0.452118,-0.572513,1.430602,0.0,-29.767571,-20.849099,-18.179261,-0.230004,-1.700386,19.715332,12.161178,37.256332,23.05117,0.0,38.272251,-19.873938,24.797416,-21.082603,21.889922,-14.900461,22.475378,-5.40836,22.191184,0.0,21.13845,15.029136,22.092613,-1.912297,-0.579941,-19.896,-13.914162,-37.595375,-25.827118,0.0,-36.787079,-62.295489,-39.115891,-69.386103,-23.329552,-67.52326,-21.477614,-60.963205,-24.728594,119.105192,47.358203,-136.865759,66.247617
72,-0.511437,0.370719,-0.468361,0.881543,0.0,-28.539665,-20.354439,-17.645553,0.266533,-1.269653,20.247414,12.886574,37.797341,23.742348,0.0,38.506353,-20.350027,24.197856,-21.657432,21.42743,-15.38974,21.843146,-5.688275,21.521556,0.0,20.710293,14.772823,21.213421,-2.345879,-0.871308,-20.465149,-14.209957,-38.211571,-26.135651,0.0,-36.621922,-62.640828,-38.068413,-69.585212,-23.100039,-67.546621,-21.369817,-60.851419,-24.432749,119.021341,47.864307,-136.906534,67.264545
73,-0.319908,0.452044,-0.948864,0.73018,0.0,-27.043785,-20.171425,-16.687225,0.625809,-0.424095,20.669335,14.055016,38.206833,24.595528,0.0,38.473316,-20.858777,21.87504,-22.186448,19.278849,-15.888999,19.780015,-6.238052,19.992671,0.0,20.780925,15.441547,21.023838,-1.857456,-0.66861,-20.118645,-13.852352,-37.812905,-26.077446,0.0,-36.569533,-63.009923,-37.875146,-70.16561,-23.436819,-68.021883,-21.940743,-61.223872,-24.508887,119.213419,48.415562,-137.343412,68.093936
74,-0.163513,-0.022533,-1.034867,0.720819,0.0,-26.887688,-20.101616,-15.928207,0.959518,0.493126,21.080727,14.93367,38.668167,25.290916,0.0,38.35583,-21.079003,20.150252,-22.401777,17.979021,-16.073342,18.232995,-6.429397,18.654781,0.0,21.161259,15.95715,20.592545,-1.374218,-0.573955,-19.682842,-13.606899,-37.311573,-25.979061,0.0,-36.706267,-63.303911,-36.782152,-70.68842,-23.388586,-68.538468,-22.310189,-61.803814,-24.542646,119.542093,48.314686,-137.886092,68.736412
75,0.138748,-0.01976,-0.645549,0.941261,0.0,-27.186561,-20.415848,-15.273582,0.783577,1.031479,20.8106,15.266533,38.282135,25.329712,0.0,38.410541,-21.041644,18.483479,-22.333679,16.592076,-15.989473,16.659866,-6.414003,17.421959,0.0,21.519069,16.224472,19.963634,-1.256298,-0.597474,-19.598065,-13.355896,-37.108349,-25.986397,0.0,-36.361983,-63.511472,-35.106776,-70.820565,-23.455437,-68.536881,-22.347363,-61.674644,-24.367583,120.110905,48.056499,-138.101577,69.439246
76,-0.44973,0.227834,-0.299,1.189801,0.0,-27.135681,-19.754745,-15.066467,1.548409,1.035713,21.583122,15.418282,39.010071,25.595925,0.0,38.142705,-21.431586,17.778487,-22.672726,16.617172,-16.167097,16.950414,-6.376181,17.755213,0.0,22.512611,16.455059,19.859424,-1.031422,-0.513622,-19.31749,-13.24902,-36.678772,-25.983158,0.0,-36.06334,-63.501888,-34.077755,-70.712793,-23.481619,-68.352204,-22.351803,-61.468552,-24.235326,120.021824,47.823557,-138.039928,70.168271
77,0.996666,1.424212,0.8596,1.804267,0.0,-29.698173,-20.877113,-16.929634,0.097298,-0.846245,19.845818,13.414902,37.067848,23.553681,0.0,36.364737,-22.354545,17.153381,-23.436159,15.935379,-16.836046,16.656259,-7.06484,17.639585,0.0,23.490978,15.966968,19.782383,-1.628849,-0.594132,-19.771351,-13.473473,-36.757015,-26.141281,0.0,-35.948935,-63.583498,-33.438657,-70.589082,-23.052448,-67.912338,-21.990483,-60.714148,-23.696437,121.513864,48.563877,-136.684954,71.288646
78,-0.085831,0.52854,1.432194,2.540424,0.0,-32.319122,-21.174614,-18.475547,-0.479347,-2.42118,19.044777,11.818406,36.075394,22.195656,0.0,35.752161,-22.073253,17.666058,-22.599718,16.756715,-15.576906,17.798321,-5.400358,18.977217,0.0,24.640194,14.680275,19.588348,-3.041703,-0.500965,-20.901192,-13.581059,-37.470909,-26.010258,0.0,-35.497311,-63.489705,-32.564061,-70.028913,-22.175629,-66.914426,-21.168974,-59.266378,-22.553727,122.094486,48.284117,-134.586307,73.02077
79,0.074799,1.119078,1.953426,2.716876,0.0,-35.247528,-21.866455,-20.072937,-1.612038,-4.339371,17.628044,9.833405,34.443787,20.248718,0.0,34.824713,-21.773621,17.93277,-21.831401,17.491749,-14.500738,18.949318,-4.053328,20.144695,0.0,25.181202,12.858421,18.877899,-5.213104,-0.568909,-22.908039,-13.902374,-38.975853,-26.396793,0.0,-34.495213,-63.90597,-31.114013,-69.612233,-21.31329,-65.593936,-20.034816,-57.046389,-21.10006,122.889896,48.478979,-131.91227,74.81343
80,0.237877,4.670968,2.420219,4.041596,0.0,-40.307739,-23.784943,-22.967629,-4.109825,-7.189522,14.530563,7.476036,30.920334,18.221191,0.0,31.676455,-23.607825,16.012289,-23.100718,15.510246,-15.295911,17.807386,-4.46059,19.990529,0.0,26.518548,10.535523,18.027501,-7.946079,-1.213028,-25.332046,-14.521751,-40.760398,-26.652557,0.0,-33.611089,-63.485482,-29.938447,-67.879524,-19.537855,-62.747904,-18.036746,-53.164697,-18.472006,123.983082,52.332357,-128.636742,78.037436
81,0.679779,4.219832,2.026143,4.977682,0.0,-47.269569,-26.713303,-26.247185,-7.5737,-10.823502,10.657471,3.918137,26.959465,14.449951,0.0,29.596867,-23.504239,15.275323,-22.394016,15.597826,-14.153886,18.470789,-3.126276,21.46695,0.0,28.422615,8.245136,16.720367,-10.582409,-1.369687,-27.54411,-14.686009,-42.117314,-26.752476,0.0,-32.838511,-63.293228,-27.736476,-66.368929,-17.874355,-60.142475,-16.45123,-49.524917,-15.982088,125.680859,55.896319,-125.592601,82.359248
82,-0.255432,4.24505,2.355388,5.478348,0.0,-54.444054,-28.653214,-30.715943,-10.758408,-15.986824,6.604568,-1.362831,22.292496,8.104591,0.0,28.63374,-19.805413,18.277832,-17.146848,20.022096,-8.158217,23.494081,3.320505,27.272681,0.0,30.724331,5.268162,16.662369,-13.598934,-1.447403,-29.87566,-14.149738,-43.409912,-25.950977,0.0,-30.822607,-61.214783,-23.455178,-62.070909,-13.807861,-54.187296,-11.943907,-42.123723,-11.029889,126.12747,59.799512,-122.53517,87.495739
83,-0.918389,7.626083,1.547859,5.770477,0.0,-60.716262,-31.235229,-39.998794,-15.008674,-24.140167,1.112114,-9.763252,15.891747,-0.605415,0.0,26.126063,-16.818762,22.983634,-12.112553,26.96714,-2.218513,30.908613,9.684521,34.5133,0.0,34.333409,3.858822,19.47408,-14.546962,1.873146,-30.259872,-11.171161,-43.146698,-23.941681,0.0,-27.948854,-57.579739,-15.986187,-55.795881,-6.649445,-46.005094,-4.628829,-32.292143,-4.43166,125.540966,66.944791,-120.655426,92.785412
84,-2.357894,9.398222,0.60997,5.960076,0.0,-66.560395,-32.982262,-49.056496,-18.435311,-33.306839,-3.615349,-18.91848,10.237289,-9.396653,0.0,24.15237,-13.810665,28.967766,-6.805705,35.201748,4.205975,40.103058,16.644879,43.574604,0.0,39.879468,3.656148,23.962395,-14.116298,7.018136,-28.992256,-5.954978,-41.025444,-19.377273,0.0,-24.437195,-52.002819,-7.436806,-47.739151,2.178011,-36.348905,4.309333,-21.45736,3.478481,123.308779,75.533086,-119.919749,97.935561
85,-4.028252,10.582582,-0.270675,7.670235,0.0,-67.98539,-33.988838,-60.305878,-21.075783,-46.373131,-6.974831,-32.000496,6.491157,-19.615906,0.0,22.277399,-6.595463,35.72822,2.0857,45.932655,13.166108,50.986302,25.04635,53.355036,0.0,45.972702,5.054935,32.030536,-11.604584,17.490406,-25.503502,4.632488,-36.343918,-10.322308,0.0,-19.878829,-44.701043,2.084762,-38.247835,12.209229,-25.431605,15.152594,-9.364351,13.990988,119.443783,84.76903,-120.027168,104.259158
86,-6.235714,16.365745,-0.114521,7.528357,0.0,-68.550167,-35.10965,-71.526958,-24.190659,-59.942665,-11.369476,-45.83194,1.146824,-30.732754,0.0,20.055271,-0.574902,42.460729,10.326494,55.853418,22.039676,61.424812,33.807773,63.178634,0.0,51.910721,7.12516,41.226631,-8.308663,27.873699,-21.382897,15.562786,-31.357018,-0.379624,0.0,-15.011075,-34.228204,11.849577,-25.899901,24.139113,-12.417712,28.116444,3.849564,27.576548,113.346182,99.129461,-120.003576,109.782201
87,-8.906364,20.698263,0.319439,8.707475,0.0,-67.109059,-36.00792,-79.921063,-26.37069,-71.202164,-14.502343,-57.644188,-2.547284,-39.544934,0.0,18.67807,3.136853,47.141354,15.818279,63.579796,28.475112,69.819218,40.429387,71.156553,0.0,56.823749,9.877533,49.228752,-4.294556,38.223919,-16.764347,24.10675,-26.341095,6.038337,0.0,-9.807318,-23.6294,19.453473,-14.674868,33.729125,-2.089628,37.847717,12.646731,36.964284,104.742926,117.446601,-119.381029,116.108553
88,-8.720467,21.033524,1.904434,13.571968,0.0,-67.269756,-36.541214,-84.123802,-27.965355,-80.095711,-17.087608,-66.956451,-5.798664,-46.82539,0.0,17.450423,7.809291,49.120992,21.952503,67.158269,35.188932,74.402334,46.856895,76.579054,0.0,60.890202,14.125992,54.520328,0.622936,46.243996,-11.221035,32.880638,-20.183693,14.759388,0.0,-6.42547,-12.985988,25.197651,-2.334344,39.829035,10.635546,45.142966,24.847755,45.20723,96.582802,135.946626,-116.916252,127.147022
89,-8.109032,21.493102,1.879005,14.991901,0.0,-67.149959,-37.594642,-89.193695,-30.166717,-88.26329,-20.380005,-75.779686,-9.9062,-54.794575,0.0,15.045046,12.028498,49.387365,27.416963,68.45433,41.177684,76.342179,52.708012,80.062079,0.0,64.028035,16.127541,62.548806,3.544133,56.596127,-7.373222,44.051525,-15.511367,25.371186,0.0,-4.129373,-4.846376,29.385305,7.53896,45.093906,21.18288,51.663223,35.251693,53.771172,89.218157,155.086524,-114.29286,139.785719
90,-8.671646,21.046053,6.536671,18.271645,0.0,-68.943981,-37.752273,-89.744694,-31.579559,-90.864738,-23.137436,-79.704094,-13.806461,-60.811352,0.0,14.6066,14.66634,50.649056,31.639377,69.624284,46.665376,78.967924,58.631093,84.445822,0.0,63.673943,21.677181,70.693955,10.436131,64.968979,-0.157528,52.848908,-9.150398,34.375443,0.0,-0.685035,6.955622,32.379378,20.170154,47.454876,32.596146,54.578206,44.161369,57.438559,81.289564,173.973641,-107.013136,155.898428
91,-7.382435,17.637563,4.884773,17.990457,0.0,-69.962288,-37.792259,-89.004352,-32.38076,-91.731834,-24.879432,-82.206562,-16.329689,-65.11988,0.0,13.580669,17.526484,50.930283,35.389495,69.952596,50.751738,80.337731,62.465667,86.781942,0.0,64.87698,23.305046,78.908467,13.042076,74.109902,3.603218,61.551739,-4.597458,42.954689,0.0,2.287791,12.943541,35.618688,28.589873,50.322906,41.939176,58.019144,53.124065,60.69716,74.564163,190.038168,-101.471329,172.315849
92,-6.202949,15.683271,3.55101,18.714216,0.0,-70.738095,-37.441681,-89.597695,-32.695153,-91.519318,-25.96724,-82.158268,-18.127304,-66.222943,0.0,11.196968,19.542672,48.798263,37.395099,66.230404,52.186162,77.06817,62.904305,84.151621,0.0,67.394246,26.000039,85.74757,16.051529,82.108532,7.209126,71.02747,-0.590412,52.591084,0.0,3.901762,16.634635,40.416855,34.186066,54.602481,48.996198,64.565045,60.829602,67.883167,69.014374,204.362044,-97.267159,189.67067
93,-6.369942,15.414051,5.589959,15.844995,0.0,-70.385685,-36.642403,-90.963078,-32.431206,-91.647995,-26.368217,-82.012436,-18.998451,-66.367527,0.0,8.119253,21.533431,43.236848,38.33142,58.795421,51.766075,70.031896,61.001343,77.607338,0.0,70.437194,26.369053,93.825714,16.699218,90.187385,8.38369,78.491764,1.126854,60.502979,0.0,8.681812,22.484943,44.435547,40.843921,59.255226,54.905157,69.702408,65.009105,73.301765,63.240623,218.83362,-91.081009,204.57319
94,-6.923023,14.710566,6.292579,17.397067,0.0,-70.864225,-36.733921,-91.866308,-32.981873,-91.799881,-27.398873,-82.600702,-20.332157,-66.952572,0.0,6.312807,24.958455,39.980539,40.888178,52.956283,52.851357,64.222109,60.298037,71.980862,0.0,72.860379,28.993973,96.199242,18.981365,92.226403,10.210305,78.969578,2.500637,60.902516,0.0,12.799959,29.15295,50.992293,47.169003,65.684692,59.6909,76.31542,67.682762,79.055138,56.938276,232.946263,-84.167754,221.372334
95,-6.452065,12.398977,1.757035,11.962624,0.0,-71.5786,-37.757251,-93.541471,-34.154525,-92.793686,-28.917824,-84.722505,-22.092693,-69.05492,0.0,4.796241,28.867404,38.204152,44.194517,47.919005,54.818119,58.730224,60.803908,66.726569,0.0,76.413745,27.152687,95.380371,16.520691,92.236244,7.830448,77.815921,0.805641,58.890598,0.0,13.908786,29.647978,56.76966,48.043574,73.038992,60.925809,83.591952,69.10922,85.670459,50.926094,245.072945,-81.970836,233.062663
96,-5.011779,12.588328,4.311721,13.75273,0.0,-70.862292,-41.31609,-83.421359,-38.674679,-79.657013,-34.041058,-72.917571,-27.62043,-61.837498,0.0,3.672926,29.576236,39.566144,44.323587,47.474711,54.532178,56.74044,60.280153,63.222319,0.0,78.074479,28.913853,94.4366,17.96085,92.111412,8.664471,77.234173,0.868607,57.470398,0.0,14.958445,32.833571,61.06476,50.331711,76.919636,62.229052,87.665121,69.46289,88.848926,46.307505,257.473064,-77.265925,246.627184
97,-3.88971,11.275341,5.409394,11.780003,0.0,-67.090902,-44.357151,-70.613073,-42.602966,-64.805763,-38.624199,-59.673277,-32.723785,-53.578056,0.0,5.150256,28.713324,40.979673,42.374238,48.215271,51.95726,55.197273,57.531976,60.35195,0.0,78.637985,30.209049,95.121139,19.452106,93.23513,10.036731,77.803505,2.017101,58.282161,0.0,15.443024,36.961499,63.152146,54.19825,78.097549,65.179474,87.678076,71.308659,88.757967,42.766474,268.585702,-71.507852,258.244484
98,-1.908417,8.464746,3.428844,9.736348,0.0,-62.648145,-47.467724,-54.75163,-46.863395,-47.783111,-43.572578,-45.620058,-38.185203,-45.789001,0.0,7.374395,26.546959,45.836294,40.230202,53.577344,50.406053,58.427598,56.964761,62.591119,0.0,77.210827,31.464329,94.388363,21.028153,92.733753,11.418892,77.33202,2.995056,57.066925,0.0,13.55755,36.921102,64.170163,53.411994,78.624626,63.952518,88.066585,69.956054,89.246364,41.121259,276.858268,-67.815806,267.788652
99,-1.230983,10.333858,4.107662,6.93215,0.0,-56.247677,-48.544945,-38.26981,-48.808365,-29.71035,-45.990578,-28.891938,-40.837155,-34.288262,0.0,13.940167,22.113217,47.310448,33.096393,54.444683,41.500932,56.298394,46.968413,57.916489,0.0,75.488617,31.852776,95.426125,22.064152,94.049767,12.729561,79.074669,4.485798,59.126782,0.0,12.389517,37.232016,62.058214,53.892253,75.98818,64.358367,85.345912,70.252456,87.08652,40.028819,286.992012,-63.569601,274.520688
100,-2.158253,6.513334,3.608368,5.719534,0.0,-46.610825,-48.344055,-18.97942,-50.251791,-8.728935,-48.60771,-9.436775,-44.375176,-20.747177,0.0,17.252269,17.061861,47.663723,27.083601,56.4143,35.343694,56.467134,41.300269,56.163457,0.0,74.847908,32.369179,96.60347,22.791493,94.848152,13.577133,80.075638,5.559426,60.952492,0.0,12.011863,37.316416,60.335166,54.201263,72.839983,64.559092,82.644614,70.141934,84.992538,37.957094,293.318112,-59.874705,280.052988
101,-4.418244,2.445527,2.967774,3.160126,0.0,-36.6156,-45.2658,-10.097545,-49.035078,-0.273307,-49.124364,-2.667915,-46.517269,-16.022644,0.0,17.160877,14.854864,44.790636,25.957273,54.679952,35.105127,55.182391,42.047671,56.186749,0.0,73.722816,32.615627,96.488891,23.007499,94.231498,13.631103,79.37368,5.563934,61.068077,0.0,12.278909,37.539434,59.37254,54.467939,71.073527,64.630007,80.859213,69.928736,83.544022,33.547754,295.565047,-56.898027,283.014522
102,-9.346286,4.300138,1.849903,1.804076,0.0,-22.85677,-38.045575,0.158455,-42.544905,11.234676,-43.129229,7.113201,-40.832966,-6.775578,0.0,12.500068,12.435779,38.271016,25.325801,50.04036,35.637218,52.326496,43.423136,53.917162,0.0,72.745296,32.533687,96.154758,22.864574,93.371075,13.339645,78.589908,5.193592,60.556194,0.0,13.547015,37.216689,58.780958,54.290925,70.256457,64.435233,79.960707,69.602656,82.538058,24.15215,299.692478,-55.097442,284.645891
103,-13.001656,3.871936,0.997181,0.679032,0.0,-6.700756,-27.576588,14.658325,-32.239191,25.817539,-33.557665,20.099728,-32.265667,5.287113,0.0,8.412796,11.004318,33.673302,24.658749,46.68961,35.175017,49.575466,42.824738,51.234378,0.0,72.020805,31.895782,95.240661,22.180481,92.337913,12.680534,77.678261,4.591747,59.796501,0.0,14.548187,37.238697,59.034505,54.441127,70.075528,64.617533,79.878023,69.676151,81.98596,11.076754,303.394934,-54.174001,285.155443
104,-4.028686,-3.024301,0.162803,0.248978,0.0,-1.401272,-26.743538,19.502334,-32.629721,30.19511,-35.101118,22.389118,-35.06353,6.038188,0.0,2.893742,12.039033,33.405911,29.095405,48.987899,42.466975,53.537373,52.568731,57.186884,0.0,71.722458,31.190083,94.783814,21.570649,91.833847,12.252892,77.381699,4.329243,59.515229,0.0,15.272692,36.711373,58.856997,54.056742,69.794699,64.43632,79.73722,69.612523,81.622102,6.911986,300.206118,-54.14728,285.239906
105,-0.717556,-0.073742,0.721848,0.327091,0.0,-1.612233,-28.116555,19.096401,-33.829571,30.070896,-35.832688,22.366321,-35.225865,6.281055,0.0,1.383567,12.585475,33.275049,30.150367,49.26927,43.859724,53.700295,54.259506,57.905164,0.0,71.162109,30.504101,93.953316,20.918896,91.073524,11.617195,76.443054,3.664009,58.523483,0.0,15.793669,36.527987,58.872176,53.77547,69.981866,64.156912,79.629849,69.382245,81.46517,6.001317,299.962571,-53.618545,285.397192
106,0.0233,4.214997,0.567238,0.331094,0.0,-0.563656,-26.461899,18.771686,-31.522167,28.817745,-32.667103,21.919292,-31.065274,6.756901,0.0,-0.969321,10.22362,28.214282,27.239934,44.749819,40.498056,49.735844,50.542539,53.424122,0.0,70.510734,29.529213,93.19741,19.979187,90.349502,10.872883,76.118568,3.172336,58.02079,0.0,16.141619,36.219161,58.608082,53.471324,69.994376,63.911775,79.367199,69.134921,81.246919,5.810972,304.011679,-53.264952,285.562397
107,6.203373,-0.383458,0.196758,0.548702,0.0,-12.355042,-33.496662,12.947914,-38.322144,21.543823,-39.052208,15.468727,-36.888668,0.095077,0.0,5.059792,10.93438,32.436664,25.532881,46.461269,36.836393,49.159836,45.386256,52.004641,0.0,70.115788,28.913086,92.942036,19.427422,90.196896,10.525383,76.039066,3.115219,57.920116,0.0,15.76714,35.93932,58.046313,53.205081,69.611165,63.718422,78.912889,68.963872,81.154256,11.766798,303.436372,-53.315741,285.91925
108,8.581421,-1.085795,0.105995,0.524248,0.0,-22.247223,-39.789277,3.705001,-45.240761,11.259727,-45.979054,5.720077,-43.611958,-9.199585,0.0,6.484831,11.183025,32.183253,25.985883,46.329186,37.565172,49.849527,46.504384,52.803025,0.0,69.723255,28.581494,92.708073,19.171543,90.255764,10.399052,76.000637,3.177853,57.808262,0.0,15.595153,35.436635,57.361897,52.843471,69.08094,63.532542,78.281022,68.897985,80.836205,20.056916,302.125827,-53.501049,286.218748
109,-2.613511,3.106083,0.049496,0.044671,0.0,-20.423652,-38.375553,5.421524,-43.569454,13.306527,-44.190742,8.878052,-41.699638,-5.790252,0.0,6.239966,11.079271,31.659486,23.431021,44.038023,32.55872,46.026781,39.424971,46.924138,0.0,69.177544,28.379436,92.158012,18.940853,89.711334,10.134075,75.4739,2.848881,57.198166,0.0,15.492659,35.489159,57.392401,52.967082,69.109258,63.631625,78.353072,68.898133,81.038993,17.162544,304.975645,-53.732414,286.007154
110,-2.371353,1.979286,0.0653,0.050277,0.0,-19.116943,-37.8964,7.706383,-43.068821,15.55394,-43.594425,11.675331,-40.945404,-3.208992,0.0,7.156836,11.180653,31.559475,21.814605,42.603449,29.086754,43.392509,34.296018,42.40402,0.0,68.861504,27.894482,91.63044,18.522983,89.300949,9.827316,75.190178,2.644581,56.887367,0.0,15.302098,35.509216,57.2844,52.99408,68.975235,63.639567,78.215332,68.823711,81.076327,14.512081,306.686913,-53.946224,285.789413
111,-0.133506,-3.099204,-0.217529,0.073285,0.0,-21.302399,-40.801392,7.479606,-46.23975,15.932945,-47.078751,12.157287,-44.747727,-3.218674,0.0,9.864332,13.402248,37.124508,23.698647,47.001018,30.579619,46.403224,35.491025,45.401386,0.0,68.83509,27.716915,91.438568,18.496547,89.256408,9.949058,75.190452,2.913128,57.124649,0.0,14.929274,35.402289,57.131111,53.027932,68.614563,63.792004,77.806618,69.025895,81.011786,14.072617,303.299785,-54.469711,285.574774
112,-5.435143,0.761803,-0.043797,-0.163836,0.0,-11.686432,-33.663139,14.1297,-39.907551,22.1968,-41.707752,16.701897,-40.586037,0.640251,0.0,3.231263,13.058285,33.298255,25.114744,45.230534,33.509664,46.953123,39.73329,46.833785,0.0,68.688137,27.570534,91.011028,18.434532,88.78973,9.931858,74.766598,2.909042,56.814388,0.0,14.996297,35.611524,57.420498,53.238216,68.687984,63.953679,77.984027,69.116359,81.309966,8.293825,303.770411,-54.857157,285.119761
113,0.148109,-0.612947,-0.057369,-0.138099,0.0,-14.75275,-38.504459,12.944642,-44.481411,21.558953,-45.516334,17.082367,-43.351467,1.16375,0.0,5.191604,15.163517,36.73427,25.833149,46.712964,32.790901,46.623747,37.806368,45.93586,0.0,68.855049,27.209392,90.794746,18.087433,88.465553,9.624172,74.617309,2.638756,56.681396,0.0,15.081464,35.813683,57.67675,53.35805,68.741263,64.021457,77.997872,69.120089,81.630315,8.129322,302.895262,-55.227138,284.71946
114,0.061776,-0.187116,0.095123,0.070667,0.0,-15.375607,-36.157425,13.521171,-42.216099,21.715782,-43.260212,15.785774,-41.22852,-0.429749,0.0,2.158955,14.955455,34.836705,27.791353,46.782927,36.747349,48.619483,43.487159,49.043202,0.0,68.881828,26.861824,90.587631,17.729153,88.360153,9.327107,74.580185,2.494217,56.756195,0.0,15.198012,35.869073,57.546852,53.3879,68.69537,64.071969,77.689762,69.183581,81.402234,7.9084,302.478539,-55.414713,284.56052
115,0.782318,-0.736337,0.024468,0.018464,0.0,-17.132057,-36.765724,13.158485,-42.884217,21.203338,-43.950234,15.21476,-41.968231,-1.103554,0.0,1.499115,15.195628,35.150792,28.794316,47.626228,38.522068,49.996505,45.989669,51.150213,0.0,68.825843,26.663463,90.491661,17.457801,88.295768,9.038269,74.739097,2.285659,56.952964,0.0,15.038819,35.69632,57.266233,53.250295,68.541191,64.05716,77.485788,69.292521,81.286069,8.442404,301.527941,-55.638559,284.364723
116,-3.303131,3.193287,0.344032,0.025441,0.0,-12.057862,-30.602463,16.823318,-36.375824,24.933563,-37.453343,17.900322,-35.865887,1.675689,0.0,-2.114878,14.105597,30.464566,27.706792,43.845028,37.494344,47.310263,44.938183,48.203557,0.0,68.836967,26.478985,90.384979,17.154133,88.093002,8.64196,74.647591,1.834316,56.79229,0.0,15.214561,35.657862,57.165419,53.149555,68.633817,63.964177,77.597099,69.222064,81.307138,4.941994,304.516939,-55.491806,284.185875
117,3.00206,-3.138329,0.414963,0.181015,0.0,-15.225792,-35.197094,14.403854,-40.823925,22.223007,-41.822445,16.235435,-40.025448,0.240326,0.0,0.799779,16.683405,34.856465,30.086122,47.341336,39.383091,49.594189,46.331766,50.639648,0.0,68.887024,26.255401,90.193817,16.851528,87.989891,8.302665,74.79483,1.497482,56.892242,0.0,15.00929,35.164797,56.74932,52.673633,68.356187,63.664613,77.332857,69.13833,81.248945,7.82337,301.194884,-55.197527,284.183164
118,-0.575318,1.36892,0.447773,0.082289,0.0,-15.609707,-34.534309,15.422882,-40.000007,23.759995,-40.928249,17.689179,-39.161064,1.540879,0.0,2.25037,16.497537,34.378813,28.93444,46.023089,37.239599,47.625129,43.276578,47.672726,0.0,68.987857,26.026439,90.245762,16.590843,88.038814,8.044933,74.933956,1.268772,57.041828,0.0,15.033842,34.818748,56.507431,52.391915,68.209838,63.508199,77.139504,69.072504,81.264579,7.151436,302.392351,-54.84637,284.094
119,-0.27745,0.397401,0.534221,0.105469,0.0,-13.811428,-34.456776,16.382148,-39.66877,24.514938,-40.250691,18.54293,-38.158711,2.27536,0.0,2.078148,15.915959,34.037025,28.30382,45.695379,36.674731,47.55256,42.850525,47.3814,0.0,69.051316,25.877289,90.153008,16.38208,88.003167,7.786606,74.961502,0.956463,57.010941,0.0,15.044821,34.244297,56.231099,51.878127,67.944436,63.164571,76.884981,68.916869,81.201459,6.785832,302.621853,-54.400303,284.03157
120,0.34806,-1.039012,0.547486,0.067098,0.0,-12.498504,-34.523231,17.334458,-40.109264,25.10598,-40.980514,18.595413,-39.116043,1.933754,0.0,1.432041,16.53387,34.581416,29.530109,46.540779,38.328073,48.554892,44.848002,48.74764,0.0,69.187545,25.792202,90.323295,16.29039,88.197143,7.685623,75.097137,0.831253,57.06633,0.0,15.325391,33.918082,56.093297,51.670646,67.678291,63.094719,76.514331,68.937432,81.081428,7.07012,301.425062,-53.916589,283.940889
