takenoko1/special-research/HandMotion_SimilarSearch_自分用/NewProject/handData/test_key/d4_feature_d3/74.csv
frame,vel_0x_L,vel_0y_L,vel_0x_R,vel_0y_R,posFromWrist_0x_L,posFromWrist_1x_L,posFromWrist_2x_L,posFromWrist_3x_L,posFromWrist_4x_L,posFromWrist_5x_L,posFromWrist_6x_L,posFromWrist_7x_L,posFromWrist_8x_L,posFromWrist_9x_L,posFromWrist_0y_L,posFromWrist_1y_L,posFromWrist_2y_L,posFromWrist_3y_L,posFromWrist_4y_L,posFromWrist_5y_L,posFromWrist_6y_L,posFromWrist_7y_L,posFromWrist_8y_L,posFromWrist_9y_L,posFromWrist_0x_R,posFromWrist_1x_R,posFromWrist_2x_R,posFromWrist_3x_R,posFromWrist_4x_R,posFromWrist_5x_R,posFromWrist_6x_R,posFromWrist_7x_R,posFromWrist_8x_R,posFromWrist_9x_R,posFromWrist_0y_R,posFromWrist_1y_R,posFromWrist_2y_R,posFromWrist_3y_R,posFromWrist_4y_R,posFromWrist_5y_R,posFromWrist_6y_R,posFromWrist_7y_R,posFromWrist_8y_R,posFromWrist_9y_R,posFromBody_0x_L,posFromBody_0y_L,posFromBody_0x_R,posFromBody_0y_R
6,-4.85495,0.697879,0.150799,0.417309,0.0,-43.661922,-40.508159,-4.688095,-39.135349,11.256134,-33.952377,16.71737,-26.500145,3.959198,0.0,34.573215,5.762585,25.393041,-7.590793,16.540798,-21.690808,6.605058,-35.149175,-7.364614,0.0,64.205395,20.596138,81.892285,11.061562,80.826748,2.473137,66.61417,-5.083969,45.786724,0.0,1.803458,27.856118,54.621019,45.580659,71.400532,58.087897,84.150498,65.668834,87.606965,25.897195,357.508092,-36.584582,299.692366
7,-0.274154,-1.349988,0.154839,-0.058724,0.0,-44.154225,-42.301289,-2.723351,-40.512188,12.732422,-34.58709,18.201622,-26.30278,2.67659,0.0,35.481737,5.246994,26.377627,-7.691273,18.163254,-21.389688,8.117092,-34.201985,-6.010217,0.0,63.983608,20.434696,81.917232,10.917332,80.816265,2.351543,66.777523,-5.156147,45.712223,0.0,1.834814,28.030093,54.492861,45.663738,71.383093,58.0917,84.121265,65.605972,87.842554,25.29859,356.212213,-36.754194,299.687751
8,0.123619,-0.4747,0.142216,0.019995,0.0,-44.946568,-43.869541,-2.233154,-41.637177,13.136375,-35.095791,18.630432,-26.071449,1.957855,0.0,35.894181,4.630626,27.538053,-8.106545,18.803,-21.451488,8.717256,-33.780884,-5.32522,0.0,63.797538,20.450809,82.048393,10.915535,80.720443,2.315849,66.846862,-5.214043,45.810676,0.0,1.738619,28.06508,54.521217,45.602296,71.374485,57.982019,84.021612,65.460994,87.793277,25.162857,355.770951,-36.87133,299.741184
9,1.45372,0.040323,0.151153,-0.099727,0.0,-46.52734,-44.646618,-3.793076,-42.818436,11.323402,-36.650539,16.492493,-27.842445,0.205399,0.0,35.50724,4.410461,27.833726,-8.378321,19.01352,-21.813864,8.833014,-34.231786,-4.378771,0.0,63.661606,20.404472,82.074875,10.840405,80.589707,2.195458,66.788567,-5.375496,45.670029,0.0,1.776769,28.155532,54.620499,45.618536,71.507952,57.923553,84.119486,65.30416,87.969945,26.375187,355.846895,-36.961567,299.677078
10,1.982254,0.1339,0.141358,-0.139334,0.0,-49.535797,-45.683613,-6.339409,-44.195709,8.897598,-38.339264,13.910019,-29.69165,-1.422432,0.0,35.479798,3.944604,27.740001,-8.931037,19.110418,-22.505877,8.789084,-35.08078,-3.54608,0.0,63.733543,20.502983,82.023765,10.927322,80.438232,2.209465,66.698501,-5.459679,45.578041,0.0,1.842521,28.281256,54.854904,45.729984,71.635307,57.996777,84.233873,65.300036,88.153875,28.14608,356.005436,-37.03157,299.562385
11,2.37545,0.737201,0.082477,-0.126984,0.0,-55.29229,-48.823666,-10.43399,-46.76651,5.627953,-40.152569,12.163948,-30.738006,3.616699,0.0,37.379685,4.611026,27.727911,-9.950882,18.774373,-25.374615,6.784604,-39.863732,-7.146907,0.0,63.890339,20.500523,82.007916,10.917275,80.415653,2.160061,66.769878,-5.582874,45.604557,0.0,1.913979,28.262472,54.857622,45.718523,71.669603,57.942759,84.184461,65.170978,88.349538,30.346538,356.752826,-37.124085,299.44559
12,-5.172249,-0.615034,0.061363,-0.09654,0.0,-46.139774,-41.629223,-5.331207,-40.131328,10.590019,-34.798427,16.382813,-26.951294,4.649987,0.0,33.883513,5.559352,26.962946,-7.453658,18.564977,-21.154568,8.323869,-34.102419,-3.845124,0.0,63.989582,20.480107,82.112355,10.888836,80.410961,2.115761,66.833279,-5.653988,45.702038,0.0,1.997206,28.177911,54.917914,45.661922,71.685954,57.905424,84.117918,65.126122,88.522846,25.025768,356.130595,-37.211243,299.341853
13,-0.565979,-0.574452,-0.190647,-0.134381,0.0,-46.005878,-42.105846,-2.893364,-40.312431,12.343849,-34.691688,17.786682,-26.634063,2.638413,0.0,34.218373,4.962065,27.169057,-7.746145,19.385319,-21.141501,9.280543,-33.71659,-3.584772,0.0,64.419846,20.503384,82.475762,10.947602,80.839554,2.216732,67.173844,-5.491779,46.106484,0.0,2.108406,28.02346,54.985654,45.586574,71.787842,57.914649,84.186819,65.190749,88.735243,24.336508,355.549968,-37.525171,299.201297
14,0.103157,-0.423052,-0.256153,-0.060676,0.0,-45.536773,-43.120319,-3.02996,-41.13208,12.46605,-35.122684,18.034287,-26.525711,2.860565,0.0,34.680488,4.550067,27.724391,-8.113152,19.944271,-21.302213,9.819649,-33.579862,-3.266264,0.0,64.998722,20.434181,82.906941,10.930676,81.407513,2.319603,67.68536,-5.228004,46.723377,0.0,2.285222,27.782572,54.902649,45.438201,71.730538,57.885984,84.082238,65.266925,88.815741,24.366806,355.121414,-37.854183,299.135119
15,0.598984,0.362919,-0.210628,-0.004508,0.0,-46.125984,-44.189941,-3.617317,-42.101326,12.075462,-35.896774,17.549034,-27.027054,2.593208,0.0,34.361264,3.916755,27.615847,-8.938594,19.592677,-22.236866,9.451531,-34.614737,-3.906454,0.0,65.197403,20.357448,83.190902,10.909217,81.832328,2.400547,68.106559,-5.019803,47.263069,0.0,2.575992,27.494544,54.802811,45.263472,71.711692,57.82558,83.929999,65.33716,88.868389,24.907173,355.482107,-38.123428,299.128385
16,1.46846,-0.045596,-0.15437,-0.008151,0.0,-47.798069,-45.523693,-5.575287,-43.701759,10.541153,-37.596634,15.964119,-28.643692,1.402771,0.0,35.107616,3.658279,27.634717,-9.315606,19.586526,-22.837946,9.389582,-35.467461,-3.655489,0.0,65.283795,20.260563,83.437168,10.854641,82.153805,2.464668,68.359715,-4.793495,47.553189,0.0,2.708472,27.343527,54.797278,45.205513,71.772318,57.857901,83.921008,65.461192,88.911615,26.339859,355.446876,-38.313572,299.130599
17,3.079971,1.332253,-0.217438,0.08729,0.0,-53.600441,-49.141651,-10.464134,-47.084312,6.646592,-40.440467,13.355736,-30.927829,3.838898,0.0,38.521895,4.11044,27.010223,-10.714376,18.364424,-26.273961,6.70518,-40.966385,-8.109274,0.0,65.611645,20.461075,83.669598,11.075524,82.559498,2.706872,68.714253,-4.529262,48.026333,0.0,2.663864,27.147396,54.734182,45.063635,71.759215,57.774538,83.771202,65.462415,88.633652,29.392725,356.799744,-38.558115,299.238504
18,-4.802192,-1.023402,0.07425,0.030159,0.0,-44.60725,-42.69508,-5.971161,-41.208126,11.131119,-35.643322,17.233383,-27.443138,6.50338,0.0,35.473635,5.426527,26.442267,-7.521966,18.495816,-21.227643,8.780118,-34.261228,-3.564802,0.0,65.690426,20.516247,83.579921,11.156708,82.503582,2.80933,68.789509,-4.426071,48.081722,0.0,2.6063,27.093994,54.702307,45.020743,71.790906,57.719889,83.571526,65.424623,88.492774,24.561865,355.787133,-38.512533,299.279454
19,-0.345932,-0.356671,-0.084057,0.025108,0.0,-45.288265,-43.632614,-3.441857,-41.570767,12.78772,-35.505238,18.673462,-26.878121,6.125404,0.0,35.660987,4.799378,26.616626,-7.859679,18.968047,-21.336718,9.298797,-34.042952,-3.572125,0.0,65.776497,20.924251,83.630058,11.527233,82.514854,3.042526,68.884643,-4.386292,48.017166,0.0,2.28763,27.016731,54.816742,44.931823,71.920223,57.609442,83.516987,65.330602,88.440941,24.184279,355.428946,-38.628244,299.303046
20,0.818825,-0.836767,-0.153545,-0.073026,0.0,-45.757233,-44.777459,-3.597268,-42.514756,12.344947,-36.090638,18.041496,-26.870247,4.533119,0.0,36.218926,4.516178,27.771161,-7.726002,20.125632,-20.634654,10.49836,-32.67938,-2.131983,0.0,66.152172,21.125095,83.788822,11.720569,82.822803,3.193508,69.154506,-4.296284,48.001796,0.0,1.986535,26.941976,54.923027,44.839024,72.021617,57.502724,83.620444,65.209015,88.51125,24.966683,354.586007,-38.81821,299.223848
21,1.53012,0.31242,-0.279202,-0.046931,0.0,-47.306774,-45.979602,-4.972984,-43.708316,10.537354,-37.323154,15.937363,-28.028846,2.828637,0.0,35.604077,3.866415,28.181455,-8.341271,20.111467,-21.081332,10.425717,-32.870251,-1.715908,0.0,66.584976,21.46946,83.975624,12.077213,83.09127,3.516323,69.491753,-4.03648,48.318993,0.0,1.81466,26.894009,55.002784,44.876668,72.102548,57.576789,83.612714,65.312411,88.437706,26.457882,354.891363,-39.136333,299.169853
22,1.864472,0.477973,-0.26849,-0.08545,0.0,-50.550121,-47.779072,-6.653023,-45.562729,8.903206,-39.114189,13.795051,-29.634213,1.488853,0.0,35.239453,3.036502,28.481402,-9.322596,19.683252,-22.155653,9.754996,-33.990354,-1.798765,0.0,66.920345,21.628784,84.105137,12.281445,83.343304,3.747208,69.827511,-3.787193,48.66798,0.0,1.642499,26.91493,55.033017,45.022744,72.187096,57.779095,83.576095,65.545481,88.316255,28.273161,355.373791,-39.454016,299.088858
23,3.730316,1.56452,-0.314335,-0.118042,0.0,-57.407799,-52.146263,-11.900024,-49.794651,4.637009,-42.746338,10.722885,-32.590782,3.644394,0.0,38.178749,3.268351,28.120286,-11.387702,17.979584,-26.626703,6.214475,-40.728274,-6.863731,0.0,67.047753,22.031662,84.298027,12.643868,83.583138,4.001095,69.953522,-3.67321,48.861603,0.0,1.601695,27.055437,54.987458,45.196423,72.158222,57.930112,83.480839,65.665252,88.032227,31.946789,356.954169,-39.825039,298.986674
24,-3.514503,0.426609,-0.257801,-0.282384,0.0,-52.699402,-47.695576,-10.142716,-45.796292,7.248092,-39.371991,13.621284,-30.095822,7.314125,0.0,37.348564,4.919767,26.387236,-9.655072,16.872732,-24.801917,5.680791,-38.807651,-6.922258,0.0,66.989994,22.284382,84.340542,12.904541,83.79649,4.216553,70.031285,-3.528248,48.999356,0.0,1.686663,27.165204,54.850593,45.339264,72.144723,58.084215,83.522298,65.825099,87.751942,28.374373,357.404786,-40.140753,298.728298
25,-0.933861,-1.053721,0.053959,-0.681453,0.0,-54.038018,-49.00462,-8.103974,-46.704804,8.896431,-39.683213,15.708252,-29.914112,7.155716,0.0,37.663626,4.921409,27.255607,-9.65522,17.81576,-24.926431,6.350363,-38.922248,-7.664659,0.0,66.956886,22.686459,84.291596,13.36599,83.701309,4.597698,69.975701,-3.351963,48.991997,0.0,1.855735,27.682141,54.783854,45.685672,72.27178,58.294809,83.48463,65.973053,87.935254,27.394964,356.369726,-40.132342,298.065506
26,-1.027863,-0.983869,0.227417,-1.845807,0.0,-55.47203,-50.065796,-8.088066,-47.364315,9.291825,-39.628063,16.701142,-29.051319,8.487786,0.0,37.358295,4.355676,28.95646,-10.227499,19.767134,-25.505983,7.850577,-39.333901,-7.558658,0.0,66.197022,22.977883,84.046944,13.599644,83.218895,4.477215,69.083061,-4.013718,47.124321,0.0,2.552874,28.285011,55.553277,45.949606,73.857383,58.348792,85.062589,65.953417,89.173931,26.314607,355.383344,-39.957419,296.217186
27,0.256005,-1.6394,0.002438,-4.228124,0.0,-55.723732,-51.761822,-11.836167,-49.015549,6.049621,-40.85709,13.906631,-29.617596,6.135292,0.0,37.022262,3.908752,30.421057,-10.667519,21.909429,-25.829962,8.387756,-39.439247,-8.590976,0.0,65.347767,23.641536,83.386013,14.072181,81.289524,4.392906,66.178539,-4.809449,43.623653,0.0,3.409178,28.828229,57.910178,46.262766,77.164537,58.641649,89.271916,66.244582,92.951092,26.54282,353.715974,-39.982773,291.961092
28,-0.361657,-4.067573,-0.253933,-6.975315,0.0,-53.935215,-50.667423,-19.961139,-46.894741,-1.933239,-37.868488,6.225655,-25.772358,-0.050583,0.0,37.21265,2.428878,30.466924,-11.631592,22.364912,-25.962714,7.965951,-38.639024,-9.645649,0.0,62.780159,23.613533,81.201919,14.461681,77.743583,4.683323,61.99704,-5.029988,39.793499,0.0,4.530999,28.645078,59.096701,46.280279,81.279338,59.146533,94.258559,67.483012,97.928102,26.163025,349.615213,-40.254844,284.952589
29,6.742241,-15.604465,-4.37447,-14.1661,0.0,-55.548443,-50.701006,-32.525007,-45.534061,-16.480551,-35.267578,-7.135231,-21.964508,-8.318745,0.0,38.742251,3.582153,36.221075,-7.491134,30.645185,-18.973469,17.765871,-29.306777,1.836241,0.0,63.702587,28.168407,83.203114,18.991356,77.970119,8.440819,62.177799,-2.827721,40.435181,0.0,6.817999,29.843406,64.250909,48.166828,88.176242,61.911482,100.649961,71.226803,101.771978,32.915954,333.95563,-44.618626,270.731371
30,8.393852,-25.597028,-7.65778,-5.811294,0.0,-52.404728,-44.633062,-45.217489,-38.088169,-32.759199,-27.245819,-21.649109,-13.819862,-13.185436,0.0,39.71487,8.661039,43.89596,3.421201,44.817485,-2.691256,36.793754,-8.740678,25.656536,0.0,63.563027,31.450093,86.413536,24.431752,79.431794,14.907887,63.341446,3.917576,42.307103,0.0,14.950516,25.386224,63.981899,34.584356,80.388798,40.666351,83.786145,44.342946,75.29681,41.326154,308.344591,-52.260058,264.906066
31,10.59874,-29.379957,-9.018699,-16.931494,0.0,-48.44585,-39.819574,-56.613928,-32.193306,-47.424185,-20.764938,-35.110313,-7.030151,-21.511333,0.0,41.006392,13.509928,48.749517,14.670607,54.678532,14.364393,51.478398,12.931283,45.796174,0.0,59.571979,31.768604,84.996586,27.611286,78.350143,20.440292,65.405353,11.262954,47.403042,0.0,12.717683,18.329844,54.37582,26.477317,68.741362,32.646653,72.805959,37.450921,65.588867,51.870094,279.306218,-61.333557,248.316156
32,11.936417,-32.154983,-4.824463,-15.783677,0.0,-46.106736,-34.472037,-65.891287,-25.811096,-59.786848,-13.787247,-46.814942,0.254356,-27.333218,0.0,40.882496,17.205813,50.992737,24.764292,61.852362,30.267285,64.792231,33.612459,66.948605,0.0,51.316108,27.12347,78.79882,24.644634,73.056347,19.275615,63.125976,11.826301,46.203403,0.0,10.07684,11.005245,36.408821,18.000764,52.326348,24.184179,56.882417,30.375226,53.992622,63.640995,247.740764,-66.323536,233.122008
33,14.137573,-31.944686,-14.888397,-24.266281,0.0,-46.444954,-31.589281,-70.810267,-23.09198,-67.740458,-11.397057,-54.559502,2.262222,-30.108685,0.0,39.118027,20.910665,54.695365,33.706505,69.881471,43.915423,78.343569,51.14639,86.941153,0.0,53.892345,30.795444,84.990051,29.009296,80.87265,23.829826,72.278148,16.263313,53.433471,0.0,10.475253,9.164181,28.784312,16.348063,45.366311,22.676381,50.681465,28.92078,51.449554,77.532961,216.715143,-81.45754,209.774792
34,10.151207,-23.313276,-11.499779,-18.109877,0.0,-44.793045,-29.558235,-73.046722,-21.733658,-70.924851,-10.61055,-58.262878,2.673706,-31.407509,0.0,35.801704,20.8481,51.743968,36.316665,70.29972,48.998088,81.298222,58.425461,93.969073,0.0,50.071586,30.096336,86.731968,29.216274,84.24527,24.606159,75.674629,17.634968,54.144481,0.0,11.093511,6.607417,18.623356,13.403445,38.103511,19.418825,45.410166,25.328401,51.035629,87.366022,194.821077,-93.275465,193.084125
35,5.06852,-13.713296,-6.897938,-26.832271,0.0,-42.09224,-28.175034,-72.274659,-21.469368,-69.419541,-11.16401,-57.984627,1.607688,-31.10907,0.0,31.80182,17.402204,42.308529,32.364428,62.013332,45.026263,72.87355,54.918,87.82209,0.0,46.137863,29.816723,85.254467,27.244469,83.868977,21.051613,75.2467,12.640606,50.559242,0.0,8.813377,9.561632,15.111178,25.520914,46.290702,39.561723,64.041698,51.448418,80.621548,92.024437,183.070632,-100.583508,168.214705
36,4.296524,-4.890003,-4.45166,-17.077015,0.0,-37.354134,-23.196969,-63.96547,-19.904137,-66.38443,-13.464592,-60.036988,-4.629319,-38.045906,0.0,31.226714,12.253937,36.751857,21.688078,50.994762,29.800576,55.915924,36.328397,65.685235,0.0,47.24572,32.802532,86.186233,28.18808,84.390255,19.377319,72.778335,8.286941,44.289413,0.0,16.315188,13.886655,20.6659,31.106598,55.129941,45.902614,73.032386,57.527536,89.461848,95.630476,180.118693,-105.725653,153.075754
37,4.106117,-26.43634,-6.95509,-29.288553,0.0,-39.795639,-26.491905,-59.700165,-23.933853,-62.768372,-18.008858,-57.079148,-9.553711,-37.551956,0.0,30.347142,9.832167,33.066086,21.108607,47.991914,31.187824,54.57599,39.597996,64.372113,0.0,54.901394,39.427689,87.157482,34.05827,85.429093,23.814514,72.670098,10.909687,44.629624,0.0,24.732824,17.19434,31.534126,37.109756,63.563422,53.886657,82.167988,66.285671,96.292814,98.644203,155.504,-113.773133,125.608848
38,8.60527,-35.108851,-1.885002,-29.191236,0.0,-44.520218,-31.127655,-56.334549,-30.809257,-61.028618,-26.39154,-56.863449,-18.791405,-41.168724,0.0,24.447915,4.304294,24.680312,17.707937,41.373431,30.270873,49.672791,41.274896,60.311899,0.0,54.350361,39.957859,78.540665,35.875191,77.204453,26.899143,65.485462,15.051762,41.433609,0.0,22.731204,12.917532,28.185006,33.659341,57.103539,51.954765,76.120839,66.296539,89.428627,106.048342,121.872669,-116.859266,97.895132
39,12.956886,-38.000716,-6.071812,-36.142849,0.0,-45.81887,-34.659049,-55.615196,-37.232345,-64.187828,-34.732086,-62.237731,-28.423393,-50.82106,0.0,17.308264,-2.051713,13.752496,11.331034,29.071094,24.917675,39.117831,37.542287,53.311885,0.0,55.282162,39.922017,73.486565,38.0098,74.271756,30.972554,65.675961,20.58014,46.785931,0.0,16.659236,5.965262,19.652,26.216366,44.13339,45.448686,63.211389,61.621946,80.094502,117.716411,84.32689,-124.219895,62.20722
40,14.36023,-36.698473,-9.321807,-36.399441,0.0,-47.68483,-37.964607,-56.351738,-42.937866,-69.080978,-42.271797,-69.629471,-37.35347,-62.208756,0.0,10.868196,-8.160861,2.934404,5.084405,17.120826,19.523856,28.834651,33.629163,46.271504,0.0,55.409122,40.442012,71.294265,40.850166,75.678154,35.902713,69.73265,27.280975,55.476184,0.0,9.422853,-1.269496,7.366515,18.35087,29.36334,38.373002,48.178042,56.506906,68.582984,130.871367,47.144603,-134.746976,25.323965
41,13.996078,-40.926654,-11.55304,-33.596973,0.0,-53.405319,-44.958618,-64.503524,-49.960395,-77.246223,-47.952255,-75.964576,-41.008987,-66.419448,0.0,0.347012,-12.560046,-8.757474,5.823644,11.457715,25.511127,31.379046,44.475042,58.366693,0.0,55.173237,40.761864,71.188362,43.506798,80.488094,40.80344,77.254761,33.978504,66.030716,0.0,1.910737,-7.020843,-4.708395,11.834399,16.656951,32.05333,36.236945,51.418926,61.773328,143.938694,4.992802,-147.228767,-9.498155
42,12.397202,-15.559863,-13.353207,-18.897787,0.0,-52.149353,-44.126518,-68.090607,-51.446228,-86.198822,-51.165184,-86.889244,-45.604111,-77.867409,0.0,-9.046478,-18.721873,-19.342415,-2.697702,0.476553,15.518749,21.025188,33.972897,50.21625,0.0,52.712586,41.972397,76.695179,47.220086,90.766446,46.496853,89.522576,40.99173,78.889035,0.0,-5.664007,-11.360545,-15.507634,5.444064,6.641429,24.590897,26.259344,43.658794,56.192492,155.865847,-12.229574,-161.052023,-30.058455
43,6.545746,-5.568393,-7.807891,-7.260077,0.0,-48.856178,-42.717842,-69.91523,-50.509827,-92.403282,-50.761963,-94.692375,-45.83551,-85.197487,0.0,-10.789896,-20.826067,-23.844347,-6.944599,-5.286168,9.759486,15.354209,27.260004,46.652684,0.0,49.039707,41.06718,80.337936,47.119491,98.417186,46.875858,98.629921,41.544342,86.916217,0.0,-5.808867,-13.064732,-21.50237,1.674079,1.195087,19.516836,20.58744,37.86124,54.244989,162.12965,-19.670418,-169.141857,-39.190983
44,0.837112,-0.396061,-2.733147,1.124228,0.0,-49.810684,-42.146576,-69.585205,-49.424766,-93.890648,-49.5821,-96.589393,-44.84507,-86.516441,0.0,-10.844057,-21.22122,-23.309706,-7.495752,-5.272349,9.081356,15.717351,26.579304,46.487421,0.0,46.510574,40.330112,80.368881,46.545582,101.073074,46.477295,101.48251,41.337593,88.222412,0.0,-3.045765,-12.662588,-23.620983,1.484783,-0.620177,18.653571,19.247987,36.442173,53.649623,162.827367,-21.537599,-172.014399,-39.537875
45,-0.691131,-0.187202,-0.859451,2.216315,0.0,-50.00029,-41.99643,-68.253525,-49.127793,-93.789872,-49.252991,-96.456597,-44.644753,-86.543175,0.0,-10.923123,-21.224827,-21.18803,-7.067261,-4.65532,9.740979,16.817811,27.212956,47.06291,0.0,45.998989,39.783474,79.468711,46.372318,101.999588,46.675426,103.083389,41.707935,89.016197,0.0,-2.416114,-12.159551,-23.101977,1.944126,-1.486338,18.907334,19.586576,36.414607,55.033246,162.018168,-23.013915,-172.991918,-38.610674
46,-1.604462,-1.647199,0.431499,1.889575,0.0,-49.010124,-41.541756,-65.819756,-48.080658,-91.964264,-47.986977,-94.748154,-43.392677,-85.312454,0.0,-9.806712,-20.755585,-19.568674,-6.706848,-3.474936,10.23778,17.881567,27.969331,47.807423,0.0,45.444637,38.880959,78.787697,45.455006,101.25697,45.887993,102.863468,41.113575,88.691311,0.0,-0.847993,-11.844704,-23.307304,2.271736,-2.17769,19.180518,19.418807,36.58163,54.962554,160.385994,-25.606785,-172.588131,-37.66677
47,-1.774292,-2.103731,0.877041,0.691685,0.0,-48.037125,-40.916885,-63.677147,-47.036705,-89.955276,-46.878204,-92.90831,-42.336319,-83.7789,0.0,-8.721628,-20.268677,-17.566733,-6.261683,-1.916362,10.924457,19.196752,28.888707,48.986052,0.0,44.207039,38.195915,77.555569,44.783283,100.250153,45.249287,101.913654,40.486004,87.522846,0.0,-0.96577,-11.613974,-22.877502,2.349832,-2.121312,19.137836,19.903276,36.674786,55.372237,158.667686,-28.513799,-171.655106,-37.778368
48,-1.0849,-0.702497,0.800091,0.439478,0.0,-48.58667,-40.767906,-63.233185,-46.57251,-89.448006,-46.166084,-91.703956,-41.470962,-82.887337,0.0,-8.889349,-20.312984,-16.8512,-6.233099,-1.27401,11.058029,19.76467,29.100307,48.936238,0.0,43.300232,37.920307,76.628666,44.540153,99.615692,45.03883,101.007911,40.296215,86.673134,0.0,-1.566923,-11.420294,-22.009767,2.592727,-1.974365,19.376501,20.672723,36.933131,55.525927,157.670894,-29.928319,-170.766907,-38.050913
49,-0.822647,0.096238,0.886356,0.150856,0.0,-48.780395,-40.670151,-62.578171,-46.571114,-88.919678,-46.264572,-91.364433,-41.662903,-82.508057,0.0,-8.382397,-20.223717,-17.404941,-6.075228,-1.050603,11.174305,19.563123,29.07796,48.64882,0.0,43.068226,38.08445,76.242394,44.481171,99.344788,44.734245,100.333168,39.807861,85.958599,0.0,-2.098723,-11.032927,-21.04354,2.970207,-1.16205,19.654557,21.656963,37.146547,55.586548,156.968588,-30.614149,-169.76021,-38.682125
50,-0.521255,1.292961,0.864842,0.160199,0.0,-49.653557,-40.421082,-62.722458,-46.572052,-88.73275,-46.39959,-91.337311,-41.889267,-82.338662,0.0,-9.65159,-20.535878,-18.570745,-6.393848,-1.601917,10.649142,18.763301,28.289635,47.56946,0.0,42.707508,38.039039,75.736564,44.16386,98.862087,44.209705,99.941219,39.127784,85.547561,0.0,-2.571775,-10.721119,-20.107725,3.303005,-0.731378,19.93559,22.528477,37.407906,55.793739,156.58191,-29.964452,-168.760791,-39.16519
51,-0.159508,1.303118,0.936206,0.173871,0.0,-49.479126,-40.308998,-63.090386,-46.755272,-88.916062,-46.75486,-91.691849,-42.33989,-82.691529,0.0,-10.259676,-20.656111,-19.628881,-6.534021,-2.279294,10.363393,17.967728,27.833474,46.778513,0.0,42.190762,38.230385,74.799889,44.205918,98.473412,44.058323,99.513005,38.735218,85.194031,0.0,-3.590274,-10.681018,-18.853037,3.445364,-0.671567,20.078961,23.266221,37.581819,55.856236,156.563742,-29.223911,-167.683245,-39.553896
52,-0.064545,1.166558,0.746087,0.198441,0.0,-48.997993,-40.260269,-62.984436,-46.949707,-88.768432,-47.082275,-91.766075,-42.696213,-83.034141,0.0,-10.492148,-20.651326,-20.816625,-6.383973,-2.801122,10.495514,17.351317,27.889253,46.181831,0.0,42.30083,38.529705,74.17836,44.327671,98.192916,43.966129,99.442211,38.439136,85.024532,0.0,-4.260772,-10.563168,-18.149125,3.718672,-0.469377,20.363656,23.817708,37.817589,55.840817,156.608745,-28.444442,-166.82761,-39.742544
53,0.258888,1.578619,0.833644,0.324221,0.0,-49.355552,-40.325454,-63.512901,-47.388496,-88.854972,-47.708542,-92.21466,-43.393409,-83.423629,0.0,-12.024812,-20.741291,-22.093124,-6.472691,-3.551859,10.287155,16.455379,27.508999,45.257099,0.0,42.728497,38.703392,74.229149,44.387341,97.83022,43.837086,99.295121,38.105599,84.689335,0.0,-4.006003,-10.424223,-17.768539,4.003767,-0.353596,20.646534,24.263515,38.068764,55.871816,156.951284,-27.125264,-165.910315,-39.677764
54,0.427231,1.422402,1.022004,0.369526,0.0,-49.153129,-40.490295,-63.66259,-47.639465,-89.038284,-48.003937,-92.402275,-43.723182,-83.945457,0.0,-12.945857,-20.854275,-22.922784,-6.618409,-4.416988,10.099675,15.989368,27.193541,44.691595,0.0,42.743831,38.62548,73.821338,44.392845,97.120937,43.826248,98.958721,37.948265,84.291023,0.0,-3.876178,-10.40629,-17.27711,4.279045,-0.452933,21.048468,24.734276,38.5648,56.305039,157.428423,-25.714372,-164.838403,-39.319748
55,0.596031,0.816223,1.184944,0.569771,0.0,-47.872696,-40.902282,-63.791015,-48.091095,-89.043846,-48.54039,-92.716461,-44.33107,-84.65792,0.0,-12.572896,-20.770739,-23.523609,-6.479934,-4.847383,10.373378,15.781096,27.533119,44.639564,0.0,43.080551,38.698265,73.159858,44.520595,96.438389,43.916542,98.38314,37.919677,83.715042,0.0,-3.287826,-10.467083,-16.286893,4.679867,0.253541,21.706925,25.362247,39.285335,56.542197,158.043119,-24.710783,-163.634794,-38.562611
56,0.991608,1.425373,0.937191,0.89929,0.0,-47.257141,-41.44796,-64.391624,-48.861259,-89.310585,-49.502747,-93.305237,-45.397751,-85.311287,0.0,-13.727562,-20.867651,-23.804062,-6.495205,-5.457162,10.427409,15.295181,27.545135,44.152501,0.0,43.368278,38.616737,73.114082,44.52095,96.016479,43.945644,98.149509,37.909527,83.541481,0.0,-3.073108,-10.406704,-16.06763,5.050196,0.554062,22.219904,25.290023,39.782907,56.746937,159.071949,-22.987727,-162.660381,-37.365638
57,1.522751,2.068922,1.236099,1.062404,0.0,-46.389702,-42.197937,-65.747177,-49.959206,-90.403725,-50.937035,-94.506065,-47.119263,-86.670776,0.0,-14.771736,-21.254825,-24.572952,-6.816819,-6.700605,10.158153,14.318871,27.281913,43.233427,0.0,43.791859,38.173153,72.806396,44.003963,95.397263,43.37487,97.433933,37.325466,82.620655,0.0,-2.061272,-10.059531,-15.985052,5.646019,1.210456,22.938289,25.445158,40.512679,56.912915,160.642176,-20.474124,-161.376806,-35.858553
58,1.385994,2.037721,1.012104,1.329412,0.0,-44.201752,-42.801911,-66.396584,-50.770867,-91.666718,-52.027405,-95.612938,-48.466507,-88.2407,0.0,-15.012964,-21.438817,-25.291067,-6.966324,-7.896556,10.12264,13.564311,27.33427,42.798963,0.0,43.812435,38.124699,71.694946,43.929039,94.768364,43.252819,96.984604,37.139763,82.176727,0.0,-1.774608,-9.757967,-15.888869,6.292318,1.71702,23.751382,25.720325,41.285035,56.942827,162.076138,-17.88106,-160.316734,-33.973798
59,1.254249,2.450855,0.593719,1.807169,0.0,-43.342254,-43.423805,-67.397735,-51.794723,-92.659195,-53.440933,-96.622123,-50.152908,-89.394973,0.0,-16.038836,-21.852365,-25.942694,-7.309483,-9.125988,9.947139,12.66806,27.312707,42.015814,0.0,43.836743,38.021645,71.541104,43.79424,94.611409,43.049595,96.859704,36.92252,81.917428,0.0,-1.470284,-9.476663,-16.629405,6.721304,2.27352,24.272895,25.689542,41.839436,56.67404,163.390588,-14.83076,-159.662814,-31.567184
60,0.732331,2.921918,0.226513,2.089609,0.0,-43.049446,-43.690933,-67.948036,-52.394463,-93.581314,-54.394203,-97.182427,-51.387772,-90.317253,0.0,-16.842245,-22.207393,-26.297962,-7.606107,-10.114791,9.743141,11.851708,27.197389,41.296144,0.0,43.51006,37.891858,72.349171,43.773079,94.659165,43.013524,97.051335,36.89003,82.366711,0.0,-1.786779,-8.822726,-18.679938,7.295046,2.390711,24.776217,25.363525,42.267101,56.405587,164.154751,-11.400522,-159.404469,-28.969255
61,-0.160836,3.036379,0.123619,2.685186,0.0,-43.57608,-43.581047,-67.149787,-52.434562,-93.303405,-54.680969,-96.782043,-51.928985,-90.605575,0.0,-16.200381,-22.654065,-26.458606,-7.867299,-10.70599,9.697186,11.030483,27.335833,40.199556,0.0,43.596589,37.930756,73.634491,43.860901,94.988583,43.047925,97.27232,36.919396,82.563424,0.0,-1.531731,-8.300663,-20.693946,7.783417,3.064871,25.288313,25.738152,42.808825,56.170583,163.962999,-7.852312,-159.311766,-25.772238
62,-1.751838,3.610053,0.541375,3.27736,0.0,-44.82621,-43.174782,-65.351921,-52.071419,-91.035874,-54.396195,-94.35846,-51.660622,-89.867752,0.0,-15.214943,-23.080878,-26.747642,-8.078695,-10.699624,9.744524,10.469912,27.613753,39.279499,0.0,44.617252,37.975536,74.513523,43.679523,95.546241,42.71149,97.58868,36.490711,82.837108,0.0,-0.926009,-8.088143,-20.997129,8.083172,3.325457,25.696156,25.76497,43.274059,55.996187,162.151125,-3.614403,-158.830427,-21.867022
63,-2.733032,4.682046,1.175777,4.467389,0.0,-46.218956,-43.204583,-64.367249,-52.236123,-88.595719,-54.798706,-91.34713,-52.23182,-88.398652,0.0,-15.179925,-23.270594,-25.634671,-7.889992,-9.712722,10.172769,10.538171,28.29499,37.966759,0.0,45.476315,37.662357,75.975712,43.154389,96.203247,42.051006,97.46592,35.799923,82.513046,0.0,-1.053783,-7.63266,-21.607469,8.645644,4.143644,26.343924,25.881796,43.989931,55.647872,159.219641,1.837949,-157.853102,-16.629327
64,-3.854416,7.09167,2.004341,6.010563,0.0,-44.220223,-44.056526,-64.596588,-53.269684,-86.070992,-56.101433,-88.59533,-53.773796,-87.372551,0.0,-18.247487,-23.044395,-24.451236,-7.242187,-9.058779,10.978736,9.865055,29.264262,35.598761,0.0,46.935482,37.567692,77.080101,42.742481,96.630066,41.538311,97.045979,35.288292,82.439175,0.0,-3.740828,-6.67564,-21.280656,9.97673,5.23231,27.740063,26.537202,45.282892,54.934784,155.142266,10.460986,-156.07172,-9.087397
65,-5.702431,8.901452,3.049931,8.316996,0.0,-43.821304,-44.815178,-64.494461,-54.00753,-83.787048,-56.995628,-86.661873,-54.840546,-86.606621,0.0,-19.883695,-21.660451,-21.499005,-5.304447,-6.620107,13.031053,11.391321,31.494569,34.477157,0.0,50.072353,37.39262,78.603367,41.912464,97.310005,40.668789,96.696407,34.676227,81.868629,0.0,-7.480846,-5.348036,-19.773637,11.615549,6.730066,29.237789,27.368697,46.523335,54.20324,149.248152,21.206135,-153.213472,1.073296
66,-8.346336,12.522113,4.451717,14.183989,0.0,-45.461861,-45.011284,-64.673333,-53.803551,-82.391488,-56.8667,-84.730912,-55.004013,-85.404236,0.0,-19.983718,-19.563889,-18.839582,-2.897379,-4.032277,15.19196,13.026972,33.163602,33.253523,0.0,50.795449,36.970276,80.141327,40.802353,97.776364,39.688248,96.40884,34.092625,81.368237,0.0,-10.180481,-1.79945,-12.227131,11.261701,6.126561,24.306074,21.704455,36.873672,40.192738,140.762707,35.649072,-148.900864,17.178109
67,-12.096097,22.752279,3.986069,14.798684,0.0,-48.515304,-44.907279,-65.906547,-52.28992,-80.624748,-54.527755,-81.418659,-52.323268,-80.95428,0.0,-19.716299,-16.457022,-16.022661,-3.303052,-4.679054,10.877983,8.688922,25.074261,23.995043,0.0,51.632412,36.834675,82.586677,40.368198,99.284855,39.465649,96.815952,34.291408,82.071659,0.0,-16.971545,-1.049213,-12.259253,12.149746,6.07253,24.679516,21.795895,36.580247,38.584788,128.564157,60.006744,-145.017248,33.582186
68,-16.119987,32.696787,5.214752,17.260519,0.0,-53.552215,-44.052292,-67.254066,-48.971981,-76.901459,-49.288467,-75.581783,-45.823711,-73.40546,0.0,-17.918033,-12.867106,-14.964987,-7.06911,-9.137619,-0.340671,-2.224012,6.879614,6.842162,0.0,52.849457,36.642071,86.635632,38.920521,100.785645,37.394726,96.832787,31.953964,78.902012,0.0,-22.621597,-0.007435,-9.187091,12.02751,6.102929,22.976204,19.597197,33.153543,32.242347,112.402702,94.036729,-139.843964,52.175903
69,-15.187637,24.972917,7.407057,21.41947,0.0,-60.700012,-42.22181,-71.948353,-44.728924,-78.475662,-43.75177,-74.891545,-39.767544,-70.831341,0.0,-11.102993,-5.230106,-7.989247,-1.193188,-3.072358,3.055682,1.595467,7.137643,7.965333,0.0,55.532227,36.614319,90.140007,37.847334,101.063152,35.860954,95.826662,30.322065,75.666389,0.0,-23.839485,1.030077,-4.945134,11.762657,6.643844,21.189416,17.699116,29.779732,26.810232,97.007487,119.409149,-132.644485,73.994876
70,-17.675286,38.344313,9.296574,24.75537,0.0,-66.962596,-41.522666,-73.483738,-42.632824,-76.252304,-40.712951,-69.866913,-36.419162,-65.72248,0.0,-1.960918,0.536099,-2.232645,-1.662522,-1.892412,-3.964197,-4.930884,-6.454499,-4.5355,0.0,58.521068,37.151618,92.615993,37.651765,99.830795,35.192253,93.451601,29.365007,72.573337,0.0,-21.522017,1.992797,0.290165,11.533538,7.698658,19.634627,16.473321,26.881019,21.986221,79.091096,157.696559,-123.589016,98.693343
71,-15.933563,28.319196,9.356529,21.354015,0.0,-68.892116,-40.232277,-78.188724,-39.317264,-78.139377,-35.728042,-70.090198,-30.140819,-62.116047,0.0,-1.374419,6.794639,8.090474,5.089287,11.975378,2.89263,8.791533,0.234009,8.786855,0.0,62.806744,37.47298,96.416805,36.876726,101.9011,33.334007,93.892679,26.702734,70.592308,0.0,-20.822125,2.127073,3.642131,14.207757,14.772063,24.931948,24.777596,35.002872,33.034932,62.987366,185.597563,-114.402654,119.629166
72,-15.940487,26.49646,10.109859,24.207124,0.0,-65.863243,-35.660373,-75.369924,-33.981033,-74.265226,-30.453661,-66.18687,-25.333866,-57.226844,0.0,4.697712,10.940833,16.880883,8.880228,21.637548,6.191547,16.633943,2.786512,13.277536,0.0,66.223801,37.555115,98.038834,35.342074,101.202004,30.661194,92.12895,23.414252,66.753525,0.0,-16.651711,4.427054,12.660551,15.445254,22.325053,25.012255,29.974784,33.723972,32.716048,46.894174,211.440509,-104.4455,143.182776
73,-15.94741,24.673723,12.355671,26.02113,0.0,-57.875977,-27.806958,-65.027338,-26.624131,-64.629851,-24.889807,-58.156929,-21.998303,-51.054875,0.0,16.255475,12.974682,24.138582,9.710302,27.094099,5.932553,18.596346,1.203009,8.936544,0.0,69.910881,40.00494,97.241295,36.978659,97.817299,31.606934,88.162588,23.819716,66.405144,0.0,-10.829716,10.153935,23.366912,23.41407,33.973638,34.432014,44.534104,43.788369,48.139967,30.905405,235.059467,-92.131188,168.149141
74,-12.622559,23.932718,9.794844,23.172361,0.0,-50.933647,-23.320988,-55.921491,-21.351379,-57.604997,-18.902487,-53.038421,-15.618931,-43.747295,0.0,12.109886,13.725839,27.568595,13.052259,36.25166,11.223885,31.438247,7.858395,22.665588,0.0,72.880966,40.057457,98.754948,35.434296,98.153881,29.021896,87.450989,20.905437,65.767204,0.0,-6.674899,16.191205,34.479244,31.281746,46.842998,43.230537,57.947142,52.483676,61.309378,18.431288,257.581124,-82.187902,189.910441
75,-6.844139,10.516491,9.297878,21.40988,0.0,-45.000652,-15.317493,-50.207182,-11.920258,-54.682932,-9.075789,-53.182423,-5.859661,-39.861397,0.0,5.203979,15.624737,26.532101,21.402334,42.137944,25.136054,47.758324,26.107172,48.049613,0.0,71.94936,40.366402,97.280823,33.793167,94.906792,25.485352,82.177551,16.00692,60.42722,0.0,-2.8184,23.294639,46.250676,40.031026,60.986967,52.534608,74.149623,61.066798,75.78433,11.771479,266.564225,-72.705694,209.786931
76,-4.830906,18.375595,7.56379,20.788215,0.0,-40.142063,-12.332903,-36.747167,-9.239216,-41.995577,-6.999796,-43.933765,-4.688856,-36.456562,0.0,9.071141,16.09501,24.350805,21.090507,37.479381,23.640206,44.001021,23.311509,46.376652,0.0,73.563011,40.452518,94.645385,32.389354,90.610862,23.030891,77.146797,13.190528,57.172462,0.0,1.345862,28.245206,54.641359,47.050232,69.939048,60.605164,84.772472,68.914621,86.778027,7.04995,283.486422,-65.032527,229.121748
77,0.93647,10.805148,7.249111,18.984435,0.0,-37.786766,-16.856317,-25.179828,-14.550121,-31.501808,-12.333801,-37.223373,-9.908941,-39.286732,0.0,11.223638,17.605864,27.61639,25.8321,42.555643,31.017041,52.225757,33.268319,59.930486,0.0,74.306408,39.953407,93.741748,30.760551,88.435924,20.404323,73.20631,9.921535,52.884327,0.0,6.086207,33.841894,63.45381,53.503509,79.221963,67.361314,93.681291,75.392746,97.095508,8.042473,293.051604,-57.727363,246.866217
78,3.943199,6.543074,3.593502,15.306902,0.0,-36.520523,-23.84297,-18.63652,-21.858845,-23.469497,-18.725212,-30.835476,-15.000005,-45.430996,0.0,11.090479,18.187528,32.328712,31.584965,51.361597,41.456713,67.597435,48.246214,83.703073,0.0,74.909088,36.952606,93.081138,26.66534,88.708374,15.815128,72.27594,5.338749,49.468025,0.0,8.379408,35.607783,68.004235,53.908036,83.798755,66.486916,95.464001,73.412941,96.971625,11.975057,298.727649,-54.144476,261.30609
79,0.245316,9.286027,3.765918,13.704195,0.0,-34.707401,-27.673262,-3.820473,-27.709557,-6.810436,-26.071976,-15.279499,-23.534906,-47.439606,0.0,25.770676,18.03761,39.62997,27.857291,52.398226,34.823595,62.764131,40.072979,75.592193,0.0,73.98222,35.745003,90.085408,24.94574,85.934018,13.7463,68.741879,2.925374,46.121533,0.0,9.840435,36.504621,71.13046,53.690662,86.771383,65.445335,97.867524,71.955755,98.594537,12.084023,307.547223,-50.514908,274.543832
80,-2.903343,5.456378,1.626606,9.94977,0.0,-20.45422,-29.17792,14.381904,-31.935654,14.043033,-32.084805,2.866802,-30.505984,-40.839707,0.0,31.017262,18.095001,49.018181,26.841718,59.578254,33.140464,65.421115,38.454822,73.959697,0.0,74.925339,33.355019,89.884369,22.395585,87.740891,11.718968,71.022103,1.707276,47.515297,0.0,10.185138,36.057992,71.306906,52.352333,86.438017,63.462022,95.745409,69.848386,97.642234,8.963957,312.684543,-49.105025,284.174544
81,-3.745045,7.827192,2.082036,7.534983,0.0,-11.373974,-28.394096,24.08448,-32.273541,27.244171,-33.091072,17.008736,-31.974197,-27.696442,0.0,38.317822,17.654072,54.440138,22.493563,61.139935,25.447542,60.965774,28.020496,63.66276,0.0,73.535854,31.266048,88.606899,20.073577,86.573169,9.556686,69.398769,-0.147206,45.289432,0.0,11.097623,36.266721,71.073304,51.756491,86.677374,62.183752,95.232659,68.178741,96.639827,4.955772,320.242488,-47.286129,291.44028
82,2.674255,2.319975,1.636631,5.038537,0.0,-12.494831,-29.179859,24.432839,-34.529274,27.464516,-36.190326,17.613076,-35.639545,-30.644188,0.0,38.548226,17.276789,55.734798,22.364245,61.288198,25.430474,60.129686,28.198573,62.003539,0.0,72.074661,29.419441,87.011558,18.094322,84.615188,7.777828,67.976943,-1.538041,44.830284,0.0,12.322628,36.385405,70.233807,51.740485,85.297055,61.714004,93.596063,67.254794,94.700975,7.32716,322.358041,-45.952365,296.274395
83,1.642685,2.388778,0.997615,2.39005,0.0,-15.92823,-30.23418,22.989372,-35.839496,25.797386,-37.447346,16.746437,-36.739734,-29.219616,0.0,38.155888,17.440193,54.221678,21.87207,59.765988,24.262984,57.578665,26.30218,58.608588,0.0,70.3167,27.942261,86.089199,16.583187,83.371479,6.30708,66.839344,-2.772834,44.343075,0.0,14.299913,36.377884,69.051188,51.903913,84.129601,61.584427,92.133553,66.676316,92.959268,8.623495,324.601671,-45.3011,298.519297
84,1.28936,8.02412,0.694153,0.715724,0.0,-16.207649,-29.301853,19.224541,-33.759315,24.362641,-34.115375,17.111412,-32.147026,-18.501754,0.0,34.319088,14.388933,46.495911,16.38562,49.88218,16.71412,47.137263,16.70314,46.22274,0.0,68.854283,26.534809,85.354695,15.281788,82.478176,5.188397,66.074284,-3.574848,43.997647,0.0,16.748392,36.379169,67.421224,52.212246,82.418646,61.686587,90.37011,66.39944,91.173668,9.585651,332.532298,-44.934151,299.141528
85,5.421593,1.194561,0.458679,0.249373,0.0,-27.571861,-35.528767,13.617371,-40.147682,17.327545,-40.145142,11.136795,-37.938561,-27.923653,0.0,40.780331,13.105142,45.169328,15.066236,47.626747,15.434874,43.465807,15.785592,42.371404,0.0,67.654896,25.600136,84.821423,14.35064,81.762463,4.244648,65.272923,-4.509842,43.455426,0.0,18.584775,35.612871,66.353102,51.756997,81.520943,61.375204,89.357613,66.164566,89.918208,14.661598,333.686045,-44.821118,299.350087
86,-0.170242,-3.149419,0.447831,0.066629,0.0,-25.3564,-35.100632,16.597778,-40.774968,19.303367,-41.490383,11.109832,-39.571656,-31.275719,0.0,37.61845,13.209895,43.990549,18.974568,48.57327,22.656609,47.197125,25.917784,48.581334,0.0,67.062641,24.860286,84.668346,13.742363,81.871341,3.682708,65.41238,-5.103104,43.738163,0.0,19.846076,34.908916,65.07041,51.338255,80.917122,61.120286,88.848864,66.037076,89.630599,14.064303,330.544694,-44.80034,299.424784
87,-2.529602,-0.019179,0.510463,0.154499,0.0,-22.02079,-33.250294,19.277435,-38.666474,22.770584,-39.550404,14.092414,-37.805031,-26.91615,0.0,40.315065,13.282254,43.670792,18.80011,48.704538,22.412596,47.188664,25.514949,48.19364,0.0,67.009415,24.407215,84.562363,13.369343,81.913101,3.360958,65.416146,-5.428985,43.885895,0.0,20.346847,34.185745,64.39354,50.834854,80.336274,60.899282,88.269954,66.128875,89.705145,11.066792,330.558107,-44.757786,299.611875
88,-4.298287,-4.806702,0.737904,0.416161,0.0,-10.477146,-27.424473,26.871758,-34.288421,29.042839,-36.566631,16.729271,-35.755176,-24.946323,0.0,36.790266,15.168927,46.404978,24.63445,53.182814,31.348684,53.606533,37.080974,55.950949,0.0,67.029018,23.961193,84.217037,12.981262,81.551479,3.035728,65.236233,-5.659367,44.133762,0.0,20.460493,33.638932,64.113662,50.347062,79.710742,60.604164,87.580609,66.068952,89.465034,6.319742,325.796844,-44.468645,300.073475
89,-5.244587,-4.921779,0.495815,0.364488,0.0,0.199482,-21.91674,36.573475,-30.971191,36.388516,-35.365505,19.680279,-36.321464,-25.357635,0.0,35.192202,15.767535,48.721939,29.331198,57.848181,39.717692,61.211689,48.723384,67.88965,0.0,67.10669,23.779415,84.030373,12.831608,81.508782,2.867603,65.336197,-5.855667,44.353569,0.0,20.594355,33.161614,63.595144,49.887281,78.983383,60.257089,86.942221,65.847095,89.293702,0.65399,320.924462,-44.393995,300.48736
90,0.590195,1.683044,0.487827,0.2255,0.0,-3.734425,-22.611694,35.346508,-31.154102,36.022877,-35.142345,19.560734,-35.678421,-24.105171,0.0,35.340193,14.453956,47.661475,27.129179,56.138349,37.009603,59.332562,45.536063,65.149797,0.0,67.122448,23.688469,84.091771,12.879925,81.683247,2.99762,65.565777,-5.668018,44.88461,0.0,20.65618,33.224933,63.343474,49.883131,78.546327,60.233328,86.472893,65.846218,89.340163,0.855698,322.655468,-44.294655,300.760822
91,1.597206,0.516604,0.546101,0.122785,0.0,-5.961582,-22.646015,33.78574,-31.053703,33.228985,-35.124836,16.588726,-35.768532,-29.740654,0.0,34.32509,14.468949,46.977157,27.213382,55.600824,36.915693,58.857418,45.161485,64.752989,0.0,67.112709,23.735962,83.947723,12.954083,81.570763,3.026447,65.413719,-5.70615,44.916481,0.0,20.761204,33.352867,63.317884,49.980388,78.098771,60.336883,86.179443,65.971608,89.300494,2.128429,323.211475,-44.073029,300.92301
92,-5.787346,4.270189,0.586784,0.030986,0.0,-0.306621,-17.287411,40.057217,-25.089203,41.179264,-28.759048,24.590595,-29.109741,-18.234546,0.0,31.795312,12.838183,43.882622,24.848959,51.203677,34.05739,55.176043,41.659471,60.442625,0.0,67.178467,23.692601,83.876107,12.921261,81.43966,2.972088,65.402985,-5.758049,45.141221,0.0,21.058335,33.563794,63.343746,50.230601,77.687736,60.604979,85.970813,66.204482,89.210795,-3.952738,327.506561,-43.780066,300.978893
93,4.889214,-0.536067,0.521771,0.096553,0.0,-8.981152,-22.271004,34.724956,-30.008618,35.072468,-33.47247,19.905109,-33.838692,-18.325047,0.0,34.64802,12.046183,43.164995,24.275988,51.235304,33.819749,54.895264,41.651677,59.890378,0.0,67.17873,23.631763,83.814617,12.849724,81.243381,2.888798,65.416408,-5.831257,45.23283,0.0,21.239968,33.555544,62.975972,50.300552,77.02776,60.799246,85.794898,66.472923,89.129396,0.667397,326.979139,-43.527374,301.084091
94,2.451633,-1.554765,0.668964,0.030949,0.0,-9.268226,-23.242733,32.159912,-31.192531,32.116448,-34.858612,16.865296,-35.31142,-22.146904,0.0,30.106327,13.538963,43.265315,26.697001,52.084225,36.753846,55.703973,44.817943,59.615873,0.0,67.038826,23.526306,83.524864,12.730397,80.882996,2.759846,65.326584,-5.927261,45.314644,0.0,21.293778,33.490274,62.907837,50.316163,76.67503,60.894527,85.701693,66.584667,88.897351,2.882973,325.42975,-43.094467,301.120416
95,-5.831817,0.805695,0.584576,-0.016005,0.0,3.278778,-16.10994,39.102951,-24.420124,39.293907,-28.571732,23.528984,-29.436642,-11.543862,0.0,24.036373,14.250278,42.168899,28.416403,51.210901,39.055629,56.006092,47.34162,59.750761,0.0,66.689083,23.330543,83.18359,12.454296,80.446804,2.449276,65.182606,-6.248119,45.228367,0.0,21.385353,33.151054,62.547832,50.130775,76.167404,60.842298,85.503992,66.589273,88.664304,-3.153968,326.250243,-42.715015,301.119209
96,5.131851,-1.637213,0.547394,-0.082832,0.0,-2.109604,-21.081539,34.843689,-30.238484,34.597595,-34.549496,18.73677,-35.39066,-17.035435,0.0,24.547307,14.026705,43.08961,28.500297,52.130858,39.581421,57.25881,48.365948,61.45832,0.0,66.317882,23.026554,82.708339,12.149666,79.923557,2.195526,65.113987,-6.441456,45.237339,0.0,21.382265,32.932383,62.394172,49.980338,75.972519,60.756119,85.398917,66.503748,88.575569,1.796419,324.634492,-42.349085,301.057839
97,1.779373,-0.936038,0.064144,-0.025997,0.0,-7.033688,-23.702877,31.510666,-32.839245,32.019218,-37.152065,17.243637,-37.895451,-17.858036,0.0,28.674656,14.526204,44.223237,27.816585,53.067711,37.834082,56.810058,45.850509,60.619404,0.0,66.218971,22.738403,82.613342,12.019867,79.81794,2.275944,65.488151,-6.11705,45.766479,0.0,21.149479,32.547259,62.134771,49.636006,75.728951,60.486986,85.299549,66.276914,88.505754,3.424301,323.725411,-42.436432,301.058799
98,2.435257,0.46298,0.007679,-0.015512,0.0,-8.062031,-25.245106,29.038856,-34.781468,30.073837,-39.365238,15.311462,-40.355267,-23.944084,0.0,27.801567,13.035117,44.520936,25.553358,52.798183,35.179864,56.514916,43.126006,61.240391,0.0,66.109485,22.24617,82.271702,11.682049,79.643543,2.182812,65.705852,-5.905083,46.203953,0.0,20.925695,32.166642,62.072218,49.190823,75.846771,59.981818,85.18273,65.737018,88.399518,5.720301,324.235497,-42.56801,301.090393
99,0.818367,-1.411194,-0.182842,0.130775,0.0,-14.570881,-27.652496,27.327713,-36.817566,29.464966,-40.84021,15.075371,-41.213287,-28.044628,0.0,34.566262,13.465356,46.593711,25.500511,54.200794,34.647538,57.495833,42.243876,63.473433,0.0,66.109359,21.775486,82.065353,11.365917,79.449646,2.090263,65.870567,-5.721028,46.664817,0.0,20.701554,31.633291,61.856808,48.631413,75.727272,59.495546,84.895948,65.366763,88.133201,6.413235,322.876513,-42.876285,301.273378
100,-1.327744,2.853585,-0.155903,0.020501,0.0,-20.025638,-28.66999,27.984993,-36.856041,31.056382,-40.032451,16.836228,-39.690033,-32.174034,0.0,39.58809,12.590007,45.878691,22.360182,51.510983,29.62597,54.407139,35.619564,59.835976,0.0,66.206554,21.281776,81.864315,10.99308,79.186489,1.92342,65.953296,-5.588494,47.014583,0.0,20.538545,31.45461,62.024065,48.389871,75.891627,59.243222,84.839546,65.112426,87.886941,4.975404,325.79158,-43.142275,301.355361
101,-1.19181,5.424292,-0.382759,-0.052303,0.0,-27.437176,-29.916435,26.647682,-35.940754,32.328071,-37.416985,20.782974,-35.780079,-29.227879,0.0,43.741497,9.372292,43.672238,15.599056,46.531121,20.150296,47.555635,24.131221,51.195204,0.0,66.226902,21.136322,81.963741,10.92659,78.997501,1.977436,65.985981,-5.361729,47.260883,0.0,20.550723,31.215217,62.053718,48.098928,75.891985,58.931605,84.827517,64.81096,87.637642,3.684963,331.282593,-43.623665,301.369779
102,3.062553,2.013557,-0.066456,0.026899,0.0,-27.993759,-31.674122,22.290299,-36.721824,28.148255,-37.272297,17.912933,-34.945942,-30.703571,0.0,40.302827,9.061404,41.845661,14.516571,44.403981,18.123969,45.071589,21.044627,47.912182,0.0,66.097229,20.919926,81.636543,10.688061,78.745262,1.740246,65.696983,-5.554962,47.047783,0.0,20.577584,31.000806,62.179824,47.868993,76.059711,58.722246,84.697371,64.641714,87.315663,6.672792,333.37084,-43.764845,301.471368
103,-1.92009,2.082076,-0.18853,-0.168468,0.0,-30.475204,-31.903095,22.661637,-35.539123,29.349266,-35.036418,20.17154,-31.849994,-27.335895,0.0,42.411542,8.919427,40.730387,12.821176,42.303034,15.170248,41.949364,16.949945,44.333165,0.0,65.886566,20.944691,81.551857,10.645809,78.568451,1.615448,65.438438,-5.783512,46.784386,0.0,20.767319,31.029533,62.341636,47.912726,76.070419,58.759272,84.692,64.652571,87.239982,4.698675,335.50952,-44.007402,301.359504
104,1.499749,5.017727,-0.243954,-0.177371,0.0,-34.832085,-34.388169,18.592964,-36.301987,26.111,-34.423039,19.972412,-30.165356,-21.27784,0.0,42.743413,7.818615,37.279996,8.268121,37.316021,7.658706,35.126389,6.79073,34.958588,0.0,65.724072,20.916138,81.468807,10.61665,78.565258,1.58115,65.337536,-5.842232,46.584446,0.0,20.932562,31.094629,62.424244,47.986838,76.124771,58.828394,84.711685,64.713678,87.317046,6.17985,340.577453,-44.26993,301.232339
105,5.559585,-1.385074,-0.489235,-0.08571,0.0,-42.307663,-40.980423,10.350014,-42.377025,18.56472,-39.852607,15.111054,-35.02367,-20.357837,0.0,44.476723,7.862544,38.288566,7.361625,38.586363,5.934734,33.865174,4.51072,32.092183,0.0,65.688412,21.181183,81.475285,10.906906,78.771458,1.81683,65.31078,-5.74213,46.489506,0.0,20.979579,30.901129,62.306153,47.829473,76.029614,58.713749,84.586369,64.650273,87.355369,11.772171,339.228756,-44.726429,301.183006
106,-2.438141,0.804151,-0.539932,-0.050524,0.0,-33.327644,-36.865265,12.089562,-37.849949,20.283715,-35.456554,16.681687,-30.956268,-11.252163,0.0,41.258699,8.966592,36.217877,8.755282,37.630664,7.456609,33.143571,5.763463,31.243103,0.0,65.704388,21.204987,81.23354,10.951904,78.927692,1.829578,65.226894,-5.80228,46.320797,0.0,20.995436,30.791633,62.089953,47.806564,75.962874,58.770683,84.421236,64.758842,87.41476,9.421302,340.070448,-45.179089,301.170023
107,0.153168,-3.791129,-0.563564,-0.163429,0.0,-37.007332,-39.44347,12.448357,-41.428036,19.829453,-39.637035,14.704331,-35.559071,-21.159359,0.0,44.77489,8.323041,38.80134,10.241725,40.698251,11.117322,37.292889,11.575127,38.070475,0.0,65.466728,21.320594,81.06958,11.027641,78.873092,1.799812,65.053802,-6.041863,45.992111,0.0,21.134721,30.796721,61.906777,47.846492,75.850538,58.842227,84.476935,64.85978,87.709791,9.705477,336.308425,-45.611646,301.0357
108,-6.218811,-0.304343,-0.631382,-0.070543,0.0,-28.737637,-34.299076,17.798698,-36.149414,25.724854,-34.552986,20.250526,-30.591717,-12.032959,0.0,43.38227,9.809658,39.07072,11.919719,41.217535,12.664861,37.991397,12.739777,38.604665,0.0,65.394893,21.407764,80.977054,11.089931,78.918331,1.795372,65.094371,-6.132077,45.912197,0.0,21.275635,30.686336,61.937355,47.783469,76.077705,58.856898,84.595977,64.939968,87.693896,3.651718,336.039073,-46.077976,301.000148
109,1.201607,-2.805569,-0.68478,-0.054761,0.0,-33.715977,-37.057251,16.583153,-39.178711,23.72406,-37.707928,17.958961,-33.925266,-19.207592,0.0,45.913371,9.808831,40.54043,13.513794,43.203824,16.035582,40.955245,17.964381,43.728369,0.0,65.159683,21.641418,80.874206,11.280361,78.913307,1.823455,64.985046,-6.339478,45.478523,0.0,21.302522,30.555426,61.821969,47.569862,76.074643,58.635413,84.686133,64.731586,87.776284,5.033947,333.276378,-46.582134,300.988261
110,-1.904526,-3.086162,-0.515912,0.075879,0.0,-23.258503,-31.81057,19.511993,-35.25404,24.859795,-35.233143,16.244591,-32.669586,-20.505947,0.0,39.672516,12.057287,40.163036,18.704842,45.484576,23.524697,45.963561,27.164118,51.464337,0.0,64.686596,21.443688,80.577794,11.085171,78.753811,1.59573,64.814312,-6.614753,44.977101,0.0,21.194372,30.413264,61.568644,47.344893,75.985204,58.432612,84.712846,64.566182,87.822609,3.333927,330.245683,-46.89354,301.119607
111,0.37484,-2.07984,-0.413051,0.179188,0.0,-31.236443,-35.456669,18.737846,-39.037342,23.533378,-38.899132,14.840263,-36.188244,-32.497662,0.0,44.100032,12.381378,42.125378,19.509055,46.607914,24.967902,47.659301,29.633677,55.285094,0.0,64.10202,21.167633,80.415001,10.762321,78.547577,1.217468,64.720413,-7.04242,44.584946,0.0,21.096954,30.107265,61.513463,46.918172,75.885809,58.023157,84.582676,64.17866,87.433396,3.971026,328.216623,-47.044332,301.349575
112,-2.705406,2.03417,-0.729378,0.099269,0.0,-26.343167,-31.122151,20.190559,-34.238766,24.865173,-34.195931,16.157112,-31.772301,-23.836476,0.0,39.526673,13.558229,39.639652,19.959783,44.653217,24.595374,45.621389,28.419058,52.01541,0.0,63.782662,21.150684,80.677986,10.700821,78.686119,1.106953,64.868454,-7.150795,44.579041,0.0,21.003712,29.802849,61.418467,46.525638,75.908102,57.64338,84.535783,63.809986,87.216011,1.576046,330.30623,-47.463284,301.504281
113,3.910286,-2.27948,-0.614204,0.216695,0.0,-30.859463,-35.522129,17.341255,-39.512444,20.268791,-39.743706,10.310279,-37.573082,-36.403508,0.0,42.024379,13.677791,39.726844,21.918766,45.179022,28.218926,47.278598,33.826962,55.373978,0.0,63.433021,20.943386,80.644249,10.487022,78.603744,0.898533,64.849548,-7.35529,44.425003,0.0,20.752992,29.423318,61.149099,46.081751,75.648528,57.264331,84.297908,63.504198,86.963809,5.881588,328.075267,-47.682232,301.769493
114,-5.854248,-2.606867,-0.484154,0.149942,0.0,-16.346226,-28.561982,23.907783,-34.393696,26.038467,-36.345852,13.376197,-35.561715,-30.716286,0.0,36.122891,15.275693,40.680047,26.041124,48.198901,34.162192,51.35079,41.071804,59.167231,0.0,62.992493,20.553051,80.556656,10.025265,78.359459,0.43737,64.689903,-7.736298,44.36277,0.0,20.668283,29.138661,61.080396,45.847384,75.526225,57.153798,84.074878,63.487476,86.668643,0.547566,325.512975,-47.64616,301.96401
115,-5.643723,1.162414,-0.677834,-0.018809,0.0,-15.118183,-26.709457,29.247917,-32.497982,32.26799,-34.094673,19.873901,-32.93502,-25.266106,0.0,38.177723,13.481399,41.668486,24.19433,47.797981,32.439233,50.83489,39.608196,57.971657,0.0,62.764527,20.441849,80.622254,9.852196,78.21064,0.248772,64.599244,-7.889545,44.428391,0.0,20.808456,29.066574,61.198697,45.779878,75.496659,57.142004,83.963962,63.49643,86.489097,-4.474834,326.679863,-47.702671,301.949675
116,-0.018356,0.659544,-0.704338,-0.032765,0.0,-15.998211,-27.534119,28.601967,-33.527848,31.986076,-35.146237,19.832313,-33.924546,-26.312668,0.0,37.786855,13.02883,42.003581,23.016379,47.611506,30.502999,50.101419,37.034587,55.991531,0.0,62.601677,20.293785,80.779427,9.681244,78.186241,0.130761,64.587662,-7.889419,44.56778,0.0,20.89613,29.042467,61.132896,45.761452,75.428882,57.173003,83.992108,63.572667,86.640447,-3.790952,327.327174,-47.704771,301.904677
117,0.047767,0.835224,-0.602302,0.074249,0.0,-17.557171,-28.502483,27.301277,-34.166668,31.189133,-35.412861,19.554451,-33.816055,-27.422859,0.0,38.606085,12.795858,41.816736,22.339928,46.790164,29.456045,49.126688,35.587194,55.080268,0.0,62.413902,20.08691,80.63475,9.539886,77.943489,0.066604,64.481163,-7.859516,44.500923,0.0,20.904083,29.028301,61.041468,45.753474,75.199504,57.234506,83.853293,63.680891,86.558764,-2.923857,328.10555,-47.487745,301.922078
118,-0.135338,4.532257,-0.54364,0.075373,0.0,-23.697795,-29.724197,24.413659,-34.055694,30.426156,-34.358779,21.509858,-31.996559,-25.504062,0.0,37.57814,11.523023,40.617013,17.324486,43.293795,21.195731,43.703484,24.577776,47.098497,0.0,62.308662,19.900612,80.750312,9.362388,77.872261,-0.084721,64.392517,-7.928238,44.525962,0.0,20.97675,29.044985,60.896799,45.754634,74.909449,57.247794,83.667979,63.690116,86.541658,-2.21077,332.554102,-47.18296,301.913746
119,2.715455,5.010799,-0.662899,0.047152,0.0,-32.23906,-32.295205,18.885017,-34.233525,26.624885,-32.744385,20.688606,-29.271355,-23.068165,0.0,39.655448,10.389236,37.463012,12.875776,38.303546,14.003623,37.17029,14.903055,39.509606,0.0,62.34328,19.859527,80.837665,9.425045,77.992778,0.080337,64.504726,-7.660561,44.693172,0.0,21.048579,29.153444,60.878237,45.856795,74.769079,57.333257,83.663793,63.735626,86.69296,1.374115,337.465072,-46.976429,301.861069
120,6.432884,2.286816,-0.497601,0.074521,0.0,-44.808506,-40.123352,10.479263,-41.14048,18.720794,-38.859925,14.820556,-34.893974,-36.473923,0.0,43.799295,9.543699,36.162251,9.250903,35.257583,8.073496,32.413322,7.327415,34.798049,0.0,62.433563,19.75351,80.981209,9.339523,78.069168,0.010254,64.611008,-7.694321,44.738617,0.0,21.094348,29.259803,60.896527,45.936514,74.638044,57.357969,83.631053,63.683607,86.741162,8.71197,339.684929,-46.569059,301.868631
