takenoko1/special-research/HandMotion_SimilarSearch_自分用/NewProject/handData/test_key/d4_feature_d3/8.csv
frame,vel_0x_L,vel_0y_L,vel_0x_R,vel_0y_R,posFromWrist_0x_L,posFromWrist_1x_L,posFromWrist_2x_L,posFromWrist_3x_L,posFromWrist_4x_L,posFromWrist_5x_L,posFromWrist_6x_L,posFromWrist_7x_L,posFromWrist_8x_L,posFromWrist_9x_L,posFromWrist_0y_L,posFromWrist_1y_L,posFromWrist_2y_L,posFromWrist_3y_L,posFromWrist_4y_L,posFromWrist_5y_L,posFromWrist_6y_L,posFromWrist_7y_L,posFromWrist_8y_L,posFromWrist_9y_L,posFromWrist_0x_R,posFromWrist_1x_R,posFromWrist_2x_R,posFromWrist_3x_R,posFromWrist_4x_R,posFromWrist_5x_R,posFromWrist_6x_R,posFromWrist_7x_R,posFromWrist_8x_R,posFromWrist_9x_R,posFromWrist_0y_R,posFromWrist_1y_R,posFromWrist_2y_R,posFromWrist_3y_R,posFromWrist_4y_R,posFromWrist_5y_R,posFromWrist_6y_R,posFromWrist_7y_R,posFromWrist_8y_R,posFromWrist_9y_R,posFromBody_0x_L,posFromBody_0y_L,posFromBody_0x_R,posFromBody_0y_R
6,-11.385327,-3.752548,-0.358142,-0.017981,0.0,-1.137789,-20.346868,30.822327,-28.385239,35.868759,-32.835268,27.638409,-35.138609,9.497452,0.0,-3.684468,11.031743,30.193778,28.565655,46.053093,43.077909,54.279391,54.616529,58.006892,0.0,68.386688,24.350921,92.724472,15.201828,90.989273,7.949318,79.296547,2.784977,60.987693,0.0,8.156822,34.044706,55.962373,52.16182,68.021265,63.717224,78.002725,69.471152,82.254871,-3.62966,296.666071,-57.691263,281.601503
7,-0.22744,-1.997848,-0.136769,-0.083647,0.0,0.563404,-19.924049,32.576237,-28.848793,36.811512,-34.027839,27.690892,-36.87307,9.294148,0.0,-6.048996,10.453308,30.963077,29.81079,48.414151,46.082295,57.71774,59.319743,62.493097,0.0,68.371639,24.530995,92.576168,15.444809,90.926708,8.140629,79.210636,2.862385,61.11771,0.0,8.094046,34.125908,56.0188,52.230314,67.992958,63.773355,77.92361,69.511413,82.277422,-4.181208,294.266095,-58.15214,281.115728
8,-4.052696,2.722848,-0.183769,-0.180583,0.0,6.4949,-15.485779,35.760006,-24.147285,40.317776,-28.982769,30.803913,-31.461376,12.481831,0.0,-7.663992,9.631533,29.441201,28.457097,46.512275,44.115062,55.096669,56.701179,59.490865,0.0,68.359257,24.864178,92.503338,15.749313,90.69183,8.313766,78.893429,2.848137,60.782993,0.0,8.517728,34.251941,56.222478,52.284246,68.159734,63.778937,78.163659,69.486565,82.373925,-8.458529,296.692847,-58.560534,280.639049
9,-0.405212,2.263263,0.05048,0.010571,0.0,7.331119,-14.467369,35.873485,-23.139508,39.919361,-28.257981,30.097835,-31.08062,10.970066,0.0,-10.754488,8.035952,27.372353,26.45221,44.545723,41.950526,53.240304,54.58177,57.671588,0.0,68.184219,24.667763,92.102234,15.584038,90.50386,8.154476,78.621048,2.675789,60.537392,0.0,8.913067,34.169788,56.321588,52.204305,68.20874,63.731242,78.116322,69.485911,82.253686,-9.007267,298.733984,-58.65358,280.427494
10,-4.417111,1.533448,0.010082,-0.015709,0.0,12.910378,-11.618419,41.158241,-19.532581,45.116089,-23.64759,35.674256,-25.217937,16.439415,0.0,-10.617711,9.053364,28.823821,26.958403,45.218148,41.490176,52.895453,52.904456,56.66476,0.0,68.17123,24.664662,91.760777,15.625214,90.346172,8.197643,78.464687,2.698849,60.390186,0.0,8.932617,34.136702,56.385475,52.175023,68.249754,63.761364,78.105243,69.613858,82.247078,-13.527575,300.080823,-58.746695,280.225176
11,9.374462,-0.830703,-0.07822,-0.055835,0.0,2.963917,-19.348674,30.907688,-27.696075,34.789662,-32.049488,25.390034,-33.634266,5.559803,0.0,-11.70258,8.86752,27.68124,27.090696,44.446193,42.101912,52.55454,54.062942,57.357907,0.0,68.059112,24.541717,91.634125,15.553562,90.289398,8.195926,78.502785,2.75996,60.47525,0.0,8.924207,34.086104,56.272756,52.151829,68.210049,63.777987,78.116791,69.672867,82.291699,-4.219322,299.075829,-58.891124,279.99505
12,-4.514236,2.381874,-0.007118,0.000704,0.0,8.982891,-15.722958,35.333324,-23.616566,40.095165,-27.304424,30.931194,-28.274128,11.604229,0.0,-13.40352,8.040706,25.786317,25.682441,42.313655,40.235259,50.410578,51.859737,54.591193,0.0,67.883194,24.398986,91.468231,15.430458,90.20018,8.132755,78.407936,2.756847,60.450187,0.0,8.832742,34.036086,56.175005,52.136565,68.158759,63.807022,78.046939,69.756526,82.220946,-8.774734,301.300808,-58.939418,279.838859
13,-0.639359,1.46136,-0.20366,0.143755,0.0,8.678273,-15.780567,36.471829,-23.556461,41.27599,-27.09161,32.334126,-27.954345,13.255337,0.0,-15.138274,7.314337,24.708044,24.625373,41.28004,38.966672,49.313879,50.458633,53.436337,0.0,68.090882,24.357995,91.524926,15.486786,90.389443,8.295319,78.656182,2.983658,60.643822,0.0,8.26943,33.861888,55.995521,51.918388,67.93253,63.591834,77.81619,69.597506,82.100866,-9.429955,302.627879,-59.15894,279.848325
14,-0.643455,-1.669113,-0.135017,0.109731,0.0,8.447445,-15.702873,38.208057,-23.150871,42.540035,-26.415997,34.229038,-26.972706,15.75095,0.0,-12.983914,8.53198,26.359694,25.885772,42.949758,40.142584,50.932135,51.41853,55.030633,0.0,68.225487,24.164887,91.501259,15.384956,90.445267,8.29311,78.76973,3.040341,60.754738,0.0,7.863297,33.788022,55.746679,51.713376,67.662063,63.31881,77.593036,69.316566,81.88732,-10.071871,300.84915,-59.292418,279.84844
15,1.153232,2.510648,-0.288093,0.038804,0.0,6.995064,-15.556652,34.080391,-23.04198,40.527489,-26.413913,31.092751,-27.37865,13.113625,0.0,-14.100077,5.514448,21.689659,23.246424,38.724103,38.239301,46.888903,50.357288,51.062218,0.0,68.429718,24.23434,91.703659,15.525363,90.60086,8.517929,78.955467,3.328308,61.0429,0.0,7.533896,33.77435,55.687645,51.612847,67.576291,63.151294,77.531223,69.102836,81.797671,-8.899229,303.273912,-59.561101,279.801358
16,-0.212539,0.128601,-0.1199,0.094898,0.0,6.90493,-14.250195,34.406959,-21.764157,40.541221,-25.249947,31.099891,-26.500855,13.143402,0.0,-15.653062,5.203992,20.171242,23.22396,37.823462,38.381636,46.239351,50.555828,50.632411,0.0,68.841236,24.131321,91.750843,15.501045,90.737263,8.574669,79.165752,3.466541,61.357944,0.0,7.347879,33.603166,55.503085,51.387112,67.354558,62.918075,77.273416,68.901431,81.543074,-9.085087,303.343452,-59.65432,279.837195
17,-2.026806,-1.809571,-0.123059,0.045275,0.0,8.947666,-12.317036,37.414135,-20.101936,42.894779,-23.947266,33.23212,-25.745236,15.801533,0.0,-13.500888,5.994953,21.610125,24.305024,39.641356,39.666501,48.097421,51.840657,52.355556,0.0,69.153374,24.095994,91.895142,15.594429,90.921891,8.80362,79.457543,3.820244,61.661065,0.0,7.051267,33.499327,55.272609,51.23775,67.149708,62.736146,77.102108,68.72727,81.329479,-11.077526,301.490477,-59.743012,279.839066
18,7.718674,-4.446289,0.050229,-0.096466,0.0,-0.520306,-19.21558,28.89616,-27.102974,34.554164,-30.859932,25.549518,-32.321881,8.329731,0.0,-9.736743,8.393746,24.488262,27.484615,42.989365,43.383147,51.563521,55.868562,56.403568,0.0,69.202663,24.030155,92.007877,15.541568,90.863582,8.778293,79.486415,3.844207,61.873661,0.0,7.085872,33.576539,55.078181,51.315666,67.061342,62.761748,77.132328,68.690639,81.318364,-3.321624,296.994383,-59.655555,279.692795
19,4.03347,-0.831321,-0.123597,-0.234232,0.0,-5.223988,-21.662155,23.690242,-29.456383,30.227703,-32.881199,21.543148,-34.175034,4.842716,0.0,-9.122042,9.2841,24.416237,28.501928,42.842609,44.315171,51.613255,56.671243,56.491327,0.0,69.237614,24.526635,92.298878,16.032509,91.007183,9.213215,79.652264,4.213395,62.152348,0.0,7.039016,33.757308,55.235719,51.550047,67.215978,62.962597,77.301129,68.84998,81.500565,0.747986,296.118188,-59.743012,279.413689
20,8.792839,-3.694008,0.164074,-0.161169,0.0,-17.782574,-30.983437,15.048122,-38.51603,21.142421,-41.092003,14.452274,-41.169926,-2.322499,0.0,-3.573435,13.70517,29.875985,31.755273,46.803156,46.222394,54.480956,57.185216,59.529015,0.0,69.232567,24.553105,92.481057,16.024498,91.124634,9.184182,79.745705,4.190209,62.215348,0.0,7.232122,33.822479,55.144909,51.654331,67.210458,63.042663,77.283519,68.888612,81.544309,9.572977,292.380501,-59.546786,279.208841
21,1.222481,1.097329,-0.00729,-0.294944,0.0,-20.600636,-31.264229,15.049976,-38.280247,20.797634,-40.307568,14.290889,-39.681656,-2.070729,0.0,-3.13886,13.912035,29.751522,31.572467,46.0561,45.476116,53.301313,55.976255,58.001137,0.0,69.04945,25.012883,92.792668,16.353356,91.217938,9.348347,79.637959,4.165776,61.850155,0.0,7.144597,34.065553,55.414795,51.894256,67.563731,63.209401,77.654947,68.965219,81.844626,10.831954,293.440807,-59.51758,278.876874
22,6.395816,1.617293,0.110825,-0.242037,0.0,-28.798324,-36.138244,8.848618,-42.892215,13.988366,-44.436035,7.933113,-43.119896,-9.761352,0.0,-5.289861,13.877602,28.492208,31.027655,44.171107,44.258916,50.980029,54.280304,56.041846,0.0,68.832356,25.192966,92.796352,16.435993,91.107891,9.305557,79.43034,3.991791,61.63187,0.0,7.198109,34.01272,55.589314,51.876891,67.732211,63.216737,77.864873,68.970937,82.061073,17.262279,295.021683,-59.372246,278.59842
23,0.581406,-0.246644,0.162277,-0.246631,0.0,-29.365631,-36.231171,8.452743,-42.976021,13.326233,-44.55328,7.110947,-43.251972,-10.718514,0.0,-4.695834,14.879133,29.165152,31.807601,44.269649,44.799616,50.92081,54.565604,55.961595,0.0,68.673466,25.257557,92.744671,16.431118,91.06699,9.216316,79.383831,3.814488,61.521549,0.0,7.181177,33.907509,55.750359,51.788959,67.928676,63.182811,78.024473,68.989981,82.189316,17.873394,294.742348,-59.18026,278.319098
24,2.172409,-0.485889,0.281708,-0.169493,0.0,-32.483803,-38.42815,6.738991,-45.267769,10.937851,-46.90789,4.317467,-45.533752,-14.468925,0.0,-4.955779,15.090381,29.294828,32.380866,44.508474,45.587538,51.173777,55.482782,56.440037,0.0,68.571796,25.106575,92.582325,16.239944,90.966785,8.962154,79.280376,3.488926,61.277058,0.0,7.246781,33.768312,55.575371,51.666039,67.947523,63.100807,78.076455,68.938802,82.275422,20.075581,294.227829,-58.868774,278.120975
25,-4.722061,2.000578,0.270767,-0.35336,0.0,-25.501305,-33.069294,13.655273,-40.469467,16.35347,-42.613026,8.156067,-41.817799,-12.875725,0.0,-11.458728,13.382895,26.785068,31.086676,42.559544,44.612536,50.475441,54.851125,55.786199,0.0,68.344471,24.890785,92.283909,15.980587,90.797253,8.594616,79.140049,2.970577,60.773632,0.0,7.48988,33.584048,55.641554,51.486332,68.235465,62.974095,78.511721,68.855883,82.497117,15.379143,296.189063,-58.572384,277.728271
26,-0.900101,-1.592148,0.335861,-0.125551,0.0,-23.640861,-33.253475,14.262703,-41.584671,16.958817,-44.527805,8.515892,-44.713554,-13.449669,0.0,-11.338352,13.138116,27.998859,31.140325,43.987955,45.260199,52.285728,56.184439,57.687617,0.0,68.18652,24.299447,91.925595,15.47231,90.681508,8.174332,79.132107,2.657227,60.676243,0.0,7.611355,33.207272,55.459959,51.150237,68.22966,62.747644,78.599925,68.728134,82.501341,14.494606,294.543423,-58.220959,277.549228
27,-3.473121,-1.640771,0.237946,-0.27558,0.0,-19.684456,-30.921044,17.435554,-39.606366,20.189941,-42.93385,11.443336,-43.463196,-9.717637,0.0,-9.892835,13.621388,30.473644,31.996372,45.848706,46.499246,54.259433,57.649086,59.542885,0.0,68.118679,24.003376,91.744022,15.262917,90.636784,7.989166,79.12508,2.458649,60.50227,0.0,7.750097,33.063418,55.392034,51.000875,68.384629,62.637617,78.755413,68.653651,82.549124,11.035676,292.843801,-57.968822,277.214797
28,-4.314744,-0.017475,0.215012,-0.314717,0.0,-14.562904,-26.345775,22.962594,-35.400947,24.87394,-39.588764,16.113831,-41.358593,-5.223358,0.0,-11.855091,11.418825,29.150196,30.05579,45.156335,45.060745,54.404163,56.916331,59.734125,0.0,68.085765,23.732185,91.605205,15.03598,90.553127,7.766601,78.973583,2.228141,60.151668,0.0,8.06779,32.882168,55.42654,50.819057,68.601484,62.484921,78.991942,68.501634,82.725532,6.733451,292.775586,-57.741291,276.84934
29,-4.652664,0.287683,0.070072,-0.44301,0.0,-8.112991,-23.000667,27.733681,-32.636066,30.573944,-37.23151,21.397133,-39.282875,0.330231,0.0,-12.642224,10.358076,29.431271,28.784374,45.318825,43.897923,54.445474,56.000609,59.411825,0.0,68.267235,23.626613,91.681984,15.000984,90.711204,7.765674,78.904564,2.24049,59.954681,0.0,8.191587,32.50228,55.685892,50.516567,68.940741,62.322875,79.256357,68.476094,82.928506,2.086092,293.007122,-57.665914,276.350183
30,-2.957107,-0.165899,0.210628,-0.588827,0.0,-4.437722,-20.95324,29.888649,-30.685524,33.390884,-35.61668,24.832763,-37.976738,4.924576,0.0,-13.052728,9.959391,30.128446,28.33719,45.454466,43.547527,53.833441,55.727845,58.900087,0.0,68.118038,23.819962,91.74448,15.136894,90.750286,7.758637,78.677731,2.048802,59.61208,0.0,7.971459,32.398737,55.59539,50.338775,68.921191,62.090558,79.076676,68.257905,82.712034,-0.864498,292.784447,-57.448769,275.70458
31,-8.491699,4.240154,0.190808,-1.775485,0.0,4.881683,-11.847657,41.143615,-21.100846,43.029533,-26.355549,33.012954,-29.311982,10.955474,0.0,-18.382381,8.015747,28.713583,25.228316,43.021599,39.453894,50.179447,50.627039,54.364742,0.0,68.166824,24.889618,91.927139,16.239463,91.190277,8.547283,78.516151,2.25571,58.95552,0.0,7.743662,32.460376,56.327009,50.307357,70.00391,62.040935,79.89088,68.324608,83.719763,-9.347167,296.963421,-57.248931,273.867915
32,5.343452,2.181741,-0.095936,-3.630727,0.0,-7.072117,-18.102104,31.547218,-24.463142,36.456482,-27.288643,29.481926,-28.128742,8.348236,0.0,-8.975422,6.161592,31.014367,18.448133,42.099504,28.485588,45.263003,36.109628,45.205019,0.0,67.500881,25.992977,91.597904,17.526661,91.164699,9.576542,77.755703,2.617424,57.518268,0.0,7.130234,32.471059,58.245076,50.215806,72.974575,61.945185,82.659435,68.509415,86.209862,-3.976622,299.094996,-57.317774,270.187022
33,7.287609,-3.339783,-0.445885,-7.222254,0.0,-15.943685,-23.357168,17.362953,-26.658588,24.543457,-26.270347,20.212063,-23.849968,2.540199,0.0,1.783673,6.802147,35.709225,14.448522,42.295253,20.144818,41.585926,23.602131,38.5503,0.0,65.842609,27.200672,90.476017,19.183445,90.214748,11.007946,75.983654,3.198006,55.12492,0.0,4.989804,31.970362,59.272232,49.741896,76.461793,61.703766,86.484354,68.896973,90.146611,3.357513,295.713158,-57.717133,262.922713
34,14.055062,-12.124212,1.839523,-7.369356,0.0,-27.607298,-29.061499,-6.103707,-29.450146,1.15734,-26.788868,-0.291058,-22.324826,-12.626931,0.0,13.441163,9.318674,41.380766,13.490316,44.406932,15.970367,41.356029,16.102667,37.942182,0.0,60.883885,26.323563,83.265416,18.362366,81.921124,9.427185,68.187779,0.076046,47.466065,0.0,9.301749,29.328741,58.317163,45.601593,75.793444,57.006721,83.899346,64.506938,88.245032,17.463015,283.546712,-55.82717,255.511123
35,13.471504,-23.844885,-4.675106,-18.982478,0.0,-38.040968,-35.282107,-26.617928,-32.098916,-19.204422,-26.095059,-15.868321,-18.446412,-20.329926,0.0,27.708299,14.463373,46.900179,18.975013,50.759493,21.600338,47.732735,21.545744,44.809755,0.0,56.968935,26.995102,75.304591,19.362036,73.305273,10.008248,60.879919,-0.474209,41.515726,0.0,6.490129,24.979555,54.545905,40.87747,73.072227,52.948107,81.451782,61.838332,88.388644,30.882592,259.949301,-60.554203,236.776119
36,24.163147,-36.524208,-10.949626,-29.858201,0.0,-56.892912,-47.222117,-58.67466,-40.183377,-48.924408,-29.960839,-39.629757,-18.013985,-33.605095,0.0,41.443938,16.929611,56.683334,22.041328,60.255151,25.391369,57.381237,26.1008,54.740148,0.0,53.484964,28.708007,66.305871,21.381002,63.745496,11.804065,53.67996,0.599258,36.960645,0.0,-3.20166,19.16253,47.166817,35.644357,67.285447,49.339734,78.223668,60.440389,89.175073,54.801333,224.202454,-71.748235,207.695279
37,13.653785,-35.894168,-15.273446,-37.499364,0.0,-53.368784,-42.642454,-67.08522,-35.289768,-59.240844,-24.935508,-47.972179,-12.839859,-35.378837,0.0,37.352775,17.687449,50.644588,25.159687,56.258763,31.272885,56.485992,34.982448,58.843771,0.0,49.822386,29.593827,56.955649,23.298644,53.845579,14.312233,45.80551,3.489979,31.697176,0.0,-14.709356,10.961198,34.779826,28.441924,56.05648,44.34268,69.290427,58.236906,83.586827,67.6579,189.382178,-87.818899,171.269807
38,17.824414,-47.22201,-19.588451,-42.601467,0.0,-50.779564,-42.455017,-67.826134,-35.511704,-61.217492,-25.069291,-48.830361,-12.329796,-33.210595,0.0,22.644056,15.153453,42.983697,27.460131,53.100007,38.298415,58.099339,46.353873,64.816172,0.0,47.77767,28.33707,48.446119,22.887972,44.100672,14.788627,38.583349,4.992576,26.680326,0.0,-25.565357,2.621675,20.178577,20.091083,41.314804,37.411591,56.166476,53.559102,73.55617,84.675562,143.531947,-108.214102,130.040119
39,19.890174,-47.750852,-25.981396,-49.695374,0.0,-49.968383,-40.836868,-62.311317,-34.453216,-56.542556,-24.401367,-43.19625,-11.876701,-26.810234,0.0,7.981673,7.541294,28.795742,23.188545,43.563569,38.090198,53.137878,50.875071,63.97786,0.0,49.012797,27.635239,46.458372,22.944071,41.791437,16.483177,37.214098,9.305203,27.439608,0.0,-43.716661,-4.711902,4.253245,13.39159,26.406255,32.475332,46.231181,51.165756,66.79313,103.882541,97.790197,-134.878693,82.353847
40,24.352524,-43.600799,-21.008251,-39.884856,0.0,-49.647194,-38.208595,-59.984459,-32.762581,-53.954773,-23.761184,-43.381759,-12.321098,-28.625564,0.0,-13.304633,-1.461879,10.431633,14.182649,26.344257,30.051585,38.939303,44.717784,54.744704,0.0,49.114712,26.228828,45.067852,22.552826,38.746056,17.750519,35.544136,13.1269,27.027912,0.0,-50.136,-12.072681,-18.845454,5.023995,8.10505,24.037441,31.09395,43.792441,53.483001,127.65945,56.087343,-156.462559,44.366936
41,18.256256,-32.113419,-17.643059,-37.060517,0.0,-46.811325,-33.274131,-51.211441,-29.436653,-46.216415,-21.965103,-37.355186,-12.089996,-25.513801,0.0,-29.94656,-8.599097,-17.619504,5.300618,-2.250963,20.468248,14.576265,35.979532,38.695105,0.0,47.727963,22.272354,44.582451,19.343045,38.273587,16.263062,34.656063,14.431172,25.670655,0.0,-54.577706,-16.929993,-34.11278,-0.942231,-7.699381,17.46151,17.457787,37.473479,39.872056,145.462778,25.585811,-174.558546,8.918306
42,20.270417,-35.604812,-13.242943,-30.010144,0.0,-47.280167,-31.053818,-47.583481,-28.365692,-46.104035,-22.379105,-39.906533,-14.485474,-31.125435,0.0,-40.060222,-14.454623,-35.700315,-0.227328,-18.718989,15.831089,2.466762,33.150758,34.542606,0.0,47.395718,17.934014,44.661885,14.698128,38.717331,12.66718,37.055375,12.801739,27.831711,0.0,-55.521401,-19.129308,-48.374593,-5.2208,-22.226622,11.606212,5.372057,30.86238,30.311659,165.494849,-8.685955,-188.039835,-19.758792
43,14.610489,-22.031442,-9.554054,-24.276403,0.0,-47.977478,-24.770714,-46.692421,-23.037278,-50.142632,-19.269768,-46.098748,-14.612687,-38.841385,0.0,-39.519084,-18.116694,-53.015384,-6.373599,-34.401877,8.42317,-10.59164,26.170387,27.763072,0.0,47.097496,15.839436,46.502999,12.848946,42.698879,11.867352,42.842961,13.395058,33.817497,0.0,-53.961968,-20.897346,-60.456308,-7.993418,-32.429871,7.982248,-2.461803,26.725511,24.539262,179.397967,-29.44176,-198.30126,-42.759558
44,9.212081,-18.350796,-5.173004,-19.285962,0.0,-47.435188,-21.41043,-47.070671,-20.933784,-56.093536,-19.207511,-54.093132,-16.591987,-47.572929,0.0,-40.141874,-18.226418,-62.772983,-7.736993,-41.705969,6.164599,-16.723858,23.437042,25.295908,0.0,47.43877,16.185368,48.778221,14.08366,50.349575,13.949009,52.294636,15.797848,42.804016,0.0,-50.934936,-20.842944,-68.388637,-7.943666,-36.773705,7.66091,-5.447554,25.866691,23.037893,187.436073,-46.873583,-204.648239,-61.126547
45,4.629456,-16.884718,-3.557281,-19.163561,0.0,-46.756096,-22.888733,-53.412117,-23.753815,-65.972466,-23.326332,-63.945213,-21.897812,-56.373207,0.0,-42.426114,-19.671464,-62.250574,-9.401432,-40.646881,4.511992,-14.438228,21.987803,27.862342,0.0,47.495224,16.674705,54.734493,15.373649,62.541584,16.024887,65.370517,18.116443,54.650299,0.0,-54.258331,-19.173213,-62.859342,-5.257949,-32.569755,10.973993,-1.255547,29.076379,28.118908,190.774115,-62.655729,-209.496934,-79.187536
46,3.205467,-18.143289,0.238918,-12.144324,0.0,-44.095527,-25.831604,-63.385277,-28.182586,-79.553489,-29.099968,-77.690803,-28.456054,-69.016044,0.0,-45.286132,-19.173855,-56.588501,-7.694194,-31.806162,7.078147,-6.439451,24.476677,34.010521,0.0,47.906524,18.635341,63.489647,18.593376,75.202675,19.827839,79.466629,21.341217,67.725082,0.0,-52.647546,-18.089283,-57.731208,-4.094985,-26.834753,12.255419,2.646838,30.210222,31.71645,192.608516,-79.426507,-210.629082,-89.959349
47,0.540459,-16.482266,1.566936,-11.56153,0.0,-41.667824,-28.662346,-74.766541,-32.199532,-92.643448,-34.092613,-90.610931,-33.517983,-80.444664,0.0,-51.708223,-18.628488,-50.125672,-5.686256,-23.704662,10.114847,1.235638,27.650859,39.587936,0.0,47.330773,21.79263,73.052044,23.021828,87.923676,24.515534,92.156754,25.196869,78.913708,0.0,-52.998233,-17.077996,-49.376722,-2.342545,-18.508025,14.36335,8.900427,32.166,36.159701,192.076761,-94.50137,-210.13436,-100.113476
48,-1.686241,-14.264425,2.581284,-10.936671,0.0,-38.663429,-32.590897,-85.527741,-36.851074,-102.827683,-38.80925,-99.819168,-37.39,-88.456101,0.0,-57.500987,-18.411818,-43.736366,-4.276399,-18.272003,12.256931,5.280135,29.772109,42.208252,0.0,45.092136,25.535534,81.388161,27.76157,98.57428,29.457229,102.571461,29.48426,88.269367,0.0,-54.928739,-15.705408,-40.143001,-0.181373,-11.142828,16.709915,14.217656,34.148639,40.181864,189.762177,-107.824892,-208.181419,-110.109244
49,-1.515885,-12.506815,1.72578,-10.673596,0.0,-34.896652,-36.597747,-95.662307,-40.914962,-110.806984,-42.148109,-106.630096,-39.802368,-94.161735,0.0,-61.628294,-18.108756,-38.847036,-3.212105,-16.188105,13.792298,6.401533,31.597016,43.486515,0.0,41.374375,29.4688,90.19217,32.748082,106.774189,34.600251,110.391507,34.017701,94.489369,0.0,-56.613855,-14.938474,-32.449122,1.168945,-5.89118,18.176117,17.95305,35.213333,42.018988,187.970438,-119.708398,-206.731493,-120.159531
50,2.090401,-8.125502,0.411084,-10.47956,0.0,-31.71254,-36.864189,-99.975929,-41.964615,-117.039413,-43.728058,-112.838333,-41.621681,-99.087524,0.0,-58.076861,-17.804073,-39.269087,-3.61041,-18.601981,12.913691,2.612991,30.474258,41.516744,0.0,36.940052,33.043476,95.615913,37.03561,112.044056,38.784267,114.083622,37.468036,97.284942,0.0,-56.081027,-14.523781,-27.750345,1.598675,-3.758109,18.475312,19.618924,35.245699,41.239978,189.954832,-127.817286,-206.426416,-130.622477
51,4.77166,-6.71624,-3.263421,-9.094042,0.0,-26.973541,-38.179894,-100.690041,-43.494392,-118.129761,-45.262619,-114.42675,-43.081421,-100.273155,0.0,-53.638372,-18.000171,-38.456403,-4.656111,-20.297268,11.271198,0.682169,28.445707,39.557335,0.0,32.07082,36.028004,97.296845,40.216176,113.324296,41.729874,114.263295,40.17944,96.997078,0.0,-54.980328,-15.153672,-27.562537,0.726895,-4.202925,17.191765,19.107609,33.27847,39.374909,194.843062,-135.039382,-209.573267,-140.222375
52,7.899994,-4.236535,-7.400276,-7.051286,0.0,-22.163063,-39.867691,-100.880562,-45.50306,-117.216957,-47.34652,-114.012314,-45.351357,-100.719315,0.0,-48.911835,-18.602491,-36.392053,-6.053659,-21.438048,9.103076,-1.612072,25.494945,36.749069,0.0,26.657742,38.605351,97.267605,43.289624,112.952008,44.963757,112.857239,43.523484,95.850838,0.0,-53.179266,-16.872408,-27.689839,-1.570297,-5.529511,14.515012,17.70288,30.222887,36.290736,202.894066,-139.854438,-216.822533,-147.852182
53,10.159675,-1.592296,-10.085781,-4.545494,0.0,-17.374878,-40.43827,-97.574295,-46.331771,-114.552841,-48.236778,-112.445503,-46.536552,-99.669708,0.0,-44.112939,-19.868007,-33.021222,-8.442291,-22.750226,5.796576,-4.539681,21.267857,32.013164,0.0,20.804409,39.695286,95.48497,44.986428,110.988716,47.073075,110.176895,46.130058,93.74049,0.0,-51.285715,-19.161891,-28.149175,-4.929282,-8.187771,10.578522,15.411483,25.945618,32.057248,213.226513,-141.823273,-226.735542,-152.774215
54,11.587967,0.667602,-11.084827,-1.97903,0.0,-13.853988,-39.600952,-92.853721,-46.022346,-109.620895,-48.578064,-109.219185,-47.762695,-98.35453,0.0,-40.184319,-22.023133,-30.895402,-11.995268,-23.321584,1.159046,-7.051891,15.542467,25.560209,0.0,14.795963,38.516727,91.377193,44.32798,106.776523,47.11409,105.55022,47.202232,91.21186,0.0,-50.929171,-22.133089,-30.361563,-9.090997,-11.483779,5.67541,11.439419,20.567624,26.53293,224.97381,-141.487354,-237.661039,-155.084928
55,11.638893,1.68373,-10.828068,0.11552,0.0,-9.795112,-38.219032,-86.980064,-45.399902,-102.805961,-48.981262,-103.93032,-49.386451,-96.91468,0.0,-38.695457,-24.493422,-31.579584,-15.479455,-24.332781,-3.218188,-10.251368,10.217417,16.741969,0.0,10.488121,35.858952,87.340954,42.367058,102.627766,46.292553,102.504101,47.865715,90.394272,0.0,-51.360377,-25.382507,-35.716463,-13.346144,-17.154796,0.762571,4.555553,15.255251,18.973583,236.686798,-139.82988,-248.415012,-154.995664
56,9.102494,1.507914,-7.404327,0.904369,0.0,-6.758606,-35.403168,-82.180802,-43.3629,-98.117546,-48.209496,-100.339257,-50.226609,-96.37928,0.0,-40.170594,-26.382891,-35.303257,-17.908694,-28.920472,-6.324474,-17.153567,6.665099,6.775354,0.0,7.191238,32.787471,84.061569,40.390674,100.666946,45.721927,101.9519,48.665622,91.925193,0.0,-52.572606,-27.984602,-42.829623,-16.601688,-25.13039,-2.931839,-4.098394,11.48498,11.028185,245.789664,-138.245495,-255.818967,-154.014824
57,5.21846,1.13605,-2.02731,1.733883,0.0,-4.723206,-31.752571,-77.632988,-40.748245,-95.302139,-46.857994,-98.566887,-50.302849,-96.356186,0.0,-43.627101,-28.123762,-42.73888,-19.948684,-36.181135,-8.596587,-25.478881,4.311306,-3.361714,0.0,5.001435,28.136753,80.728169,36.407765,98.927559,42.911362,101.584648,47.253227,93.351517,0.0,-54.847985,-29.412771,-51.789746,-18.384101,-34.746484,-4.797797,-13.949019,9.813052,3.110415,251.022824,-137.020512,-257.831577,-152.192008
58,0.735603,1.365799,3.221077,2.519856,0.0,-3.905273,-28.860992,-76.625679,-38.708404,-93.942558,-45.836792,-97.853485,-50.241142,-96.433388,0.0,-48.794762,-29.023784,-52.126425,-20.510292,-44.160131,-8.915861,-33.369775,4.174093,-11.38091,0.0,4.689709,23.950482,77.487431,32.030457,95.459667,38.706242,99.130703,43.729855,91.723057,0.0,-56.978597,-29.553016,-60.535106,-18.625959,-43.61615,-4.829599,-23.17347,10.271943,-2.913166,251.802011,-135.736832,-254.566916,-149.754271
59,-4.883331,1.057398,7.736698,2.969799,0.0,-3.481819,-26.737198,-75.240441,-36.228127,-92.261536,-42.715393,-95.409256,-46.321724,-91.385468,0.0,-53.674328,-27.718345,-58.603712,-17.894661,-48.316359,-5.449591,-35.722335,8.146763,-11.948596,0.0,6.85944,21.10373,74.115429,27.822213,90.543148,33.209393,94.05542,37.276715,85.631481,0.0,-57.589894,-28.259168,-64.462688,-16.892717,-48.302416,-2.526163,-27.639682,13.310527,-3.744727,246.92268,-134.887588,-246.826218,-146.992626
60,-8.897392,5.082967,11.022034,4.643119,0.0,-6.998429,-28.204422,-74.555558,-37.121865,-89.436287,-42.700447,-91.900223,-45.162415,-86.916459,0.0,-58.823127,-27.295451,-60.611364,-15.484472,-48.72218,-1.458653,-33.935096,13.411804,-8.259432,0.0,9.799713,18.110195,69.4678,22.686584,83.651711,25.887543,85.803005,28.283638,74.939209,0.0,-57.986228,-24.703898,-62.500587,-12.474819,-46.136901,2.640515,-23.635755,18.785688,3.118219,237.956252,-130.179409,-235.87322,-142.724295
61,-9.85595,8.301225,13.187485,6.113945,0.0,-13.816315,-29.95269,-76.741676,-37.652824,-89.250915,-41.683662,-91.110283,-42.332107,-83.648506,0.0,-61.714479,-26.07718,-57.215156,-12.515626,-43.577509,3.01895,-26.450199,19.042018,1.870037,0.0,12.751819,14.50716,63.654693,16.128399,73.52013,16.358642,73.859024,16.564991,59.665477,0.0,-57.152813,-19.716323,-54.327108,-6.084805,-35.70407,9.921343,-12.626236,26.179439,15.266224,227.887344,-122.532778,-222.898693,-137.264944
62,-10.277824,9.896421,11.177913,8.220332,0.0,-20.9469,-32.033043,-79.090851,-38.212601,-89.289208,-40.618469,-89.198845,-39.519562,-80.190216,0.0,-63.954578,-24.000863,-49.363585,-8.505286,-32.991096,8.628051,-13.614861,25.731776,15.97179,0.0,17.158528,12.41375,58.695866,11.663063,65.90625,9.485756,65.314225,8.162465,49.083733,0.0,-56.730996,-15.450944,-45.636734,-0.42232,-23.042138,16.50737,0.818746,32.965581,29.491046,217.289664,-113.363737,-212.040636,-129.771992
63,-9.910675,9.944851,6.746487,10.026819,0.0,-27.634461,-33.684014,-80.734978,-38.296875,-89.510834,-39.108399,-87.090271,-36.506996,-77.277283,0.0,-64.381532,-21.151761,-40.132982,-4.243062,-19.637579,13.769156,0.610585,31.372525,30.649638,0.0,22.311424,11.985237,59.363331,10.212467,65.283119,7.057182,63.718792,4.94957,45.997604,0.0,-57.72833,-12.936847,-37.837519,3.235833,-12.169833,21.002201,12.352278,37.606307,39.93502,207.010466,-104.111204,-205.662672,-120.437491
64,-6.768975,9.244222,2.843365,8.72249,0.0,-34.610618,-35.144989,-84.226112,-39.432289,-93.057746,-40.180595,-89.103767,-37.584091,-80.01091,0.0,-64.646448,-19.371218,-32.735838,-1.956037,-10.329093,16.354936,9.887921,34.212711,39.952838,0.0,26.341999,12.140201,63.707886,10.474148,69.611767,7.68441,68.489765,6.05936,50.640152,0.0,-59.411971,-11.596098,-32.430699,5.647044,-4.362803,24.156217,20.400199,40.974597,46.419871,199.905567,-95.589212,-203.155231,-112.437231
65,-4.977836,3.150827,-0.265469,5.085158,0.0,-37.94767,-33.681473,-89.350571,-37.399819,-99.542725,-37.899079,-93.991196,-35.23217,-82.982872,0.0,-62.286121,-16.412358,-27.110002,1.123277,-3.577893,19.211603,16.777352,36.656162,47.815431,0.0,29.179276,13.841927,70.303379,13.145874,77.126301,11.55201,77.148972,10.778435,60.006535,0.0,-60.633066,-12.11225,-29.912967,5.853186,-0.688054,24.669389,23.202532,41.832477,48.169286,194.721525,-93.120557,-203.626906,-108.034245
66,-2.698677,-1.72916,-4.211609,1.919777,0.0,-38.778488,-33.915184,-92.837723,-37.705788,-104.531433,-38.190583,-97.796196,-35.494103,-85.837212,0.0,-59.356567,-14.106023,-24.60037,2.970949,0.53001,20.558145,19.969812,37.565333,50.594756,0.0,31.68338,17.484558,79.328442,18.635605,88.888459,19.008591,90.398907,19.607231,74.610306,0.0,-62.288745,-14.150625,-32.290899,3.763083,-3.033186,22.661908,20.802337,40.293293,45.350627,191.958098,-95.340383,-207.903265,-106.605134
67,0.327621,-5.367475,-5.94635,-2.861767,0.0,-38.100494,-35.141968,-96.200226,-39.207756,-109.375557,-39.760048,-102.824043,-36.868835,-89.138878,0.0,-55.814799,-12.729119,-24.970175,3.523942,0.754047,20.329125,18.53488,36.81885,49.353208,0.0,32.460514,22.240906,89.362187,25.152741,100.963257,26.998627,102.46098,27.988953,86.757958,0.0,-62.206293,-15.830626,-34.200876,1.827788,-6.622793,20.513333,16.996678,38.285682,40.632747,192.324949,-101.18981,-213.810385,-109.948853
68,3.522606,-7.476246,-5.527519,-7.00317,0.0,-35.772079,-36.137993,-98.992424,-40.955727,-113.934997,-42.110367,-108.007713,-39.513016,-93.215263,0.0,-53.453688,-13.218568,-27.556625,2.057116,-2.755711,18.346887,14.271885,34.658024,45.599845,0.0,30.383057,26.424351,94.564648,30.622261,108.59277,33.223091,110.362495,34.173283,94.47765,0.0,-61.08745,-17.443664,-36.629279,0.159437,-10.005122,18.567306,13.683441,36.281856,36.511728,196.018536,-109.225691,-219.166923,-117.511658
69,6.207802,-8.468661,-6.086941,-7.51747,0.0,-32.099899,-37.645912,-100.752754,-42.981606,-116.797691,-44.52198,-111.506516,-42.175346,-96.910744,0.0,-50.857739,-14.465624,-30.230365,-0.174859,-7.362246,15.660775,9.231316,31.993536,41.261242,0.0,26.471386,29.457504,96.386067,34.995621,112.964791,38.376354,114.790478,39.532986,98.692978,0.0,-60.208316,-18.999172,-40.81935,-2.066336,-14.859832,15.661874,8.882716,32.933854,31.58113,202.494026,-118.145754,-224.986176,-125.48053
70,8.849396,-6.700235,-7.541462,-6.009028,0.0,-27.772248,-38.933853,-100.216759,-44.874962,-118.286385,-46.813706,-113.850312,-44.850014,-99.585228,0.0,-48.700855,-16.328393,-34.560412,-3.569149,-13.87935,11.364305,2.466111,27.298517,34.941032,0.0,21.775028,31.631081,97.100968,38.251168,115.561329,42.339638,117.48507,43.991032,101.939656,0.0,-59.660624,-21.047974,-45.845278,-5.055797,-21.159461,12.100323,2.730152,29.07151,25.432756,211.646828,-125.186459,-232.224232,-131.830028
71,9.985336,-4.073156,-7.85733,-4.259053,0.0,-22.529823,-39.045937,-98.489479,-45.843864,-117.627686,-48.756134,-114.431671,-47.793869,-101.928131,0.0,-48.454888,-19.466564,-38.749677,-7.873662,-20.85388,6.384844,-5.108294,21.885371,27.219489,0.0,16.410427,32.787952,96.13044,40.324596,115.967926,45.099117,117.894127,47.335751,103.527397,0.0,-59.608701,-23.513964,-51.076551,-8.449954,-27.273311,8.175798,-3.046052,24.857554,20.071922,221.995903,-129.392184,-239.717823,-136.22165
72,9.395599,-1.699501,-7.137955,-2.266339,0.0,-17.897323,-38.263435,-96.008056,-45.644554,-115.777954,-49.423278,-113.839714,-49.583748,-103.391693,0.0,-48.477643,-22.569195,-41.529341,-12.04828,-26.884987,1.575809,-11.726511,16.832625,20.078443,0.0,11.063004,32.818302,93.906887,41.152851,114.427986,46.650353,116.75679,49.633312,103.542206,0.0,-59.604038,-26.252598,-56.032086,-12.094695,-32.172412,3.927521,-8.123578,20.179498,15.156849,231.793762,-130.929676,-246.453518,-138.32598
73,8.024941,0.185665,-6.405739,-0.53708,0.0,-14.453934,-37.616364,-93.627388,-45.279488,-113.603943,-49.622955,-113.036431,-50.536034,-104.560112,0.0,-48.04781,-25.188249,-42.504315,-15.709882,-31.137951,-2.728461,-16.731685,12.394129,14.298728,0.0,7.28199,32.085835,92.056458,40.868409,113.213608,46.94846,115.815434,50.646218,103.870514,0.0,-59.301131,-28.123864,-59.547969,-14.920533,-35.464197,0.483113,-12.175931,16.414575,11.419442,240.189417,-130.169708,-252.488543,-138.288757
74,5.401382,2.261825,-4.844627,0.679415,0.0,-11.751617,-36.330665,-91.201057,-44.470344,-111.65435,-49.567016,-112.351547,-51.350761,-105.345657,0.0,-48.4024,-27.789047,-44.182979,-19.224432,-35.064721,-6.877409,-21.747807,7.906924,8.051457,0.0,4.782944,31.481461,90.876823,40.523975,112.478519,47.044601,115.706966,51.23172,104.539867,0.0,-58.831717,-29.78412,-61.460926,-17.332665,-37.531558,-2.327055,-14.499633,13.472865,8.740277,245.949772,-127.206982,-256.974197,-136.908441
75,2.152657,2.47035,-2.671543,1.068267,0.0,-10.172951,-35.600098,-89.74569,-44.153366,-109.476746,-49.833092,-110.98494,-52.162445,-105.768929,0.0,-48.80726,-29.430274,-44.220863,-21.379484,-37.155106,-9.360381,-25.387493,5.381184,3.604229,0.0,3.134228,31.043713,89.696834,40.381531,111.806293,47.2271,115.484665,51.658779,104.846695,0.0,-58.593108,-30.976801,-62.980224,-19.007703,-39.008628,-4.219693,-16.046984,11.567003,6.857936,248.563431,-124.000169,-259.184738,-135.103711
76,-0.736061,2.824031,-0.939686,1.153846,0.0,-9.352433,-34.895005,-89.539604,-43.464752,-108.685684,-49.327309,-110.298867,-51.834778,-105.351403,0.0,-49.14048,-30.326068,-43.884199,-22.557502,-38.591549,-10.696202,-27.660757,4.045041,0.781298,0.0,2.384193,30.633831,88.99403,40.213818,111.471394,47.313549,115.648419,51.928528,105.55806,0.0,-58.502738,-31.569805,-64.106539,-19.850608,-40.399071,-5.121313,-17.540019,10.772316,4.757487,248.377505,-120.620949,-259.574289,-133.394676
77,-2.354164,2.725318,0.118939,1.434289,0.0,-8.939003,-34.585419,-89.659012,-43.199273,-108.249413,-49.190941,-109.687912,-51.742264,-105.119797,0.0,-49.294678,-30.836279,-43.735727,-23.212323,-39.360923,-11.436924,-28.88232,3.259267,-1.030763,0.0,2.579967,30.459743,88.867595,40.216278,111.373741,47.432991,115.888195,52.094261,106.092098,0.0,-58.876223,-31.682886,-64.944933,-19.9213,-41.942179,-5.102791,-18.789227,10.908464,3.199604,246.61631,-117.556038,-258.862381,-131.620794
78,-3.463417,3.152815,1.027187,1.76986,0.0,-8.951271,-34.057343,-90.026436,-42.532402,-108.074227,-48.559845,-109.074234,-51.222359,-104.237709,0.0,-50.229366,-31.121547,-44.180653,-23.288917,-40.103653,-11.350256,-30.036265,3.442036,-2.721927,0.0,2.789223,30.289284,88.875801,40.022758,111.166134,47.168335,115.801735,51.771503,105.916912,0.0,-59.76852,-31.421997,-65.734663,-19.476827,-43.53108,-4.478032,-19.52235,11.655804,2.772093,243.897755,-114.14845,-257.090332,-129.596161
79,-4.43113,3.503163,1.48106,2.565464,0.0,-9.348747,-34.225731,-90.357124,-42.569252,-107.748573,-48.521713,-108.356003,-51.026573,-103.165558,0.0,-50.592406,-30.514707,-43.77115,-22.202994,-40.019618,-10.052325,-30.184769,4.770312,-3.489324,0.0,3.229168,30.281605,88.749435,40.135048,110.913563,47.28027,115.859722,51.845798,105.84383,0.0,-60.999447,-30.995104,-66.690056,-18.878281,-45.32383,-3.736811,-20.745727,12.528387,2.009451,240.312435,-110.551034,-254.763462,-126.936444
80,-5.593964,4.575236,1.807812,3.89027,0.0,-9.980255,-34.359626,-90.899436,-42.470008,-107.56034,-48.288551,-107.753379,-50.571372,-101.601974,0.0,-50.936661,-29.647256,-42.995734,-20.700297,-39.130276,-8.243198,-29.403548,6.582464,-3.557021,0.0,4.241409,30.097,88.643406,40.02658,110.752075,47.139679,115.988788,51.659809,105.723461,0.0,-62.154819,-30.503889,-67.526043,-18.104693,-46.611126,-2.781646,-21.624044,13.607283,1.558247,235.535871,-106.099012,-252.13825,-123.169388
81,-6.733016,6.257281,2.437603,5.376701,0.0,-11.788949,-33.878129,-91.061715,-41.67302,-107.067147,-47.309144,-107.193902,-49.47004,-100.168671,0.0,-51.081571,-28.588857,-42.51515,-19.087189,-37.888,-6.388655,-27.742238,8.420576,-3.042172,0.0,5.244461,29.82011,88.358963,39.761673,110.685104,46.850292,115.897544,51.328159,104.761001,0.0,-63.025404,-29.822853,-68.049584,-16.932507,-46.900013,-1.385636,-21.621061,15.011753,1.755008,229.562285,-100.137293,-248.941217,-118.088249
82,-8.096718,8.578058,3.164348,7.458245,0.0,-14.60772,-34.090142,-91.547951,-41.408226,-106.606911,-46.374413,-106.434838,-47.936508,-98.535645,0.0,-51.399654,-27.260596,-41.529156,-17.096454,-35.660631,-4.090619,-25.253581,10.707664,-2.035392,0.0,6.178883,29.078179,88.080723,38.795265,110.390339,45.889664,115.479412,50.467724,103.854092,0.0,-64.150382,-29.078439,-68.152676,-15.79448,-47.043183,-0.045572,-22.149974,16.44127,1.68646,222.117331,-91.854856,-245.125105,-110.925625
83,-10.101837,11.477277,4.863041,9.036531,0.0,-17.575745,-34.188859,-91.48272,-41.081406,-105.420617,-45.231102,-104.537751,-45.910767,-95.057694,0.0,-51.095369,-26.413757,-39.679036,-15.59966,-32.117361,-2.431354,-21.36634,11.972942,-0.50878,0.0,7.661694,28.172127,87.242752,37.198128,109.079281,44.00837,113.785984,48.510029,101.453659,0.0,-64.961767,-28.055852,-66.641282,-14.49175,-45.902672,1.461083,-22.011459,18.098681,1.874495,212.508145,-80.889462,-239.769413,-102.400977
84,-12.808709,15.309589,6.479828,11.035292,0.0,-21.98957,-35.374179,-91.141342,-41.335315,-103.624145,-44.254177,-101.997299,-43.735199,-92.070614,0.0,-49.904198,-25.391865,-36.476243,-13.85678,-26.921954,-0.377863,-15.836147,13.858765,2.831123,0.0,10.13459,26.906296,86.794395,34.459099,107.260243,40.274071,110.717011,44.26347,97.275433,0.0,-64.94137,-26.33664,-63.023983,-12.352719,-42.889841,3.833565,-20.787417,20.517822,3.619143,200.405061,-66.058596,-232.58396,-91.844408
85,-14.983268,18.560123,8.181656,11.742903,0.0,-28.190438,-38.26331,-90.099152,-43.068295,-101.043068,-44.423985,-98.813187,-42.290726,-89.773076,0.0,-47.194151,-23.894448,-31.921372,-11.574645,-20.443705,2.170175,-8.7991,16.256287,7.684453,0.0,12.663311,27.435059,86.051056,33.09193,103.948402,36.851349,104.374363,38.767239,88.014542,0.0,-62.635733,-23.094666,-56.065894,-9.191857,-35.648207,6.616878,-15.671958,22.478089,8.756641,186.407107,-47.988228,-223.41699,-80.59126
86,-13.026215,18.732043,9.638552,16.055917,0.0,-35.942184,-40.892132,-94.404991,-44.119755,-103.370224,-43.349201,-100.32431,-39.342636,-89.930248,0.0,-42.342513,-20.207782,-21.76141,-7.112091,-8.436418,7.262047,3.101687,21.50498,17.48822,0.0,16.739559,27.971065,85.938017,31.698818,100.609874,33.679458,99.052454,34.054784,81.678566,0.0,-60.652073,-20.51161,-47.480957,-6.269613,-28.341973,9.768402,-10.518365,25.65514,13.023328,174.271528,-29.569979,-212.887802,-64.849137
87,-15.066433,23.160308,10.891651,19.531914,0.0,-43.080071,-43.05518,-96.407089,-44.789017,-103.425796,-42.216556,-99.740707,-36.337394,-87.845089,0.0,-36.076539,-16.351272,-11.532081,-2.351478,3.17875,12.549548,14.973771,26.826598,27.770207,0.0,22.024669,28.835403,86.178778,30.750858,97.659473,31.235653,95.008123,30.501211,77.892208,0.0,-58.572547,-18.491494,-37.522199,-3.308426,-20.460869,13.63572,-4.402245,30.357392,17.126316,160.310583,-6.798312,-200.890663,-45.705864
88,-16.320442,26.600515,11.11647,20.98418,0.0,-50.248673,-45.988278,-96.73185,-46.278191,-101.534088,-42.019215,-97.636574,-34.133697,-85.539677,0.0,-28.91819,-11.293635,-1.289633,3.838273,14.259609,19.235383,26.575852,33.635761,38.716869,0.0,27.780075,30.210079,88.62818,29.263996,97.029431,26.825089,91.581465,23.410704,71.818051,0.0,-55.913047,-15.016503,-27.226331,1.063613,-10.315969,18.241077,4.784857,34.739985,25.163731,145.026438,19.472415,-188.737896,-25.051472
89,-12.140534,26.552924,11.55225,24.378574,0.0,-56.685104,-46.566078,-100.581482,-45.763584,-104.122902,-40.440078,-99.384819,-31.843299,-85.791137,0.0,-21.316353,-6.904067,9.357537,9.157706,25.501645,25.363346,38.571259,40.273026,50.558656,0.0,33.477173,33.468635,89.882504,31.149347,95.682982,27.037045,88.588898,21.743362,68.060566,0.0,-52.976617,-12.020588,-17.052663,5.007446,-0.262985,22.7454,14.658613,39.527547,32.757618,133.599512,45.645019,-176.472038,-1.053218
90,-8.999382,27.404703,11.798138,28.573972,0.0,-62.891578,-45.345268,-105.909073,-42.922863,-107.894806,-36.267105,-101.541137,-26.714286,-84.171409,0.0,-15.58011,-2.972609,20.499436,13.323995,37.820111,29.535556,50.515511,44.136119,61.654069,0.0,39.840786,36.756214,90.5625,34.396951,94.56875,30.340919,88.273258,25.12912,70.249798,0.0,-51.402488,-10.313183,-8.367826,8.131097,6.961523,27.228474,21.807754,45.492131,37.546591,124.93975,72.80041,-164.33428,27.271442
91,-14.584465,31.703168,11.698293,26.213056,0.0,-65.198135,-45.109039,-101.920646,-42.077533,-103.008316,-34.876693,-95.677482,-24.531189,-78.498756,0.0,-8.448062,0.868013,27.25422,18.040089,44.796086,34.293659,57.971898,48.384338,68.541846,0.0,46.377755,37.603569,93.384837,33.479994,96.79782,27.988038,90.121313,21.578883,70.885598,0.0,-46.860739,-6.551533,1.398335,11.819375,16.005296,30.632953,31.070078,48.737022,45.334078,110.657844,104.197738,-152.333428,53.178658
92,-10.372478,27.975018,11.194954,25.246471,0.0,-67.80114,-43.695076,-101.194164,-39.728348,-102.578968,-31.974289,-94.141594,-21.369003,-75.308441,0.0,-2.450868,5.128371,35.419739,22.683087,53.672877,38.780938,66.396636,52.339216,75.780735,0.0,51.705345,38.658039,94.590849,32.448103,96.736388,24.68311,86.607428,16.006331,62.616635,0.0,-41.79045,-2.384035,11.493811,14.599613,26.951761,31.410897,39.764338,47.018156,50.995639,100.439209,131.848464,-140.984631,78.100837
93,-7.236374,24.541713,11.371228,26.523895,0.0,-69.61338,-41.883591,-102.276512,-37.044617,-104.587177,-29.026886,-94.98222,-18.917702,-74.534729,0.0,3.494857,8.859449,44.189311,26.638362,62.816002,42.801322,74.514864,56.023419,83.55836,0.0,55.890598,38.503463,93.165956,32.107298,94.297605,23.897209,82.330301,14.444303,56.808803,0.0,-35.535991,-0.358529,20.090339,14.37402,33.412145,29.024522,43.469295,42.237254,49.694503,93.381884,156.025069,-129.434354,104.259624
94,-9.179672,23.640058,11.536869,25.656994,0.0,-69.833267,-40.52742,-99.992684,-34.568253,-103.257557,-25.935471,-92.746136,-15.513497,-70.78347,0.0,8.909436,13.789003,51.437192,31.443112,69.768234,46.869971,80.78305,58.9207,88.622462,0.0,60.425159,37.32574,93.506767,30.303886,93.932888,21.529003,80.74712,11.660099,56.523124,0.0,-27.774601,3.815336,29.785817,18.912688,42.639252,33.248676,51.034264,45.541602,55.626901,84.324189,179.287588,-117.775508,129.539079
95,-10.181008,20.991571,10.843105,22.664791,0.0,-67.691116,-38.683891,-96.236663,-32.740814,-101.042873,-24.272918,-90.317104,-14.064491,-67.883125,0.0,15.204594,20.029882,56.414176,37.284961,72.599638,51.92481,84.933641,62.778655,92.845536,0.0,63.739437,34.360004,94.409122,25.097683,94.203094,14.727035,79.370991,3.688534,52.865662,0.0,-20.18411,9.193185,39.0642,23.165346,52.765258,35.79375,60.155843,46.085394,62.886014,74.223564,199.845597,-106.85202,151.770308
96,-5.909591,21.169449,10.998527,22.955543,0.0,-67.476815,-36.329361,-98.020604,-30.186791,-103.829316,-22.149308,-93.00689,-12.97506,-68.047394,0.0,23.219118,22.833611,54.678582,35.56352,62.181912,45.90433,72.457711,52.678276,82.055726,0.0,64.55729,35.618969,91.473038,26.71661,88.421483,16.307785,73.252499,4.967263,49.642148,0.0,-12.450569,15.263244,48.867732,29.80764,64.168829,42.021958,70.456899,51.152596,70.79849,68.38805,220.495574,-95.779416,174.206379
97,-7.093003,14.13052,8.938763,20.089385,0.0,-66.894939,-34.65747,-98.042255,-28.782623,-104.209533,-21.367927,-94.168876,-12.895019,-68.373401,0.0,25.74429,26.596236,46.504334,38.517227,52.959883,47.591499,67.101233,52.695035,82.356351,0.0,66.806946,35.5975,91.915421,26.849716,88.131947,16.587296,73.707722,5.406006,52.176224,0.0,-4.521057,21.274116,56.844934,37.009245,71.348982,49.550654,78.384219,58.374381,78.116642,61.307453,234.075996,-86.828247,193.745666
98,-6.596374,11.449564,6.67083,17.791738,0.0,-67.246411,-32.574989,-98.244621,-27.130325,-103.746403,-20.557755,-94.412739,-12.972542,-69.15239,0.0,22.927557,32.434169,41.460659,42.739658,45.769603,49.536477,61.915508,52.045544,79.710309,0.0,69.273262,36.464115,93.86887,27.91365,90.796223,18.3269,77.799259,8.283657,58.389873,0.0,0.892874,26.606437,63.755559,44.621552,79.765996,58.546183,88.02725,68.325658,89.441545,54.687876,245.007456,-80.18062,211.0193
99,-5.748116,8.46976,5.154396,13.901525,0.0,-67.750065,-31.911483,-93.999653,-26.560547,-96.915172,-20.200676,-88.505459,-12.76815,-65.292663,0.0,17.90678,35.600298,41.494882,44.177171,42.919476,48.892248,56.99794,49.116229,74.672686,0.0,70.715446,36.517719,94.871464,27.389477,91.788128,17.723167,78.655941,7.884636,57.429096,0.0,5.793658,29.938143,67.699508,47.396195,84.546021,60.372834,92.5354,69.050533,92.617343,48.908809,253.021115,-75.057175,224.464724
100,-3.589233,9.2368,4.305004,11.854276,0.0,-67.10503,-33.360901,-81.058079,-28.437676,-79.878307,-22.508835,-72.717442,-15.837708,-55.728287,0.0,15.071732,32.201333,39.145278,38.598021,39.790471,41.535612,49.603155,40.797213,64.312029,0.0,72.316795,36.656593,95.778969,27.807873,93.043282,18.411564,79.459854,8.945927,58.220478,0.0,9.365685,32.056306,70.062906,50.133714,86.905554,63.089778,94.204304,71.301039,93.834728,45.282366,261.847117,-70.789381,235.908202
101,-2.238648,2.635544,2.436619,9.214359,0.0,-65.539455,-34.664062,-65.142448,-30.069969,-60.461402,-24.389076,-54.975151,-17.892562,-48.631233,0.0,7.188638,31.094346,43.157783,38.901636,50.319744,43.215804,59.243506,44.270958,69.751524,0.0,73.97002,34.951847,97.757778,25.685966,97.011097,16.190357,82.034008,6.908878,57.765335,0.0,9.972124,31.23242,68.925934,49.040312,85.216483,61.679115,91.903842,69.526543,91.578084,43.063602,264.177667,-68.332878,244.817567
102,-0.988037,5.920902,3.267837,8.091231,0.0,-64.097362,-35.718132,-50.231311,-30.890052,-41.868496,-24.947136,-36.662498,-18.373054,-37.169437,0.0,2.009432,28.003651,51.895849,34.133577,58.221314,37.298879,60.957623,37.914469,63.23299,0.0,73.892521,34.132142,97.064152,24.962208,97.239659,15.720509,82.050534,6.793076,58.091114,0.0,10.19356,30.401049,67.725851,47.89215,85.135811,60.413108,91.921774,68.477761,92.167133,42.086923,269.906627,-65.053683,252.716856
103,-0.54087,4.662576,3.456665,5.836328,0.0,-61.743668,-36.805413,-35.050587,-31.452439,-23.971665,-24.64444,-19.194695,-17.250115,-24.162644,0.0,1.336711,22.992148,56.146833,28.195719,62.917532,31.159838,62.145627,32.239087,58.68422,0.0,73.657917,33.4044,95.837025,23.978943,95.758107,14.358227,80.013348,4.981076,56.157544,0.0,11.125744,30.657301,67.161872,47.775935,84.856131,59.882511,91.489731,67.684787,91.166863,41.547587,274.435701,-61.595484,258.419682
104,-4.158394,6.706094,2.898388,4.816989,0.0,-55.061279,-37.291146,-17.05085,-34.825596,-13.070458,-30.223297,-19.809929,-24.294525,-31.588692,0.0,-1.402253,20.588588,53.042888,27.58097,61.558196,31.737304,63.229792,34.57949,59.856342,0.0,72.733544,32.722332,94.015641,23.332947,94.34372,13.521241,78.299538,3.850914,54.284798,0.0,10.333906,31.027383,66.958491,47.860002,84.118424,59.63236,91.118377,67.124402,90.457264,37.387997,281.044168,-58.698292,263.139044
105,-9.327851,2.860452,2.093251,4.022953,0.0,-39.996757,-31.683357,-1.688964,-32.014034,-6.293312,-29.589798,-23.583274,-24.594898,-38.354599,0.0,-4.070068,21.473928,53.671063,31.86803,63.9664,38.458021,68.418012,43.280901,67.194094,0.0,71.613132,32.158584,92.518787,22.792225,93.204883,12.842514,77.125866,2.972202,53.31229,0.0,10.66127,31.037362,66.765879,47.661734,83.484519,59.240949,90.841772,66.544578,90.071435,28.062366,283.835617,-56.602821,267.092994
106,-10.719429,2.00348,1.775207,3.268906,0.0,-23.196121,-25.017414,13.300759,-27.980667,4.654129,-27.789733,-18.745971,-24.177864,-39.320972,0.0,-4.888595,21.741184,54.748224,34.911534,65.605688,43.626382,71.878455,50.255845,73.318623,0.0,71.187641,31.572819,91.115742,22.100899,91.796024,11.990559,75.522869,1.979416,52.172688,0.0,11.156015,31.621324,66.787319,47.952653,83.317744,59.174086,90.844748,66.10426,89.786865,17.340448,285.761748,-54.830103,270.284551
107,-5.228073,2.312899,1.364674,2.320284,0.0,-16.887531,-25.336841,21.123963,-31.311355,7.922333,-33.524242,-23.421226,-31.80067,-53.569999,0.0,-3.357259,23.211782,55.344301,38.211007,65.38635,48.064755,73.101644,56.157652,78.147357,0.0,70.374069,31.177356,90.235519,21.687618,90.948417,11.46817,74.444847,1.307441,51.169555,0.0,11.911691,32.339654,66.704302,48.540183,82.94303,59.48532,90.905437,66.080487,89.645728,12.114006,287.985329,-53.463798,272.515517
108,-7.874519,3.170785,1.251468,2.057079,0.0,-5.865074,-22.842648,33.606308,-32.416718,13.572647,-37.471481,-26.29137,-37.646976,-64.025963,0.0,-1.830418,23.600464,55.915393,40.742563,66.787603,51.984819,75.694569,61.661812,82.098543,0.0,69.337841,30.728348,88.894833,21.251805,89.553235,11.00092,73.050671,0.820382,50.245594,0.0,12.761698,32.596696,66.345865,48.613679,82.490165,59.306602,90.503232,65.690187,89.368383,4.248327,291.068823,-52.20349,274.485305
109,-7.06604,1.349444,0.822876,1.100232,0.0,8.278038,-16.032108,41.465446,-25.638279,25.33017,-31.12056,-10.96748,-31.918476,-53.833523,0.0,4.167918,21.673629,57.11755,38.415746,68.419518,50.028059,75.148893,60.308305,82.072534,0.0,68.540738,30.600953,88.298481,21.190968,88.925778,10.895325,72.495312,0.602864,50.232937,0.0,13.859596,32.573107,66.278915,48.475469,82.358945,59.044385,90.282153,65.421264,89.223257,-2.807642,292.331289,-51.370543,275.498559
110,-1.72229,1.867221,0.926972,0.431734,0.0,11.727425,-13.481529,42.963707,-23.903092,31.853645,-30.5182,-1.202763,-32.943524,-50.766552,0.0,9.818192,20.34418,56.033818,35.522456,66.34941,46.131806,72.323058,55.463257,79.610089,0.0,67.642559,30.356781,87.808216,20.909626,88.179645,10.525028,71.774975,0.14788,50.01543,0.0,14.764005,32.468935,66.406072,48.438394,82.338604,59.009867,90.112722,65.395032,88.863437,-4.52191,294.107767,-50.435549,275.83955
111,4.054916,-0.853539,0.783233,-0.237381,0.0,4.261963,-18.447361,36.846611,-28.649334,24.516678,-35.252964,-11.073074,-37.929977,-58.385765,0.0,15.021455,22.489735,55.399926,36.950385,66.057479,46.818236,72.058853,55.75877,79.298496,0.0,66.861752,29.990124,87.376042,20.434353,87.568486,9.96555,71.211766,-0.470638,49.414708,0.0,15.826915,32.511345,66.549271,48.663474,82.2957,59.293067,90.067632,65.609084,88.492231,-0.458674,293.18592,-49.643996,275.533861
112,-3.931068,1.181829,0.657223,-0.378283,0.0,8.808357,-14.818726,40.014313,-24.770291,28.944168,-31.106781,-3.526543,-33.451904,-50.379181,0.0,23.369962,20.784151,54.061325,34.95592,65.737117,45.217542,71.640321,54.610792,78.179714,0.0,66.433457,29.903,86.792061,20.346943,87.115883,9.791485,70.949707,-0.769066,49.302338,0.0,16.464883,32.095604,66.344112,48.312152,82.185254,59.048745,89.663685,65.516866,88.370595,-4.372358,294.30611,-48.969389,275.093939
113,0.942123,-1.589307,0.48515,-0.675389,0.0,6.358635,-16.299156,36.209244,-26.280945,29.769013,-33.070003,-0.351436,-36.161911,-54.044208,0.0,32.087119,20.967377,53.298991,34.358806,63.869723,44.342588,69.163104,53.811593,78.302424,0.0,66.209873,29.576477,86.401645,19.977893,86.582393,9.329475,70.438007,-1.329735,48.627834,0.0,17.091316,31.907488,66.572526,48.19138,82.242262,59.045522,89.725856,65.54768,88.425775,-3.399708,292.655624,-48.453712,274.357371
114,1.200783,-1.33166,0.471668,-0.399933,0.0,0.400978,-19.054378,33.71212,-28.951858,29.082115,-35.356613,2.154224,-38.074173,-55.46434,0.0,38.035586,21.471334,53.69796,34.558346,64.46018,44.409426,69.394903,53.987014,78.402003,0.0,65.821815,28.830814,86.006927,19.19664,86.141098,8.545212,70.043907,-2.057682,47.890983,0.0,17.47491,31.335988,66.267356,47.727511,82.056615,58.769757,89.673516,65.421598,88.345883,-2.148336,291.267953,-47.931455,273.901427
115,6.236549,-2.320877,0.282966,-0.439885,0.0,-10.872551,-26.519062,25.190026,-35.744476,19.872071,-41.223358,-7.794056,-43.169082,-66.13726,0.0,39.669551,23.598278,54.10087,37.193965,64.790212,47.306682,69.37555,57.44868,79.713471,0.0,65.633538,28.404225,85.640831,18.789826,85.851883,8.111458,69.821503,-2.47879,47.46341,0.0,17.729235,31.049108,66.232455,47.396739,81.922716,58.455324,89.652583,65.132173,88.381846,4.157981,288.897274,-47.578721,273.41174
116,-2.626968,1.640214,0.20747,-0.240962,0.0,-7.068443,-24.327393,29.371468,-33.436008,24.979271,-38.639053,0.91983,-40.103416,-61.397381,0.0,39.960767,20.963314,53.518984,34.914733,64.330011,45.504435,68.188461,56.088221,77.782684,0.0,65.398716,28.30473,85.50681,18.781884,85.674946,8.145768,69.752301,-2.367462,47.621212,0.0,17.703373,30.627055,66.198936,46.926645,81.59487,58.077831,89.354427,64.920517,88.607358,1.614126,290.479755,-47.288138,273.113045
117,4.808075,-1.124475,0.047367,-0.121229,0.0,-11.286301,-28.16518,25.408585,-38.216824,20.566406,-43.992096,-5.577095,-46.030975,-70.936752,0.0,36.823364,20.569137,53.568557,34.942644,63.227951,45.631999,67.00058,56.201557,77.529532,0.0,65.254487,28.238022,85.704026,18.679162,85.450058,7.995358,69.467034,-2.52975,47.256341,0.0,17.764396,30.345585,66.46639,46.638123,81.600156,57.838178,89.504098,64.73439,88.765563,6.533512,289.273371,-47.12946,272.909907
118,-2.695404,0.615924,0.082364,0.113967,0.0,-4.497688,-26.019619,30.614479,-36.087341,24.628006,-41.516693,-1.455528,-42.995991,-66.364357,0.0,32.470564,19.454479,53.927462,34.694987,63.919111,45.908998,67.754515,56.575295,77.273094,0.0,64.858806,28.065914,85.822528,18.532138,85.481403,7.884372,69.524952,-2.565697,47.375873,0.0,17.786107,30.192802,66.489694,46.449537,81.429292,57.660077,89.336112,64.603553,88.6204,3.973801,289.798126,-46.911403,272.932705
119,-1.449898,0.506439,-0.171158,0.22918,0.0,0.608505,-23.6189,34.016419,-33.776916,27.34877,-39.474632,0.249893,-41.314213,-64.711487,0.0,27.86995,19.009939,53.448218,34.46871,63.258049,45.854189,67.34989,56.374076,77.381381,0.0,64.757206,28.266964,86.162166,18.783966,85.587055,8.131279,69.569309,-2.320324,47.533458,0.0,17.649219,30.087642,66.425091,46.222864,81.150848,57.35981,88.971439,64.255058,88.421107,2.66292,290.200414,-46.943544,273.057734
120,0.832237,0.104507,-0.031609,0.282681,0.0,-0.466896,-23.894439,33.569825,-34.625358,27.343049,-40.597961,0.769753,-42.590686,-66.10889,0.0,25.676019,17.992748,53.816645,33.646787,63.180403,45.283503,67.312148,56.089949,77.275614,0.0,64.552517,28.133595,86.291073,18.620659,85.569981,7.982037,69.410992,-2.429065,47.307232,0.0,17.498029,30.111539,66.179164,46.238449,80.786632,57.360205,88.613249,64.194605,88.125458,3.629671,290.197571,-46.840639,273.233065
121,-0.791748,-0.704585,-0.16523,0.440034,0.0,2.115097,-23.147071,35.031578,-34.557609,28.365578,-40.82119,-1.706794,-42.968982,-66.778083,0.0,21.322627,18.014843,54.89009,34.197946,64.024408,46.034945,68.278987,56.634934,77.404809,0.0,64.31535,28.079075,86.506771,18.621918,85.882702,8.007306,69.77837,-2.372245,47.694981,0.0,17.373034,29.808344,65.441444,45.927918,80.181107,57.062148,88.017617,63.964152,87.729341,2.994918,289.387748,-46.848874,273.567861
122,-6.293861,0.000976,-0.070381,0.291227,0.0,12.107414,-17.420998,43.344315,-28.19585,36.477287,-34.408436,5.342239,-36.468178,-57.606205,0.0,20.47078,18.934578,56.391316,34.97568,66.48452,46.825387,70.867626,57.441443,78.618266,0.0,63.995053,27.877545,86.514736,18.404961,85.944935,7.78505,69.844654,-2.568226,47.71423,0.0,17.373059,29.796031,64.904611,45.95662,79.690278,57.141448,87.615721,64.045033,87.328828,-3.149134,289.306043,-46.769446,273.776407
123,-1.91367,2.01767,-0.114349,0.271307,0.0,14.471341,-13.669029,46.584195,-24.787685,39.380436,-31.506683,8.536641,-34.242862,-51.73035,0.0,21.369644,17.055797,54.513511,32.323327,64.517226,43.876496,69.453862,54.180157,77.091832,0.0,63.9864,28.003979,86.838879,18.557304,86.327419,7.924656,70.348835,-2.46571,48.297077,0.0,17.25036,29.306782,64.12159,45.557441,79.274018,56.86872,87.250405,63.968622,87.201264,-4.918139,291.25668,-46.73913,273.980681
124,3.930634,-2.41412,0.20565,0.123278,0.0,5.518673,-17.774311,40.092075,-29.353912,33.779468,-36.490608,2.621166,-39.524311,-59.194691,0.0,22.924704,18.772446,54.844468,34.384272,64.825051,45.735282,70.220765,55.867574,78.400904,0.0,63.630421,27.943909,86.657536,18.430058,86.161022,7.714462,70.274723,-2.778797,48.119236,0.0,17.309246,29.195496,63.886989,45.536767,79.11012,56.952455,87.264855,64.164779,87.370325,-0.84458,288.788374,-46.390555,274.049773
125,-6.261704,0.14604,0.011799,0.410752,0.0,14.70377,-12.430904,48.068104,-23.222007,41.618191,-30.117462,10.899571,-32.88557,-50.072536,0.0,25.22676,19.621057,56.334147,35.086645,66.828679,46.497603,72.011848,56.684655,79.219159,0.0,63.435814,28.097443,86.857796,18.583077,86.318939,7.774509,70.433327,-2.841053,48.213753,0.0,17.038062,28.692798,63.126161,45.127571,78.704061,56.6984,86.799145,64.134632,87.275303,-6.969498,288.880231,-46.24197,274.406342
126,-1.432365,1.978557,0.220551,-0.041064,0.0,16.327984,-9.749233,49.882542,-20.627289,45.337635,-27.611618,17.990788,-30.641075,-44.892071,0.0,28.939442,18.228524,53.947976,32.688606,64.06662,43.799814,69.65838,53.888745,78.41318,0.0,63.171226,28.125606,86.748413,18.537288,86.10086,7.602504,70.118202,-3.18425,47.666496,0.0,17.117535,28.674952,63.155493,45.194052,78.840554,56.84628,87.006058,64.331035,87.532987,-8.295576,290.805705,-45.915132,274.312195
127,1.561134,-1.587541,0.081802,0.130849,0.0,8.986782,-12.088726,45.632275,-22.988605,43.657437,-30.171386,19.373761,-33.585193,-47.778259,0.0,33.526225,19.005245,53.3178,33.418149,63.734193,44.199154,68.912138,53.922756,79.377326,0.0,63.079742,28.313187,86.885651,18.758148,86.191017,7.767597,70.190689,-3.132603,47.732506,0.0,16.988711,28.420627,62.824659,44.969811,78.711508,56.654792,86.758909,64.22711,87.628885,-6.644394,289.163385,-45.743282,274.388265
128,0.06934,-1.428534,0.126183,0.029504,0.0,8.543541,-13.22953,44.052681,-23.451359,43.433029,-29.976539,19.141068,-32.792679,-49.144832,0.0,32.912278,20.300744,54.470248,35.248407,65.340333,46.465641,70.116209,56.789853,81.104658,0.0,62.970817,28.219242,86.605453,18.63858,85.884384,7.603958,69.75151,-3.359425,47.13755,0.0,17.084264,28.694132,63.1786,45.225891,78.703284,56.863435,86.819264,64.299963,87.71872,-6.504461,287.673554,-45.546506,274.356472
129,-0.053696,-0.350792,-0.062737,0.185474,0.0,8.415482,-13.710296,44.480004,-24.122737,44.231507,-30.640766,19.89988,-33.29084,-49.112869,0.0,31.510605,20.221061,55.148132,35.042161,66.033186,46.230693,70.871787,56.532317,82.107065,0.0,63.123596,28.343925,86.802315,18.857048,86.086418,7.836765,69.993187,-3.171776,47.466339,0.0,16.969976,28.49574,62.746075,44.98142,78.352319,56.610246,86.405079,64.116996,87.529825,-6.503643,287.263482,-45.554729,274.482666
130,-0.486579,-0.803151,0.161327,-0.090761,0.0,8.540794,-13.640603,44.684646,-24.109772,44.210952,-30.749714,21.341331,-33.577034,-47.98034,0.0,32.534773,21.084061,55.878825,35.878249,67.146929,46.916481,71.545188,57.04077,83.44474,0.0,63.022534,28.175904,86.487843,18.693295,85.791378,7.696026,69.798603,-3.308326,47.292103,0.0,17.253744,28.755067,63.23341,45.156928,78.532173,56.719322,86.708545,64.146599,87.76029,-6.933477,286.40905,-45.336657,274.340624
131,3.355499,-3.760896,-0.037468,0.264514,0.0,1.305771,-18.377117,38.762695,-28.789032,38.492431,-35.621762,14.693367,-38.568329,-56.01519,0.0,32.061332,23.903942,58.008077,39.374335,70.198239,50.548158,74.271567,60.890327,86.661676,0.0,63.174855,28.305989,86.558476,18.914303,85.890255,7.963326,69.988896,-3.026458,47.692097,0.0,17.042187,28.466149,62.921817,44.829947,78.300449,56.385141,86.414181,63.88421,87.526997,-3.522371,282.594876,-45.318518,274.55186
132,-1.553009,1.339453,0.096142,0.10321,0.0,5.726372,-16.912811,42.079262,-27.17577,39.346298,-33.644818,15.584198,-36.039391,-52.580384,0.0,30.980515,23.905486,58.836014,39.213327,70.810444,50.523977,74.664732,61.11127,86.296349,0.0,63.121903,28.269699,86.42141,18.918949,85.72387,8.014744,69.892479,-2.91156,47.806618,0.0,17.054883,28.65965,63.341324,44.92398,78.43173,56.424352,86.523565,63.895399,87.59575,-5.017679,283.872316,-45.164675,274.593057
133,-1.425282,1.004061,0.075279,0.260833,0.0,5.75346,-15.392498,44.535427,-25.638244,40.718891,-32.150001,17.444699,-34.605034,-49.23658,0.0,31.005438,23.484497,57.922764,38.573037,69.748326,49.662164,74.089886,59.884994,86.15357,0.0,63.2062,28.052742,86.407769,18.766972,85.819222,7.984543,70.169701,-2.740116,48.377518,0.0,16.852997,28.270685,63.279884,44.589182,78.514945,56.172559,86.324396,63.775826,87.402558,-6.391262,284.816745,-45.037697,274.794258
134,1.480591,1.081991,0.158226,0.192069,0.0,6.741863,-16.180263,43.298344,-26.766014,39.139401,-33.315342,14.006825,-35.810829,-51.059761,0.0,28.564098,22.909687,57.893802,37.931179,69.101243,48.978426,73.506011,59.103567,84.630409,0.0,63.254723,27.637837,86.087266,18.360009,85.722588,7.721936,70.251252,-2.742771,48.738808,0.0,16.724741,28.209045,63.556488,44.657342,78.617105,56.332492,86.319011,63.948405,87.347304,-4.860643,285.843234,-44.829443,274.930825
135,1.924484,0.843103,-0.015415,0.171641,0.0,4.692501,-17.667205,41.419545,-28.23619,36.724011,-34.646267,11.060315,-36.855926,-53.288086,0.0,26.076816,22.164051,56.685779,37.494183,67.771658,48.739131,72.88185,59.058959,83.270863,0.0,63.499295,27.381375,86.164067,18.146519,85.891445,7.657025,70.618618,-2.579681,49.231373,0.0,16.453175,27.995179,63.367495,44.595172,78.577165,56.356958,86.132007,63.993755,87.016001,-2.896849,286.632544,-44.805548,275.048673
136,-3.532219,3.072491,0.090512,-0.043719,0.0,12.403347,-13.562885,47.240445,-23.426307,42.363087,-29.196155,19.445584,-31.067813,-45.474804,0.0,24.65889,20.844469,56.262517,35.73211,66.62862,46.985752,71.446597,57.2823,81.384499,0.0,63.642265,26.996624,86.058929,17.709846,85.780082,7.283798,70.688781,-2.809719,49.271461,0.0,16.495758,28.141243,63.822645,44.846224,78.837233,56.676949,86.313762,64.269557,87.037959,-6.392573,289.661584,-44.678541,274.961503
137,3.547944,-0.631213,0.011158,0.086068,0.0,8.134517,-16.761773,42.588054,-27.408795,39.188152,-33.627766,15.053432,-35.801148,-52.274872,0.0,23.365232,20.439016,55.246673,35.432016,65.27699,46.611323,70.442276,56.739131,81.220984,0.0,63.837009,26.759708,86.075512,17.471603,85.851688,7.076065,70.91843,-2.977753,49.509807,0.0,16.422028,27.943407,63.791201,44.748115,78.827797,56.654027,86.265165,64.268865,86.86507,-2.818691,289.003599,-44.641445,275.020799
138,3.04755,-1.257967,-0.002335,-0.066716,0.0,3.751991,-20.571877,38.357254,-31.112183,34.926933,-37.338513,11.652145,-39.507878,-58.522454,0.0,25.211816,22.417277,57.742291,37.223247,67.087488,48.271063,71.657302,58.610008,81.960223,0.0,63.883152,26.830444,86.099522,17.521648,85.788906,7.069325,70.877644,-3.09153,49.39484,0.0,16.457486,28.169587,63.891769,44.959722,78.891166,56.829152,86.431645,64.375287,86.942617,0.25811,287.720722,-44.614529,274.929173
139,-6.123505,2.626801,-0.0699,-0.126329,0.0,13.529343,-14.0629,46.24173,-24.092537,42.161156,-30.14542,20.972054,-32.209225,-47.725525,0.0,27.914582,20.345118,56.670724,34.961379,65.774081,46.367482,70.573508,57.091121,80.575284,0.0,64.089969,27.080841,86.313549,17.773784,85.839923,7.251251,70.962741,-3.06094,49.328121,0.0,16.540799,28.3261,63.994225,45.042023,79.107478,56.827904,86.686612,64.301285,87.022077,-5.831675,290.322378,-44.650709,274.777699
140,3.507958,0.384705,-0.051144,-0.070889,0.0,7.050178,-17.479866,41.305503,-28.051735,38.90522,-34.225434,17.158424,-36.440278,-53.829953,0.0,31.258812,19.596938,55.653238,33.597967,64.022469,44.611783,68.595013,54.946331,79.36279,0.0,64.287964,27.36232,86.396484,18.1142,85.986969,7.569671,71.131988,-2.827503,49.665298,0.0,16.621297,28.522491,64.14208,45.146455,79.093077,56.855247,86.702321,64.314598,87.174897,-2.277013,290.676844,-44.655149,274.676571
141,3.421165,-0.620864,-0.010952,0.044794,0.0,2.786064,-21.0779,37.281097,-32.093307,34.456078,-38.467999,12.10817,-40.693428,-59.626648,0.0,31.595784,19.539584,55.579916,33.893282,63.828487,45.065081,68.867221,55.652695,79.447821,0.0,64.335308,27.458851,86.400982,18.269245,86.049877,7.729534,71.160862,-2.709194,49.793209,0.0,16.637475,28.65329,64.084639,45.195954,78.949532,56.825767,86.614326,64.257614,87.16167,1.190466,290.026787,-44.619787,274.692172
142,-3.909874,2.909173,0.170174,-0.054563,0.0,10.977837,-16.418014,43.828217,-26.742794,38.840378,-32.88129,17.902542,-34.968704,-52.425293,0.0,27.440204,17.850143,55.042527,32.224404,62.749942,43.764975,67.861678,54.600221,77.181322,0.0,64.303333,27.442611,86.332019,18.209415,85.880527,7.646507,71.000347,-2.808392,49.555652,0.0,16.770276,28.750646,64.051949,45.225458,78.981642,56.789754,86.670001,64.169398,87.152951,-2.664797,292.895233,-44.395002,274.596882
143,-1.244499,3.407166,0.080348,-0.034271,0.0,15.323662,-13.879006,45.807838,-24.836609,40.81311,-31.217194,18.326958,-33.483822,-49.701508,0.0,25.638919,14.795164,51.686787,28.731405,58.806251,39.951516,64.385067,50.130281,73.224948,0.0,64.370362,27.462994,86.350914,18.214234,85.843392,7.616742,70.936707,-2.877456,49.38723,0.0,16.843412,28.768047,64.013824,45.212021,78.977504,56.769636,86.71246,64.173794,87.18033,-3.843555,296.258744,-44.248913,274.518956
144,7.202385,-1.483924,0.181767,0.010831,0.0,2.428665,-21.785374,36.670418,-32.985443,32.502548,-39.170918,9.463623,-41.271939,-61.273052,0.0,29.718732,15.942091,51.581317,29.626637,58.901309,40.44316,63.834698,50.368934,73.485756,0.0,64.114323,27.397247,86.225086,18.112061,85.676754,7.466938,70.695866,-3.072613,49.074085,0.0,16.919279,28.841839,64.019727,45.250245,78.902144,56.81091,86.699678,64.237471,87.181269,3.426058,294.718853,-43.999918,274.47382
145,-3.257332,0.569598,0.048786,0.237109,0.0,9.703079,-18.79184,41.000908,-29.565949,37.16391,-35.524429,16.650879,-37.29356,-56.824665,0.0,22.283056,14.840538,51.44454,29.567196,59.144248,41.105545,64.844651,51.42105,73.771624,0.0,63.900032,27.36145,86.252037,18.080635,85.703453,7.387367,70.708443,-3.258121,48.961991,0.0,16.757938,28.680226,63.657833,45.081185,78.607719,56.690324,86.599062,64.225875,87.113233,0.237196,295.231934,-43.882662,274.654412
146,-2.113747,1.604288,0.044655,0.154635,0.0,12.85801,-16.786583,43.785233,-27.074604,39.450028,-32.892276,20.409348,-34.40847,-53.746261,0.0,17.721714,13.577273,49.818948,28.467792,57.501181,40.168717,63.400309,50.383853,73.186317,0.0,63.673965,27.438,86.352928,18.153385,85.711372,7.411091,70.73838,-3.353748,48.946884,0.0,16.688518,28.561011,63.390577,44.900145,78.361582,56.525376,86.451985,64.151207,87.064673,-1.799612,296.777837,-43.761068,274.750662
147,0.808251,0.944744,-0.126171,0.167443,0.0,11.464874,-17.262795,43.011177,-27.503941,38.625526,-33.085568,19.958702,-34.313999,-54.291825,0.0,14.01496,12.518834,48.140313,27.531891,56.324922,39.398233,62.684301,49.68763,72.540445,0.0,63.555141,27.622719,86.619861,18.362949,85.892933,7.569157,70.848186,-3.316429,48.941471,0.0,16.559855,28.528159,63.186442,44.905702,78.140873,56.595006,86.340871,64.319253,87.090496,-0.915722,297.67403,-43.8116,274.869554
148,4.835586,-4.094064,-0.042183,0.18735,0.0,2.399552,-23.038158,36.130921,-33.081653,33.240761,-38.436722,15.19812,-39.554558,-63.012863,0.0,9.060341,15.344174,50.839126,31.279399,59.381518,43.450442,65.529104,54.198077,77.283913,0.0,63.418545,27.847527,86.811436,18.592564,85.956562,7.716133,70.810787,-3.331284,48.895809,0.0,16.400181,28.506349,62.971737,44.872506,77.898145,56.572801,86.24354,64.33337,87.121434,4.006073,293.521192,-43.767574,274.99813
149,-3.878128,-0.486767,-0.050949,0.277766,0.0,9.54158,-19.152191,41.865029,-29.088032,38.337021,-34.669201,21.97451,-35.847049,-57.067703,0.0,7.411322,15.815294,52.80815,32.218142,61.169687,44.766394,67.880487,55.836551,78.5516,0.0,63.439648,28.025001,86.937893,18.733761,85.919941,7.747078,70.621364,-3.454022,48.648754,0.0,16.130072,28.377316,62.824993,44.75786,77.672842,56.49954,86.132933,64.332333,87.158298,0.21841,292.985015,-43.728058,275.226486
150,-3.310032,0.587481,0.091472,0.053587,0.0,14.051068,-15.289821,45.651066,-25.013008,41.495556,-30.699909,23.77216,-32.343315,-51.603859,0.0,10.886709,16.470144,52.835061,32.304494,61.212715,44.654663,67.41358,55.646125,78.335338,0.0,63.565362,28.238652,86.819321,18.877751,85.524239,7.74186,70.11699,-3.633407,47.966401,0.0,16.089428,28.481785,62.977306,44.840099,77.794948,56.575913,86.240551,64.389242,87.356073,-3.00487,293.529437,-43.549834,275.237014
