takenoko1/special-research/HandMotion_SimilarSearch_自分用/NewProject/handData/test_key/d4_feature_d3/80.csv
frame,vel_0x_L,vel_0y_L,vel_0x_R,vel_0y_R,posFromWrist_0x_L,posFromWrist_1x_L,posFromWrist_2x_L,posFromWrist_3x_L,posFromWrist_4x_L,posFromWrist_5x_L,posFromWrist_6x_L,posFromWrist_7x_L,posFromWrist_8x_L,posFromWrist_9x_L,posFromWrist_0y_L,posFromWrist_1y_L,posFromWrist_2y_L,posFromWrist_3y_L,posFromWrist_4y_L,posFromWrist_5y_L,posFromWrist_6y_L,posFromWrist_7y_L,posFromWrist_8y_L,posFromWrist_9y_L,posFromWrist_0x_R,posFromWrist_1x_R,posFromWrist_2x_R,posFromWrist_3x_R,posFromWrist_4x_R,posFromWrist_5x_R,posFromWrist_6x_R,posFromWrist_7x_R,posFromWrist_8x_R,posFromWrist_9x_R,posFromWrist_0y_R,posFromWrist_1y_R,posFromWrist_2y_R,posFromWrist_3y_R,posFromWrist_4y_R,posFromWrist_5y_R,posFromWrist_6y_R,posFromWrist_7y_R,posFromWrist_8y_R,posFromWrist_9y_R,posFromBody_0x_L,posFromBody_0y_L,posFromBody_0x_R,posFromBody_0y_R
6,2.46888,-0.815414,0.277016,0.05749,0.0,-10.422101,-18.272885,36.859371,-25.433339,40.128353,-28.843895,27.088016,-28.447037,-39.38181,0.0,30.77911,15.350078,39.421809,25.439329,41.355906,32.277335,45.476153,37.399742,56.145562,0.0,63.948532,26.244575,85.038917,17.27425,84.625236,7.232288,70.78894,-2.526593,48.475021,0.0,15.497279,26.292115,52.44255,43.782808,67.679835,56.310534,76.107099,64.143228,80.467802,2.756258,298.094692,-35.192156,276.762234
7,3.926181,-0.983857,0.03891,0.076126,0.0,-15.371967,-21.615715,32.667183,-29.135009,36.244149,-32.804466,22.809174,-32.578502,-49.806472,0.0,30.523537,14.680926,38.650892,26.673819,42.294314,36.217666,49.33149,44.324816,65.597512,0.0,63.67163,26.419796,85.192909,17.493713,84.778678,7.419639,70.935585,-2.464039,48.748443,0.0,15.398861,26.237873,52.468695,43.795183,67.75191,56.359527,76.153041,64.240658,80.481473,6.863926,297.405258,-34.971759,277.132783
8,-5.717788,-0.271171,-0.00047,0.077534,0.0,-6.367161,-16.071247,39.786941,-23.152005,42.945007,-27.450783,28.635658,-28.157868,-44.426159,0.0,23.121096,14.638084,37.841085,27.253853,42.712204,37.014543,50.333206,45.128313,65.968113,0.0,63.505017,26.752018,85.233456,17.951226,84.851109,7.854241,70.895932,-2.174011,48.704144,0.0,15.433379,26.37796,52.62438,43.873717,67.782217,56.418177,76.171368,64.332172,80.625364,1.255984,297.327221,-34.862383,277.403451
9,-4.114071,-2.820882,0.093167,0.188882,0.0,-0.641419,-10.632019,43.636493,-17.967694,46.411297,-23.783913,30.045833,-26.453751,-41.720227,0.0,16.533636,15.511172,36.997376,29.272499,45.31943,39.425403,53.183827,47.657449,69.448453,0.0,63.173332,26.784622,85.20536,18.084755,84.842834,7.986385,70.756439,-2.14904,48.402466,0.0,15.289859,26.323954,52.565804,43.726566,67.546985,56.26022,76.029602,64.241362,80.700613,-2.802921,294.635697,-34.71405,277.721691
10,0.733886,-3.836133,0.098453,0.115732,0.0,1.277344,-11.176666,41.844349,-18.876422,45.374371,-25.661499,28.49548,-29.781612,-44.193214,0.0,17.360399,18.536584,39.222898,31.916503,48.612406,41.354448,56.112117,49.122959,74.083574,0.0,62.896992,26.607559,85.144329,17.924893,84.659329,7.863018,70.598362,-2.228061,48.328938,0.0,15.23069,26.326968,52.518405,43.685391,67.328908,56.238793,75.963283,64.272645,80.7687,-2.036591,290.874279,-34.583153,277.912138
11,-1.6054,7.322969,0.139561,0.212138,0.0,-4.728733,-11.553062,44.046238,-18.408176,49.436428,-24.35202,35.226666,-27.963775,-35.78857,0.0,27.266907,16.133814,36.639594,23.180326,41.695743,27.551243,46.22495,31.121923,60.861329,0.0,62.808243,26.391987,84.875542,17.761322,84.431969,7.812206,70.45372,-2.151695,48.553368,0.0,15.10252,26.209308,52.418665,43.597223,67.045053,56.241423,75.808437,64.411867,80.759572,-3.626501,298.243912,-34.428102,278.17094
12,-1.225044,0.628952,0.051819,0.157908,0.0,-3.394455,-10.68243,44.260975,-17.277248,51.026882,-23.410721,36.88258,-27.489326,-31.627144,0.0,26.73678,17.509404,38.313821,21.401742,42.091687,22.463071,43.712401,22.951776,54.803713,0.0,62.701881,26.391781,84.795502,17.76511,84.2089,7.834774,70.346855,-2.101444,48.597359,0.0,14.900819,26.12613,52.438833,43.521666,66.862222,56.220416,75.694322,64.467282,80.816272,-4.856341,298.898089,-34.381079,278.354073
13,4.213738,4.075009,0.327553,0.166022,0.0,-14.997929,-16.729294,39.200557,-22.673745,46.838504,-27.42651,34.516628,-30.177452,-33.34108,0.0,36.952644,17.13653,37.547103,17.606858,38.514547,16.13621,38.253639,14.855247,48.898558,0.0,62.59346,25.969127,84.544418,17.237697,83.729164,7.382217,70.093025,-2.342858,48.746109,0.0,14.968028,25.535376,52.213987,42.958947,66.524201,55.765896,75.488792,64.136016,80.522834,-0.674371,302.985742,-34.085294,278.532739
14,5.273059,2.368264,0.009693,0.17815,0.0,-25.31036,-24.00983,33.119591,-29.101593,41.338143,-32.184459,30.870461,-33.31216,-37.165294,0.0,44.980433,18.05198,37.717621,16.228206,36.799973,13.087876,35.53094,10.702087,46.274054,0.0,62.939632,26.013588,84.749416,17.206375,83.75497,7.401512,70.320842,-2.156147,49.294544,0.0,14.987603,25.15035,51.984547,42.663916,66.182573,55.601627,75.253967,64.09079,80.336199,4.542337,305.353654,-34.131952,278.710537
15,-0.703949,-0.87362,0.079994,0.164232,0.0,-17.82994,-22.432182,35.660477,-27.929122,42.838463,-30.541374,32.530152,-30.572364,-33.776458,0.0,41.000038,16.975447,38.881628,17.865913,38.726968,17.298044,37.918507,16.777945,47.452264,0.0,63.194241,26.220097,84.965435,17.358868,83.815762,7.505733,70.360783,-2.060154,49.371105,0.0,15.095172,24.744674,51.841348,42.27422,65.905683,55.314178,74.98245,63.940069,80.221009,3.761243,304.47631,-34.129103,278.871045
16,-2.100128,-1.658666,0.11895,0.137629,0.0,-7.88174,-18.195556,41.523697,-24.62376,44.785858,-27.723003,31.855912,-27.830612,-31.024933,0.0,38.314217,15.084267,37.955175,20.826636,41.14425,24.639563,43.712808,27.865788,55.286132,0.0,63.337841,26.169926,85.097133,17.251488,83.801021,7.370991,70.309398,-2.182274,49.269298,0.0,15.118909,24.311075,51.609969,41.820812,65.679862,54.926806,74.723457,63.637764,80.072167,1.561317,302.813183,-34.109951,279.004213
17,1.835518,-7.397094,0.095535,0.174185,0.0,-0.61441,-18.62709,41.169205,-26.362575,41.142838,-30.409664,24.662728,-30.828358,-42.082798,0.0,27.997884,17.653084,39.977279,29.930857,47.227777,39.181476,54.101611,46.976379,71.005095,0.0,63.663036,26.108631,85.354969,17.073269,83.841122,7.156357,70.284382,-2.342216,49.371815,0.0,15.227516,24.038954,51.423335,41.519285,65.412397,54.638642,74.489349,63.363741,79.874183,3.279453,295.424104,-34.131798,279.186413
18,1.164437,2.686946,-0.214073,0.147646,0.0,-3.331421,-19.752308,40.227951,-27.421166,40.276863,-30.907803,24.947113,-30.592747,-40.895142,0.0,28.571891,15.289044,37.510954,27.696406,44.147432,37.438237,51.631409,45.643039,67.753268,0.0,63.999493,26.543873,85.725872,17.52634,84.113995,7.545948,70.449589,-2.051857,49.365452,0.0,14.893347,24.31604,51.405316,41.79542,65.351844,54.873528,74.40585,63.544113,79.991261,4.324025,298.134839,-34.465736,279.357848
19,-1.208313,1.754206,-0.096359,0.133393,0.0,3.789722,-16.342358,43.821922,-24.203167,43.074943,-27.739827,27.571243,-27.276101,-37.911198,0.0,20.799761,13.119937,37.276945,26.8576,43.405241,37.810654,50.722245,46.60306,66.018205,0.0,64.036297,26.899349,85.817814,17.865074,84.087352,7.795509,70.283878,-1.901482,49.159321,0.0,14.405408,24.631054,51.44407,42.06995,65.359279,55.045713,74.3523,63.58761,80.00061,2.99445,299.915243,-34.683357,279.517439
20,0.924476,-3.676373,-0.316372,0.004742,0.0,2.28558,-18.848442,42.47525,-26.268894,39.877304,-29.823967,21.583855,-29.599285,-43.791893,0.0,16.653308,16.58805,38.387749,30.600565,45.864427,41.132061,54.137772,49.511468,70.431112,0.0,64.490776,26.659286,86.052475,17.739258,84.70562,7.890495,70.641083,-1.520462,49.504783,0.0,13.519179,24.781379,51.763728,42.244507,65.867349,55.165954,74.571391,63.604135,80.008737,3.789099,296.26893,-35.129556,279.552241
21,2.74633,-5.394738,-0.466416,-1.184113,0.0,-2.587497,-21.998588,35.229126,-29.099247,30.385506,-33.091724,10.372273,-33.377597,-53.860084,0.0,13.872143,21.625402,40.959777,36.331707,49.271987,46.897857,57.468626,55.405137,73.928618,0.0,64.648842,25.883,85.739182,17.209877,84.973984,7.771489,70.765023,-1.13443,48.803238,0.0,13.045589,25.552913,52.137256,42.984313,67.030504,55.731525,75.562386,63.940625,80.511323,6.396085,290.909269,-35.735316,278.403205
22,1.963646,4.951135,0.154724,-3.914371,0.0,-10.62141,-24.963947,12.18861,-29.570411,7.472901,-30.839435,-4.93214,-28.481083,-49.860363,0.0,13.18238,18.107852,37.703295,31.522042,47.046627,41.667252,55.433926,49.925777,68.602263,0.0,63.861512,24.692173,83.708542,16.21835,82.149148,7.02142,66.617112,-1.779121,42.729275,0.0,12.927683,25.187771,52.954313,42.950215,69.327607,56.113068,79.162706,64.498342,84.588024,8.238063,295.902018,-35.70226,274.530448
23,1.505104,-3.428963,2.540143,-1.218398,0.0,-11.698356,-24.572353,-9.870208,-27.216419,-16.158622,-26.835228,-24.63795,-23.151168,-51.204231,0.0,2.53336,20.303165,40.792878,35.685452,53.553144,47.241523,62.884557,56.318241,74.178967,0.0,52.751449,22.669876,69.065769,15.542461,63.044254,7.129703,47.804214,-1.511593,27.082855,0.0,19.239045,21.503322,55.497541,37.07659,71.731267,49.217462,79.418144,56.797461,82.764584,9.626054,292.518516,-33.27923,273.357511
24,3.328881,-3.26919,0.812187,-14.98848,0.0,-26.439858,-27.77084,-36.621128,-27.790261,-42.472996,-24.982258,-45.452236,-19.237873,-53.088478,0.0,5.78421,22.700476,43.350345,38.284218,58.43418,49.930802,69.278812,59.012349,78.185975,0.0,48.962242,19.935974,58.437,12.269943,51.270527,4.233021,36.873516,-3.579197,19.132484,0.0,16.288141,18.796221,49.210571,34.576057,65.641244,47.339842,73.794756,55.675913,78.64414,12.818447,289.376349,-32.603531,258.496054
25,4.722793,0.874707,-3.539074,-22.97035,0.0,-41.846512,-30.094013,-63.549625,-27.389042,-68.035595,-21.771927,-62.675857,-13.58686,-52.924244,0.0,9.176432,22.290799,44.227448,37.717806,60.262375,49.543948,71.466555,58.560138,78.107478,0.0,44.841396,17.861423,47.619724,11.010818,40.176201,4.505115,28.106289,-1.604805,13.999054,0.0,6.93241,15.344335,39.00403,31.53575,55.743283,44.970886,65.402986,54.235671,71.0623,17.248026,290.617737,-36.435819,235.892385
26,3.425743,-0.105803,-8.388977,-30.031794,0.0,-52.591678,-32.335865,-86.864193,-26.764217,-87.549751,-17.952804,-73.46886,-6.971672,-51.053901,0.0,9.127674,22.078514,46.798451,37.783101,63.934017,50.178928,75.536401,59.202429,80.382042,0.0,41.553302,21.242317,37.395538,15.837776,28.832473,10.09592,19.084671,3.955753,8.686088,0.0,-3.852954,9.34159,26.500751,25.730149,43.299809,40.000064,54.300546,50.682416,62.055422,20.07102,291.111913,-45.427545,206.46057
27,0.038842,-5.267187,-6.834412,-33.732095,0.0,-56.849087,-30.004898,-87.610314,-23.562905,-87.546971,-14.465447,-73.582604,-3.83503,-51.463017,0.0,14.951405,25.733113,52.239552,42.625309,69.61939,55.583719,81.313412,64.722348,86.163413,0.0,34.375969,18.980461,24.255032,13.780792,14.476936,8.566509,8.708027,3.589359,4.77095,0.0,-19.76409,0.067141,10.375489,16.103112,27.467244,30.994829,38.263606,43.417548,47.594531,19.504578,286.630194,-52.867241,173.513943
28,0.460075,-3.118631,-11.312382,-41.098209,0.0,-59.669208,-29.880936,-88.71056,-23.218849,-88.194557,-14.054512,-73.965832,-3.390129,-51.828106,0.0,20.541374,27.457519,55.002747,45.070984,72.36458,58.34358,84.553567,67.379716,89.417635,0.0,36.18821,18.884514,24.185131,13.017334,17.661816,7.586232,13.52512,3.218651,9.892331,0.0,-41.220623,-3.718332,-7.050971,14.624004,11.076128,31.306835,24.851688,45.794359,38.4942,19.267193,284.583566,-64.877083,133.487737
29,0.13369,-0.910584,-7.757137,-33.987649,0.0,-59.966,-30.099884,-88.775665,-23.460182,-88.389164,-14.380943,-74.239517,-3.842033,-52.082085,0.0,21.394246,28.104515,55.514325,45.780607,72.947034,59.013881,85.079471,67.850452,90.033867,0.0,28.182118,15.050114,18.275562,9.295979,10.3568,3.676243,6.63184,-1.024303,2.642246,0.0,-55.209975,-12.795488,-18.943711,4.022842,1.734779,20.172773,14.586559,34.985912,25.573149,18.734522,284.747226,-73.300581,100.574332
30,0.222999,-0.651689,-7.082851,-28.361328,0.0,-60.304641,-30.449775,-89.153057,-23.772949,-88.660228,-14.727493,-74.415493,-4.278167,-52.321323,0.0,21.940589,28.406091,56.110562,46.005058,73.555016,59.133467,85.548095,67.834631,90.362663,0.0,22.206665,8.490772,13.658077,2.738994,5.53878,-2.503785,2.249725,-6.27396,-2.072731,0.0,-62.372177,-22.538104,-25.121204,-6.784703,-4.741753,9.352482,7.61322,24.79673,19.027173,18.420312,284.910973,-80.920641,73.02844
31,0.201508,-0.659889,-2.011128,-22.396869,0.0,-60.893635,-30.84082,-89.518501,-24.094505,-89.041225,-15.02195,-74.546242,-4.573059,-52.336109,0.0,22.528637,28.868898,56.512248,46.316699,74.071261,59.246321,86.02272,67.667719,90.623052,0.0,14.878716,-3.82521,8.371834,-10.56641,0.500565,-14.964054,-2.387581,-16.51474,-6.251633,0.0,-68.096236,-30.563872,-29.50749,-16.022194,-10.184816,-0.177785,1.874162,15.564278,12.773153,18.273972,284.81631,-83.279617,51.196797
32,0.474197,-0.43865,-3.871364,-18.191733,0.0,-61.533336,-31.26947,-89.891372,-24.540985,-89.476226,-15.504066,-74.954361,-5.080078,-52.542114,0.0,22.798313,28.975158,56.762905,46.331136,74.364292,59.147162,86.316615,67.411393,90.888652,0.0,11.126129,-11.977421,6.301632,-18.843625,0.394352,-22.028172,-2.644009,-21.989891,-7.851838,0.0,-68.580545,-34.67377,-30.434048,-21.260031,-13.251947,-5.983646,-1.187318,9.365241,8.728711,18.069803,284.801623,-87.829347,33.429027
33,0.617936,-0.492732,-1.733563,-15.729676,0.0,-62.174412,-31.665276,-90.262631,-24.925347,-90.220036,-15.858353,-75.679745,-5.348786,-52.944706,0.0,23.057172,29.121556,56.969757,46.291579,74.534378,58.944708,86.482391,67.065727,91.063543,0.0,6.68985,-22.760696,3.654843,-30.290108,-1.698784,-32.15403,-4.181751,-29.957085,-10.031776,0.0,-70.097512,-39.980848,-30.557222,-27.272261,-14.146624,-11.832799,-1.939074,4.126514,6.769321,17.73864,284.488279,-90.512009,17.878739
34,0.813011,-0.231687,-3.649223,-9.781006,0.0,-62.946419,-32.258835,-91.006462,-25.417626,-91.162136,-16.261254,-76.582798,-5.661301,-53.473446,0.0,22.973672,29.075515,56.943315,46.215465,74.48,58.80546,86.488862,66.82432,91.001557,0.0,3.194572,-29.894772,2.283268,-36.957756,-0.989308,-37.023754,-2.311569,-32.296532,-7.586861,0.0,-70.261799,-39.571943,-25.896919,-25.901019,-12.703461,-9.510768,0.570321,7.366812,11.661349,17.509981,284.402601,-95.202902,8.243742
35,0.695526,-0.231774,-2.038468,-5.229432,0.0,-63.662212,-32.692841,-91.53344,-25.827919,-91.877564,-16.658844,-77.476822,-6.068504,-54.237648,0.0,22.917603,29.055335,56.774032,46.26615,74.347879,58.883735,86.266252,66.927196,90.995147,0.0,-1.692478,-32.519954,1.22762,-40.083297,-3.295887,-40.281887,-4.365829,-35.614448,-9.474758,0.0,-71.161731,-36.616889,-21.792567,-22.558994,-9.499554,-5.935475,3.327204,11.162665,13.930361,17.196516,284.354608,-98.250361,3.198091
36,0.699142,-0.12959,-3.084629,2.207206,0.0,-64.154857,-32.968757,-91.95639,-26.066848,-92.49274,-16.917617,-78.376934,-6.399582,-55.094432,0.0,22.787039,28.860451,56.614952,46.198201,74.160664,58.932358,85.903407,67.121784,90.910142,0.0,-5.894645,-31.924839,-1.558571,-40.153381,-6.289375,-41.372177,-7.547012,-37.933571,-13.23397,0.0,-71.710765,-32.83018,-18.935621,-18.137856,-6.378749,-1.154837,6.438321,16.091028,16.435163,17.047748,284.35177,-102.1829,5.532049
37,0.410294,-0.184559,-3.974533,11.190169,0.0,-64.387928,-33.038452,-92.181496,-26.110245,-92.906113,-16.988503,-79.108738,-6.57859,-55.965843,0.0,22.604664,28.688451,56.151144,46.164484,73.898941,59.041952,85.674757,67.426077,90.783195,0.0,-9.561641,-28.700626,-3.643799,-37.56554,-8.721908,-40.379963,-10.334129,-39.109085,-16.645145,0.0,-73.196474,-29.433877,-15.585125,-14.146815,-2.261565,2.987028,10.564508,20.320338,19.558356,17.262651,284.052389,-106.352824,16.607396
38,0.583443,-0.070569,-5.858482,13.714322,0.0,-64.709851,-33.345589,-92.620285,-26.408913,-93.322678,-17.311066,-79.79369,-6.968331,-56.76067,0.0,22.288318,28.521713,55.780753,46.143169,73.497897,59.163021,85.347233,67.737374,90.686371,0.0,-11.265049,-23.109753,-3.30772,-31.739937,-8.273255,-35.803425,-10.531139,-36.50869,-17.0014,0.0,-69.830163,-22.411824,-8.082493,-6.959487,5.956593,9.662674,18.196327,25.931289,26.96349,18.060385,283.685403,-111.997015,30.025301
39,0.444488,-0.16617,-5.601711,17.33917,0.0,-64.844044,-33.510864,-92.819057,-26.548027,-93.586304,-17.437088,-80.264694,-7.123993,-57.387966,0.0,22.113897,28.454837,55.39627,46.140883,73.197753,59.229772,85.112433,67.932307,90.77066,0.0,-12.5999,-16.470154,-6.558003,-25.585923,-8.000073,-31.119416,-10.503846,-33.666962,-16.006279,0.0,-65.231906,-17.727302,-10.99174,-3.128961,9.212964,12.583233,21.511781,27.249364,29.850205,18.836506,283.149669,-117.267093,46.994907
40,0.309998,0.012585,-3.219063,18.826984,0.0,-64.732762,-33.571381,-92.587109,-26.558487,-93.334271,-17.445191,-80.210861,-7.211769,-57.570671,0.0,21.866858,28.43646,55.0601,46.136141,72.695104,59.248606,84.822626,67.984758,90.777477,0.0,-11.419853,-12.664593,-11.312817,-23.090653,-9.047711,-30.367996,-12.070908,-34.72007,-17.15609,0.0,-54.132146,-17.974353,-22.095007,-5.372329,5.300094,9.217089,19.129704,22.959464,28.136724,19.495463,282.752509,-120.137197,65.412146
41,0.280792,0.101629,-1.714874,13.199595,0.0,-64.568653,-33.60125,-92.090378,-26.553452,-92.548222,-17.445488,-79.947475,-7.288879,-57.497875,0.0,21.724214,28.509683,54.790078,46.173907,72.217983,59.248137,84.655171,67.964306,90.706229,0.0,-13.711361,-12.592633,-11.550465,-22.217858,-8.55494,-28.870755,-12.067589,-32.402024,-15.848099,0.0,-53.453101,-17.084313,-21.998522,-3.228805,6.481639,12.068137,20.871424,26.092662,31.713172,20.121626,282.501386,-121.5067,78.258989
42,0.192467,0.126588,0.4388,5.7398,0.0,-64.306813,-33.648537,-91.545456,-26.464989,-91.458561,-17.283463,-79.253048,-7.160477,-57.052082,0.0,21.749026,28.683857,54.887743,46.289035,71.940625,59.290177,84.440638,67.922958,90.582494,0.0,-16.431965,-17.666381,-11.676921,-26.421398,-7.944156,-31.393295,-11.489318,-32.573719,-14.061721,0.0,-52.073919,-15.443519,-22.220188,-0.434081,6.174442,15.656737,20.954619,30.033678,33.316558,20.424614,282.447515,-120.957379,83.81833
43,0.128723,0.151758,1.90828,3.925492,0.0,-64.133377,-33.532746,-90.901772,-26.272705,-90.256073,-17.048699,-78.635777,-6.951691,-56.563934,0.0,21.873218,28.762576,54.865759,46.259876,71.752978,59.15666,84.40644,67.697507,90.518274,0.0,-18.570591,-24.37246,-13.386841,-32.819916,-8.94183,-36.246083,-12.044003,-35.422486,-13.601738,0.0,-54.508546,-17.153301,-26.394843,-1.414325,1.417765,15.304352,16.684326,30.396085,30.167472,20.71962,282.538455,-118.882816,87.683004
44,-0.225701,0.12313,0.612911,0.853335,0.0,-63.811008,-33.265045,-89.840286,-25.946159,-88.866886,-16.71508,-77.880706,-6.634529,-55.927619,0.0,22.009934,28.714893,54.772443,46.140859,71.663675,59.001568,84.434426,67.555716,90.526647,0.0,-19.039833,-28.312752,-11.110336,-35.780422,-9.355968,-37.946388,-12.776081,-35.64077,-14.793903,0.0,-58.27119,-18.83235,-23.091603,-0.97494,0.086037,17.160187,15.938696,33.858208,30.890527,20.70932,282.618227,-118.054504,88.492981
45,-0.505096,0.043065,1.647343,-2.524857,0.0,-63.549843,-32.902702,-88.956814,-25.483589,-87.686039,-16.203621,-77.212486,-6.07988,-55.359112,0.0,22.290491,28.599691,54.745581,46.000487,71.821163,58.856454,84.65569,67.438971,90.640379,0.0,-23.64758,-34.336006,-9.07005,-40.350952,-9.83218,-40.617245,-12.951851,-36.222565,-14.936978,0.0,-67.411103,-16.682584,-12.09961,4.098042,4.216504,24.000156,19.720371,41.880278,35.322533,20.478664,282.634804,-116.132721,85.941636
46,-0.531784,-0.071026,-0.145626,-1.702712,0.0,-63.441513,-32.702591,-88.561111,-25.197762,-87.19907,-15.831528,-76.94735,-5.622047,-55.149857,0.0,22.506692,28.472733,54.75109,45.900638,71.930215,58.792988,84.753392,67.435106,90.824384,0.0,-23.754147,-35.89404,-8.911927,-42.427266,-9.267083,-42.741074,-12.547406,-38.096833,-14.846489,0.0,-67.320348,-16.238468,-12.433266,4.455824,4.156464,24.335739,19.533261,42.199003,35.115045,20.234127,282.547951,-115.9911,84.223097
47,-0.342316,-0.105593,-0.657864,-1.201644,0.0,-63.675934,-32.661049,-88.439117,-25.155121,-87.280655,-15.745697,-77.027927,-5.457779,-55.157375,0.0,22.80528,28.469348,54.770331,45.933205,72.077736,58.826345,84.895306,67.438255,91.066284,0.0,-23.690346,-35.477291,-8.712135,-41.94199,-9.102093,-42.25803,-11.86314,-37.713375,-14.444309,0.0,-67.073699,-15.596617,-12.042257,5.373947,4.475497,25.443615,20.194311,43.403142,36.175268,20.132452,282.427618,-116.408323,83.006713
48,-0.374588,-0.07105,-1.357269,0.470069,0.0,-63.709636,-32.61145,-88.520839,-25.089981,-87.601352,-15.638443,-77.048595,-5.290008,-55.14323,0.0,22.961298,28.538225,54.977256,46.033846,72.250526,58.92501,84.947066,67.508255,91.094504,0.0,-22.962811,-32.949005,-8.52023,-39.587609,-9.04636,-40.329712,-12.417023,-36.01125,-15.060997,0.0,-67.633924,-16.463463,-13.927312,5.086041,3.602259,25.636054,19.769808,43.974333,36.405375,19.93606,282.336749,-117.587396,83.456963
49,0.181412,-0.023144,1.192566,0.470519,0.0,-64.102993,-32.802406,-89.620205,-25.247818,-88.523838,-15.719604,-77.504917,-5.309486,-55.384964,0.0,23.162481,28.807778,55.6111,46.340325,72.525451,59.172888,85.274442,67.606821,91.261008,0.0,-24.435048,-36.178276,-8.244255,-42.737458,-9.595608,-43.077908,-12.422608,-38.338623,-15.514241,0.0,-67.07552,-16.25729,-12.915061,4.935877,3.352615,25.374282,19.831769,43.698044,36.054893,20.244181,282.285287,-116.268121,83.899164
50,0.376785,-0.038878,-1.131649,0.677371,0.0,-64.418907,-33.020553,-90.881321,-25.46212,-89.777469,-15.875953,-78.07204,-5.418113,-55.635074,0.0,23.30689,29.000686,56.234964,46.50773,72.931016,59.298871,85.598816,67.678847,91.334207,0.0,-23.480828,-32.437569,-8.274422,-39.356312,-9.111592,-40.488499,-12.626576,-36.509617,-15.64539,0.0,-67.938223,-16.79329,-14.709571,4.295495,3.159022,24.577232,19.35103,42.891886,36.034688,20.698831,282.21357,-117.321905,84.543696
51,0.394203,0.055279,1.232402,-0.274882,0.0,-64.72697,-33.249046,-92.065818,-25.691551,-90.912654,-16.084327,-78.471004,-5.621475,-55.738037,0.0,23.318462,29.136364,56.854148,46.653931,73.387339,59.437822,86.012174,67.761518,91.347323,0.0,-24.239353,-34.856357,-9.185474,-41.847725,-10.319812,-42.783531,-13.375076,-38.532726,-16.306858,0.0,-67.378665,-16.960349,-13.225159,3.926116,3.187927,24.215968,19.624868,42.561404,36.053158,21.155101,282.232808,-116.027436,84.232773
52,0.278504,0.094206,-1.411033,0.021903,0.0,-64.921681,-33.294411,-92.957348,-25.734055,-91.752171,-16.125458,-78.729721,-5.664253,-55.751759,0.0,23.267445,29.14701,57.322957,46.664108,73.655274,59.461423,86.190843,67.77971,91.341803,0.0,-22.759861,-31.148575,-8.658119,-38.105988,-9.67091,-39.578041,-13.674225,-35.987389,-16.511639,0.0,-67.948455,-17.26334,-14.264654,3.413977,3.2849,23.436616,18.863633,41.605489,35.754248,21.466971,282.300082,-117.405103,84.227744
53,0.226066,0.105643,1.294246,-0.425979,0.0,-65.093044,-33.225105,-93.583271,-25.677635,-92.378974,-16.111885,-78.912746,-5.706344,-55.704574,0.0,23.035843,29.140526,57.692089,46.693698,73.9734,59.547022,86.429557,67.89317,91.408987,0.0,-24.144744,-33.529392,-9.596477,-40.317054,-10.369182,-41.452915,-14.155391,-37.536335,-17.241359,0.0,-67.526984,-17.484919,-13.120276,2.907963,3.319332,22.844324,18.910823,41.100309,35.216705,21.706655,282.384399,-116.097239,83.780439
54,0.00364,0.11409,-1.336681,0.066079,0.0,-65.066311,-33.07164,-93.694554,-25.558159,-92.602467,-16.054161,-78.879032,-5.718727,-55.680611,0.0,22.684916,29.009887,57.806463,46.60684,74.072102,59.587196,86.243787,68.084942,91.287857,0.0,-22.630634,-29.471203,-9.984867,-36.514927,-9.630878,-38.28701,-13.96566,-35.011711,-16.49501,0.0,-68.157993,-18.102621,-14.894477,2.284253,3.063796,22.15761,18.335192,40.414243,35.115175,21.7183,282.486994,-117.425915,83.835023
55,0.241745,0.140742,1.041756,-0.451698,0.0,-65.21164,-33.199562,-94.080632,-25.735932,-92.899807,-16.265099,-79.121636,-5.950035,-55.836651,0.0,22.397096,28.919113,57.884552,46.591451,74.047957,59.66468,86.099809,68.221731,91.161417,0.0,-23.729645,-32.914845,-10.385708,-39.663941,-9.902012,-40.747948,-14.025925,-36.822899,-16.843117,0.0,-67.085518,-17.706288,-13.849926,2.753791,3.310452,22.769316,18.981058,41.03221,35.465911,21.965807,282.620904,-116.378397,83.376493
56,0.301323,0.118573,-1.556282,0.399161,0.0,-65.353249,-33.325653,-94.301056,-25.882622,-93.187798,-16.392655,-79.312546,-6.041817,-55.955956,0.0,22.245499,28.84836,57.840771,46.557513,73.9548,59.683638,85.820624,68.291991,91.071558,0.0,-22.540936,-28.752789,-9.625191,-35.344071,-8.936783,-36.84272,-13.452759,-33.483319,-16.234955,0.0,-67.968493,-17.722325,-15.041653,2.840328,3.382929,22.808213,18.726078,41.061424,35.723243,22.275238,282.73525,-117.926571,83.771427
57,0.32595,0.127218,1.280903,0.211248,0.0,-65.446392,-33.429954,-94.492023,-25.979416,-93.570648,-16.445434,-79.538349,-6.040352,-56.143352,0.0,22.196482,28.794884,57.914501,46.51619,74.061937,59.68612,85.666594,68.364042,90.990813,0.0,-24.012738,-32.924801,-10.254914,-39.616803,-9.712601,-40.604016,-14.090722,-36.578762,-17.13168,0.0,-67.256325,-17.93553,-13.670145,2.740224,3.737771,22.888142,19.536417,41.289703,36.101273,22.611139,282.855799,-116.635717,83.976006
58,0.353897,0.135394,-1.259674,0.695378,0.0,-65.486045,-33.557029,-94.734455,-26.104065,-93.960502,-16.496475,-79.823513,-5.981002,-56.352161,0.0,22.355106,28.691403,57.737771,46.39695,74.099963,59.571042,85.562211,68.275516,90.955862,0.0,-22.94307,-29.939049,-9.739701,-36.877739,-8.81091,-38.389584,-13.354924,-34.878331,-16.237931,0.0,-67.897196,-17.810344,-14.601354,2.849973,3.466464,22.903956,19.222107,41.167505,35.949799,22.974758,282.985848,-117.885669,84.666039
59,0.433045,0.160798,0.931354,-0.156562,0.0,-65.507424,-33.758286,-94.998322,-26.321091,-94.424114,-16.67672,-80.186451,-6.095261,-56.592167,0.0,22.52182,28.497519,57.575664,46.159174,74.190662,59.307912,85.50766,68.008001,90.849503,0.0,-23.777252,-33.54483,-9.571827,-40.33374,-9.558243,-41.19873,-13.677383,-37.006336,-16.563343,0.0,-67.283039,-17.371824,-12.398192,3.524837,4.13256,23.783301,20.100531,42.157624,36.42537,23.415888,283.139678,-116.94623,84.502509
60,0.268272,0.140717,-1.253609,0.403582,0.0,-65.583195,-33.816101,-95.008529,-26.339721,-94.744697,-16.64566,-80.277546,-6.01458,-56.662708,0.0,22.586757,28.381823,57.578097,46.009194,74.308519,59.137715,85.449689,67.836471,90.816973,0.0,-22.679317,-30.345382,-8.983394,-37.543991,-8.766277,-39.057609,-13.215522,-35.476043,-15.988151,0.0,-68.258831,-17.17103,-13.342331,3.615369,3.825765,23.775508,19.547519,42.072007,36.41536,23.693807,283.272457,-118.190192,84.898153
61,0.158318,-0.049413,1.08878,0.178644,0.0,-65.520802,-33.811981,-94.925228,-26.382477,-94.873444,-16.740624,-80.43171,-6.129639,-56.822228,0.0,22.577458,28.378316,57.558794,45.992954,74.354474,59.128798,85.500917,67.838583,91.083476,0.0,-23.570618,-34.784855,-8.307049,-41.996773,-9.042618,-42.801602,-13.352108,-38.385704,-16.407006,0.0,-67.447993,-17.196631,-11.790148,3.747163,3.765744,24.037132,19.686581,42.359937,35.894483,23.856783,283.215711,-117.096754,85.069464
62,0.136963,-0.055699,-0.960709,0.271584,0.0,-65.383507,-33.826149,-94.804287,-26.435395,-94.841801,-16.856644,-80.449391,-6.277039,-56.816861,0.0,22.507346,28.379946,57.421511,45.974676,74.269246,59.095058,85.574166,67.772868,91.270407,0.0,-22.321003,-31.320007,-7.736641,-38.598553,-7.971634,-39.925472,-12.449032,-36.091141,-15.280884,0.0,-68.335179,-17.15787,-12.96569,3.679948,3.273785,23.890142,18.980404,42.104692,35.451085,23.998656,283.155029,-118.052553,85.336065
63,0.097,-0.068604,1.000431,-0.348883,0.0,-65.279846,-33.882202,-94.674717,-26.524773,-94.620449,-17.019058,-80.397217,-6.480835,-56.696469,0.0,22.400727,28.388714,57.55005,46.023508,74.283102,59.155807,85.75213,67.821107,91.540379,0.0,-22.781421,-33.720577,-7.409237,-40.792419,-8.211662,-41.649845,-12.335346,-37.328888,-15.020714,0.0,-67.813265,-17.034833,-11.574164,4.023904,3.625842,24.393216,19.563537,42.768415,35.780035,24.100348,283.084711,-117.04743,84.985468
64,0.031471,-0.112806,-0.844803,0.215626,0.0,-65.256649,-33.869659,-94.546886,-26.494469,-94.521343,-16.982529,-80.30183,-6.413406,-56.550522,0.0,22.315759,28.543436,57.618148,46.196656,74.243903,59.298056,85.998564,67.870619,91.805647,0.0,-21.607315,-29.320415,-8.251396,-36.578682,-7.705192,-38.285762,-12.139377,-34.949775,-14.404907,0.0,-68.697846,-17.000568,-13.500684,3.774031,2.909994,23.848411,18.609833,41.928555,35.15656,24.136934,282.973044,-117.887118,85.202233
65,0.031609,-0.102642,1.475727,-0.144663,0.0,-65.180764,-33.807473,-94.3988,-26.455834,-94.364411,-16.99363,-80.270646,-6.450966,-56.531834,0.0,22.371199,28.684932,57.542072,46.350341,74.164456,59.427498,86.173997,67.924614,92.022564,0.0,-22.155315,-31.558239,-8.649581,-38.666233,-8.417232,-40.036434,-12.492851,-36.388446,-14.578525,0.0,-68.316308,-17.929071,-12.87057,2.984744,2.74057,23.098279,18.809861,41.195917,34.5035,24.165287,282.873123,-116.414647,85.060291
66,0.073356,0.029888,0.411908,-0.306028,0.0,-65.09618,-33.752403,-94.305336,-26.401588,-94.264194,-16.950302,-80.238899,-6.40551,-56.501816,0.0,22.487499,28.716399,57.429674,46.394504,74.198319,59.44291,86.314194,67.899036,92.05208,0.0,-21.306404,-31.338707,-8.450913,-38.59306,-8.69846,-40.086995,-12.328308,-36.676289,-14.153515,0.0,-68.707127,-18.140296,-13.111163,2.44455,2.974745,22.20872,18.727961,40.058517,34.420167,24.23323,282.909735,-116.008152,84.760987
67,0.21238,-0.024268,1.625484,-0.840164,0.0,-65.23621,-33.829834,-94.408802,-26.484993,-94.395779,-17.021714,-80.471844,-6.454811,-56.695736,0.0,22.567108,28.769875,57.316263,46.507532,74.249881,59.564916,86.469608,68.032565,92.212829,0.0,-21.515579,-34.735119,-8.398739,-42.135326,-9.840935,-43.112606,-12.553665,-39.170631,-14.136658,0.0,-68.293461,-18.167959,-12.015926,2.318221,3.285924,21.841559,19.156577,39.481459,34.66221,24.435253,282.897774,-114.393025,83.93313
68,0.169006,0.016685,0.992157,-0.996664,0.0,-65.268528,-33.760437,-94.486736,-26.372452,-94.506123,-16.894249,-80.670078,-6.360649,-56.954246,0.0,22.571788,28.720474,57.037991,46.479362,74.135778,59.5457,86.422505,68.037666,92.267873,0.0,-21.092789,-35.093273,-9.199768,-42.79359,-11.129528,-43.80249,-13.390388,-40.138813,-14.552616,0.0,-68.504703,-18.463997,-12.312347,1.643005,3.214924,20.825388,18.958809,38.129471,34.918783,24.575678,282.934553,-113.429449,82.95656
69,0.319656,-0.047313,0.957035,-1.299599,0.0,-65.443531,-33.810241,-94.538498,-26.453727,-94.57077,-17.019882,-80.901134,-6.550094,-57.267002,0.0,22.355489,28.823153,56.919072,46.582843,74.076411,59.635201,86.332645,68.125487,92.439131,0.0,-20.328838,-36.674915,-8.504791,-44.041019,-10.981991,-44.477451,-13.169723,-40.17342,-14.273655,0.0,-68.659549,-18.348783,-12.369306,2.123318,3.356202,21.425207,19.239501,38.705368,35.23802,24.840334,282.920801,-112.527414,81.690522
70,0.474976,-0.130677,1.26994,-1.655461,0.0,-65.660912,-33.794655,-94.761086,-26.476524,-94.667061,-17.114044,-81.158329,-6.798317,-57.590492,0.0,21.848321,28.865576,56.735019,46.662008,73.926544,59.729284,86.257162,68.215631,92.607414,0.0,-20.008095,-38.078968,-7.187519,-45.352993,-10.677075,-45.376889,-12.75681,-40.583039,-14.202919,0.0,-68.964651,-18.158728,-12.142527,2.277324,3.56918,21.599053,19.070022,38.927818,34.914344,25.236019,282.826865,-111.336765,80.071802
71,0.485985,-0.253572,0.037994,-1.863881,0.0,-65.89206,-33.693833,-94.76429,-26.407837,-94.543225,-17.115418,-81.182236,-6.918503,-57.714627,0.0,21.131782,28.881347,56.488129,46.662823,73.665624,59.720874,86.032959,68.199909,92.72211,0.0,-18.235737,-35.1973,-7.184921,-42.008869,-9.589874,-42.055241,-12.090534,-37.306915,-13.034557,0.0,-69.472671,-17.914665,-13.78368,2.707818,3.153791,22.196606,18.849567,39.614396,35.379528,25.644362,282.614274,-111.376413,78.248902
72,0.533729,-0.302293,0.79747,-1.461039,0.0,-66.022064,-33.580307,-94.694275,-26.405754,-94.279747,-17.229286,-81.061283,-7.119255,-57.657085,0.0,20.311712,28.915755,56.356971,46.657352,73.43774,59.666793,85.889686,68.081509,92.741783,0.0,-16.840015,-33.823688,-6.477241,-40.396099,-8.251499,-40.376232,-10.938927,-35.511131,-11.930603,0.0,-69.859556,-18.722978,-14.629438,2.122602,2.59072,21.809856,18.130372,39.326812,34.404298,26.123359,282.359063,-110.633675,76.834945
73,0.646386,-0.487112,0.762062,-0.868211,0.0,-66.227108,-33.578591,-94.668034,-26.5299,-94.234406,-17.453385,-81.10326,-7.402565,-57.805253,0.0,19.366807,28.937417,56.100065,46.706962,73.022641,59.758221,85.611105,68.209641,92.831408,0.0,-14.605236,-31.906769,-4.253448,-38.096317,-6.489773,-37.99403,-8.829231,-32.765785,-10.322994,0.0,-71.314013,-20.026233,-14.898892,1.144112,2.411693,21.072902,17.518228,38.824658,32.898057,26.765311,281.957021,-109.876047,76.051804
74,0.588363,-0.71339,2.085388,-0.255208,0.0,-66.303119,-33.421509,-94.573986,-26.471855,-94.246753,-17.500854,-81.033451,-7.566765,-57.842891,0.0,18.849808,28.836776,55.876639,46.666516,72.545718,59.811153,85.382616,68.343084,92.856207,0.0,-12.974888,-31.922229,-1.030815,-37.934772,-4.299442,-37.548694,-5.830764,-32.005748,-8.421764,0.0,-71.887471,-21.969963,-13.774504,-1.041921,2.330176,18.8442,16.946863,36.754197,31.044371,27.38265,281.357382,-107.761683,75.910347
75,0.355866,-0.775955,0.221764,-0.058885,0.0,-66.074444,-33.372986,-94.259995,-26.474831,-94.219677,-17.539788,-81.033726,-7.599861,-57.944825,0.0,18.486517,28.858968,55.664266,46.72729,72.231976,59.910151,85.116706,68.470487,92.719157,0.0,-8.839726,-27.39838,4.949764,-32.457871,2.271686,-31.793564,0.296413,-26.192345,-3.361748,0.0,-71.36079,-21.96984,-13.517505,-1.384519,2.347966,18.168589,16.23769,35.768407,29.413042,27.807301,280.795148,-107.471134,76.065183
76,0.645858,-0.862172,2.477348,1.92857,0.0,-66.246299,-33.414367,-94.543132,-26.546928,-94.62688,-17.591262,-81.411815,-7.636779,-58.307853,0.0,18.543217,28.798243,55.610655,46.779963,71.976354,60.037752,84.943422,68.628457,92.594681,0.0,-5.849876,-23.89302,10.899868,-28.862766,7.422547,-28.225536,5.355721,-22.780849,0.684654,0.0,-71.519475,-22.841379,-13.246143,-2.388901,1.947614,17.186825,15.256186,34.913102,27.57012,28.54264,280.177276,-104.904305,78.238053
77,0.673851,-0.891627,0.472332,2.908185,0.0,-66.426338,-33.577377,-94.755466,-26.700965,-95.11893,-17.732963,-81.819591,-7.807182,-58.772884,0.0,18.448158,28.722105,55.380549,46.77117,71.399396,60.132095,84.351582,68.801791,92.270813,0.0,0.504078,-16.500629,24.742905,-20.746353,21.699085,-20.102726,19.275147,-14.792747,12.178643,0.0,-69.137855,-21.320688,-13.246044,-1.444002,1.269446,18.047447,14.069924,35.963279,26.332907,29.303844,279.533444,-104.34462,81.394033
78,0.374749,-0.832395,1.345997,4.145602,0.0,-66.384247,-33.435494,-94.595661,-26.605202,-95.221104,-17.711815,-81.829537,-7.863533,-58.799389,0.0,18.606832,28.601395,55.210957,46.669862,70.964771,60.071406,83.939385,68.757108,91.836176,0.0,7.37368,-8.616062,40.425018,-12.749279,38.734577,-12.760929,34.269482,-8.449345,23.576592,0.0,-63.891824,-17.640722,-12.545893,1.516028,3.051637,20.561176,14.744677,38.223122,27.666951,29.679417,278.9028,-102.997799,85.741386
79,0.292923,-0.534882,1.441406,6.548149,0.0,-66.137467,-33.291367,-94.513047,-26.504059,-95.28265,-17.69616,-82.008557,-7.908463,-58.98563,0.0,18.502276,28.470818,54.786694,46.568703,70.429865,59.985215,83.380396,68.69022,91.229478,0.0,15.814946,0.402066,55.481243,-3.714397,55.17984,-4.96154,47.96378,-2.806949,33.346711,0.0,-57.898273,-12.772924,-11.393822,5.640295,5.43584,23.949496,16.764539,40.7252,31.050695,29.804095,278.501972,-101.724638,92.423589
80,0.481064,-0.458151,3.329579,9.572345,0.0,-66.196988,-33.311509,-94.761578,-26.554711,-95.470356,-17.808381,-82.283753,-8.086258,-59.267819,0.0,18.585466,28.319887,54.448524,46.48634,69.887782,59.94914,82.860099,68.70483,90.875796,0.0,23.13533,9.58572,66.637035,4.199032,65.758816,0.411484,56.089874,-0.944893,36.641693,0.0,-51.101454,-8.967666,-8.236492,7.778508,8.976991,24.431779,19.718759,39.389458,34.343529,29.929797,277.982339,-98.750421,101.934452
81,0.330253,-0.267355,3.354017,12.822418,0.0,-66.023094,-33.2845,-94.590031,-26.621773,-95.476696,-17.995811,-82.433052,-8.367782,-59.498119,0.0,18.443836,28.189706,54.03686,46.395086,69.34123,59.900518,82.319598,68.724689,90.468145,0.0,31.655714,16.011154,79.506655,10.538973,79.143522,5.657759,67.926241,2.388159,44.511898,0.0,-41.479577,-3.724495,-2.367925,12.30293,14.039296,27.827965,24.239772,41.145905,38.00174,29.827686,277.47061,-95.828768,114.512496
82,0.201599,0.085154,5.198376,16.866464,0.0,-65.733787,-32.970634,-94.380386,-26.424316,-95.384285,-17.972008,-82.493774,-8.521683,-59.672848,0.0,18.333697,27.913039,53.524973,46.046035,68.868357,59.511515,81.825866,68.335377,90.007462,0.0,39.591425,19.909939,85.728681,14.615759,85.379625,9.412679,73.554697,5.010835,49.861175,0.0,-32.555401,1.054395,4.697107,17.860066,20.631764,33.090385,30.500467,45.191032,43.105894,29.619238,277.086865,-91.040439,130.910061
83,0.362229,-0.09181,5.065876,18.874668,0.0,-65.612996,-32.956513,-94.340687,-26.506119,-95.500054,-18.142067,-82.877495,-8.773728,-60.317906,0.0,18.463496,28.173193,53.29084,46.237325,68.5631,59.543884,81.511865,68.20375,89.61279,0.0,45.499654,23.212784,88.371099,18.030607,88.119844,12.576376,76.520124,7.113561,53.208355,0.0,-24.162334,5.255831,12.894709,21.904403,27.623398,36.324735,38.115967,47.061403,48.375785,29.673317,276.40717,-86.282713,149.196844
84,-0.910241,1.72212,4.596462,20.149795,0.0,-61.827644,-31.704345,-93.089675,-25.593338,-94.420795,-17.523262,-82.308414,-8.466339,-60.107334,0.0,16.668968,26.562298,51.286323,44.061796,66.571736,57.15171,79.128299,65.918466,87.477609,0.0,50.018789,25.688427,90.42441,20.439108,89.901564,14.909655,77.96018,8.98443,54.419804,0.0,-15.391033,9.163157,21.930165,24.557269,34.778141,37.42616,44.208541,46.639568,50.497511,28.564361,277.40262,-81.884966,168.619969
85,-0.878631,1.755058,4.696529,22.63165,0.0,-60.288986,-30.343323,-91.494736,-24.635353,-93.224236,-16.927117,-80.972351,-8.035996,-58.94355,0.0,13.142451,25.165417,48.621113,42.019611,64.368012,54.806454,76.327387,63.5205,84.842225,0.0,54.371138,27.841599,90.005156,25.73786,85.870806,22.774275,73.559275,18.899729,56.100769,0.0,-8.981619,14.544754,30.283526,33.337633,44.631481,48.715369,57.627534,59.576859,65.80366,27.625631,278.362043,-77.248536,190.455984
86,-0.052391,9.430066,3.368254,19.551354,0.0,-58.604325,-29.837723,-90.47897,-25.591622,-89.743012,-19.144547,-76.434426,-11.158859,-58.50325,0.0,16.42698,21.131855,42.267119,31.64716,50.483987,39.045007,56.554127,43.311455,60.758675,0.0,57.936825,28.61578,91.200874,26.494297,87.509674,23.588699,75.051064,19.778778,56.912533,0.0,-1.733915,18.613933,37.69975,38.230519,52.4312,53.916013,65.835658,64.779998,73.710676,27.5873,287.005112,-73.866222,209.220341
87,-1.403343,5.108685,3.455681,16.54007,0.0,-57.071583,-27.544671,-85.347084,-23.473595,-82.564694,-17.433793,-70.392781,-10.046517,-56.368515,0.0,19.308107,18.836297,33.581122,26.717539,38.427627,32.104533,44.213024,34.967628,49.799682,0.0,59.335739,28.903313,89.660751,25.813385,86.01091,21.814716,72.585709,16.931168,53.245937,0.0,4.811629,22.484893,44.164253,41.273185,60.211209,55.892805,73.668464,65.804882,80.571369,26.115269,291.419525,-70.479229,225.066139
88,-0.923653,6.212339,2.52737,14.661474,0.0,-55.460655,-22.420647,-79.896137,-18.234009,-77.624233,-12.845902,-66.167004,-6.78186,-52.571743,0.0,16.756604,17.338095,23.593906,22.467554,25.644971,25.256882,30.701798,25.938087,36.79397,0.0,61.19965,29.468697,89.915715,25.817059,86.440579,21.134571,72.378262,15.685307,52.58899,0.0,8.867903,25.341468,48.351104,44.19661,64.787372,58.6272,78.298646,68.272886,85.372699,25.052124,296.97802,-68.091351,239.073769
89,0.785454,9.192574,3.285084,11.434781,0.0,-60.106671,-27.872624,-66.453015,-24.42326,-60.88448,-19.182221,-50.305264,-12.903488,-51.159428,0.0,20.414822,12.93345,18.447058,12.25306,15.880934,9.712635,15.529907,5.691906,16.569599,0.0,61.90226,29.169789,89.581307,24.870644,85.704826,19.607517,72.161385,13.912708,53.50359,0.0,11.772185,27.652403,50.959811,47.830869,68.700631,63.0396,83.528868,73.08328,92.092391,25.73608,305.680938,-64.907765,250.018894
90,0.616768,5.478224,1.498661,6.840871,0.0,-61.73956,-32.14721,-53.046811,-29.479947,-43.832795,-24.497246,-35.544777,-18.279145,-49.936467,0.0,27.433979,9.115819,15.69346,5.506161,9.777462,0.631473,7.029519,-5.114453,6.218106,0.0,62.973713,27.73637,92.099682,20.381825,92.671978,12.96151,80.281208,5.758908,57.830898,0.0,15.046735,28.351998,52.080236,46.545645,68.663334,59.511589,80.375892,67.709981,85.742571,26.302895,310.828318,-63.459057,256.528921
91,0.136322,-3.381761,2.095047,5.506433,0.0,-61.754563,-35.306305,-38.79966,-32.36697,-28.881146,-26.956444,-23.846341,-20.265541,-45.331044,0.0,27.596852,8.519359,17.845079,8.575613,17.2296,7.315658,18.091895,5.049986,20.30876,0.0,63.038212,27.988175,92.212933,20.146637,92.664242,12.237293,80.003712,4.601361,58.75185,0.0,15.169593,29.681867,52.509228,47.179031,69.396125,59.179668,80.983195,66.57449,85.747931,26.379073,307.226426,-61.424154,261.815223
92,1.742225,-0.047054,1.586357,3.633764,0.0,-61.201847,-40.550216,-28.163875,-38.731647,-17.592624,-33.664558,-13.419399,-26.672813,-40.607448,0.0,27.661493,6.675319,23.552805,7.19401,24.054293,6.520757,23.147216,4.89009,22.37231,0.0,62.847508,28.985997,93.250294,20.857086,93.438984,12.640904,80.44598,4.726799,59.337239,0.0,14.432134,30.298198,52.708052,47.698365,69.719575,59.397302,81.037301,66.458177,85.514453,28.128164,307.059098,-59.830931,265.328713
93,1.718926,-2.924302,1.77903,2.356001,0.0,-59.029484,-47.812798,-17.676522,-47.624829,-4.615769,-42.919808,-2.201637,-35.233452,-36.831185,0.0,30.065115,4.996016,30.88232,7.19091,33.205247,8.772116,31.61079,9.456644,29.830217,0.0,63.018871,29.239472,93.163204,20.995846,92.977833,12.658333,79.742855,4.670357,58.816647,0.0,14.802253,30.839477,53.044481,48.293182,70.139996,59.682353,80.989728,66.269937,84.841534,29.89785,304.093954,-58.001141,267.643872
94,-1.151894,-2.271032,1.234085,1.669533,0.0,-58.127323,-46.986683,-14.148125,-46.954342,-1.357429,-42.512821,0.133484,-35.164032,-33.527618,0.0,32.253056,6.782011,33.365551,10.569609,36.565606,13.385193,36.278602,15.264307,36.204588,0.0,63.439694,29.227856,93.359059,20.902451,93.158146,12.55679,79.612644,4.697365,58.580555,0.0,15.209707,31.022246,53.659145,48.574999,70.632419,59.807337,80.661612,66.017502,84.002667,28.828726,301.79817,-56.684286,269.288653
95,-0.215721,0.068111,1.367615,0.925491,0.0,-53.685986,-46.315624,-10.56974,-46.449486,1.375717,-42.401836,1.688095,-35.57222,-30.648354,0.0,32.186859,7.312929,34.814438,11.689897,38.482968,14.916257,38.230434,16.996431,38.091792,0.0,63.932133,29.064114,93.024799,20.56604,92.92828,12.07687,79.092487,4.17128,57.896564,0.0,15.877414,31.347201,54.891275,48.93425,71.72114,60.122362,81.119627,66.202505,83.986044,28.684467,301.878486,-55.245209,270.226349
96,-0.18235,-1.388026,1.452839,0.389386,0.0,-53.228119,-46.484299,-7.450722,-47.288635,1.980606,-43.878353,0.552772,-37.947373,-38.703976,0.0,30.866672,8.728433,35.827293,14.308942,40.067904,18.189412,40.141436,20.632641,41.505577,0.0,63.544784,28.818809,91.468963,20.009651,91.713089,11.214203,77.899864,3.077408,56.585518,0.0,17.199243,31.497156,56.634131,49.223192,73.179067,60.509895,81.898978,66.607378,83.999579,28.582174,300.536819,-53.712313,270.662094
97,-1.696312,7.354425,0.987373,0.441651,0.0,-54.695492,-46.830723,-5.320793,-46.950497,4.984314,-42.87727,3.589622,-36.442337,-37.110455,0.0,29.069735,6.849862,31.960395,8.409134,33.923923,8.295118,31.08601,7.016279,28.746348,0.0,63.425675,28.335617,90.198601,19.272961,90.684174,10.307167,76.742317,2.083248,55.239212,0.0,18.480947,31.631834,57.815713,49.366169,73.977537,60.655701,82.340198,66.735671,84.141185,26.997408,307.955421,-52.613394,271.167922
98,-1.611969,9.955179,0.640606,0.429165,0.0,-56.455994,-47.32655,-3.716469,-46.757561,7.635681,-41.883579,6.408462,-34.803452,-35.17487,0.0,30.133645,3.488083,27.647759,-0.335589,25.613762,-5.685928,18.783179,-11.711015,10.628518,0.0,63.391743,27.832775,89.392925,18.471039,89.876095,9.353359,75.76759,1.142532,54.169544,0.0,19.573436,31.58483,58.571933,49.403244,74.45493,60.758515,82.606367,66.810587,84.384013,25.528261,317.978155,-51.829966,271.664642
99,1.80114,2.540264,0.490585,0.285781,0.0,-57.65514,-48.621254,-5.505661,-47.923622,5.928085,-42.671849,4.838035,-35.057534,-35.595394,0.0,28.332028,1.565793,26.779931,-3.342056,23.806834,-9.445924,16.258217,-16.125848,6.480755,0.0,63.468876,27.113572,88.632191,17.633515,89.275326,8.567128,75.328228,0.554902,53.975934,0.0,20.577868,31.800734,59.096713,49.67402,74.658953,61.124251,82.918145,67.21893,84.690554,27.477316,320.571713,-51.191466,272.003717
100,1.467865,4.209822,0.265618,0.248113,0.0,-61.709278,-49.123867,-9.244652,-48.137524,2.879883,-42.53912,3.389625,-34.450287,-33.729183,0.0,27.13938,-0.433574,24.609947,-8.150301,19.815682,-16.745699,10.353494,-25.618776,-2.241071,0.0,63.085682,26.576465,88.207111,17.02779,88.781376,8.042221,75.136516,0.194664,54.097767,0.0,21.13503,31.999521,59.310802,49.845538,74.483631,61.321506,82.933743,67.406923,84.843214,29.113764,324.80353,-50.757265,272.273825
101,1.228134,7.596696,-0.012818,0.177261,0.0,-63.237019,-49.543717,-12.793533,-47.805233,1.304878,-41.452961,4.130859,-32.342148,-23.630379,0.0,27.102552,-3.22163,21.699255,-16.133925,13.713359,-29.514745,0.678921,-42.813907,-18.401598,0.0,63.177121,26.181805,88.332676,16.550675,88.437802,7.638497,74.939702,-0.003238,54.231045,0.0,21.657129,32.033619,59.217978,49.816762,74.244336,61.298485,82.815849,67.348075,84.952969,30.519636,332.410529,-50.592345,272.461389
102,2.523514,-1.423372,-0.10049,0.105667,0.0,-61.921543,-49.289669,-15.368042,-48.24749,-2.28653,-42.690388,0.03582,-34.241089,-24.494774,0.0,28.431767,-2.60646,23.541036,-15.178918,15.340297,-28.222754,1.946262,-41.33386,-17.646686,0.0,63.148979,26.077434,88.406731,16.41869,88.266495,7.500275,74.902038,-0.07655,54.528854,0.0,21.855003,31.991678,59.297402,49.744354,73.970263,61.316455,82.608022,67.434661,85.020289,33.192707,330.986632,-50.543278,272.566531
103,2.309005,-9.06459,-0.123573,-0.05576,0.0,-58.817733,-48.114269,-17.129425,-47.68777,-5.509048,-43.054424,-3.702049,-35.507011,-27.71212,0.0,27.735383,1.746944,28.178158,-6.256662,23.314153,-14.882602,13.203893,-23.93047,-0.664644,0.0,63.055687,26.096866,88.480407,16.452209,88.20021,7.521308,74.89405,-0.098706,54.567031,0.0,22.042143,32.150191,59.22524,49.851009,73.832016,61.403325,82.591472,67.510144,85.143864,35.616937,321.903909,-50.551626,272.492638
104,-0.712829,-1.962144,-0.168686,-0.075953,0.0,-58.363518,-47.437386,-16.68528,-47.302288,-5.507057,-43.163658,-4.234909,-36.202034,-27.046486,0.0,28.325606,2.178296,28.804147,-3.901255,25.135296,-10.717833,16.09606,-18.21584,4.315786,0.0,62.828911,26.117386,88.521927,16.410896,88.071212,7.431541,74.798172,-0.256852,54.440185,0.0,22.314141,32.115376,59.4046,49.7343,73.884751,61.243972,82.641453,67.356312,85.264252,35.031664,319.907982,-50.592756,272.382902
105,-0.627365,1.343121,-0.078747,-0.036841,0.0,-58.021385,-47.368378,-15.856705,-47.206593,-4.813935,-43.084946,-3.572983,-36.21753,-26.25895,0.0,27.153879,2.29178,28.352023,-4.611002,23.897916,-12.474484,14.145031,-21.087827,0.655827,0.0,62.837894,25.907696,88.394749,16.144466,87.850925,7.144466,74.564106,-0.546261,54.332508,0.0,22.426799,32.087614,59.539464,49.638007,73.831238,61.094401,82.592584,67.194168,85.326399,34.543568,321.20022,-50.532234,272.295178
106,-0.354286,-1.683662,-0.133507,-0.010077,0.0,-55.778492,-46.814759,-14.738823,-46.875447,-4.157937,-42.902092,-3.519768,-36.04628,-26.9515,0.0,27.922363,3.055707,29.196583,-2.753833,25.027516,-9.407144,16.137952,-16.80714,3.106379,0.0,62.712032,25.648865,88.224346,15.866947,87.623509,6.888725,74.317486,-0.776985,54.178516,0.0,22.367357,32.050934,59.465918,49.554841,73.703106,60.967898,82.605675,67.063405,85.495779,34.338101,319.446132,-50.516922,272.214675
107,-1.312935,-5.332852,-0.130737,-0.053637,0.0,-51.948326,-43.467591,-13.134568,-43.37875,-3.770645,-39.585137,-3.246827,-33.077568,-25.917229,0.0,23.156516,5.989062,29.681361,4.183418,29.06624,1.340614,23.647987,-2.398633,15.283005,0.0,62.668979,25.523117,88.256412,15.659717,87.298199,6.608242,73.920421,-1.156998,53.724438,0.0,22.375731,31.921407,59.341109,49.337172,73.688163,60.684835,82.682184,66.794631,85.724578,33.190241,314.044274,-50.482584,272.092032
108,-2.939026,3.051422,-0.018997,-0.003384,0.0,-57.454205,-45.665211,-11.242493,-45.259976,-0.987305,-41.012272,-0.064522,-33.988953,-23.924423,0.0,25.441651,3.731898,27.969639,1.23959,26.512267,-2.368462,19.945333,-6.96562,10.125869,0.0,62.330257,25.302944,88.010341,15.369278,86.842311,6.257331,73.421321,-1.570565,53.323963,0.0,22.35812,31.680654,59.324955,49.033088,73.665167,60.381616,82.733474,66.559991,85.936011,30.428627,317.037795,-50.324169,272.030747
109,0.832397,0.819255,-0.097298,-0.030875,0.0,-53.29359,-44.553806,-12.188827,-44.057441,-2.014229,-39.976009,-0.631393,-33.051132,-20.939621,0.0,23.584149,4.379648,27.648327,1.257485,25.886983,-2.875902,19.120545,-7.98034,7.727261,0.0,62.316318,25.360485,88.007915,15.414013,86.571339,6.188965,73.123844,-1.805843,53.028271,0.0,22.338669,31.529538,59.417432,48.771278,73.776416,60.104776,82.72394,66.35062,86.093783,31.418764,317.784889,-50.263727,271.927711
110,-0.418396,-5.823731,-0.156281,-0.17936,0.0,-46.768821,-42.080189,-10.306022,-42.055961,-1.689033,-38.555454,-1.443695,-32.134231,-19.399658,0.0,17.962046,7.067619,27.621144,8.896122,29.86613,9.419247,27.199204,8.725494,21.080257,0.0,62.250813,25.415955,87.921788,15.449582,86.328152,6.132088,72.931675,-1.968875,52.794835,0.0,22.466467,31.360824,59.661815,48.530822,74.126961,59.915276,82.891394,66.270801,86.419726,31.135597,311.895628,-50.284779,271.682821
111,-3.284752,-1.405464,-0.145053,-0.094083,0.0,-49.903358,-42.307365,-7.508926,-42.268524,1.518814,-38.784004,1.57354,-32.631363,-17.360984,0.0,17.01393,6.666809,28.165054,10.177172,31.656954,12.11963,29.7461,12.86949,26.15083,0.0,62.218345,25.541587,87.925872,15.576049,86.099739,6.161258,72.706878,-2.065396,52.559967,0.0,22.435259,31.135645,59.752465,48.241768,74.291735,59.690122,82.876339,66.173742,86.532853,27.98271,310.449205,-50.297967,271.547779
112,-2.210746,3.808617,-0.179547,-0.064047,0.0,-50.88255,-45.022992,-4.909951,-45.426831,5.080993,-41.778466,4.948539,-35.294747,-14.016678,0.0,19.89271,4.557082,27.602249,6.11765,28.817682,5.97539,24.958652,4.710186,19.328435,0.0,62.178875,25.598053,87.790249,15.698788,86.005291,6.25977,72.609753,-2.004272,52.458653,0.0,22.275077,30.94155,59.572376,48.017367,74.121007,59.511996,82.646788,66.071693,86.643929,25.887635,314.22675,-50.361843,271.45266
113,-0.953843,3.917607,-0.341984,-0.048487,0.0,-51.935897,-45.107231,-5.345832,-45.206417,5.794693,-41.099544,6.365822,-34.131935,-12.613472,0.0,18.980693,2.579907,26.305391,1.256695,25.745624,-1.560285,20.27387,-4.946974,12.061769,0.0,62.227295,25.915101,87.828026,16.082875,85.989281,6.522629,72.480217,-1.9029,52.265168,0.0,22.120208,30.705207,59.388125,47.668045,74.027592,59.153721,82.371555,65.803141,86.677794,25.05269,318.112932,-50.584929,271.372748
114,-1.869781,-2.710782,-0.137352,0.006879,0.0,-52.801804,-45.341778,-3.728485,-45.575913,7.195976,-41.419876,7.43985,-34.452278,-11.930328,0.0,18.808842,3.291964,27.610302,3.666283,28.162264,2.446922,23.741589,0.55526,17.790109,0.0,62.120911,25.972916,87.447167,16.135209,85.657402,6.472699,72.124421,-2.045848,51.892754,0.0,21.892621,30.421699,59.120042,47.388131,73.799943,58.899025,82.09264,65.599995,86.642584,23.331774,315.400618,-50.573416,271.378095
115,-1.270638,-0.741301,-0.218055,0.045732,0.0,-50.286575,-46.030345,-1.207283,-47.31269,8.964959,-43.824646,7.826706,-37.370189,-14.560203,0.0,17.499289,2.235711,27.919498,3.610201,28.933983,3.290494,25.280693,2.145654,19.372475,0.0,62.02288,26.061092,87.446983,16.221485,85.639206,6.506378,71.988624,-2.047554,51.734687,0.0,21.719621,30.185899,58.60308,47.199978,73.432923,58.746761,81.799302,65.500836,86.588861,22.250055,314.666842,-50.602552,271.431352
116,-1.059837,0.066419,-0.345681,0.052476,0.0,-49.321598,-45.765896,-0.370262,-47.156822,10.277435,-43.686367,9.259346,-37.273258,-11.463959,0.0,17.756047,2.867627,28.200857,3.813878,28.982963,2.968083,24.828556,1.208604,18.390433,0.0,62.021416,26.178177,87.563164,16.398468,85.900773,6.689953,72.11895,-1.865684,51.787011,0.0,21.566158,30.055901,58.207519,47.084825,73.107881,58.644601,81.495847,65.435467,86.55596,21.406969,314.739748,-50.731482,271.490315
117,-0.775726,-4.230929,-0.252182,0.052475,0.0,-42.137512,-44.505329,0.801956,-46.902569,10.927208,-44.313812,8.376938,-38.667881,-13.257111,0.0,16.704957,4.349835,29.722116,7.667648,32.745738,9.199021,30.764476,9.632472,26.212346,0.0,61.977082,26.326893,87.697152,16.592137,86.094613,6.867543,72.234879,-1.725975,51.829377,0.0,21.482672,29.943368,57.896199,46.956261,72.886025,58.520298,81.320106,65.362663,86.550959,20.87792,310.512919,-50.736987,271.54689
118,-1.295769,-1.946187,-0.167495,0.025083,0.0,-40.653534,-43.714851,2.940788,-46.482536,12.779572,-44.375542,9.568039,-39.331581,-12.032799,0.0,17.056155,5.321897,30.555326,10.193363,34.341837,12.982024,33.108558,14.403049,29.836477,0.0,62.127228,26.342033,87.740776,16.643657,86.171104,6.936767,72.336479,-1.662815,51.896415,0.0,21.387145,29.884199,57.659621,46.913246,72.648335,58.514592,81.125036,65.401146,86.507165,19.866142,308.577504,-50.620491,271.582745
119,-1.963028,-1.770175,-0.30209,-0.050832,0.0,-34.598373,-42.003399,6.176285,-45.903248,15.665062,-44.548279,10.915993,-40.11145,-10.268669,0.0,15.341507,6.066027,30.757424,12.51387,35.837482,16.588285,35.923772,19.127598,33.649541,0.0,62.311214,26.403431,87.981777,16.7356,86.370792,7.05407,72.457775,-1.541336,52.002697,0.0,21.336397,29.841454,57.416434,46.858089,72.544174,58.466327,81.017232,65.369566,86.461247,18.200947,306.825308,-50.624748,271.549892
120,-1.789329,2.585737,-0.237316,-0.032197,0.0,-43.756875,-43.765995,5.837104,-46.713662,17.342788,-44.478642,14.077903,-39.363259,-7.719246,0.0,22.536999,5.838094,32.670562,8.977571,34.871853,9.819822,31.617372,9.55763,27.120287,0.0,62.390053,26.468468,88.062515,16.867779,86.448303,7.227528,72.558929,-1.375111,52.111336,0.0,21.254171,29.893313,57.231986,46.839824,72.334778,58.4006,80.858595,65.283758,86.351912,16.712655,309.436736,-50.561027,271.543386
