takenoko1/special-research/HandMotion_SimilarSearch_自分用/NewProject/handData/test_key/d4_feature_d3/81.csv
frame,vel_0x_L,vel_0y_L,vel_0x_R,vel_0y_R,posFromWrist_0x_L,posFromWrist_1x_L,posFromWrist_2x_L,posFromWrist_3x_L,posFromWrist_4x_L,posFromWrist_5x_L,posFromWrist_6x_L,posFromWrist_7x_L,posFromWrist_8x_L,posFromWrist_9x_L,posFromWrist_0y_L,posFromWrist_1y_L,posFromWrist_2y_L,posFromWrist_3y_L,posFromWrist_4y_L,posFromWrist_5y_L,posFromWrist_6y_L,posFromWrist_7y_L,posFromWrist_8y_L,posFromWrist_9y_L,posFromWrist_0x_R,posFromWrist_1x_R,posFromWrist_2x_R,posFromWrist_3x_R,posFromWrist_4x_R,posFromWrist_5x_R,posFromWrist_6x_R,posFromWrist_7x_R,posFromWrist_8x_R,posFromWrist_9x_R,posFromWrist_0y_R,posFromWrist_1y_R,posFromWrist_2y_R,posFromWrist_3y_R,posFromWrist_4y_R,posFromWrist_5y_R,posFromWrist_6y_R,posFromWrist_7y_R,posFromWrist_8y_R,posFromWrist_9y_R,posFromBody_0x_L,posFromBody_0y_L,posFromBody_0x_R,posFromBody_0y_R
6,0.82727,3.926796,0.07426,-0.049203,0.0,-49.137714,-42.293255,-0.130783,-43.921097,8.09388,-41.386002,5.137367,-36.362961,-15.461998,0.0,13.322108,4.252071,29.023298,12.353416,35.586404,18.318,36.394087,22.329121,35.759095,0.0,60.74001,23.987721,85.093197,14.63514,85.1899,5.446186,72.303532,-2.876175,51.276707,0.0,19.924882,28.409055,55.052506,45.554428,69.119287,57.478642,78.219716,64.9117,84.072248,23.365831,307.48157,-47.733462,274.777032
7,2.43734,1.485109,0.100456,0.036532,0.0,-46.561959,-43.665493,-1.228089,-45.912873,6.685203,-43.61602,3.519653,-38.436585,-21.210434,0.0,9.62337,3.510116,28.2777,11.081408,34.351384,16.67991,35.273824,20.573237,33.967062,0.0,60.713437,23.790116,85.03545,14.394791,84.975209,5.213528,72.112874,-3.054347,51.085362,0.0,20.210984,28.400719,55.199249,45.559157,69.21248,57.50638,78.258446,64.931373,84.033505,25.948025,308.968081,-47.488152,274.814966
8,-0.891953,2.691293,0.028519,0.08319,0.0,-55.297016,-45.905204,-3.356712,-46.676422,6.280518,-43.070308,5.274353,-36.816021,-20.543335,0.0,18.855081,2.11983,29.210119,6.557659,32.460117,9.230946,30.340299,10.565236,26.110211,0.0,60.726711,23.702191,85.096974,14.30912,84.985439,5.179424,72.10976,-3.013584,51.094059,0.0,20.08153,28.407561,55.224814,45.595813,69.143739,57.564352,78.129536,64.994766,83.96085,25.166473,311.664249,-47.349232,274.903031
9,2.398911,-2.231573,0.051499,-0.021106,0.0,-51.174935,-47.021496,-3.847046,-48.689587,5.391929,-45.568234,3.646797,-39.530777,-24.805527,0.0,14.410187,4.029436,30.083207,9.767569,34.24889,13.643753,33.361203,16.048277,30.350438,0.0,60.706134,23.601047,85.151699,14.232719,84.930919,5.142379,72.081928,-3.012806,51.051075,0.0,20.192915,28.55486,55.341991,45.726464,69.246961,57.686704,78.170513,65.099198,84.009644,27.646225,309.438509,-47.216892,274.887758
10,-0.565293,4.338028,0.021274,0.025441,0.0,-60.391731,-49.171817,-7.176864,-49.131397,4.236443,-44.565765,5.210862,-37.199718,-22.979942,0.0,22.810158,2.514934,30.56207,3.976455,31.321229,3.883125,26.643635,2.833245,19.814275,0.0,60.542771,23.449757,85.118706,14.176747,84.980507,5.232823,72.183769,-2.785858,51.118286,0.0,20.271178,28.568297,55.312635,45.766849,69.281616,57.783578,78.151704,65.267123,83.981227,27.141952,313.78122,-47.134598,274.917882
11,0.807839,2.273057,-0.094929,0.020847,0.0,-60.186573,-50.032379,-8.368744,-49.542881,4.357956,-44.67619,6.196838,-36.957401,-21.53064,0.0,21.31765,1.80226,29.97948,1.431313,29.48602,-0.162687,24.070533,-2.575474,15.240014,0.0,60.523716,23.29588,85.291523,14.077435,85.136296,5.243409,72.425595,-2.659298,51.276776,0.0,20.236252,28.416107,55.237954,45.69628,69.323297,57.799485,78.112134,65.333097,83.98487,28.001118,316.059532,-47.1782,274.943984
12,0.056763,0.396734,-0.140018,0.00084,0.0,-61.147477,-50.631352,-8.51928,-50.000897,4.739021,-44.982216,6.663002,-37.113888,-18.552658,0.0,22.840675,1.297673,30.43127,0.160107,29.336374,-2.135144,23.477779,-5.178142,14.17687,0.0,60.698936,23.105679,85.506088,13.888515,85.238411,5.137115,72.613037,-2.6506,51.461609,0.0,20.133055,28.211997,55.167509,45.599381,69.325767,57.808772,78.063907,65.393871,83.944596,28.107989,316.465862,-47.26811,274.95442
13,1.760238,-2.504275,0.044392,-0.15366,0.0,-51.607647,-49.124954,-7.61634,-49.745304,3.912941,-45.7397,4.181374,-38.631328,-18.416336,0.0,16.537291,2.785277,29.23861,4.004934,30.51136,3.918471,27.23224,2.751993,20.343327,0.0,60.566883,23.066585,85.551761,13.889682,85.190151,5.185535,72.564434,-2.565434,51.42477,0.0,20.144306,28.262595,55.224739,45.674767,69.553354,57.880118,78.290729,65.409976,84.041656,29.93474,313.965419,-47.157205,274.804592
14,-2.11441,2.011186,0.080429,-0.106618,0.0,-56.015934,-48.839253,-6.835922,-48.687733,5.374237,-44.327992,5.989242,-37.117218,-18.984673,0.0,20.442511,1.621109,28.464581,1.278468,28.654649,-0.349285,24.301171,-2.805321,16.725433,0.0,60.45972,23.059845,85.66444,13.909343,85.149227,5.259452,72.520855,-2.430016,51.440174,0.0,20.04012,28.276748,55.240992,45.691093,69.625825,57.922467,78.420133,65.456782,84.032134,27.901594,315.979816,-46.995512,274.701185
15,-0.143944,-4.607495,-0.012761,-0.193588,0.0,-46.504475,-46.913841,-3.835854,-48.259346,6.563347,-45.196861,5.124435,-39.141643,-18.994011,0.0,16.590718,4.097622,29.99409,7.165123,32.75006,8.507046,30.659796,8.522385,26.211791,0.0,60.395966,23.116883,85.923546,13.952397,85.225022,5.317967,72.545105,-2.330909,51.486809,0.0,19.900713,28.367349,55.358763,45.797996,69.790007,58.045091,78.643707,65.565772,84.156895,27.84918,311.374705,-46.916743,274.509981
16,-1.883629,-1.77604,0.093911,-0.185992,0.0,-46.245529,-46.76326,-1.060226,-48.716903,8.278771,-46.001632,5.893616,-40.277023,-19.582832,0.0,17.529991,5.066213,30.488611,9.269045,34.481207,11.349614,32.893654,12.116517,29.873219,0.0,60.178459,23.119365,86.07946,13.968303,85.222297,5.335647,72.463005,-2.324776,51.326294,0.0,19.867602,28.531654,55.350451,45.876023,69.879779,58.071359,78.843445,65.575208,84.284681,26.067959,309.598371,-46.720424,274.323695
17,-2.521179,-0.788146,0.026264,-0.220708,0.0,-42.215572,-44.932995,1.48851,-47.178062,10.585464,-44.845139,7.437653,-39.631393,-16.921417,0.0,17.906607,6.192258,30.733897,10.782796,35.194388,13.09935,33.65416,13.992829,31.707318,0.0,60.119373,23.175716,86.26141,14.049545,85.267559,5.415344,72.422184,-2.243729,51.187878,0.0,19.765232,28.769195,55.346746,46.028436,70.058781,58.156439,79.054421,65.617111,84.439267,23.658354,308.802581,-46.582586,274.095343
18,-3.312195,3.103786,-0.181252,-0.106816,0.0,-49.010078,-46.497803,2.392136,-47.997219,13.249649,-44.853046,11.667618,-38.956169,-14.562675,0.0,24.468304,5.212698,31.936486,6.11523,33.749922,4.900982,29.009306,2.759231,23.640516,0.0,60.257916,23.271355,86.7113,14.103459,85.603123,5.442067,72.698903,-2.203662,51.341618,0.0,19.570385,28.736344,55.254108,45.971465,69.965155,58.111448,79.001019,65.60628,84.416666,20.454157,311.906388,-46.65584,273.988548
19,-2.963241,-1.653342,-0.254734,-0.234578,0.0,-37.237931,-43.273465,6.00563,-45.60339,16.725723,-42.903351,14.274536,-37.373566,-6.393746,0.0,22.641023,6.782702,32.548209,8.563139,35.400844,8.237072,31.551187,6.853628,26.72622,0.0,60.375847,23.45818,87.093888,14.242081,85.770172,5.513432,72.818322,-2.165886,51.418167,0.0,19.397546,28.767306,55.212871,45.981691,69.98525,58.115462,79.05373,65.592486,84.520061,17.590731,310.255732,-46.810759,273.756656
20,0.171775,4.304398,-0.32492,-0.3408,0.0,-45.885761,-45.213958,4.311676,-46.703853,16.24347,-43.303493,14.909615,-37.127655,-8.157028,0.0,25.97394,4.456009,30.650447,3.284814,31.155479,0.266552,25.394277,-3.354665,18.216644,0.0,60.546364,23.832996,87.524688,14.594936,85.90821,5.730457,72.920562,-2.098858,51.49237,0.0,19.252864,28.661342,55.202139,45.872417,69.938306,58.041917,79.012628,65.535527,84.499585,17.851587,314.562718,-47.046598,273.418444
21,1.152306,2.143629,-0.309643,-0.359672,0.0,-44.879093,-45.300659,2.601906,-46.424549,15.292145,-42.564663,14.770409,-36.09351,-7.158852,0.0,26.178914,4.365692,30.091791,1.133367,28.420973,-3.733343,21.55944,-9.099961,11.710595,0.0,60.572285,24.412296,87.810848,15.178882,86.074825,6.13631,73.038265,-1.953003,51.639988,0.0,18.690072,28.276218,54.880741,45.49963,69.610091,57.744651,78.727157,65.327725,84.275036,19.092728,316.705566,-47.267406,273.057991
22,-0.338837,2.857636,0.235966,-1.021895,0.0,-48.258808,-45.85683,1.635521,-46.080619,15.849427,-41.001503,16.592606,-33.385952,-4.553878,0.0,29.50468,4.090039,29.305955,-2.639472,25.314088,-10.86291,16.667054,-19.049953,2.598495,0.0,60.52256,24.703296,87.421989,15.407833,85.676902,6.123584,72.398643,-2.321743,50.949714,0.0,17.523655,26.616379,54.358443,43.956018,70.103217,56.473679,79.17607,64.422636,84.037284,18.840219,319.562504,-46.945112,272.035398
23,-0.966957,0.27989,0.414722,-2.451689,0.0,-43.723217,-42.518097,-2.955322,-42.337955,15.744759,-37.049789,17.259682,-29.384159,-1.72245,0.0,30.279142,4.863364,28.590107,-2.851906,24.799003,-11.833021,15.527425,-20.525627,0.78738,0.0,61.054035,24.588856,85.895817,15.2131,83.602833,5.600887,70.147167,-3.392258,48.465008,0.0,15.56739,24.310038,54.54924,41.608786,71.755671,54.622476,80.786483,63.409139,84.639758,17.983732,319.830544,-46.41992,269.571859
24,8.014801,-3.699825,-0.682903,-4.439768,0.0,-53.169582,-43.035507,-22.246261,-41.874504,-3.874477,-36.218914,1.019692,-28.367695,-12.832603,0.0,34.537215,8.587111,29.335101,-1.701632,20.079505,-13.791004,8.342703,-25.820342,-6.646765,0.0,61.03878,24.081539,84.539337,15.096885,81.771377,5.876037,67.089248,-2.841671,46.007171,0.0,11.482452,19.971652,52.968009,37.232621,70.866057,51.069443,80.49864,61.449453,83.653172,26.116007,316.097973,-46.985349,265.099345
25,2.560181,-15.385819,-1.539608,-11.343168,0.0,-49.564556,-38.450764,-33.315502,-34.995609,-15.693432,-27.486969,-7.568687,-18.244217,-12.099999,0.0,35.835085,14.785481,38.054074,7.595041,32.101779,-1.789354,23.137793,-11.716832,9.313333,0.0,58.80534,33.081047,82.322147,25.079578,77.317806,15.7947,63.178859,5.88866,45.656032,0.0,3.622131,19.937146,59.820699,36.323037,78.119211,49.662003,86.466694,59.910324,87.245774,28.810375,300.6561,-48.39077,253.700123
26,9.586258,-28.562876,-5.140331,-19.874444,0.0,-49.113762,-36.001957,-46.827999,-30.408234,-30.548023,-21.476235,-20.925751,-11.198891,-16.222824,0.0,37.906664,17.945275,49.835016,16.328081,48.423414,12.598912,42.21252,7.918614,32.88454,0.0,56.450443,39.274326,77.654937,30.950695,70.306629,20.356876,54.72607,8.390773,38.98225,0.0,-6.706922,18.03853,61.77652,33.657642,77.902961,46.652942,82.505886,57.051329,81.822581,38.501347,272.131815,-53.426387,233.86427
27,14.209556,-34.928219,-9.502545,-26.29897,0.0,-48.998931,-33.563621,-60.345714,-26.432579,-44.516246,-16.87104,-33.166099,-6.124717,-23.165657,0.0,32.819208,17.185597,53.289581,20.919792,56.059198,22.842935,52.279566,23.251241,47.690325,0.0,53.249954,41.198135,74.438278,32.425724,65.553085,20.720867,50.790196,7.348869,34.902271,0.0,-18.647809,13.174636,54.643273,27.055598,69.289767,39.405149,73.860039,50.281397,73.102843,52.635818,237.317581,-63.004017,207.679285
28,19.590912,-42.784081,-11.757259,-32.147548,0.0,-50.495418,-34.834053,-69.905376,-26.213836,-59.106754,-15.73249,-46.860946,-3.974876,-32.816047,0.0,19.95483,15.764657,53.094004,24.302714,58.792851,30.924939,58.633498,35.440537,58.266725,0.0,47.833643,42.591419,68.961645,33.749714,59.219976,21.543428,45.750852,7.62462,31.481609,0.0,-29.324014,8.321992,45.353717,20.694372,57.621329,32.122737,62.210801,42.916836,62.354745,72.041427,194.798088,-74.946579,175.796325
29,14.751274,-41.676496,-12.741097,-37.391801,0.0,-47.718898,-32.208984,-67.09592,-22.146469,-57.346321,-10.654197,-45.334625,1.830689,-30.868881,0.0,5.125747,6.206559,48.687502,17.822917,60.390063,28.986002,63.386749,38.838953,63.519666,0.0,41.364744,43.382481,60.164641,34.335366,49.772593,21.451464,39.098814,6.874678,27.081436,0.0,-37.472284,4.767737,36.37136,15.734678,46.48253,25.879252,50.520417,35.749471,51.866104,86.657249,153.947624,-87.823128,139.230556
30,18.469941,-36.148781,-12.742441,-31.010835,0.0,-45.431271,-29.63276,-68.384995,-20.171894,-60.339844,-9.903946,-49.374321,1.087646,-36.057541,0.0,-10.334027,-5.459675,33.813362,5.639706,44.593749,17.802447,47.941838,29.683013,49.201565,0.0,36.224785,32.12174,52.473101,21.781712,43.517235,8.448389,33.092331,-5.353294,19.308626,0.0,-44.794449,-6.30815,16.016708,3.364493,23.606019,13.355629,29.047394,24.186747,32.124053,105.00721,118.698429,-100.685549,109.119307
31,12.741554,-27.592862,-10.131695,-23.069163,0.0,-40.882565,-23.519875,-66.127991,-15.140316,-60.41407,-6.597359,-49.711578,2.390121,-37.226166,0.0,-28.76245,-16.335837,12.083008,-6.116833,22.66396,6.278016,27.918951,19.252663,30.058146,0.0,30.43388,21.163256,47.733713,10.303162,40.448124,-2.493559,31.461022,-14.66423,16.60774,0.0,-52.223945,-18.672423,-2.010245,-11.049529,4.83611,-1.497883,14.132508,10.177011,16.827549,117.589136,91.866536,-110.976872,86.811113
32,10.284553,-20.831792,-6.698135,-17.27997,0.0,-37.326221,-17.560203,-65.799224,-9.546009,-63.358497,-2.133293,-53.57254,4.664269,-40.540374,0.0,-44.486828,-25.385144,-2.654203,-16.091605,6.970186,-3.468681,13.919522,10.578941,16.748567,0.0,25.839569,12.141191,42.969332,1.349281,36.556652,-10.044325,27.227154,-19.80304,13.079904,0.0,-56.52215,-26.643074,-12.399158,-19.914894,-7.225993,-10.447438,1.763573,1.423785,3.24546,127.878833,71.674765,-117.669863,70.171164
33,7.083641,-14.620695,-5.036327,-10.55522,0.0,-35.463489,-10.471412,-65.287307,-2.740093,-65.554641,3.746521,-56.099075,8.370415,-40.824554,0.0,-50.893056,-32.817133,-13.49035,-23.947257,-4.812527,-10.6593,3.098503,4.718791,6.807239,0.0,23.112939,4.703985,41.1007,-6.278756,36.070924,-16.937771,25.520135,-25.263892,10.632253,0.0,-60.599082,-33.666603,-23.109499,-28.11278,-18.531308,-19.162928,-10.305357,-7.540538,-9.871187,135.016199,57.581626,-122.652465,60.1435
34,4.473885,-9.364376,-3.823506,-4.034167,0.0,-34.824108,-6.895981,-64.699654,0.669651,-66.836243,6.697426,-57.741417,10.211083,-40.761589,0.0,-55.502045,-37.118895,-23.643074,-28.703348,-15.05563,-15.2313,-6.381593,0.616075,-1.334188,0.0,22.274214,-0.747305,42.631085,-11.979847,39.3687,-22.245792,27.601851,-29.90241,10.761263,0.0,-61.797262,-40.582006,-35.21555,-36.62805,-32.140796,-28.483449,-23.972612,-17.082754,-23.278812,139.484121,48.203517,-126.481934,56.0956
35,1.069473,-10.497251,-1.494284,-9.150682,0.0,-36.456985,-4.854217,-61.518539,3.524185,-62.086647,9.912529,-53.838455,13.122391,-38.437889,0.0,-53.192503,-40.564939,-26.717082,-32.839919,-19.519522,-19.336839,-11.206663,-3.02729,-6.491222,0.0,24.457501,-3.794059,40.219975,-15.68114,35.702774,-25.955978,23.742234,-33.27008,8.812008,0.0,-60.434888,-45.658027,-40.687977,-42.084685,-36.173781,-33.833261,-27.888889,-22.02142,-27.976932,140.363027,37.55569,-128.166785,46.794342
36,-1.577339,-13.173346,-1.393661,-11.29541,0.0,-37.982162,-3.742515,-53.392525,5.861481,-52.34095,12.781586,-45.804771,16.092796,-35.738754,0.0,-48.482249,-42.113867,-25.935154,-34.74524,-19.272328,-21.620054,-11.872622,-5.378535,-8.338096,0.0,26.439674,-3.219658,39.155983,-15.051624,33.184742,-25.31892,20.461739,-32.962624,6.431969,0.0,-59.401266,-47.128903,-44.656108,-44.406593,-38.465579,-36.924567,-30.003309,-25.891627,-29.010616,138.451824,24.522373,-129.89431,35.638961
37,-1.112602,-18.387321,-0.669193,-16.847427,0.0,-39.310692,-5.275055,-47.868363,4.992966,-45.648873,12.502083,-39.465248,16.864204,-33.697792,0.0,-42.694321,-42.61945,-28.335984,-35.898796,-21.589073,-23.740461,-14.276522,-8.223403,-11.687629,0.0,28.375099,-0.274853,35.80188,-12.377632,26.934139,-23.457321,13.936157,-32.622609,2.244575,0.0,-58.07081,-47.513904,-47.507519,-45.563894,-39.048231,-39.276665,-31.011582,-29.541829,-29.732076,136.80064,7.302428,-131.102085,19.95891
38,-0.189026,-23.301611,-0.42508,-23.445273,0.0,-40.070549,-8.639671,-45.591202,1.990791,-42.062416,10.103348,-35.840904,15.887123,-33.731598,0.0,-39.065669,-43.404781,-33.553697,-37.802604,-26.616598,-26.940312,-18.795763,-12.446629,-16.836944,0.0,30.803158,1.840256,32.855931,-10.598167,21.306874,-22.310314,8.88477,-32.65916,-0.389705,0.0,-56.982669,-48.487177,-48.268685,-46.6822,-38.877065,-40.726996,-30.644056,-31.370364,-30.825664,135.726271,-13.918914,-132.412508,-1.406094
39,0.870598,-28.526702,0.472607,-29.753485,0.0,-39.03653,-13.588715,-46.594551,-2.982788,-41.556748,5.785858,-34.660218,13.324196,-34.897316,0.0,-37.425207,-44.022405,-41.265867,-39.529964,-34.177914,-30.279135,-24.987649,-17.394288,-22.940401,0.0,31.451912,2.750427,29.491058,-10.154366,15.562431,-22.552849,3.18108,-34.024956,-4.168476,0.0,-59.847141,-48.625022,-47.940698,-46.745473,-36.134899,-41.063604,-28.574874,-32.373438,-31.748786,135.455115,-39.928135,-133.081655,-28.642098
40,1.627716,-31.136848,-0.802437,-31.614686,0.0,-37.748955,-14.03389,-47.060257,-3.964119,-41.532509,4.653763,-33.5495,12.479599,-33.246781,0.0,-41.857014,-45.175101,-43.744582,-41.18612,-35.856989,-32.906381,-26.810649,-20.949398,-28.160251,0.0,30.777558,4.427548,33.745171,-8.274387,20.079552,-20.799705,6.027706,-33.028049,-3.929523,0.0,-62.152969,-47.475094,-52.257799,-46.409717,-40.901018,-41.853231,-33.86907,-34.604681,-36.741458,135.624928,-67.765837,-135.341995,-56.957638
41,3.46891,-31.915105,0.854233,-36.012155,0.0,-35.345787,-14.554161,-53.511452,-5.848709,-49.143654,2.19619,-40.164917,10.01928,-35.509895,0.0,-46.714477,-45.892826,-51.265683,-43.135731,-43.724735,-36.153961,-34.794257,-25.54864,-36.007773,0.0,30.57312,4.836502,32.650417,-8.229275,18.442039,-20.990501,5.240467,-33.588009,-4.791172,0.0,-61.80327,-46.360894,-54.372636,-45.060603,-42.919509,-40.830555,-36.99193,-34.420155,-40.699983,137.641268,-96.702288,-135.940332,-89.991139
42,2.346504,-28.518449,-0.334099,-33.267957,0.0,-33.320152,-13.948547,-57.11129,-6.123138,-53.77211,1.758377,-42.83004,9.939118,-33.978767,0.0,-50.602826,-44.816141,-57.244381,-43.139282,-51.344965,-37.633578,-43.684165,-28.830502,-44.404382,0.0,31.220787,4.2537,35.026188,-9.129616,22.673905,-21.661514,10.060192,-33.626575,-1.997291,0.0,-62.290358,-44.520988,-58.934272,-43.829528,-50.601134,-40.647567,-45.246599,-35.48639,-47.137319,138.742609,-123.248876,-137.519594,-121.287235
43,0.302758,-26.139533,1.492184,-31.673203,0.0,-32.487648,-11.152291,-58.441338,-3.641213,-57.363442,3.670944,-46.92405,10.764541,-36.134148,0.0,-52.706298,-46.801122,-60.71482,-46.514127,-56.78007,-42.02503,-51.05043,-34.245728,-51.662653,0.0,29.797325,4.014324,36.343529,-9.804646,24.180702,-22.549828,11.448864,-34.558605,-1.256127,0.0,-63.474487,-43.562489,-61.265162,-43.759189,-53.648297,-41.426928,-48.844723,-37.074852,-49.853053,138.011536,-148.000189,-137.061241,-151.572218
44,-0.673851,-20.461733,0.864658,-24.526946,0.0,-31.851059,-6.164269,-56.621338,1.120285,-56.853402,7.54882,-46.938584,13.096138,-35.168518,0.0,-53.344669,-48.74078,-60.435332,-49.312762,-58.116373,-45.48268,-55.297328,-38.294494,-56.917006,0.0,29.690174,4.927632,39.401379,-8.788364,28.038048,-21.577457,15.47794,-34.04195,0.439728,0.0,-63.464982,-43.844727,-65.232323,-44.786452,-59.25198,-43.198617,-55.839232,-39.443434,-55.411124,136.485753,-167.073078,-137.048515,-174.71032
45,0.398574,-14.144238,1.109883,-16.281568,0.0,-29.962577,-5.804031,-57.725784,0.851693,-60.990829,6.836083,-51.468635,12.229042,-38.431594,0.0,-53.810853,-48.420582,-68.184663,-50.085157,-67.030614,-47.621794,-64.776977,-42.105679,-61.926422,0.0,28.938491,3.923664,36.984249,-9.840466,26.046546,-22.44397,16.099639,-34.645443,2.011859,0.0,-63.35798,-43.082464,-67.171553,-44.640374,-61.448521,-44.038422,-60.282564,-41.386935,-61.540256,136.387281,-180.280022,-136.435678,-190.054594
46,-0.221626,-6.852493,0.493995,-7.075661,0.0,-28.812652,-4.734077,-56.834633,1.689034,-61.436165,7.349419,-52.353332,12.0588,-39.502235,0.0,-53.636145,-48.161949,-70.914867,-50.497047,-70.737528,-48.83904,-69.059275,-44.361144,-64.760761,0.0,29.373814,2.355904,38.79229,-11.30167,29.792324,-23.239185,20.203491,-34.313244,5.172867,0.0,-63.409695,-42.128705,-71.445945,-44.451712,-67.724451,-44.621473,-67.189571,-42.665703,-67.79639,135.752563,-186.142875,-136.354775,-196.140615
47,-0.831184,-0.301437,1.904629,-0.565467,0.0,-28.03402,-4.345459,-55.536347,2.038673,-60.280426,7.746872,-51.731346,12.508896,-38.273369,0.0,-53.442787,-49.374469,-71.708469,-52.266219,-72.09634,-50.890235,-71.098126,-46.652844,-67.087879,0.0,28.070766,1.940884,38.153126,-11.444264,30.769249,-23.269375,21.01775,-34.46101,5.343761,0.0,-63.066909,-42.98765,-71.676143,-45.5769,-68.197277,-45.472172,-67.971873,-43.044135,-69.217839,134.281283,-185.409903,-135.090242,-195.671673
48,-0.825165,5.777946,1.502312,7.853769,0.0,-25.401764,-3.77108,-51.960342,2.465973,-53.348534,8.474167,-41.996063,14.074104,-27.655952,0.0,-51.937102,-46.47094,-69.385317,-49.268555,-67.857877,-48.140757,-65.653942,-44.309731,-68.245441,0.0,28.161483,0.1562,36.251804,-13.140061,28.51498,-24.399388,18.185932,-34.564236,1.68536,0.0,-61.8042,-43.087108,-71.676114,-46.110158,-68.735208,-46.00877,-69.466913,-43.467967,-69.490315,132.99333,-178.945833,-134.050718,-187.13178
49,-0.620316,7.016384,3.496696,12.291258,0.0,-24.57312,-3.774787,-48.317115,2.242951,-49.941032,8.361077,-37.980194,14.254715,-21.902137,0.0,-48.003366,-41.742587,-61.085888,-43.804001,-60.650382,-42.359866,-59.601425,-38.66528,-63.588107,0.0,27.619949,-1.611219,34.057589,-15.036815,25.053721,-25.882667,13.783693,-34.828165,-1.788036,0.0,-59.875355,-42.237066,-66.901743,-45.03095,-63.432668,-44.240572,-63.213028,-40.927588,-62.355446,131.950721,-171.663092,-130.976315,-174.574165
50,-3.17498,13.922739,4.533371,16.12745,0.0,-24.948486,-1.51403,-45.604477,4.42479,-46.543899,10.167389,-35.396713,15.476303,-19.776878,0.0,-45.94754,-40.582816,-54.54497,-41.133531,-52.432923,-38.078722,-50.311028,-32.799398,-54.609111,0.0,26.097542,-1.224626,34.524839,-13.945278,25.192835,-24.325848,11.951792,-32.909288,-4.285984,0.0,-57.03473,-42.179727,-61.746952,-43.852643,-58.347086,-41.545666,-55.696704,-36.517271,-51.326173,129.01819,-158.149977,-126.200495,-158.856339
51,-2.621132,12.571399,4.489044,18.57609,0.0,-26.727447,-2.777549,-42.346275,2.327248,-43.814369,7.492104,-33.323524,12.710015,-18.952034,0.0,-40.600634,-35.275016,-44.085203,-34.292141,-37.576432,-30.203399,-34.728451,-24.604594,-39.861781,0.0,21.98082,0.882819,33.761526,-9.620628,24.772246,-18.355293,12.643942,-25.842348,0.184918,0.0,-55.136741,-42.330207,-54.214244,-42.183094,-49.334589,-38.012436,-45.543906,-31.060563,-41.050936,127.061279,-146.125721,-121.04723,-140.827392
52,-2.555008,16.522023,4.130772,20.62138,0.0,-26.158069,-3.79636,-40.152408,-1.098598,-41.916595,1.357052,-34.725265,3.664696,-25.235893,0.0,-39.347331,-32.898676,-40.185848,-29.89632,-25.451213,-24.089742,-20.686706,-17.191057,-26.205831,0.0,16.240196,4.197905,32.769728,-3.044472,24.902487,-8.94944,15.847292,-14.078791,10.557346,0.0,-55.531212,-42.51552,-46.921122,-40.115187,-40.595914,-33.866567,-35.472937,-24.92219,-32.72692,126.015466,-130.348812,-115.407263,-120.951126
53,-2.18312,21.962059,3.039253,22.285566,0.0,-24.64967,-6.502316,-40.311894,-7.564305,-43.080094,-9.014111,-41.829369,-10.679856,-38.236748,0.0,-44.297072,-34.184921,-44.992911,-28.752829,-21.24405,-20.692574,-15.855323,-11.779093,-15.991019,0.0,8.397274,9.836821,33.351202,7.473965,30.891237,5.627712,27.512655,3.519178,30.985508,0.0,-58.244664,-42.111308,-41.673843,-36.980625,-35.308486,-28.597506,-28.620929,-17.870148,-29.068051,126.13698,-109.219127,-110.063376,-99.497934
54,-4.502701,24.542634,4.012162,21.360948,0.0,-19.275478,-9.146565,-38.523205,-14.215244,-42.325287,-19.543385,-45.571793,-24.66536,-55.194054,0.0,-51.137104,-36.358938,-47.013687,-28.943654,-19.74358,-19.00542,-11.330618,-8.732724,-15.852637,0.0,-1.399018,14.04634,31.637786,17.182468,34.072528,20.047256,36.145397,21.964816,52.032096,0.0,-61.36856,-40.840339,-39.069282,-33.706925,-32.564222,-23.873426,-24.315213,-12.415303,-31.635465,124.383396,-85.622957,-103.302097,-79.08345
55,-3.723656,21.385013,4.245277,20.899384,0.0,-10.63615,-13.497585,-34.353458,-22.83942,-40.819061,-31.913257,-47.590553,-39.921959,-69.57209,0.0,-55.49918,-34.560225,-47.428041,-26.56428,-19.743138,-16.535891,-11.281917,-6.922581,-22.25168,0.0,-10.653923,17.513317,27.991424,25.844959,34.874611,33.181801,42.427517,39.04256,70.994533,0.0,-65.32917,-39.543717,-39.493162,-31.338245,-33.359076,-20.977325,-24.979444,-9.753064,-37.953242,123.110962,-64.421293,-96.605598,-58.367415
56,-4.455643,24.245614,4.970676,18.706052,0.0,-1.154994,-14.996875,-32.371318,-27.920459,-40.074211,-40.298183,-49.85733,-51.107849,-81.73249,0.0,-64.398328,-37.23709,-51.856018,-28.279015,-26.472741,-17.351944,-17.323714,-6.87687,-34.843763,0.0,-17.578197,19.943661,25.408978,32.357384,35.296219,43.02023,46.680279,51.677323,84.433384,0.0,-67.009454,-37.967148,-41.060138,-29.317954,-35.229311,-18.971248,-27.191541,-8.381258,-43.701985,120.406082,-40.200494,-89.884159,-39.686178
57,-3.986297,18.665948,5.451824,15.478408,0.0,5.911262,-14.566292,-29.2622,-29.559723,-39.54451,-43.770493,-51.094826,-56.148857,-89.754158,0.0,-69.320043,-37.192464,-49.790666,-27.317999,-29.998609,-15.960937,-20.426159,-5.436913,-43.243418,0.0,-23.049797,19.958474,22.962868,35.354886,35.071495,48.496594,48.3933,59.257931,92.46983,0.0,-66.734022,-35.411836,-42.80672,-26.571128,-37.107756,-16.445802,-29.250127,-6.625795,-47.383074,117.558867,-21.368215,-83.293253,-24.041439
58,-4.710732,11.314621,5.580094,11.49842,0.0,11.040276,-10.33049,-24.885406,-24.200912,-37.822563,-37.826179,-48.770782,-50.272224,-85.410553,0.0,-68.581452,-34.443484,-39.364035,-24.211849,-27.683537,-13.168627,-18.339094,-3.310643,-39.089314,0.0,-26.720226,16.083137,21.586395,32.481537,33.979328,46.837166,47.187664,58.986568,90.97023,0.0,-65.252796,-33.135166,-44.139046,-23.623657,-37.389744,-13.374509,-28.165962,-4.053469,-47.212716,113.14512,-9.836532,-77.416174,-12.325957
59,-5.106239,8.823276,3.573509,8.952643,0.0,11.204521,-3.622993,-21.975288,-13.73513,-33.005424,-24.581543,-42.514778,-35.330864,-71.447777,0.0,-68.535412,-35.661123,-34.627106,-25.471273,-22.643666,-14.069554,-12.867329,-3.1222,-33.547826,0.0,-23.542145,10.512692,21.028484,24.354206,32.281483,37.279667,44.037941,48.754761,81.731323,0.0,-65.360156,-33.190056,-42.824009,-23.203582,-35.097044,-12.426004,-25.434544,-2.674268,-38.354706,107.917614,-0.686294,-73.963932,-3.046352
60,-4.131409,7.064969,5.851009,7.921411,0.0,7.588463,3.169258,-17.540519,-1.767311,-24.692138,-7.949524,-30.70919,-15.250946,-38.780479,0.0,-67.50626,-36.68298,-30.644074,-26.953406,-18.986547,-15.990714,-10.216667,-5.010397,-35.735402,0.0,-18.006076,2.06432,17.758919,10.021695,25.300072,18.482541,34.254067,26.803093,61.948471,0.0,-64.501158,-34.663433,-39.673034,-25.57691,-29.661551,-14.776343,-20.40669,-4.0922,-30.213291,103.382337,6.248755,-68.516791,4.745139
61,-0.708618,6.075802,0.298199,7.528172,0.0,1.642502,7.021385,-12.502464,7.749092,-15.015449,6.921295,-16.086593,4.053818,-9.946724,0.0,-65.752666,-38.471099,-26.337038,-30.206622,-15.213578,-20.417841,-6.381201,-10.065842,-31.62958,0.0,-7.910339,-4.585407,15.241608,-2.687588,18.237843,0.955834,23.08429,5.431114,35.196659,0.0,-64.075729,-36.649895,-34.872632,-28.773142,-23.121189,-18.445682,-13.400809,-7.678164,-32.151526,102.640371,11.811696,-68.25194,11.76045
62,5.275292,5.700304,-7.385427,6.267664,0.0,-4.979393,11.084839,-9.966683,17.801284,-6.738579,22.418655,-3.511643,24.385917,20.962944,0.0,-65.207243,-42.75625,-22.968819,-35.947162,-11.900033,-27.055949,-4.753021,-16.956144,-38.46414,0.0,-1.200171,-11.334641,12.387182,-14.976963,12.458513,-15.493618,14.173067,-14.024552,13.547796,0.0,-64.302245,-39.154427,-32.515307,-31.75008,-18.446534,-21.304482,-7.636631,-9.863175,-29.460532,107.854283,16.089795,-75.698747,16.605909
63,12.334556,4.138235,-14.716175,5.759498,0.0,-9.709625,12.431442,-8.008186,22.028183,-2.110313,30.004624,2.746124,35.568466,38.760407,0.0,-65.69459,-45.413365,-20.491967,-38.79298,-9.412134,-29.821305,-3.41799,-19.270889,-51.403062,0.0,1.775934,-16.708764,8.262342,-24.490506,8.183195,-28.092087,7.899312,-28.766087,1.135522,0.0,-64.430785,-40.919643,-33.194919,-33.981833,-17.242253,-23.379222,-6.103393,-11.080436,-23.924102,119.652826,18.317617,-90.950935,20.454994
64,21.302353,3.217431,-22.473942,5.193641,0.0,-11.368572,12.437519,-5.943569,22.76865,0.624321,31.882839,6.738522,38.959797,53.652454,0.0,-66.401305,-45.155387,-22.269245,-38.868522,-11.720883,-30.701045,-7.271243,-21.054263,-59.465217,0.0,-1.890433,-18.786415,6.818647,-27.020989,6.070123,-31.301468,6.193651,-32.164181,-1.853274,0.0,-64.73199,-41.22125,-32.893175,-34.561551,-16.95142,-24.048867,-6.202316,-11.494922,-25.002825,139.354477,18.27793,-115.025579,22.391517
65,28.942543,0.798056,-29.962818,1.800216,0.0,-9.846851,13.358448,-5.975933,22.86739,-0.565361,30.82806,5.113781,37.203358,49.421162,0.0,-68.278375,-45.711943,-24.514713,-38.829427,-13.222974,-30.20924,-8.313788,-20.097835,-56.041855,0.0,-5.584288,-22.402382,6.584821,-29.275818,6.829141,-31.809826,7.907014,-30.662236,-1.488047,0.0,-66.800104,-39.061134,-31.914061,-31.151576,-17.493416,-19.887655,-6.470202,-7.057501,-24.528878,166.353733,15.616305,-146.931684,20.732052
66,28.540169,-0.473292,-31.066166,0.530486,0.0,-6.538914,16.366756,-5.929676,25.576847,-1.420486,32.922581,2.792988,38.529842,56.437076,0.0,-70.924677,-45.745431,-26.254802,-37.397522,-13.685651,-27.395879,-8.944643,-16.107172,-59.566926,0.0,-13.715315,-25.723412,5.107973,-31.128182,7.179857,-31.994591,9.771017,-28.440857,6.618616,0.0,-66.970029,-37.396213,-33.5085,-27.966385,-18.945527,-15.323177,-7.242546,-1.009122,-13.347182,192.814573,12.087899,-180.077179,18.207424
67,25.668411,-2.013273,-28.277052,-0.443498,0.0,-2.110325,19.815869,-3.654636,28.223957,-0.860367,34.640522,2.676647,39.018574,61.4641,0.0,-72.043113,-43.643731,-27.133764,-34.396977,-12.948568,-23.454363,-6.975058,-11.320299,-53.938259,0.0,-19.191061,-29.72505,3.824941,-34.461073,5.541361,-34.466635,8.909872,-29.405205,8.610557,0.0,-67.521679,-35.668937,-32.72778,-25.53595,-19.103574,-12.269242,-7.476527,2.651269,-7.736811,216.673084,7.89467,-210.164131,15.58397
68,22.623619,-0.443121,-25.487938,-1.417481,0.0,1.007504,23.530506,-1.226223,32.403111,1.498673,38.918484,5.671246,43.118099,69.585491,0.0,-73.485936,-43.336492,-28.745925,-34.381046,-13.772454,-23.458722,-7.17185,-11.452222,-51.403183,0.0,-22.011526,-34.407297,2.735727,-39.274493,1.913652,-39.225958,5.32358,-33.555279,4.487778,0.0,-68.455055,-33.879304,-29.571901,-23.860272,-17.967557,-10.725852,-7.172146,3.923674,-7.697766,238.159006,5.733915,-236.789766,12.448855
69,17.373802,-0.099455,-19.867047,-1.479021,0.0,3.720543,26.670159,0.380768,36.266625,3.508095,43.307122,7.711098,47.725068,78.729012,0.0,-74.554508,-42.782409,-29.160231,-34.013054,-13.661439,-23.050824,-6.811207,-11.097216,-50.820546,0.0,-21.838125,-39.090734,-0.806974,-45.17375,-2.165433,-45.909776,0.087748,-41.298488,-14.720363,0.0,-68.923235,-32.02247,-29.317718,-21.992977,-17.067841,-8.947187,-6.932641,5.670105,-12.83674,255.657274,5.240955,-256.532347,10.576329
70,11.163277,1.138301,-17.007648,-1.668786,0.0,4.876396,28.070641,1.614327,38.697258,5.09388,46.987679,9.47699,52.42218,87.626747,0.0,-75.682769,-43.257331,-28.678683,-34.475323,-12.721042,-23.280029,-6.205849,-11.180876,-53.266455,0.0,-24.019953,-40.392717,-1.694407,-46.328402,-2.631735,-47.027521,-0.772333,-42.728188,-26.389172,0.0,-68.723726,-30.837097,-29.816168,-20.594991,-16.495737,-7.483147,-6.125027,7.070252,-17.789661,267.332571,6.30703,-273.027975,8.835317
71,7.798668,0.482116,-11.013863,-2.750716,0.0,6.907333,30.370651,2.930717,41.1679,6.258339,49.518906,10.597572,55.229416,89.527977,0.0,-76.049214,-43.155961,-28.5248,-34.491008,-12.226668,-23.330368,-6.616501,-11.154057,-53.309316,0.0,-26.815755,-44.06904,-2.486257,-50.045797,-3.28763,-50.460542,-1.71718,-46.270843,-39.221397,0.0,-70.894511,-29.630394,-28.360006,-18.801351,-15.029423,-5.39282,-5.915044,9.071608,-22.625829,275.812826,6.714502,-283.360251,6.009957
72,4.026215,0.490113,-6.512718,-1.840591,0.0,8.412529,31.059608,3.771331,41.98677,6.861465,50.384605,10.812812,56.436721,89.517494,0.0,-75.909442,-43.09247,-28.104823,-34.320576,-12.201122,-23.013736,-7.350528,-10.601478,-52.189373,0.0,-27.863846,-45.43951,-2.415275,-51.376819,-3.019901,-51.790912,-1.853325,-48.11998,-51.671482,0.0,-72.454327,-29.398544,-27.406092,-18.018079,-13.590284,-4.215503,-5.77488,10.471258,-27.587367,280.252774,7.14573,-289.459236,4.110481
73,0.434303,0.697304,-2.099521,-0.938063,0.0,8.926186,31.672623,4.205612,42.700722,7.27922,51.06324,11.428917,57.306106,89.149521,0.0,-75.802329,-43.38566,-27.588818,-34.462016,-12.136679,-22.788532,-7.919373,-9.870569,-51.231655,0.0,-27.141976,-44.350972,-1.311654,-50.093972,-1.623734,-50.681797,-1.04916,-47.795117,-62.975956,0.0,-73.245097,-29.516654,-26.897862,-17.570666,-12.031376,-3.250776,-5.30633,11.908129,-32.287561,280.918562,7.799015,-291.327272,3.128399
74,-1.44825,0.905409,-0.286515,-1.198285,0.0,8.898262,31.508789,4.29039,42.528969,7.26384,50.888352,12.217278,57.341377,87.784882,0.0,-75.896313,-44.025592,-27.066002,-34.848493,-11.693737,-22.726967,-7.801429,-9.254985,-50.266175,0.0,-26.649627,-44.170097,0.146336,-49.829509,0.298085,-50.285934,0.742642,-47.11449,-62.485061,0.0,-73.45088,-29.618956,-25.929461,-17.247897,-10.966731,-2.477272,-4.694038,13.111014,-30.844238,279.515379,8.649238,-291.56872,1.874928
75,-2.513306,0.571093,1.004036,-0.376955,0.0,9.166535,32.546654,3.473557,43.462098,6.738511,51.506859,12.029572,57.550095,88.511239,0.0,-76.220034,-44.657256,-26.861862,-35.004876,-11.531439,-22.412911,-6.645339,-8.652783,-49.404695,0.0,-26.024151,-43.548065,0.863526,-49.165523,1.299992,-49.632408,1.908062,-46.437423,-62.139839,0.0,-74.183271,-30.335384,-25.372683,-17.605506,-9.93608,-2.448657,-4.490917,13.552227,-30.290757,277.031913,9.149003,-290.534844,1.426645
76,-2.063667,1.194506,0.905709,-0.028603,0.0,8.852394,33.535721,2.802796,44.244942,6.189423,51.929947,11.399231,57.354996,87.902344,0.0,-76.800655,-45.307197,-26.822218,-35.505431,-11.313521,-22.692424,-6.294133,-8.843591,-49.217505,0.0,-25.135552,-42.794232,1.748062,-48.236596,2.848754,-48.575421,3.864635,-45.231778,-61.287667,0.0,-74.336968,-30.281068,-25.301565,-17.366174,-9.309894,-1.980095,-3.796842,14.277949,-29.875572,274.97644,10.240525,-289.620941,1.295058
77,-1.385216,1.175598,0.807117,-0.01508,0.0,8.67968,33.990807,2.191178,44.574646,5.631958,52.099228,10.805237,57.108994,86.888237,0.0,-77.89762,-45.737604,-26.891267,-35.80999,-11.076011,-23.00695,-6.042654,-9.24755,-49.237197,0.0,-24.590366,-42.285118,2.542122,-47.538059,4.148334,-47.715168,5.408787,-44.208469,-60.445026,0.0,-74.077054,-29.77348,-25.069315,-16.735862,-8.597293,-1.214914,-2.915156,15.152057,-29.236035,273.619949,11.301452,-288.785099,1.165307
78,-0.677536,0.850976,0.748535,0.048993,0.0,8.259819,34.289383,2.221207,44.656083,5.361718,51.929215,10.036103,56.495728,86.211777,0.0,-78.582623,-45.892949,-26.87778,-35.902535,-10.896805,-23.180283,-6.11242,-9.521191,-49.468866,0.0,-24.5056,-42.159954,2.825638,-47.314098,4.651669,-47.401119,6.056362,-43.896789,-59.788341,0.0,-73.721063,-29.697613,-24.947728,-16.654098,-8.108681,-1.082929,-2.25954,15.369208,-29.019612,272.98245,12.053319,-287.996527,1.115191
79,-0.413841,0.484414,0.926239,-0.020581,0.0,8.014252,34.573769,2.603829,44.777756,5.360001,51.901314,9.351036,56.132858,85.710663,0.0,-79.076312,-46.004631,-27.03588,-35.925618,-10.968596,-23.233444,-6.428224,-9.64949,-49.923288,0.0,-24.639438,-42.311565,2.615009,-47.406807,4.482342,-47.465732,5.862259,-44.011745,-59.349346,0.0,-73.496526,-29.458547,-24.848483,-16.407881,-7.79762,-0.825752,-1.888828,15.649481,-28.803721,272.601311,12.445901,-287.037586,1.002778
80,-0.025703,-0.183065,0.384247,-0.23078,0.0,8.019584,33.720016,2.881965,43.822059,5.482292,50.971252,9.059715,55.236328,83.585518,0.0,-78.853356,-45.224563,-26.965917,-35.326281,-10.680247,-22.763802,-7.113493,-9.091711,-49.089491,0.0,-24.349525,-42.006798,2.910507,-47.111286,4.893539,-47.178394,6.004532,-43.708248,-58.247017,0.0,-72.968782,-29.155747,-24.60242,-16.122798,-7.553539,-0.498128,-1.310671,16.035798,-28.084254,272.617682,12.187571,-286.611265,0.696733
81,-0.309014,-0.92688,0.504684,0.004285,0.0,8.192299,32.791306,2.899613,42.854622,5.313675,50.039223,8.656563,54.442978,82.583954,0.0,-78.547469,-44.571256,-26.898961,-34.578829,-10.673892,-21.994342,-7.164691,-8.154729,-48.02692,0.0,-24.250282,-41.774288,2.984219,-47.02153,4.820378,-47.158184,5.769825,-43.666511,-56.906433,0.0,-72.769384,-29.179459,-24.64651,-16.179114,-7.843741,-0.544879,-1.207455,15.974597,-27.538701,272.378265,11.202121,-286.036984,0.642448
82,-0.641876,-0.861764,0.691132,0.111373,0.0,8.293442,32.292183,3.381409,42.260445,5.498726,49.364273,8.841065,53.769356,81.993164,0.0,-78.000632,-43.999021,-26.865869,-33.960399,-10.894033,-21.264199,-7.711231,-7.233721,-47.505772,0.0,-24.428169,-41.700325,2.924446,-47.202736,4.564556,-47.449436,5.473572,-43.881912,-55.074142,0.0,-72.843719,-29.546862,-24.909245,-16.612237,-8.406065,-0.897814,-1.163384,15.708737,-26.975408,271.85642,10.305733,-285.225821,0.719197
83,-0.879364,-0.767898,0.809441,0.308901,0.0,8.553932,31.818535,3.378159,41.815018,5.519463,48.971306,9.154221,53.551781,81.338814,0.0,-77.422604,-43.626456,-27.138083,-33.547177,-11.168932,-20.777303,-7.995338,-6.631364,-47.094865,0.0,-24.490414,-41.227799,3.016399,-47.19888,4.27486,-47.782723,5.285911,-44.319878,-53.677105,0.0,-72.806144,-29.958454,-25.497178,-17.22111,-9.478059,-1.558105,-1.486938,14.939085,-26.940205,271.160986,9.532454,-284.23245,1.022717
84,-1.103142,-0.71313,0.81419,0.28951,0.0,8.718201,31.490799,3.091484,41.621338,5.40136,48.879799,9.401024,53.670319,80.857521,0.0,-76.766124,-43.401271,-27.076426,-33.329581,-11.085632,-20.534291,-7.928976,-6.291805,-46.386274,0.0,-24.553185,-40.998917,3.368545,-47.292012,4.247051,-48.050515,5.650142,-44.597374,-51.755082,0.0,-72.962502,-30.442317,-26.339286,-17.773448,-10.326243,-2.096994,-1.458483,14.345418,-26.326757,270.287681,8.859653,-283.188423,1.352556
85,-1.747764,0.073865,1.028446,0.125909,0.0,9.156349,32.580208,2.857521,42.740501,5.664528,49.729133,9.675842,54.237487,82.214927,0.0,-76.913256,-44.058474,-27.015261,-33.736158,-11.573286,-20.765613,-7.304394,-6.526771,-47.238318,0.0,-24.932179,-40.894501,3.714397,-47.277466,4.219757,-48.093556,5.920372,-44.67128,-50.627484,0.0,-73.123504,-30.318476,-26.365789,-17.740189,-10.221366,-2.151755,-0.844881,14.174079,-25.925762,268.790743,8.996618,-281.909151,1.541565
86,-1.43042,0.955767,0.783542,0.315181,0.0,8.787391,33.396332,2.158378,43.448433,5.160988,50.235855,9.290519,54.442543,82.144913,0.0,-77.253835,-44.761459,-26.890328,-34.471389,-11.563956,-21.532226,-6.81212,-7.472998,-48.137904,0.0,-24.557556,-40.23516,4.872025,-46.651474,5.415127,-47.573753,7.245564,-44.259578,-49.285755,0.0,-73.055289,-30.569147,-26.474545,-18.059229,-10.081305,-2.474957,-0.27755,13.831326,-25.603938,267.614222,10.029937,-280.87171,1.934298
87,-2.019036,1.402216,0.859944,0.611316,0.0,8.343384,34.396821,1.155465,44.321549,4.383889,50.781212,8.473938,54.55822,81.416657,0.0,-77.486269,-45.434002,-26.908563,-35.223182,-11.840783,-22.257528,-6.360156,-8.18025,-48.511766,0.0,-24.245213,-39.677021,6.251037,-46.119038,6.79121,-46.990311,8.656105,-43.384209,-43.264916,0.0,-73.344126,-30.79669,-26.733241,-18.374119,-9.922087,-2.825458,0.192612,13.39816,-24.135018,265.847894,11.513096,-279.759058,2.626557
88,-3.456939,1.403587,1.723675,0.715045,0.0,8.475105,35.275177,0.018997,44.967842,3.827453,50.938316,7.609314,54.185028,79.602127,0.0,-77.344657,-45.483976,-26.790997,-35.126419,-11.789815,-21.888835,-5.535035,-7.536916,-47.547403,0.0,-24.003399,-39.562912,7.869415,-45.776803,8.47998,-46.353333,10.163417,-42.144619,-38.128407,0.0,-74.458529,-30.744134,-26.161611,-18.096964,-8.739931,-2.382448,1.346561,14.008878,-22.522382,262.616524,12.977886,-277.809814,3.402805
89,-4.721512,1.860336,2.696834,2.082638,0.0,7.670288,36.515098,-1.461434,45.603493,2.861046,50.489365,6.080086,52.356377,75.899506,0.0,-76.890656,-44.772148,-26.763888,-34.097336,-11.613462,-20.463833,-4.006694,-5.721213,-44.075048,0.0,-23.484878,-38.567184,9.92474,-44.605121,10.451271,-44.962452,11.723042,-40.257213,-33.528774,0.0,-75.566313,-31.396095,-25.815754,-18.628204,-8.475306,-2.762954,1.521468,13.891502,-21.041823,258.091518,14.861286,-274.916474,5.508507
90,-6.075188,4.013363,4.176441,2.822426,0.0,5.709069,34.658776,-3.098167,43.547241,-0.71109,48.36422,2.347,50.073624,58.470818,0.0,-76.420797,-44.73101,-29.095059,-34.348055,-13.071864,-20.886212,-4.495146,-5.97634,-35.143691,0.0,-22.632671,-38.104831,12.063927,-43.961494,12.43903,-43.903335,13.676319,-38.310024,-26.369133,0.0,-76.800969,-32.365459,-25.429079,-19.435874,-8.90252,-3.357901,1.138363,13.67151,-18.103603,252.180713,18.786781,-270.57565,8.243065
91,-8.627838,6.089326,5.922982,4.099579,0.0,3.732491,32.679611,-6.584473,41.558991,-6.077385,46.081947,-3.549728,47.492867,38.514519,0.0,-75.564121,-45.123848,-31.627586,-35.028632,-14.968695,-21.556458,-4.891991,-6.547736,-26.058236,0.0,-21.558609,-36.590802,14.562652,-42.644806,14.773475,-42.648686,15.861934,-36.75158,-17.087437,0.0,-78.490171,-33.871676,-25.364402,-20.877086,-9.04181,-4.614726,0.922045,12.879679,-14.97658,243.685083,24.675011,-264.52046,12.141548
92,-9.007461,7.546215,7.604564,4.958521,0.0,-0.579346,28.418357,-14.95102,36.46875,-17.056572,40.053337,-15.482575,40.471252,14.060462,0.0,-72.97978,-43.832814,-32.387628,-33.701831,-16.17665,-20.123527,-4.599578,-5.012905,-16.857276,0.0,-19.069256,-34.114288,18.849987,-40.198448,19.698738,-40.458915,19.581562,-35.399265,-10.523941,0.0,-78.86239,-35.235631,-24.852435,-22.5044,-8.842467,-6.174189,1.413486,11.526789,-11.829236,234.560956,31.693498,-257.032562,16.572341
93,-10.793198,9.675126,7.728195,5.767587,0.0,-9.608597,20.827537,-27.617855,28.46767,-31.686264,31.959274,-29.686672,32.313824,-9.75087,0.0,-70.182592,-40.93881,-28.849157,-30.345897,-12.709828,-16.486326,0.05313,-1.165647,-4.09149,0.0,-14.071964,-29.896728,24.568028,-35.611118,27.503426,-35.663166,26.969113,-31.081649,2.491608,0.0,-76.712555,-35.086979,-25.441608,-22.507704,-10.237032,-6.339908,0.676421,10.867949,-8.795407,223.622984,40.549551,-249.449141,21.520855
94,-12.638283,11.555546,7.996514,4.014228,0.0,-21.783646,9.673187,-44.289516,17.478916,-49.347496,22.022438,-45.477299,23.824413,-32.257164,0.0,-67.036964,-36.659871,-21.192958,-25.245548,-4.831211,-10.872615,8.40265,4.855302,10.670681,0.0,-7.000992,-23.061814,31.279598,-27.937706,35.041763,-28.008419,33.616413,-24.58556,15.887489,0.0,-71.236307,-31.354303,-23.598155,-18.736427,-8.97893,-2.724416,2.532076,13.743919,-1.49893,211.041092,51.419322,-241.396236,24.849308
95,-11.993568,11.683048,11.2794,9.313697,0.0,-34.934143,0.185737,-57.010403,7.023754,-64.268715,11.452171,-60.975392,13.283123,-46.824303,0.0,-59.045114,-30.519465,-21.18774,-17.489758,-3.024659,-1.89345,10.551626,14.225692,19.183191,0.0,0.130771,-11.641514,39.377849,-15.626404,44.652797,-16.117676,43.025631,-14.085183,30.992546,0.0,-68.38684,-30.391614,-21.897375,-17.864449,-7.455627,-1.876267,3.86302,14.522308,3.36118,199.478577,62.577892,-229.685783,33.638527
96,-18.431992,13.223319,12.430275,9.156388,0.0,-46.967697,-13.250816,-71.96838,-7.020275,-77.434479,-1.759071,-72.257915,1.90424,-54.904632,0.0,-45.775685,-18.923966,-4.471217,-3.895262,12.856338,12.437846,25.812562,28.490878,35.36934,0.0,8.890651,-3.689839,50.690323,-7.108075,54.391616,-8.44962,51.144138,-8.211628,39.078369,0.0,-62.802033,-24.421059,-17.080614,-10.781671,-2.918262,5.497615,9.305683,21.422527,14.345955,181.724665,75.621558,-216.577428,42.615262
97,-18.878494,15.155262,14.633588,12.977387,0.0,-57.662705,-24.326798,-83.435589,-17.914845,-87.556389,-11.158562,-79.533199,-4.936604,-59.348351,0.0,-34.053771,-9.097574,11.414873,7.540315,29.576638,24.2022,41.43943,39.700387,51.98351,0.0,17.129391,6.36858,60.526972,3.043814,62.834708,0.535567,58.9,-0.943662,46.807017,0.0,-57.251592,-18.140684,-11.006746,-3.178967,2.426186,13.485506,14.947335,29.228014,23.980306,163.758293,91.275405,-201.031718,56.091234
98,-21.338745,18.787517,17.723603,16.907275,0.0,-63.895752,-31.834191,-89.279228,-25.434563,-93.278,-17.681008,-83.655419,-9.812783,-63.17347,0.0,-20.425697,-0.166591,24.198084,17.463201,42.455075,34.162273,53.79962,48.735197,64.726973,0.0,23.464576,17.52697,69.19277,13.475263,69.754949,8.920332,64.330289,4.660967,50.911588,0.0,-52.698259,-13.217207,-2.785827,2.609616,9.907483,19.800782,22.267242,36.014909,34.208033,143.291325,110.979443,-182.436338,73.91503
99,-19.937783,20.041195,19.314342,19.615821,0.0,-66.68946,-35.450134,-90.85604,-29.454231,-95.210163,-21.69905,-85.528633,-13.298011,-65.793594,0.0,-6.915775,6.666988,33.318787,24.884885,51.288132,41.149252,62.152746,54.354447,73.753747,0.0,29.060749,23.837643,76.948774,18.244131,76.873003,11.573553,69.061884,5.194308,50.089171,0.0,-47.718619,-8.447098,6.651952,6.903011,19.810835,22.751161,30.494793,37.380161,41.131471,123.993169,131.857918,-162.482369,94.368131
100,-19.860076,20.408227,17.155243,20.925152,0.0,-68.294884,-37.489472,-95.942734,-31.35569,-97.500573,-23.51587,-85.818352,-14.468377,-64.961152,0.0,2.975783,13.615836,52.752098,31.845138,67.962077,47.441501,78.328897,59.617571,85.877057,0.0,36.937866,25.831742,84.998823,19.232248,83.271441,11.51045,73.200594,4.034311,51.70233,0.0,-39.395663,-1.546206,17.100616,15.151977,29.912233,31.422235,40.079581,45.448859,50.87852,104.390866,153.082146,-145.069353,116.109284
101,-15.757782,20.905077,18.289215,23.950564,0.0,-68.609139,-37.007332,-94.706246,-30.774674,-97.906792,-22.938881,-87.109795,-13.923706,-66.202401,0.0,9.678253,17.080213,54.749101,35.018041,71.523365,50.09165,81.90687,61.138255,90.193948,0.0,42.712155,31.116967,86.68511,24.392252,85.949553,16.367094,76.338781,8.220206,56.922438,0.0,-27.267994,3.433329,30.002735,20.444679,45.523787,36.576505,54.005348,50.268504,60.848847,88.715058,174.53402,-126.698164,140.606645
102,-13.26178,28.783312,14.205752,21.415025,0.0,-70.52282,-37.381027,-95.901123,-32.574623,-98.873417,-26.061974,-87.942822,-18.736359,-68.400055,0.0,20.969526,17.804546,52.54061,28.997129,57.384892,37.806356,60.671657,43.163278,66.331922,0.0,49.902248,32.441116,90.768882,25.337928,90.018711,17.21632,79.329849,9.003296,59.097038,0.0,-17.954334,9.354539,40.006906,26.789514,55.847332,42.382185,63.327097,54.691364,67.641673,75.576914,203.419807,-112.368776,162.124145
103,-10.453949,22.336742,12.834949,19.787339,0.0,-69.986916,-36.436386,-96.850262,-32.575859,-99.531487,-27.223091,-90.280277,-21.095169,-70.315476,0.0,28.743347,19.108097,49.359846,25.410517,44.724835,29.268633,43.776583,29.849556,49.254685,0.0,55.698738,32.115601,91.912434,25.126717,89.503475,17.070305,78.022419,8.977661,58.793141,0.0,-8.094633,17.189499,50.071556,35.099033,67.58338,49.791839,74.677675,60.490568,77.06297,65.349684,225.640952,-99.307108,181.795887
104,-10.277939,14.486177,10.100487,20.279996,0.0,-69.317379,-33.850159,-95.718132,-30.319267,-100.000935,-25.516388,-92.112934,-20.060188,-71.095917,0.0,31.620052,23.092888,38.481943,28.888275,35.877224,31.892359,39.37767,31.110376,50.231095,0.0,61.143757,32.242596,93.67979,25.454933,91.235641,17.742851,79.854423,10.028561,61.832302,0.0,-1.27275,20.879148,57.138854,40.187502,74.741118,55.871637,82.724458,67.262982,84.641648,55.37808,239.910277,-88.900286,201.859031
105,-12.708984,23.374495,8.391426,15.635217,0.0,-67.220948,-38.853482,-77.96402,-37.143666,-79.930024,-32.948182,-74.364361,-27.579541,-65.011551,0.0,37.168116,19.817386,32.641045,19.219519,25.886402,16.119661,23.843353,10.042938,28.515661,0.0,64.662357,32.944336,93.282692,25.140484,90.273239,16.536919,77.711483,7.779499,57.244938,0.0,5.668613,25.483938,62.750287,44.304969,82.270469,58.868483,90.412767,68.967355,90.993702,42.995568,263.012375,-80.182388,217.221851
106,-7.007264,19.292631,5.783512,13.092606,0.0,-64.713066,-41.019149,-63.094162,-40.578414,-61.074462,-37.063327,-56.390979,-32.161136,-57.14376,0.0,40.600229,15.081711,29.090373,8.903731,16.466094,0.758975,9.910769,-8.927071,7.906931,0.0,67.838837,32.147129,94.316654,23.080284,91.245083,13.848782,76.519238,4.66,53.594364,0.0,6.071288,28.273674,63.419402,46.366495,81.138757,59.91703,89.718606,68.735631,90.836956,36.251346,282.026219,-74.135834,230.03567
107,-7.808281,8.222895,6.850159,12.186506,0.0,-57.297546,-41.904579,-42.417251,-41.029769,-37.526172,-36.674469,-34.641311,-30.469837,-43.005661,0.0,39.063015,13.940341,29.678014,8.952785,24.466082,2.219681,21.806553,-5.736267,17.051166,0.0,68.869457,32.413044,92.228382,22.786949,89.447559,12.979271,73.847317,3.140133,50.779953,0.0,8.540193,29.765304,65.31572,47.135534,84.256831,60.017213,93.007507,68.498657,93.519739,28.656469,290.00972,-67.072271,241.982782
108,-14.266376,3.25789,5.061126,9.63273,0.0,-43.53772,-34.914436,-11.331757,-35.422966,-4.067974,-33.162277,-5.059101,-29.172764,-31.563812,0.0,40.049218,14.58961,32.712997,11.987163,35.609462,7.594276,35.259078,2.679486,31.435406,0.0,70.716191,31.677945,92.295743,21.484761,90.964062,11.336152,74.669461,1.184819,49.727841,0.0,9.899999,29.401977,65.625695,46.054989,84.578095,58.495832,93.220929,66.768251,93.564422,14.531582,293.108142,-61.869656,251.456044
109,-8.721634,5.870723,5.738125,7.780873,0.0,-27.414127,-33.457821,14.845608,-36.765083,24.096417,-36.998566,17.420414,-34.785072,-29.028568,0.0,38.43337,13.176142,43.366536,10.714573,44.269537,6.415287,38.847864,2.61345,31.394181,0.0,71.232262,31.880768,90.622399,21.412892,89.423607,10.945702,73.075402,0.312092,49.282643,0.0,10.87226,30.56307,65.79073,46.65855,84.755146,58.538045,93.278209,66.439936,93.48884,5.87792,298.831072,-56.063559,259.089124
110,-7.864185,-5.564231,5.063038,6.286489,0.0,-7.248333,-20.919834,28.157661,-25.261505,35.771576,-28.173146,25.156906,-28.88229,-29.23708,0.0,31.492587,17.75296,48.375038,21.952568,54.185246,23.246511,53.440845,24.584556,52.964354,0.0,71.045506,31.423954,89.083454,21.047516,88.531735,10.499485,72.25565,-0.231479,49.289921,0.0,11.491863,31.180265,65.925283,46.954074,83.918711,58.459967,92.589333,66.106125,92.581973,-1.939378,293.1088,-50.953634,265.217572
111,-2.754433,-5.362554,4.012356,5.130607,0.0,2.838696,-15.988129,36.19693,-22.692398,40.431175,-28.225811,24.241653,-31.258633,-38.463695,0.0,26.102801,23.687693,52.433757,33.198825,61.658972,38.831574,64.625067,44.066638,72.73381,0.0,70.403206,30.991253,87.928185,20.81147,87.581062,10.150692,71.652878,-0.642506,48.893211,0.0,12.520229,31.46244,65.611838,47.150552,82.797793,58.399143,91.380013,65.782578,91.331317,-4.641684,287.603955,-46.889151,270.205888
112,-5.121139,-1.190708,2.898525,3.682387,0.0,5.471179,-11.567894,40.845863,-18.539361,44.290008,-24.736645,27.047035,-28.60302,-42.189549,0.0,27.346022,26.477539,52.831726,39.616718,65.337827,48.456635,69.245541,56.757508,84.547478,0.0,69.536351,30.42944,86.727757,20.468033,86.660992,9.903729,71.347172,-0.677948,49.143803,0.0,13.467481,31.891852,65.209015,47.594957,81.376508,58.603401,89.620028,65.677491,90.027432,-9.738967,286.318284,-43.96677,273.793312
113,4.078456,3.78693,1.757996,2.818758,0.0,9.603642,-12.848533,39.936963,-20.260311,41.864193,-25.742878,24.513234,-28.348491,-43.963268,0.0,20.400286,24.565722,51.980484,39.293479,63.745074,49.955997,68.634348,59.544515,84.65921,0.0,68.645771,29.713188,86.369945,19.876922,85.781536,9.455086,71.010944,-0.738556,48.931583,0.0,13.956038,31.739094,64.284278,47.743023,79.822139,58.744649,87.744643,65.591436,88.24823,-5.623976,290.022826,-42.172239,276.529682
114,3.554123,2.614834,1.068546,1.837705,0.0,3.196507,-15.33657,36.376934,-22.267936,35.63863,-26.933452,16.491383,-28.805957,-46.917755,0.0,23.066459,24.698263,50.927096,38.850025,61.026401,49.188772,65.834893,58.57071,82.19806,0.0,67.676788,28.998665,86.009766,19.186638,85.083069,8.814274,70.78505,-1.135013,48.590996,0.0,14.461316,31.278127,63.366827,47.671429,78.851027,58.768904,86.629566,65.490597,87.149912,-2.023121,292.591681,-41.056961,278.321408
115,3.372929,3.423282,0.67107,1.02865,0.0,0.615005,-18.464092,34.411377,-25.258015,32.38401,-28.710503,13.746254,-29.01202,-46.440891,0.0,24.100766,22.739528,49.579653,36.592627,58.248559,47.160445,62.769911,56.818752,78.603372,0.0,66.529438,28.440182,85.525669,18.745732,84.613346,8.486676,70.919667,-1.286682,48.919819,0.0,14.698377,30.879541,62.290012,47.587684,77.690948,58.790357,85.470734,65.482842,86.176615,1.399355,295.993431,-40.336344,279.328526
116,-3.431156,2.361076,0.411003,0.380741,0.0,6.166042,-14.506062,39.373913,-20.7342,38.707294,-23.52126,22.202373,-23.258045,-36.198693,0.0,25.302368,19.940419,48.345472,33.7961,56.528588,44.912014,61.145827,54.844036,75.584641,0.0,65.768544,27.787159,85.302647,18.133919,84.394787,8.004639,71.001583,-1.589618,49.286579,0.0,14.73802,30.470296,61.385986,47.493502,76.680328,58.810722,84.612798,65.475604,85.430509,-1.994327,298.347516,-39.887867,279.702276
117,-0.117233,-4.354577,0.24067,0.417717,0.0,7.702251,-13.789135,43.07777,-21.630204,41.365619,-25.584137,22.331554,-26.224045,-41.46999,0.0,24.816033,20.968131,50.686443,35.930243,58.466426,47.66518,64.850641,57.675181,79.529554,0.0,65.13406,27.314861,85.276485,17.611782,83.87527,7.459625,70.932048,-2.13818,49.187885,0.0,14.690139,29.792462,60.563655,47.015491,75.859405,58.488977,83.915623,65.22717,84.758294,-2.081571,293.980386,-39.617208,280.10744
118,-2.140698,-1.812943,0.391857,0.324844,0.0,8.160141,-13.095188,44.25911,-20.906914,42.569275,-24.904507,23.752762,-25.449097,-40.005455,0.0,26.495262,21.247663,51.222708,36.606028,60.000628,48.648074,66.274816,58.980067,81.162667,0.0,64.424698,26.6376,84.684379,16.870651,83.158951,6.665416,70.247589,-2.999348,48.382484,0.0,14.871809,29.461591,60.3386,46.666145,75.665423,58.163738,83.703573,64.917517,84.626062,-4.217348,292.154796,-39.22043,280.419637
119,-3.121536,0.220301,0.24654,0.439305,0.0,6.946987,-11.243946,47.034279,-19.304478,48.950134,-23.459748,33.470947,-24.318169,-35.669335,0.0,30.183355,20.352936,50.535377,35.214111,59.644748,46.974724,65.981303,56.819284,80.858954,0.0,63.692493,26.055404,84.352489,16.238148,82.533977,6.014099,69.694897,-3.657074,47.79816,0.0,14.849257,29.003674,59.868543,46.194841,75.185202,57.733745,83.287128,64.528748,84.289226,-7.344023,292.354936,-38.979029,280.838781
120,-2.014904,0.693013,0.196037,0.164515,0.0,7.187919,-9.54934,48.638729,-17.572666,51.34766,-21.698387,36.777981,-22.59462,-33.265606,0.0,32.841981,20.282021,50.885155,34.261253,60.078643,45.64767,66.014648,55.250823,80.608345,0.0,63.324452,25.685555,84.299252,15.801064,82.172596,5.514084,69.404858,-4.236236,47.47665,0.0,14.694845,28.678905,59.635238,45.861167,75.033877,57.488386,83.105162,64.382017,84.242481,-9.383938,293.009648,-38.808003,280.964995
121,-1.136021,-2.143196,0.032044,0.006175,0.0,4.378521,-9.6656,48.8592,-17.673099,49.936134,-22.167995,33.706719,-23.553314,-38.7006,0.0,28.842925,22.025371,51.965676,36.690304,61.314515,47.957605,67.141865,57.254932,82.801584,0.0,62.806011,25.575691,84.096279,15.727867,82.047557,5.35382,69.185062,-4.519192,47.030422,0.0,14.821137,28.664072,59.464671,45.769542,75.067432,57.380854,83.166258,64.265531,84.450951,-10.56344,290.809388,-38.81944,280.914106
122,-0.885681,-0.301108,0.139091,-0.021353,0.0,8.738079,-7.905739,49.99546,-16.283432,50.243729,-21.493778,32.564255,-23.487408,-38.737267,0.0,22.116182,22.428491,52.054684,37.77847,62.060436,49.282806,68.161834,58.624915,83.40412,0.0,62.496426,25.427319,83.972019,15.643055,82.044239,5.27964,69.04517,-4.578587,46.937954,0.0,14.814393,28.733492,59.288016,45.774889,75.102481,57.375815,83.255536,64.30126,84.668349,-11.525047,290.441936,-38.756275,280.826409
123,2.501507,-2.115433,-0.056602,0.132319,0.0,2.979721,-10.636574,46.646976,-19.61134,45.739277,-25.189579,26.317005,-27.395542,-45.899586,0.0,17.986783,24.789715,52.802777,40.69651,62.701665,51.90216,69.194054,60.653119,85.119349,0.0,62.225544,25.46014,84.040042,15.754898,82.264103,5.419212,69.244571,-4.407853,47.167362,0.0,14.790607,28.607101,59.041656,45.64215,74.885058,57.297787,83.196626,64.311127,84.680217,-9.113142,288.25712,-38.902479,280.889345
124,-1.095337,0.818922,-0.197136,0.191747,0.0,12.817211,-7.563332,50.417393,-16.921898,46.268978,-22.911175,26.612652,-25.438786,-42.795067,0.0,12.457169,24.001891,53.341994,40.943981,63.894954,53.012382,69.676262,62.552401,84.957575,0.0,62.188167,25.575462,84.263408,15.958202,82.656498,5.658336,69.534267,-4.12896,47.583835,0.0,14.594377,28.520861,58.913598,45.589255,74.768819,57.324526,83.202345,64.442804,84.542773,-10.340395,288.973403,-39.231531,280.978453
125,3.31271,-2.253261,-0.156155,0.205827,0.0,7.025779,-11.358387,45.88694,-21.243393,40.174827,-27.423146,17.30896,-29.920967,-50.996281,0.0,6.802809,26.168281,54.500087,43.818154,64.064225,55.752768,70.28984,64.825682,86.488887,0.0,61.903038,25.723549,84.329018,16.27565,82.974541,6.020748,69.624779,-3.792377,47.776199,0.0,14.407939,28.248825,58.551679,45.28338,74.490707,57.05002,83.153524,64.267593,84.404699,-7.217022,286.554852,-39.577023,281.01899
126,1.138355,1.501412,0.003342,0.317199,0.0,9.136288,-11.628262,45.683384,-21.676426,38.243236,-27.84811,16.181591,-30.257538,-48.29401,0.0,7.581333,25.408813,53.835899,42.705153,64.201817,54.779482,70.03896,64.386574,85.684106,0.0,61.792053,25.783287,84.245704,16.402851,82.853531,6.131206,69.441765,-3.725018,47.693412,0.0,14.10803,27.826156,58.477751,44.814917,74.269592,56.683507,83.129158,64.080539,84.187461,-6.301969,287.867598,-39.796983,281.147523
127,2.303924,0.9968,-0.016938,0.21341,0.0,7.642788,-13.341442,43.52583,-23.535438,34.465817,-29.415927,10.956997,-31.325157,-51.081413,0.0,4.013036,24.888232,53.993585,42.170616,63.144946,54.349279,68.868617,64.071412,84.715119,0.0,61.623597,25.971486,84.258088,16.644368,82.936043,6.320034,69.374497,-3.62947,47.838364,0.0,13.908996,27.411576,58.36907,44.416466,74.090836,56.378459,83.105631,63.954667,83.95649,-4.229548,288.630299,-40.045424,281.126834
128,-0.669296,2.22714,0.023552,0.257462,0.0,11.591709,-12.099117,45.513256,-21.933048,35.105473,-27.700687,11.609562,-29.520275,-47.810165,0.0,2.710818,23.044278,53.395186,40.190379,62.275266,52.657145,67.685516,63.0478,83.108434,0.0,61.492218,26.038834,83.989907,16.743817,82.811188,6.333001,69.072533,-3.721389,47.424981,0.0,13.599873,27.016447,58.248595,44.05183,73.964989,56.110388,82.975103,63.789176,83.79847,-5.164129,290.588553,-40.287157,281.11541
129,-1.186844,-0.19381,0.097378,0.06669,0.0,14.87447,-11.05965,46.949421,-20.877983,36.500553,-26.761596,12.150616,-28.597824,-46.774372,0.0,1.683168,22.842885,54.308079,40.068965,62.793191,52.686291,68.167935,63.191086,83.814526,0.0,61.198895,26.172215,83.917042,16.852535,82.598408,6.30653,68.680699,-3.897949,47.052097,0.0,13.567109,26.825812,58.234529,43.831418,73.96683,55.90539,82.959974,63.604036,83.76988,-6.640549,290.133641,-40.479355,280.920998
130,0.089562,-0.201615,0.050903,0.163651,0.0,14.458568,-11.284504,47.0965,-21.205879,36.549328,-27.167771,11.986988,-29.023911,-47.279629,0.0,1.419778,22.978403,54.430901,40.173385,62.988026,52.821747,68.473377,63.429924,84.140111,0.0,61.030873,26.289391,83.845974,16.967171,82.570187,6.337853,68.613476,-3.936435,47.036007,0.0,13.489044,26.68402,58.138507,43.705657,73.85679,55.816556,82.827693,63.555834,83.698657,-6.804783,289.725779,-40.682248,280.878402
131,0.141895,0.053809,0.083542,0.137753,0.0,14.028351,-11.380588,47.362907,-21.317802,37.663788,-27.312252,13.28476,-29.277935,-47.741375,0.0,1.390545,22.69051,54.90407,39.808577,62.548907,52.349394,68.011743,62.867662,83.580381,0.0,60.866352,26.371457,83.84586,17.093365,82.646588,6.437439,68.600819,-3.8917,47.134953,0.0,13.307992,26.407811,57.906399,43.433968,73.677652,55.581966,82.576986,63.382735,83.498425,-6.909468,289.599743,-40.845286,280.83631
132,-0.743729,-0.649602,0.090821,0.124316,0.0,15.095627,-11.001297,48.218331,-20.95642,38.821541,-26.982341,14.582291,-28.908554,-47.012111,0.0,1.731173,23.046081,55.37998,40.235297,63.232669,52.842804,68.753576,63.417513,84.449802,0.0,60.782558,26.348545,83.716472,17.066929,82.514408,6.348346,68.41048,-4.053418,46.746563,0.0,13.107649,26.158956,57.931198,43.170009,73.632463,55.389564,82.467058,63.249465,83.484247,-7.873827,288.800727,-40.975095,280.811212
133,-1.055465,-1.07999,-0.107083,-0.118833,0.0,16.772255,-9.894745,49.46933,-19.982014,40.753326,-26.298271,17.446747,-28.767918,-45.732811,0.0,4.907256,24.195565,56.526019,41.169778,64.572418,53.560529,69.688242,63.993718,85.69858,0.0,60.821938,26.472931,83.769837,17.271973,82.477295,6.547909,68.357735,-3.948417,46.914505,0.0,13.088013,26.034839,58.084624,42.946041,73.667958,55.174352,82.55546,63.178564,83.586198,-9.114338,287.603596,-41.267224,280.575238
134,6.014534,0.206654,0.040833,-0.088167,0.0,6.737137,-16.025677,41.781646,-26.73317,34.025665,-32.915016,9.115997,-34.992749,-56.099339,0.0,-1.149817,24.010129,55.596786,41.070014,62.39642,53.228386,68.898788,63.394146,84.51832,0.0,60.855949,26.425575,83.563774,17.291782,82.237976,6.610405,68.156135,-3.946655,46.791,0.0,13.096991,26.076372,58.441146,42.921909,73.849158,55.203337,82.754827,63.376955,83.902545,-3.228796,287.710718,-41.355383,280.387539
135,-2.273232,1.161427,0.083748,-0.147608,0.0,13.577065,-13.939808,46.408608,-24.198749,38.049454,-30.264621,14.252243,-32.017467,-50.821701,0.0,-0.66257,22.22937,55.704737,40.002336,62.992101,52.590281,69.5393,63.014751,84.047707,0.0,60.846588,26.354999,83.641914,17.256248,81.989387,6.600574,67.922538,-4.011864,46.570656,0.0,13.130533,26.399833,58.867594,43.104999,74.182548,55.275498,83.094639,63.383686,84.142927,-5.595131,288.786297,-41.364738,280.154083
136,-0.247535,-0.282854,-0.050583,-0.055304,0.0,15.212196,-13.499897,46.579124,-23.663373,38.574005,-29.683182,14.525001,-31.41092,-51.129445,0.0,0.898518,22.351969,56.22638,40.075931,63.358257,52.71293,69.99976,63.126569,84.486061,0.0,60.901863,26.387192,83.869903,17.303936,81.996139,6.670177,67.972801,-4.002136,46.505012,0.0,13.091224,26.558717,59.046226,43.218916,74.361415,55.367717,83.308444,63.495244,84.343085,-5.896574,288.429447,-41.469229,280.024783
137,2.244598,1.370167,-0.02163,-0.114374,0.0,15.365478,-14.988533,44.471512,-25.448341,36.433823,-31.534916,10.635887,-33.343483,-53.641972,0.0,-0.041904,20.885669,55.103314,38.678235,62.08237,51.444367,69.18384,62.022312,82.920417,0.0,60.911065,26.400307,83.930512,17.372899,81.98156,6.80262,68.075364,-3.89059,46.646531,0.0,13.221751,26.71986,59.168442,43.288348,74.459635,55.356342,83.477221,63.464344,84.529386,-3.698061,289.743776,-41.536944,279.854571
138,1.754837,1.032801,0.242592,0.053797,0.0,13.963669,-16.742947,43.337059,-27.356838,34.646622,-33.339661,8.264305,-34.556454,-56.54187,0.0,-3.684845,19.342662,54.112441,37.660081,60.752698,50.643118,68.552874,61.097512,81.734154,0.0,60.8088,26.443291,83.747567,17.390259,81.729584,6.787354,67.886811,-3.997787,46.420304,0.0,13.200423,26.83295,59.197971,43.343405,74.505861,55.379536,83.527992,63.498554,84.628619,-1.972464,290.73451,-41.323592,279.866301
139,-4.428177,0.313062,0.024102,0.100505,0.0,20.506577,-12.043087,48.841438,-21.615829,40.831467,-27.393001,16.60199,-28.902534,-47.815647,0.0,0.918834,19.556997,54.488773,37.717892,61.671878,50.752206,68.623245,61.412316,81.974746,0.0,60.983184,26.621131,83.76036,17.612239,81.77465,6.96437,67.974563,-3.919178,46.43415,0.0,13.076403,26.680958,58.989107,43.088166,74.384621,55.050628,83.400675,63.154678,84.466092,-6.421555,291.015814,-41.320404,279.935048
140,2.994186,-1.124574,0.031665,0.053241,0.0,15.624093,-14.552375,43.638016,-24.865596,38.102898,-30.904495,13.608262,-32.925544,-53.213962,0.0,0.104136,20.496962,54.254307,38.26594,61.402313,51.098046,68.3294,61.643411,82.740328,0.0,61.240506,26.624646,83.494343,17.6139,81.700299,6.99234,67.962582,-3.866729,46.569043,0.0,13.059891,26.392904,58.887725,42.869656,74.162591,54.970909,83.261502,63.268694,84.420088,-3.448386,289.864878,-41.309756,279.961927
141,1.728837,0.110891,0.058045,-0.121759,0.0,11.032562,-16.863579,41.479797,-27.289696,36.836723,-33.197651,13.090667,-35.090184,-55.968522,0.0,-0.522643,20.820473,54.191359,38.529886,61.311342,51.225092,68.207999,61.740433,82.918342,0.0,61.35046,26.669838,83.335087,17.685505,81.585811,7.054836,67.894718,-3.842022,46.625713,0.0,13.128261,26.297561,59.005149,42.758146,74.246979,54.88531,83.335219,63.26736,84.507131,-1.738472,289.952585,-41.270634,279.816984
142,-5.655819,0.380655,-0.062164,-0.036754,0.0,19.696071,-11.438771,48.409229,-20.829518,45.134571,-26.503144,25.378772,-28.600331,-45.30724,0.0,2.813472,20.583857,54.115319,38.234385,61.828229,51.045113,68.18042,61.840061,83.334515,0.0,61.595478,26.739234,83.205814,17.766197,81.589084,7.157421,67.896617,-3.709122,46.79552,0.0,13.148009,26.282037,59.013819,42.839175,74.165345,55.074884,83.363365,63.561613,84.592717,-7.40879,290.312297,-41.347297,279.759287
143,1.11763,-2.048113,0.035785,0.038606,0.0,17.744785,-13.181042,45.52557,-23.059983,44.428516,-28.698086,23.654605,-30.880543,-48.553917,0.0,2.760786,22.003413,54.492182,39.554967,62.448562,52.282431,69.285926,62.890831,85.226535,0.0,61.62616,26.677529,83.195755,17.714733,81.566139,7.095108,67.867653,-3.776356,46.80043,0.0,12.956558,26.127452,58.976003,42.681712,74.136915,54.937811,83.336714,63.449018,84.433475,-6.304567,288.238827,-41.324919,279.772536
144,2.356063,-0.70887,0.06443,0.029505,0.0,13.39507,-15.455291,43.290242,-26.078373,41.676487,-32.123508,21.309071,-34.660846,-51.387943,0.0,5.01706,22.541802,54.682077,39.953467,62.924188,52.403425,69.762404,62.786892,85.761899,0.0,61.617005,26.507916,83.029633,17.526604,81.517685,6.962403,67.844284,-3.791359,46.913247,0.0,12.907417,26.05729,58.951945,42.730235,73.99185,55.098274,83.253004,63.679779,84.500091,-3.959015,287.507273,-41.271,279.779357
145,-4.078193,2.329139,0.123883,0.118363,0.0,20.66415,-10.274655,49.321895,-20.470345,45.970058,-26.867821,26.392422,-30.027363,-44.09404,0.0,8.071606,21.203251,53.229979,38.083714,62.312859,50.353249,68.475303,60.736433,83.733398,0.0,61.332676,26.209156,83.1599,17.22409,81.512523,6.677433,67.790508,-3.99559,46.787716,0.0,12.790499,25.932678,58.943312,42.581849,73.960309,54.930067,83.107903,63.45686,84.330784,-8.041345,289.811159,-41.151254,279.872467
146,0.50473,-1.582478,0.149242,0.116362,0.0,21.208614,-10.900761,48.001087,-21.686943,44.137768,-28.326794,21.827213,-31.328773,-46.479126,0.0,5.57642,22.272324,52.933416,39.37862,62.395407,51.607549,69.642485,61.540164,84.970271,0.0,61.138893,25.866772,83.261948,16.839901,81.535378,6.347477,67.792076,-4.154503,46.893791,0.0,12.834033,25.995182,58.944548,42.712452,73.840501,55.089,82.955813,63.5586,84.163737,-7.539328,288.203681,-41.004725,279.963829
147,5.022457,0.536031,0.094837,0.053229,0.0,10.395287,-15.053833,40.403275,-26.144829,34.643417,-32.918438,13.053291,-36.165127,-52.675072,0.0,6.377693,22.987121,51.516985,39.69598,62.490774,51.535868,69.250357,61.147913,84.399993,0.0,60.886769,25.679844,83.624165,16.626469,81.643421,6.10611,67.792523,-4.369594,46.749928,0.0,12.838479,26.119708,58.94062,42.73399,73.858285,54.988421,82.803462,63.30094,83.923096,-2.512127,288.724379,-40.905144,280.001725
148,-2.89143,3.131511,-0.12117,-0.050623,0.0,15.338299,-11.124149,44.016026,-21.251587,37.921108,-27.835682,17.848675,-31.275398,-45.477962,0.0,8.769151,21.088532,49.951341,37.480882,60.992846,49.375049,67.038013,59.305145,81.169286,0.0,60.952984,25.576103,84.050595,16.525578,82.032154,6.07647,68.186817,-4.247257,47.23074,0.0,13.051456,26.379109,58.993899,43.046472,73.858408,55.286416,82.724125,63.484154,83.954477,-5.387827,291.844099,-41.010584,279.939311
149,-0.605598,-1.550454,-0.116844,-0.058564,0.0,16.545078,-11.356842,43.280262,-21.456825,37.783596,-27.924076,15.520946,-30.918057,-48.016045,0.0,3.790055,22.169744,49.998296,38.980775,61.315603,51.088215,68.269576,60.840125,82.875944,0.0,60.891529,25.500973,84.524105,16.433018,82.40498,5.979801,68.467861,-4.302132,47.323963,0.0,13.196718,26.522617,59.000802,43.195117,73.970201,55.370668,82.725804,63.406608,83.842227,-5.962904,290.292812,-41.096907,279.879914
150,3.161339,-0.789059,-0.211876,-0.045559,0.0,8.713222,-14.875637,38.712101,-25.097477,32.82423,-31.486531,11.908687,-34.600697,-50.625,0.0,6.126999,23.368035,49.85564,40.111598,61.680955,52.111926,68.339082,61.899613,83.491991,0.0,61.048107,25.73711,84.772968,16.715035,82.73148,6.252834,68.766735,-4.072494,47.584156,0.0,13.273485,26.691208,58.869212,43.376441,73.943636,55.518116,82.64769,63.511361,83.949092,-2.74851,289.505519,-41.255728,279.836121
