takenoko1/special-research/HandMotion_SimilarSearch_自分用/NewProject/handData/test_key/d4_feature_d3/83.csv
frame,vel_0x_L,vel_0y_L,vel_0x_R,vel_0y_R,posFromWrist_0x_L,posFromWrist_1x_L,posFromWrist_2x_L,posFromWrist_3x_L,posFromWrist_4x_L,posFromWrist_5x_L,posFromWrist_6x_L,posFromWrist_7x_L,posFromWrist_8x_L,posFromWrist_9x_L,posFromWrist_0y_L,posFromWrist_1y_L,posFromWrist_2y_L,posFromWrist_3y_L,posFromWrist_4y_L,posFromWrist_5y_L,posFromWrist_6y_L,posFromWrist_7y_L,posFromWrist_8y_L,posFromWrist_9y_L,posFromWrist_0x_R,posFromWrist_1x_R,posFromWrist_2x_R,posFromWrist_3x_R,posFromWrist_4x_R,posFromWrist_5x_R,posFromWrist_6x_R,posFromWrist_7x_R,posFromWrist_8x_R,posFromWrist_9x_R,posFromWrist_0y_R,posFromWrist_1y_R,posFromWrist_2y_R,posFromWrist_3y_R,posFromWrist_4y_R,posFromWrist_5y_R,posFromWrist_6y_R,posFromWrist_7y_R,posFromWrist_8y_R,posFromWrist_9y_R,posFromBody_0x_L,posFromBody_0y_L,posFromBody_0x_R,posFromBody_0y_R
6,5.508739,0.086302,-0.123562,0.118734,0.0,-16.985801,-23.20832,29.669747,-32.566978,34.319001,-36.944252,22.197762,-38.014331,-26.341083,0.0,25.601387,14.55682,42.021748,30.860472,51.613205,42.933518,58.722863,52.518478,65.698029,0.0,67.993893,19.543499,82.612301,9.892021,81.180187,1.843357,68.806263,-4.36615,49.726215,0.0,11.614869,30.296061,56.223774,47.946564,68.314937,59.658789,79.300027,65.936163,85.27696,-5.692503,298.799431,-51.170694,286.133261
7,-1.90298,3.045913,-0.022968,-0.072063,0.0,-18.394101,-23.792542,30.383457,-31.942395,36.160595,-34.669762,26.357586,-34.02554,-16.479092,0.0,27.912372,14.308287,41.350348,28.61934,49.836485,39.417585,55.437939,48.201927,60.648538,0.0,68.335487,20.051651,82.959755,10.470131,81.407341,2.36832,68.936622,-3.965916,49.906746,0.0,11.848373,30.608234,56.319364,48.300085,68.323212,59.998479,79.224383,66.252424,85.377478,-7.557363,301.822166,-51.155542,286.03802
8,7.1758,-4.901278,0.08305,0.034308,0.0,-20.163025,-27.587482,24.444878,-38.278496,29.051926,-43.16058,16.772507,-44.805428,-33.645172,0.0,24.397946,13.962855,43.111124,32.312521,54.887681,46.590426,62.804108,58.371528,70.675656,0.0,68.647716,20.318447,83.141956,10.728115,81.50909,2.583229,69.009349,-3.869832,50.03841,0.0,11.9378,30.83187,56.406717,48.577654,68.351581,60.263475,79.208032,66.486558,85.437228,-0.351751,296.889096,-51.04268,286.040536
9,-4.765457,2.885597,0.013652,0.046424,0.0,-15.751923,-23.468388,28.398948,-33.423615,32.844566,-37.772873,22.111702,-39.112564,-18.912037,0.0,22.337606,12.784731,40.645677,30.259134,53.043616,44.162943,59.778437,55.531935,65.785085,0.0,68.96988,20.569416,83.445397,11.015408,81.730454,2.836041,69.14415,-3.723758,50.241989,0.0,11.798232,31.087047,56.333518,48.824828,68.277616,60.477798,79.160978,66.680306,85.489247,-5.090549,299.728448,-51.002369,286.040715
10,5.156238,-1.871841,0.116009,0.069556,0.0,-20.246956,-26.352081,23.488507,-36.756626,26.806057,-41.600372,16.350117,-43.636139,-25.238216,0.0,20.449057,14.205744,40.737031,32.677997,54.219122,46.93035,61.03044,58.349459,67.324573,0.0,69.180027,20.777687,83.499836,11.314156,81.773701,3.143818,69.160458,-3.459755,50.467724,0.0,11.721883,31.283092,56.342336,48.948205,68.238231,60.561309,79.18963,66.770708,85.51838,0.092783,297.796561,-50.859266,286.050225
11,-3.473144,4.883976,0.28006,0.117758,0.0,-24.399388,-24.60109,25.556431,-33.333264,30.412754,-36.792938,22.254536,-37.674076,-11.686718,0.0,26.334279,12.98568,39.002635,28.474807,50.957329,40.889925,55.982541,51.138999,60.017609,0.0,69.411449,20.666038,83.362621,11.283417,81.760448,3.174705,69.164669,-3.370789,50.626591,0.0,11.623354,31.241065,56.290996,48.9322,68.00752,60.606967,78.984582,66.907609,85.316506,-3.358017,302.616897,-50.556862,286.104343
12,4.623951,-2.11363,0.231113,0.049376,0.0,-26.219238,-26.212647,21.966202,-35.943524,25.19751,-40.514523,15.305946,-42.762932,-24.742676,0.0,22.229,13.213761,38.238535,30.703552,52.117866,44.258645,58.303553,55.191938,63.913578,0.0,69.333275,20.592888,83.376412,11.185215,81.62304,3.064843,69.043557,-3.481189,50.704033,0.0,11.386936,31.291786,56.411348,48.947637,68.055215,60.603892,79.05983,66.907658,85.218174,1.28322,300.438849,-50.308463,286.089301
13,-5.681614,2.479217,0.360352,0.007262,0.0,-17.087414,-21.736061,29.170772,-30.827614,31.891971,-35.073532,21.757908,-36.738545,-15.042606,0.0,19.897774,12.728193,38.532233,29.506002,50.970655,42.507687,56.094025,52.828466,60.874063,0.0,69.1222,20.410767,83.454689,11.051994,81.824593,3.034801,69.251907,-3.373135,51.032478,0.0,11.390802,30.826855,56.417214,48.509122,68.094278,60.344886,79.093855,66.840103,85.109567,-4.388821,302.867403,-49.938538,286.0459
14,5.991966,-1.410799,0.276134,-0.092898,0.0,-24.602096,-25.971153,23.883465,-35.542156,26.17432,-40.248207,15.022556,-42.406574,-28.47076,0.0,21.286009,14.052949,39.958753,31.202224,52.255644,44.080087,57.657484,54.373992,62.929734,0.0,69.027913,20.35365,83.656689,10.91763,82.000546,2.930294,69.510212,-3.411083,51.285267,0.0,11.586428,30.311178,56.574505,48.155194,68.365833,60.196105,79.289666,66.838992,85.063453,1.595032,301.421434,-49.670517,285.917832
15,-5.416511,2.592653,0.201371,-0.1194,0.0,-18.320515,-22.205922,29.240787,-31.13744,32.8866,-35.224766,22.086399,-36.642392,-15.191883,0.0,19.946124,12.206438,38.524007,28.340808,50.377011,40.847268,55.13446,50.912189,59.906433,0.0,69.00317,20.336929,83.971309,10.837646,82.367626,2.863186,69.885372,-3.450188,51.490688,0.0,11.740309,29.807467,56.671774,47.832857,68.590431,60.069516,79.388157,66.811549,85.044396,-3.860532,303.988525,-49.508199,285.77287
16,5.818817,-3.544054,0.261211,-0.142582,0.0,-18.623223,-25.660904,25.355587,-36.026711,27.452854,-41.157406,14.646137,-43.512543,-31.227631,0.0,14.88795,13.424058,39.617743,31.99647,53.227311,45.966303,59.332921,56.994988,65.767869,0.0,68.866859,20.164627,84.151955,10.547699,82.655411,2.583675,70.143951,-3.658218,51.607246,0.0,12.002119,29.473076,56.787074,47.656733,68.929836,60.031194,79.701701,66.801373,85.189794,1.887148,300.415569,-49.318125,285.601386
17,-2.789681,2.164797,0.306622,-0.11819,0.0,-10.755787,-24.332142,29.117077,-34.78807,31.644802,-39.586727,18.961338,-41.118713,-27.086551,0.0,11.187297,11.677904,39.248389,30.158666,51.991241,44.125325,57.878537,55.007674,63.786767,0.0,68.86433,19.952659,84.259243,10.276119,82.897419,2.398109,70.479824,-3.697117,51.851589,0.0,12.354096,29.219924,56.877588,47.58646,69.061772,60.113272,79.804762,66.944078,85.334524,-0.986298,302.553208,-49.095268,285.456038
18,6.958065,-1.659444,0.081001,-0.117425,0.0,-20.854717,-29.753059,21.265343,-40.836822,24.324646,-45.832775,11.77945,-47.828052,-40.041469,0.0,11.589923,12.224606,38.565553,31.262085,52.427125,45.575188,59.281618,56.798424,66.460783,0.0,68.975635,20.066254,84.399868,10.288387,82.902775,2.358135,70.588634,-3.749622,51.927669,0.0,12.434495,29.469853,57.069842,47.897942,68.961057,60.387679,79.776111,67.128008,85.486344,5.878446,300.866989,-49.107588,285.311838
19,-5.204429,1.410342,0.028816,-0.142224,0.0,-9.519242,-25.399762,26.930305,-36.476693,30.086906,-41.419888,17.288887,-43.120755,-32.303181,0.0,7.454547,10.794281,36.405191,29.996671,50.820515,44.625714,57.766782,55.838737,64.944415,0.0,68.91647,20.067238,84.52232,10.268486,83.009205,2.341507,70.724796,-3.701088,52.046986,0.0,12.436521,29.863809,57.289909,48.247833,68.8505,60.639794,79.737529,67.275012,85.641573,0.587025,302.252168,-49.165764,285.144451
20,6.677261,-2.338784,0.106098,-0.034234,0.0,-15.965961,-30.509296,21.3452,-42.707851,23.545876,-48.322849,9.729561,-50.66835,-47.60955,0.0,6.235902,12.130436,37.900896,32.487633,52.603262,47.663797,60.471586,59.243568,68.287916,0.0,68.674919,20.009674,84.454193,10.208874,82.954628,2.320565,70.705834,-3.626598,52.117699,0.0,12.416588,30.150985,57.444877,48.488128,68.697062,60.830096,79.72182,67.449728,85.715735,7.190374,299.896801,-49.133578,285.093634
21,-4.427696,1.388594,0.201416,-0.148732,0.0,-7.620083,-26.857247,25.738701,-38.92947,28.141845,-44.450764,14.787987,-46.670506,-36.689678,0.0,4.525243,10.677968,36.32179,30.831746,51.400956,46.114689,58.855256,57.638822,65.47516,0.0,68.670594,20.054444,84.302719,10.308117,82.75985,2.445523,70.544014,-3.48777,52.065399,0.0,12.471508,30.457625,57.788913,48.733129,68.576043,61.012038,79.570963,67.614923,85.746709,2.704531,301.278883,-48.990309,284.93839
22,6.054062,-0.779945,-0.056957,-0.431141,0.0,-20.905712,-31.378075,18.819626,-43.404843,21.328239,-48.922016,8.316742,-51.501435,-43.482342,0.0,9.437982,11.71099,37.08358,31.449411,52.128488,46.377474,59.33213,57.812601,65.667821,0.0,68.4371,20.353581,84.596432,10.606762,82.967457,2.689247,70.604908,-3.295772,52.052754,0.0,12.485414,30.832487,58.176483,49.049303,68.921746,61.245886,79.836428,67.801705,85.922153,8.705784,300.494097,-49.100075,284.502408
23,-2.950173,1.608438,-0.131916,-0.966975,0.0,-14.345787,-28.987358,22.432526,-40.611088,24.513245,-45.711181,11.390442,-47.709675,-36.071422,0.0,6.576196,10.36782,35.536942,29.861499,50.75564,44.777434,57.707427,56.145339,63.587808,0.0,68.361122,20.7281,84.973206,10.925594,83.398087,2.897781,70.813225,-3.19146,52.138046,0.0,12.307623,31.580927,59.190092,49.672464,70.080444,61.679634,80.730575,68.024353,86.383874,5.71685,302.096761,-49.270752,283.529659
24,5.690529,5.217465,-0.031849,-1.85581,0.0,-29.827698,-35.662479,13.176727,-44.392364,17.593872,-46.915432,8.22036,-46.425705,-33.052128,0.0,14.812961,9.81608,34.864493,23.011526,45.433977,32.278558,48.427007,38.831895,49.619877,0.0,68.171642,21.209908,85.046459,11.484833,83.577519,3.410969,70.357555,-2.86718,51.168194,0.0,11.36709,31.735698,59.830777,49.772339,71.628132,61.809816,82.265641,68.255225,87.348663,11.366392,307.31422,-49.343588,281.673843
25,0.848648,1.833814,-0.232716,-4.144378,0.0,-31.730415,-34.44318,3.25193,-39.828621,8.788468,-39.808445,3.640778,-36.992454,-25.176773,0.0,19.19824,9.748958,32.434911,19.514007,40.606059,26.055513,41.854602,30.234546,42.8979,0.0,67.07602,20.261445,83.904145,10.868844,82.338044,3.049977,68.061883,-3.122955,47.757134,0.0,10.679758,31.236668,60.764961,49.355782,74.192119,61.645189,85.047138,68.37008,89.411323,12.137323,309.164052,-49.654021,277.545483
26,3.794403,-1.445342,-1.155521,-5.789213,0.0,-43.018295,-33.483101,-15.544498,-34.30442,-7.79544,-30.500919,-6.525547,-24.483421,-23.262336,0.0,22.811454,9.432054,30.639924,16.648825,40.400787,21.57731,42.397425,24.831891,44.153039,0.0,64.218464,20.456749,82.686504,11.804009,78.337063,4.122414,62.424008,-2.252163,42.604122,0.0,7.640465,29.229669,61.527506,47.002598,77.409427,59.371737,87.396532,66.83898,89.591364,15.861929,307.766419,-50.879339,271.803979
27,5.315781,-13.351847,-4.182644,-12.152777,0.0,-44.132607,-32.785526,-29.595703,-28.781845,-20.368698,-21.228516,-13.139065,-11.925533,-16.748097,0.0,27.452776,13.916307,32.108991,20.890992,42.90489,25.827863,45.154816,28.587205,47.86162,0.0,61.374459,27.484291,82.233147,20.461327,77.580345,13.453331,62.641205,6.689015,46.812996,0.0,3.505052,29.145762,64.533762,46.530294,79.030412,58.990082,87.893733,67.103555,89.818246,21.129004,294.516549,-55.110689,259.753179
28,10.466308,-16.766423,-6.403805,-18.727554,0.0,-52.042694,-33.953201,-45.158706,-25.798759,-34.23056,-15.614089,-22.71191,-4.40657,-15.244171,0.0,37.419774,18.06228,33.292451,23.220279,43.149311,26.761592,44.366708,28.089361,46.402002,0.0,58.205212,27.115792,74.657341,20.609425,68.588345,14.187996,54.957699,7.804814,41.41404,0.0,-4.858238,24.074324,55.026533,42.114547,70.186012,56.062804,79.957262,66.267294,83.121847,31.513292,277.976568,-61.596514,241.252067
29,13.647583,-33.366934,-10.901859,-24.375012,0.0,-52.738082,-28.221633,-54.837524,-19.258598,-46.989761,-9.42144,-34.553775,0.590401,-22.81002,0.0,31.790879,19.080841,32.371147,30.25648,47.298717,39.628673,52.58575,45.92167,59.98025,0.0,52.3022,28.573906,65.979527,23.883156,58.444222,18.401035,47.066677,12.335838,36.636555,0.0,-16.714262,16.662978,41.849885,35.33734,58.605204,50.759407,68.994798,62.975367,74.06421,45.121936,245.064234,-72.537312,217.331655
30,16.787041,-35.705632,-13.815708,-27.346664,0.0,-52.790405,-30.707039,-55.029854,-23.016128,-47.982422,-14.142746,-36.159862,-5.036087,-23.736397,0.0,17.366872,14.981984,25.690704,29.07822,44.260522,41.887392,52.444539,51.82496,61.226547,0.0,44.581627,28.178215,56.982285,26.003059,50.12257,22.35371,42.126835,17.673157,35.904545,0.0,-31.410008,5.540525,20.875616,23.618681,37.148733,39.416412,48.539764,53.290433,57.448817,61.924003,209.918963,-86.337994,190.545352
31,24.984513,-38.504555,-18.486088,-32.082186,0.0,-52.961586,-29.702912,-50.937207,-25.766602,-46.535981,-21.320183,-38.794671,-16.558938,-32.686409,0.0,2.023826,9.647859,14.945878,25.507835,33.674352,40.066372,43.303983,51.77115,53.76943,0.0,38.968323,26.052704,47.531033,26.914215,44.736168,26.413971,41.575321,24.941563,39.289662,0.0,-44.602699,-3.450199,-1.013855,14.24981,14.243091,30.44241,28.316553,45.191552,41.700906,87.2125,172.846687,-104.520098,159.895445
32,19.781662,-32.161727,-17.350731,-30.959655,0.0,-48.921456,-22.462647,-43.973031,-22.754815,-41.769036,-22.996537,-38.067582,-22.94307,-36.042824,0.0,-19.89292,-2.714369,-1.811411,12.599307,18.006155,27.508413,29.539162,40.391612,41.110843,0.0,32.082161,14.716873,35.655934,17.596905,34.152718,20.15078,33.847802,22.718216,32.320473,0.0,-58.344408,-14.501146,-24.256816,3.344433,-6.004864,20.020199,10.421475,35.432201,25.410208,107.605065,142.241015,-121.259926,130.491845
33,20.723693,-34.24253,-17.762935,-27.975308,0.0,-44.821449,-14.858459,-39.70594,-19.118225,-40.226509,-23.657524,-38.971344,-27.994056,-40.239807,0.0,-43.161099,-14.123363,-20.211546,1.988067,3.878161,18.361738,18.245487,33.198343,31.802055,0.0,25.687191,10.183628,31.729751,16.911071,31.944397,23.299484,34.543659,29.760841,36.151462,0.0,-68.929824,-20.408833,-39.880695,-3.525634,-16.460419,12.29581,0.201998,26.986461,15.750097,129.248033,109.459768,-138.103586,103.97782
34,16.147797,-25.203597,-14.715889,-23.54542,0.0,-36.091072,-10.975342,-33.064018,-18.426224,-36.291527,-26.343658,-38.163963,-33.908844,-42.947662,0.0,-60.304174,-21.632046,-38.92762,-7.260076,-10.73321,8.419835,4.750144,23.455357,17.913325,0.0,22.006897,4.097133,28.601509,13.618114,31.361824,23.765625,36.56591,34.367248,40.911037,0.0,-75.734145,-23.560221,-54.148961,-8.211168,-24.954163,6.279443,-8.519284,19.76619,6.933762,146.904121,85.421398,-151.311184,81.597627
35,13.267868,-18.399153,-12.651169,-19.124634,0.0,-31.922287,-2.35096,-29.203674,-11.695244,-37.196159,-22.633392,-40.518539,-33.668472,-47.522415,0.0,-63.834081,-27.215185,-57.121972,-14.726788,-23.034985,-0.579441,-7.468385,13.078274,4.748878,0.0,20.016586,1.783951,27.396103,13.472088,30.943256,26.218128,37.949764,39.491306,44.348099,0.0,-79.711698,-23.199419,-63.774837,-8.956267,-26.369321,4.767429,-11.038244,17.283904,2.30967,161.856159,67.989763,-162.278183,63.440511
36,7.471275,-14.280777,-7.552471,-12.794988,0.0,-27.568382,-1.168968,-25.408241,-11.660293,-37.736892,-23.74459,-41.725616,-35.962944,-49.203346,0.0,-63.371169,-30.021198,-70.776556,-19.268858,-32.56106,-6.523814,-17.496269,5.971987,-6.4899,0.0,16.999145,0.095936,26.372383,13.017734,29.931804,27.141941,37.981853,41.507698,45.331913,0.0,-82.11592,-23.675355,-73.183167,-10.51599,-27.288421,2.465904,-13.644068,14.188491,-2.187743,170.752922,53.887933,-168.405166,50.82447
37,4.904663,-8.484593,-5.525379,-6.355253,0.0,-25.512725,0.363007,-24.80175,-11.29438,-36.883758,-24.646476,-42.342109,-38.104934,-50.659126,0.0,-63.830573,-31.123498,-83.225248,-21.740844,-38.968684,-10.195518,-24.415563,1.23302,-14.428688,0.0,16.491554,0.001579,26.408306,14.230934,29.422691,29.502983,38.402664,44.64022,46.729877,0.0,-81.593913,-23.530674,-84.101511,-11.795879,-29.673296,0.234577,-17.171512,11.123552,-6.079094,176.763811,45.481448,-172.824319,44.547325
38,1.333123,-2.914836,-2.53006,-1.026644,0.0,-24.730957,2.587372,-23.96624,-9.989846,-34.005112,-24.398712,-40.758774,-38.977547,-49.665917,0.0,-65.491511,-30.948571,-90.066977,-22.331493,-42.205245,-11.992788,-28.066778,-1.888265,-19.264825,0.0,14.82859,-0.632504,24.843818,14.215851,27.409744,30.052402,37.205108,45.490459,46.130035,0.0,-79.091854,-22.636052,-88.767792,-11.781534,-30.625345,-0.741098,-19.312102,8.962208,-8.997362,178.54608,42.648613,-174.905233,43.602682
39,-0.738556,0.536124,-0.729584,3.28167,0.0,-24.35083,6.159942,-23.766381,-7.366333,-29.508522,-22.914528,-37.403412,-38.789978,-46.342758,0.0,-64.889902,-30.375374,-92.764162,-21.573674,-42.592619,-11.968817,-28.507016,-3.102952,-19.6603,0.0,13.665527,-2.248032,22.444542,13.00042,24.799942,29.197266,35.373436,44.909363,44.968643,0.0,-75.621648,-21.001939,-90.547068,-10.436974,-30.610593,-0.204196,-20.000847,8.396698,-10.423729,177.577194,43.331524,-175.865147,47.031139
40,-1.636643,2.557004,0.533215,5.763734,0.0,-21.994491,9.407959,-23.726944,-4.709701,-24.985794,-21.097686,-34.516365,-37.875503,-43.856643,0.0,-67.584727,-28.034415,-90.327348,-19.038288,-40.162721,-9.965911,-26.761202,-2.093895,-18.453783,0.0,12.358337,-4.448342,19.16193,10.973865,21.501754,27.505016,32.96743,43.47948,43.520633,0.0,-71.926775,-18.321977,-89.351117,-7.708186,-29.008997,1.776504,-18.96533,8.988217,-9.975501,175.526464,46.160878,-175.746019,53.067223
41,-1.495376,4.711032,0.777339,6.610524,0.0,-18.710289,11.451095,-22.754814,-3.447693,-20.802155,-20.572724,-32.005921,-38.069069,-42.055825,0.0,-71.043355,-25.379889,-88.322028,-16.410913,-37.069631,-7.956393,-24.861037,-1.071907,-17.175217,0.0,11.601826,-6.484256,15.82623,9.24384,18.409916,26.2202,30.801728,42.505784,42.316704,0.0,-68.421427,-15.456431,-87.769313,-4.944726,-27.786167,3.628997,-18.458421,9.396912,-9.543817,173.572438,51.094752,-175.42733,59.900589
42,-0.885727,6.020405,0.604992,5.569813,0.0,-15.646706,11.231232,-19.268509,-4.290596,-18.468018,-21.74881,-30.59214,-39.400681,-41.164856,0.0,-71.352514,-23.707946,-87.659137,-15.396959,-36.339104,-7.780101,-25.180126,-1.593741,-18.461872,0.0,10.343445,-6.927555,12.672215,9.183014,17.225281,26.276104,29.941246,42.351815,41.798172,0.0,-65.366313,-13.82275,-86.34152,-3.95065,-27.107326,3.750096,-18.762647,8.589741,-10.508407,172.210579,57.278509,-175.29847,65.633754
43,-0.259369,4.831309,0.218571,4.786997,0.0,-11.684029,9.302902,-15.80175,-6.969772,-18.032295,-24.653458,-30.672318,-41.979401,-41.721863,0.0,-70.270147,-22.559241,-89.230994,-15.323371,-37.484994,-8.543348,-26.861929,-2.884985,-20.906843,0.0,11.521969,-6.035202,9.22712,10.524159,17.361019,27.621723,30.033314,43.280399,41.996384,0.0,-61.730405,-14.292176,-88.018834,-5.757232,-29.75761,0.981066,-22.264673,5.212117,-13.674487,171.839607,62.235591,-175.191502,70.546524
44,-0.211487,3.923263,0.332543,2.206268,0.0,-7.114609,6.83107,-12.112747,-9.940567,-18.143211,-27.617111,-31.003281,-44.413422,-42.367172,0.0,-70.541997,-22.119448,-91.250053,-16.268837,-40.030007,-10.310454,-29.262983,-4.831994,-24.122588,0.0,11.959156,-4.858189,6.382358,11.698413,18.00975,28.556144,30.252628,43.899856,42.346549,0.0,-59.720386,-15.117835,-89.523574,-8.073669,-33.342932,-2.285704,-26.127742,1.429615,-17.593409,171.567163,66.274744,-174.919916,72.868682
45,-0.782455,3.048945,-0.182808,0.490656,0.0,-3.099221,5.058998,-8.470322,-12.034882,-17.928475,-29.701836,-31.123627,-46.105866,-42.629082,0.0,-71.385057,-22.120115,-92.83287,-17.466394,-42.763444,-12.223858,-31.501917,-6.955671,-26.79062,0.0,12.674995,-3.00158,4.830173,13.701381,18.576953,30.44926,30.73035,45.546569,42.906097,0.0,-59.248977,-16.17439,-90.728719,-10.268266,-36.062753,-5.067597,-29.387268,-1.450715,-20.697947,170.724947,69.349284,-175.162485,73.384933
46,-1.564751,2.498509,0.153167,0.74363,0.0,0.475731,3.83773,-6.082397,-13.176865,-16.975319,-30.543159,-30.41906,-46.418243,-42.069099,0.0,-72.873465,-22.180063,-93.13514,-18.3428,-44.141955,-13.499289,-32.502984,-8.270369,-28.298843,0.0,12.854691,-1.277206,3.93718,15.433686,19.147316,32.010762,31.224678,46.92302,43.249684,0.0,-60.243956,-17.65871,-91.631678,-12.498574,-38.442102,-7.513871,-31.966509,-3.753617,-23.36112,168.891232,71.575598,-175.278282,73.856368
47,-2.34169,3.593293,0.673966,2.34415,0.0,0.987808,3.304642,-4.902489,-13.625931,-17.104294,-30.808754,-30.461998,-46.366264,-41.938316,0.0,-72.379553,-22.078996,-92.190191,-18.322391,-45.960869,-13.470222,-33.219431,-8.271548,-28.795835,0.0,12.509022,-0.902607,2.42427,15.828151,18.831722,32.447273,30.887386,47.515606,43.054802,0.0,-61.432514,-18.455568,-92.011775,-13.55571,-39.76398,-8.631374,-33.040107,-4.845666,-24.497074,166.14109,74.869969,-175.012768,75.901596
48,-2.744614,5.446948,1.229931,2.835338,0.0,-0.872039,3.218628,-6.116729,-13.655639,-16.803154,-30.777191,-30.479828,-46.375007,-42.023895,0.0,-70.53358,-21.336008,-90.430835,-17.367321,-44.104929,-12.526793,-31.480965,-7.585253,-27.173281,0.0,9.451297,-1.652974,2.441848,15.088028,17.576339,31.839946,30.177005,47.323745,42.376934,0.0,-63.987604,-16.690938,-89.560179,-11.093035,-36.926369,-5.907896,-29.762939,-2.327669,-22.047379,162.906795,80.039528,-174.272518,78.459545
49,-2.909385,3.989312,0.505462,2.110592,0.0,-4.367592,3.084251,-8.068268,-13.943505,-17.497147,-31.10051,-30.403199,-46.558937,-42.320527,0.0,-67.403786,-14.025131,-74.645393,-8.771381,-35.911033,-4.375838,-24.655773,-1.038747,-20.550605,0.0,7.748932,-1.591713,3.118378,15.483925,16.195359,32.545922,29.854626,48.203556,42.660691,0.0,-64.050053,-9.913615,-75.267256,-2.573794,-29.506545,2.75568,-22.62511,5.375775,-15.640589,159.405768,83.992417,-174.358698,80.533714
50,-1.838677,7.205285,1.134064,5.804965,0.0,-8.928909,2.903916,-10.705032,-14.612892,-18.073517,-32.013038,-30.697059,-47.449653,-42.907722,0.0,-64.621689,-8.310037,-66.016155,-1.908644,-28.473869,2.202699,-19.466953,4.149424,-16.123163,0.0,5.619884,-2.697853,3.32785,14.211239,15.408703,31.286751,29.684486,47.273552,41.997631,0.0,-64.809861,-5.421982,-62.886928,3.203482,-24.676057,8.481765,-17.708715,10.286927,-11.554922,156.911791,91.359043,-173.879934,86.50002
51,-2.100838,8.268689,0.696682,6.358829,0.0,-13.037315,4.010376,-13.978248,-13.337951,-19.441223,-30.80223,-31.236328,-46.606498,-43.502243,0.0,-63.296581,-6.099786,-62.613121,1.487882,-24.885311,5.848387,-16.893246,7.33015,-13.329685,0.0,4.044903,-4.323006,3.530628,12.884708,14.979858,30.211956,28.932003,46.530395,40.862205,0.0,-66.137927,-1.306577,-57.776847,8.183572,-20.698868,13.094947,-14.267136,14.043279,-8.982301,154.30327,100.122569,-173.690935,93.353686
52,-1.229621,6.547921,0.199619,5.0761,0.0,-14.28003,4.870445,-16.493134,-12.557808,-19.669259,-30.129319,-31.191491,-46.276429,-43.77118,0.0,-63.924978,-3.937731,-61.052867,4.241179,-20.699936,8.377481,-14.341317,9.161995,-11.284783,0.0,3.078003,-5.327018,4.992016,12.008858,15.533032,29.43512,29.099396,45.835293,40.546841,0.0,-67.825516,1.436302,-54.933012,11.49789,-18.97747,16.260248,-12.936582,16.721314,-7.998994,152.687502,107.313077,-173.877463,99.072373
53,-0.639222,3.923071,-0.091301,3.280602,0.0,-14.591835,5.508934,-16.581367,-11.789703,-19.785141,-29.29898,-30.844436,-45.579002,-43.410347,0.0,-65.101489,-2.85198,-60.268488,5.5658,-19.322222,9.579465,-14.049626,10.209326,-11.208434,0.0,3.362435,-5.983246,5.952908,11.353878,15.893429,28.922905,28.969826,45.314392,40.598282,0.0,-68.36876,2.518188,-53.853702,12.651887,-18.350333,17.147836,-12.716596,17.405768,-8.197083,151.777359,111.952657,-174.239685,103.069484
54,-0.018722,4.475448,-0.181743,4.238029,0.0,-14.025879,6.461632,-16.641358,-10.622635,-18.550965,-28.144684,-30.445748,-44.817238,-42.51281,0.0,-67.030251,-8.429796,-73.552299,-0.742691,-23.976617,3.634283,-18.824706,5.370816,-15.71196,0.0,2.646858,-7.365338,7.104583,10.099846,15.977222,27.901897,28.24942,44.389743,39.565281,0.0,-70.277933,-1.882584,-65.259076,7.450039,-22.153769,11.957134,-16.857529,12.845272,-12.151165,151.644138,116.932056,-174.535927,107.811464
55,-0.343071,0.348853,-0.687699,0.374832,0.0,-13.085884,7.287964,-16.620781,-9.382118,-17.52594,-26.627358,-29.598152,-43.411217,-41.214523,0.0,-68.767322,-12.145362,-80.198867,-4.99007,-27.234921,-0.505996,-21.714848,1.972703,-18.379269,0.0,3.610119,-8.061126,7.955567,9.741955,15.624756,27.851349,27.224121,44.262417,39.296814,0.0,-70.30679,-3.816701,-75.262267,4.992471,-24.016804,9.506476,-19.089183,10.624467,-14.247173,151.297388,117.639701,-175.227305,108.545088
56,0.434418,-1.800581,-0.553024,-1.18341,0.0,-13.062859,7.41529,-15.916741,-9.641373,-16.169014,-27.073998,-28.827599,-43.806565,-40.299546,0.0,-68.248389,-12.675593,-82.205674,-5.949658,-27.481415,-1.756682,-22.166144,0.65403,-19.240724,0.0,4.840233,-8.073269,8.647785,9.579689,15.160778,27.680775,26.963619,43.883274,39.609524,0.0,-68.845997,-4.852539,-77.869919,3.924177,-24.634833,8.766379,-19.447829,10.185286,-13.98908,151.866286,116.103257,-175.645849,107.625815
57,0.288414,-2.149846,-0.198647,-1.702138,0.0,-12.9058,7.824302,-15.704064,-9.269074,-15.638215,-26.843766,-28.404122,-43.651795,-39.739998,0.0,-69.002504,-12.780952,-82.048261,-6.130557,-27.186712,-1.918944,-22.144204,0.606876,-19.122047,0.0,5.736912,-8.558544,8.41507,9.071011,13.684937,27.28846,26.010144,43.4557,39.505303,0.0,-67.907465,-4.07231,-76.458156,4.911455,-22.905031,9.790244,-17.635627,11.079105,-11.854875,152.365139,114.081216,-175.634057,106.051482
58,0.432266,-1.438538,-0.328044,-0.577582,0.0,-13.18245,8.013656,-16.491875,-9.237625,-15.820107,-27.000138,-28.62616,-43.996994,-40.205017,0.0,-69.989942,-12.633301,-82.049341,-5.904469,-27.136447,-1.628537,-21.992452,0.869014,-18.711659,0.0,6.627285,-8.460125,7.98246,9.169281,13.446212,27.298748,26.000839,43.280239,39.424816,0.0,-68.321255,-3.798626,-75.128904,5.170504,-22.548867,10.013687,-17.181071,11.267616,-11.139287,153.03697,112.685082,-175.722536,105.516304
59,-0.003113,-0.652356,-0.08852,-0.129151,0.0,-13.397964,8.376961,-16.618538,-9.083954,-16.036766,-27.082169,-28.847877,-44.345055,-40.838699,0.0,-70.915167,-12.340017,-82.160035,-5.409145,-27.048255,-1.034017,-21.822522,1.456791,-18.190412,0.0,7.267181,-7.978844,7.685623,9.592746,13.486759,27.522148,26.295764,43.254444,39.445026,0.0,-68.284662,-3.706099,-74.160948,5.227771,-22.391459,10.103077,-16.702709,11.447594,-10.588825,153.256966,112.052063,-175.587947,105.40649
60,-0.035957,-0.279538,0.035602,0.048573,0.0,-13.071396,8.734726,-16.94719,-8.751961,-16.531609,-26.969307,-29.329216,-44.551094,-41.510422,0.0,-71.770515,-12.436693,-82.038349,-5.254787,-27.257632,-0.556056,-21.694822,2.241509,-17.649274,0.0,7.943779,-7.527992,7.401547,10.016247,13.43811,27.832981,26.555924,43.353504,39.586968,0.0,-68.090735,-3.596758,-73.082527,5.436889,-22.102511,10.372852,-16.009641,11.731862,-9.798,153.464367,111.788092,-175.308987,105.47063
61,0.119384,0.229162,0.019604,-0.333267,0.0,-13.553398,8.626832,-17.400169,-8.854568,-17.095459,-27.176147,-29.929527,-44.94017,-42.215492,0.0,-72.696494,-12.381723,-82.162931,-4.938798,-27.58373,-0.069914,-21.859461,2.831188,-17.621203,0.0,8.428802,-7.279793,7.054722,10.130413,13.475612,27.84898,26.75029,43.295082,39.81348,0.0,-67.948523,-3.140009,-70.962425,5.94499,-21.407874,10.821648,-15.154095,12.062251,-8.956885,153.801366,112.030151,-175.071768,105.15026
62,-0.054748,0.351841,-0.139641,-0.033549,0.0,-13.957489,8.403191,-17.525528,-9.10865,-17.153732,-27.451813,-30.140923,-45.239021,-42.721024,0.0,-73.129567,-12.492485,-82.948482,-4.877238,-27.938208,0.014777,-22.054172,2.866195,-17.664489,0.0,8.391586,-6.987671,6.950752,10.338936,13.70097,27.959244,26.925407,43.329769,39.922531,0.0,-68.091142,-3.258804,-69.687767,5.803958,-21.391825,10.661776,-15.186643,11.878482,-9.036772,153.959135,112.361488,-174.998892,105.096207
63,-0.118309,0.409894,-0.186493,-0.184029,0.0,-13.791115,8.351211,-17.086075,-9.220024,-16.897408,-27.577469,-29.949097,-45.27134,-42.447235,0.0,-73.790168,-12.636543,-83.628065,-4.964227,-28.390493,-0.11703,-22.490766,2.681425,-17.914622,0.0,8.477966,-6.726334,6.867691,10.583771,13.684605,28.168236,26.948307,43.465817,40.108189,0.0,-67.964461,-3.176373,-68.185817,5.975773,-21.180008,10.914991,-15.034922,12.147566,-9.104302,154.050922,112.724065,-174.975289,104.864861
64,0.062691,0.553956,-0.034538,-0.359863,0.0,-13.882416,8.323242,-16.997361,-9.316361,-16.668641,-27.702782,-29.96782,-45.358269,-42.460488,0.0,-74.476591,-12.885736,-84.670436,-5.183292,-28.818726,-0.47407,-22.960513,2.136071,-18.511649,0.0,8.633549,-6.83725,6.344993,10.351238,13.493728,27.912392,26.78508,43.237358,40.126064,0.0,-68.319791,-2.818869,-66.694249,6.409749,-20.561318,11.399596,-14.511482,12.588396,-8.632522,154.334696,113.219778,-174.788744,104.446755
65,-0.006203,0.584283,-0.222714,-0.227118,0.0,-14.270828,8.384308,-16.799469,-9.356804,-16.261551,-27.828323,-29.840035,-45.476166,-42.437256,0.0,-74.960925,-13.095713,-85.910675,-5.367062,-29.332057,-0.821071,-23.5841,1.541166,-19.163463,0.0,8.68665,-6.74929,6.066193,10.235871,13.566479,27.690033,26.779599,43.037728,40.115502,0.0,-69.182753,-2.681987,-64.217254,6.631093,-20.133388,11.645529,-14.283296,12.833737,-8.60345,154.527363,113.736565,-174.812588,104.152141
66,-0.071549,0.114386,-0.242683,0.171111,0.0,-14.365699,8.483574,-16.602424,-9.284545,-15.847206,-27.781196,-29.561531,-45.382255,-42.222702,0.0,-75.293667,-13.165293,-86.512444,-5.493656,-29.441985,-1.081237,-23.764343,1.137758,-19.199784,0.0,8.812054,-6.530079,5.907017,10.317409,13.579639,27.683647,26.753632,43.035015,40.014049,0.0,-69.828527,-2.921666,-62.245966,6.497878,-20.210811,11.626732,-14.387476,12.872966,-8.883927,154.66591,113.786626,-174.845175,104.258927
67,0.039986,-0.25653,-0.299194,0.214465,0.0,-14.731613,8.472839,-16.686973,-9.374885,-15.753067,-27.889068,-29.444321,-45.450645,-42.059669,0.0,-75.801193,-12.945961,-86.11668,-5.144599,-29.113182,-0.737164,-23.637625,1.422279,-18.987276,0.0,8.941131,-6.205696,5.694866,10.488544,13.715698,27.741302,26.932949,43.028034,40.084682,0.0,-70.252141,-3.059344,-60.885665,6.444613,-19.870566,11.656391,-13.916462,12.917346,-8.603185,154.954691,113.504025,-174.895574,104.447321
68,0.000733,-0.475459,-0.385426,0.182726,0.0,-14.973244,8.561393,-16.835038,-9.295029,-15.918938,-27.854966,-29.57444,-45.468567,-42.201004,0.0,-76.044453,-12.70566,-85.878935,-4.68619,-28.698449,-0.146775,-23.157881,2.033972,-18.34246,0.0,8.999714,-5.827812,5.897381,10.680954,13.946812,27.794655,27.155491,42.969246,40.009083,0.0,-70.579048,-3.202889,-58.544004,6.420338,-19.393038,11.804579,-13.256733,13.207023,-7.861266,155.225218,113.024049,-175.011206,104.62553
69,0.039642,-0.336738,-0.530971,0.184028,0.0,-15.529198,8.498588,-17.108482,-9.379532,-16.088036,-27.969589,-29.641342,-45.580101,-42.368225,0.0,-76.347567,-12.691129,-85.931459,-4.559848,-28.791111,0.119296,-23.031224,2.433146,-17.857441,0.0,9.720073,-5.299817,6.179981,11.096683,14.35667,28.166954,27.668506,43.343788,40.220088,0.0,-70.925887,-3.156866,-55.163718,6.616532,-19.145987,12.093639,-12.909238,13.499986,-7.531123,155.541527,112.697225,-175.26551,104.819472
70,-0.203888,-0.131966,-0.347569,0.210112,0.0,-15.806969,8.379684,-17.275909,-9.519608,-16.293549,-28.120377,-29.743446,-45.71917,-42.519218,0.0,-76.136857,-13.012591,-86.171404,-4.873701,-29.040503,-0.120926,-23.114285,2.348887,-17.845437,0.0,10.487057,-5.236851,6.466862,11.119549,14.491699,28.166679,27.75745,43.292313,39.993462,0.0,-70.804547,-3.139687,-54.998819,6.725762,-19.174361,12.337807,-12.658878,13.84477,-6.929335,155.628857,112.577816,-175.321861,105.042141
71,-0.293152,-0.041472,-0.260387,0.352879,0.0,-15.610886,8.121369,-17.576752,-9.709877,-16.445228,-28.264366,-29.841087,-45.809624,-42.594154,0.0,-75.732669,-13.462652,-86.47243,-5.339706,-29.619116,-0.478337,-23.499724,2.195388,-18.208449,0.0,10.477146,-5.62048,6.450645,10.823043,14.411235,27.937591,27.736644,43.109825,39.947731,0.0,-70.765984,-3.445685,-56.42053,6.475871,-19.418837,12.137476,-12.673068,13.681594,-6.830028,155.644798,112.536019,-175.273155,105.394695
72,-0.319107,0.008596,-0.471749,0.491465,0.0,-15.273056,7.837029,-18.121971,-9.838348,-16.574867,-28.313438,-30.046257,-45.799393,-42.739723,0.0,-74.886071,-14.00408,-87.208199,-5.961638,-30.31471,-1.004192,-23.937251,1.891001,-18.691479,0.0,11.073567,-5.795986,6.968296,10.752571,14.604378,27.908432,27.929844,43.125218,39.989651,0.0,-70.916118,-3.966926,-57.193015,5.977978,-20.171914,11.67231,-13.465128,13.322158,-7.598832,155.575727,112.519461,-175.494868,105.861006
73,-0.510956,-0.219887,-0.309837,0.385397,0.0,-15.280586,7.339463,-18.825485,-10.242897,-16.745613,-28.592994,-30.176285,-45.892341,-42.887283,0.0,-73.938511,-14.383616,-87.045209,-6.344676,-30.637548,-1.239331,-24.013309,1.972147,-18.651799,0.0,11.371548,-6.156006,7.576847,10.533543,14.465149,27.843155,27.855411,43.191021,40.122562,0.0,-70.126997,-4.328803,-61.410494,5.576495,-21.000407,11.251685,-14.105233,12.938175,-7.961697,155.272402,112.280697,-175.597074,106.227526
74,-0.849266,-0.312914,-0.078804,0.592434,0.0,-15.65863,6.867211,-20.055084,-10.63623,-16.943184,-28.846344,-30.264908,-45.97895,-42.909393,0.0,-72.669028,-14.452536,-86.199648,-6.318716,-30.263995,-1.116497,-23.756613,2.247338,-18.396689,0.0,11.680973,-6.413635,8.270908,10.287563,14.197174,27.60244,27.618988,42.913879,40.153725,0.0,-69.16781,-4.942448,-66.003373,4.958484,-21.545053,10.730801,-14.275541,12.620617,-7.914032,154.598419,111.962386,-175.500595,106.814563
75,-1.161712,-0.060139,0.332519,0.642982,0.0,-17.043137,6.303794,-21.898156,-11.01471,-17.791832,-29.06733,-30.839013,-46.069703,-43.294373,0.0,-71.947239,-14.578204,-84.951715,-6.09555,-29.776913,-0.493454,-22.86519,3.276526,-17.341418,0.0,12.0584,-6.337486,8.868004,10.261551,14.136338,27.523488,27.600014,42.753033,40.183171,0.0,-68.544872,-5.11688,-66.329681,4.919519,-21.438416,10.927415,-13.790114,13.109952,-7.256853,153.581646,111.892583,-175.023137,107.447881
76,-1.320786,1.055012,0.868206,0.8042,0.0,-20.015533,5.225052,-24.744347,-11.967201,-19.520691,-29.795288,-32.088638,-46.578827,-44.325623,0.0,-70.083556,-15.304216,-84.0875,-6.450491,-29.629447,-0.220437,-22.032053,4.348643,-16.082271,0.0,13.244614,-5.883991,9.740994,10.369389,14.515206,27.401906,27.964852,42.435437,40.242451,0.0,-68.152688,-4.821188,-63.903883,5.481047,-20.45885,11.916125,-12.653845,14.579192,-5.733266,152.313927,112.944505,-174.101864,108.248991
77,-1.620918,1.400592,1.859631,0.883494,0.0,-25.130791,2.953377,-29.426102,-14.050415,-22.337448,-31.378235,-33.934204,-47.556336,-45.875519,0.0,-68.586016,-15.336518,-81.410385,-5.654541,-28.405097,1.585892,-19.917707,7.273328,-13.244154,0.0,15.026619,-5.397652,10.603855,10.389324,14.7346,27.17981,28.181946,42.02021,40.278214,0.0,-67.154172,-3.882557,-62.140137,7.020615,-18.369877,14.046021,-10.083675,17.263526,-2.573627,150.723038,114.35959,-172.212204,109.146978
78,-2.731865,2.166525,2.957245,1.105499,0.0,-32.305641,0.1856,-36.415192,-16.138916,-25.819451,-32.593506,-36.160652,-47.874939,-47.396279,0.0,-66.904262,-14.968997,-77.526821,-4.001179,-25.997738,4.721548,-16.031691,11.922541,-8.679533,0.0,17.845299,-5.187458,11.370415,10.032772,15.030739,26.529373,28.366711,41.24675,40.238731,0.0,-67.045479,-2.50422,-55.545088,9.376788,-15.335078,17.089544,-6.688088,20.851873,1.418574,147.974276,116.50101,-169.271856,110.227372
79,-3.880898,2.945538,4.035702,2.476982,0.0,-40.121109,-3.553596,-45.911934,-18.707908,-30.591728,-33.736198,-39.31691,-47.636352,-49.71508,0.0,-64.691744,-14.330566,-71.186011,-1.56846,-22.991265,9.211921,-10.807415,18.517288,-2.660961,0.0,19.295425,-5.209557,14.314487,9.30344,15.425251,25.359398,28.535671,39.980495,40.042453,0.0,-67.445702,-1.801871,-49.933093,11.026339,-12.645243,19.670236,-3.158941,24.41557,5.097824,144.012171,119.306637,-165.317361,112.564443
80,-4.704643,4.502908,5.324707,2.430614,0.0,-46.959503,-8.609299,-58.95163,-21.93354,-41.60186,-34.890266,-48.173561,-46.568825,-57.385117,0.0,-60.955715,-13.300125,-62.861271,1.326553,-21.717842,14.067572,-9.078076,25.30175,1.095372,0.0,20.506153,-5.288601,17.644111,7.794628,16.834053,22.915786,29.094074,37.339702,39.917862,0.0,-65.598303,-1.419543,-44.150971,12.239574,-8.601277,22.017609,2.185174,28.018156,10.704205,139.169752,123.329053,-160.13043,114.514565
81,-6.671814,5.093384,7.761532,3.323907,0.0,-54.084618,-13.926865,-71.976082,-24.434189,-57.578911,-34.44722,-60.711159,-43.181282,-65.123154,0.0,-56.189126,-10.611388,-50.217294,5.845726,-16.705018,20.390807,-3.491343,33.37214,8.820139,0.0,21.765758,-5.59631,19.589778,5.575,18.681861,19.07199,28.763282,32.375816,38.135593,0.0,-61.493184,-1.489932,-39.147032,12.208075,-3.007887,22.849221,9.361684,30.095212,17.816377,132.190596,127.583474,-152.67624,116.999509
82,-8.059273,7.278744,10.235858,2.759885,0.0,-59.631386,-19.754081,-85.047935,-27.459617,-73.837875,-34.310257,-73.301193,-39.655311,-71.814834,0.0,-49.099846,-7.295824,-35.810991,10.2824,-9.139234,25.913381,4.427134,39.647722,18.349746,0.0,24.751637,-5.591377,19.949685,1.258427,19.612141,10.678997,25.461663,20.971493,30.831974,0.0,-52.263714,0.636128,-28.706525,13.847814,3.70032,24.702067,16.702159,32.239224,24.423585,123.736582,133.704747,-142.835123,118.601923
83,-9.476532,9.747333,5.872055,10.241788,0.0,-62.632415,-25.113876,-94.800499,-29.612411,-87.950592,-32.505455,-83.495018,-33.494133,-74.793136,0.0,-40.402523,-4.243173,-20.328995,13.303496,-0.087198,29.108465,13.654041,42.93947,27.804432,0.0,27.60244,-0.81435,32.529454,4.531598,26.326458,11.99421,29.564885,20.287777,32.344494,0.0,-49.288969,0.734632,-25.915475,15.220711,3.450706,27.429928,17.67913,36.260546,26.412257,113.854522,142.12544,-137.368596,127.517071
84,-10.884063,11.630233,4.71531,11.007017,0.0,-64.006943,-29.108826,-99.77298,-29.758118,-97.552941,-28.076271,-88.471299,-23.995469,-71.206467,0.0,-30.125797,-0.710729,-4.882321,15.66335,10.930434,30.330246,23.445359,42.947313,36.163388,0.0,34.595581,5.257713,46.498455,8.794098,42.307891,14.143684,41.822559,20.203605,40.021385,0.0,-43.878546,2.875809,-20.269363,18.125901,3.511135,30.731692,17.221048,39.668718,27.268766,102.605587,152.366878,-133.018158,137.135293
85,-12.000412,13.603147,4.873912,13.411603,0.0,-66.766663,-33.470902,-102.26738,-31.829499,-103.866543,-27.393975,-93.030442,-20.660958,-70.374184,0.0,-20.002737,4.877331,9.078397,21.946331,25.195786,36.750794,38.909959,48.764312,50.057971,0.0,42.254483,11.641388,60.175599,13.367844,57.413933,16.348069,53.217408,19.709279,46.746312,0.0,-38.71016,5.258801,-13.885414,20.938861,5.443484,33.486915,18.469869,42.055525,28.768282,90.188261,164.719987,-128.56116,149.296858
86,-11.084816,14.419635,4.158131,14.256626,0.0,-67.502999,-35.868279,-104.000565,-32.543312,-103.94339,-26.268746,-92.152314,-17.821839,-67.623516,0.0,-10.055944,10.150001,22.006241,27.325199,39.138263,41.875659,53.476252,52.903986,62.506582,0.0,49.964573,18.143898,73.674362,18.117474,70.684364,18.697346,63.314049,19.367581,52.092407,0.0,-34.24148,8.483432,-4.613867,24.649851,9.146595,37.057966,21.07507,45.186161,31.07697,78.891467,178.158004,-124.615007,162.571866
87,-10.610299,15.138879,2.688206,18.00437,0.0,-69.2742,-36.244674,-102.754348,-31.506385,-101.959396,-23.986244,-89.202117,-14.501884,-63.714065,0.0,-2.737458,14.634082,31.351425,31.704427,49.768337,45.885817,65.077252,56.261418,72.163853,0.0,57.020061,25.546566,94.01659,28.388798,89.246921,31.114769,83.850162,32.895607,73.400745,0.0,-33.111491,11.948297,-0.511886,31.221836,13.536357,45.146122,27.854574,53.992819,39.227518,68.200309,192.552602,-122.00766,179.831955
88,-9.263374,14.471802,7.375351,12.149826,0.0,-70.537903,-36.044769,-103.375076,-30.396812,-101.72525,-22.488693,-87.816421,-13.101242,-62.838123,0.0,2.737111,18.562816,35.913076,35.827638,55.358824,49.763533,72.556474,59.456396,79.714483,0.0,64.098804,28.958656,101.537269,29.826164,101.76638,30.831779,94.621696,31.323829,81.292373,0.0,-23.967694,17.744784,12.411314,36.920534,26.874706,50.236418,41.510084,58.208631,50.786997,58.881655,206.432131,-114.687589,191.389508
89,-6.599327,13.684348,8.663509,11.991782,0.0,-71.13525,-35.650841,-104.55875,-30.828392,-104.680035,-24.344719,-91.716534,-16.701302,-69.190407,0.0,6.661313,22.077254,36.144282,40.204594,56.88154,54.775221,78.10202,64.675171,87.41518,0.0,67.982082,31.217308,103.676628,30.013928,103.721008,28.932507,95.105393,27.718792,79.869782,0.0,-16.066333,22.672825,25.472885,41.983055,40.567118,55.120912,55.821347,62.674556,63.916159,52.171143,219.622565,-106.135265,202.887376
90,-5.357483,12.050753,8.186623,11.595542,0.0,-70.586277,-31.948082,-102.495689,-26.99485,-102.414196,-20.925957,-89.936519,-13.812195,-67.181042,0.0,9.612811,24.197146,33.660051,40.9929,54.208143,54.499,77.252273,63.395011,90.250253,0.0,71.3115,32.736591,105.156944,30.00222,105.236171,27.490848,96.065632,25.130207,79.256355,0.0,-9.284064,27.684216,36.889782,47.433233,52.474191,60.491518,67.60151,67.646353,74.590558,46.736235,231.333984,-98.026067,214.143584
91,-5.260963,11.888832,7.381119,11.366929,0.0,-69.577835,-28.012345,-98.13469,-22.597916,-98.671532,-16.733185,-86.827572,-10.343582,-63.735192,0.0,9.95366,29.543064,33.41232,43.477502,49.147301,53.49926,69.828984,58.778933,83.40107,0.0,74.1278,34.070732,108.114978,30.239948,107.518901,26.95634,98.18716,24.180542,80.385807,0.0,-3.750189,32.164937,45.348737,52.854401,61.737778,66.095541,76.949992,72.953493,83.411209,41.307169,242.951963,-90.813051,225.23966
92,-3.26342,9.81566,6.898338,9.663927,0.0,-66.214577,-24.527642,-94.707688,-18.86316,-95.35278,-13.474961,-84.502076,-8.30246,-62.068943,0.0,7.807327,33.542367,33.776599,45.372906,45.924127,52.727887,64.16804,55.227074,76.692159,0.0,74.912121,33.598801,104.704754,26.437672,104.522587,20.245651,91.847317,15.183987,70.101333,0.0,0.154784,33.375431,53.757797,52.728418,68.452246,65.145981,81.206053,71.528108,86.006344,37.789084,252.578584,-84.169378,234.714548
93,-2.024964,8.753627,6.455669,9.220349,0.0,-63.1264,-23.407264,-87.055595,-17.640655,-86.944439,-12.469299,-77.259166,-7.750831,-56.800895,0.0,6.38419,35.452332,36.733888,45.402929,45.210824,50.636845,58.440492,51.190882,68.807398,0.0,74.551312,32.955723,100.868019,24.533467,101.286049,17.051766,87.288597,10.734936,63.821388,0.0,2.661011,33.996863,58.52173,52.716895,72.6646,64.901128,84.134776,71.233584,88.409263,35.477749,261.215401,-78.00008,243.818087
94,-1.006462,8.831013,6.190441,8.02338,0.0,-61.163864,-24.880119,-73.601154,-18.838257,-70.421104,-13.377251,-61.805466,-8.738983,-45.858066,0.0,4.487576,34.510058,41.92979,41.668857,47.268557,44.324878,53.540732,42.84745,59.546404,0.0,73.987507,32.100575,98.283543,23.060109,98.578846,14.908608,84.203854,7.806393,60.304448,0.0,5.102189,34.236083,61.634852,52.536015,76.848066,64.742133,87.746965,71.422379,90.844575,34.225056,270.008573,-72.05587,251.803626
95,0.397934,7.610887,5.852932,7.1958,0.0,-59.037632,-28.118042,-59.885239,-22.251274,-53.970829,-16.559235,-45.202446,-11.630035,-34.1464,0.0,1.771644,32.498377,48.698375,36.723859,52.148778,36.973763,52.419999,33.931184,51.137998,0.0,72.901772,31.615082,95.674828,22.177792,95.510239,13.453823,80.506806,5.591217,56.803849,0.0,6.974684,34.227549,63.531331,51.965318,79.112034,64.041661,89.792138,70.996758,92.352224,34.389233,277.633051,-66.436695,259.013017
96,-15.420685,2.505387,5.293385,6.054788,0.0,-36.178779,-20.957554,-28.634216,-18.348678,-20.969387,-15.941688,-17.266411,-13.559978,-27.070816,0.0,-2.473512,27.778793,50.349903,35.716611,59.484987,39.362652,61.039121,40.011809,60.463669,0.0,72.050938,31.2243,92.722217,21.441524,92.220394,12.154083,77.003597,3.530136,53.885673,0.0,8.952266,34.335329,65.350091,51.493607,80.571283,63.336274,90.960469,70.39673,93.156079,18.810625,280.178267,-61.301233,265.107634
97,-13.170536,2.226744,4.383236,5.149985,0.0,-17.005428,-16.461994,-0.055012,-16.618183,7.931477,-16.795532,5.234162,-16.283752,-22.85804,0.0,-1.908433,25.330316,52.148137,35.673831,63.938464,41.722024,65.904955,45.284492,67.96096,0.0,71.216766,31.038769,90.353004,20.878818,89.111732,10.977093,73.650467,1.590889,50.999084,0.0,10.862848,34.459508,66.296045,50.980572,81.150835,62.442782,90.997716,69.375352,93.105134,5.525093,282.445708,-57.032993,270.298316
98,-12.274383,1.578662,3.519298,3.852583,0.0,0.037925,-9.92133,25.086994,-13.739582,32.528972,-17.725308,22.095874,-20.653199,-22.787293,0.0,-1.403414,23.778713,52.466349,36.845322,67.15298,45.256445,70.988447,51.274677,75.626606,0.0,70.300999,30.222599,88.273602,19.792752,86.083157,9.445359,70.629948,-0.419815,48.538433,0.0,12.368879,34.651515,66.952279,50.977287,81.10682,62.243761,90.725163,69.031663,93.092167,-6.830503,284.043037,-53.594908,274.169566
99,-11.861206,-0.775721,2.558613,2.802666,0.0,15.65094,-3.295475,42.120449,-10.478817,48.16222,-17.801068,31.623699,-23.454483,-29.12946,0.0,-1.009175,24.942609,52.317555,41.590261,68.624443,52.695986,75.179064,61.080581,84.395955,0.0,69.395325,29.497433,86.800827,18.841702,83.920944,8.170338,68.513809,-1.979873,46.714554,0.0,12.98999,34.475292,66.728236,50.693136,80.366321,61.731393,89.870191,68.243011,92.322448,-18.752094,283.269335,-51.09668,276.974251
100,-9.346436,-1.935122,1.614727,1.653911,0.0,27.408932,0.589737,54.415981,-10.058464,59.577335,-20.306785,37.724178,-28.187817,-39.528316,0.0,0.539217,26.773274,52.95041,46.928115,70.068686,60.649661,79.516932,71.433037,93.670805,0.0,68.826519,28.606385,85.750363,17.77985,82.161495,6.848671,67.144741,-3.48262,45.284306,0.0,13.31818,34.134961,66.268516,50.438527,79.630071,61.4507,88.923779,67.86106,91.56976,-28.117081,281.336813,-49.500504,278.630762
101,6.230015,4.176477,0.799175,1.112125,0.0,21.281364,-4.958119,49.539253,-16.114346,51.540687,-25.403835,30.619377,-31.861519,-37.014839,0.0,1.73904,26.183224,50.537784,45.191372,65.635538,58.435168,74.469626,68.989079,87.136525,0.0,68.102875,27.871056,84.977715,16.948391,80.8583,5.866551,66.255913,-4.51094,44.307747,0.0,13.255862,33.38641,64.680716,49.914797,78.176972,61.01368,87.607347,67.413221,90.530154,-21.871754,285.499801,-48.686017,279.729398
102,5.464542,0.88676,0.578888,0.246952,0.0,14.840161,-9.930279,44.774723,-22.352039,46.743359,-31.740303,26.100941,-37.714428,-42.184879,0.0,2.660949,24.869991,49.358908,43.960106,63.394505,57.524078,72.94486,68.365067,86.302389,0.0,67.259995,27.074261,84.477471,16.283421,80.363068,5.271618,66.285462,-5.071884,44.449082,0.0,13.214724,32.987502,63.683101,49.749232,77.514662,60.979952,87.266263,67.46561,90.285586,-16.355765,286.36028,-48.055682,279.950069
103,4.686722,5.047269,0.369736,0.22203,0.0,1.962376,-14.27322,39.251736,-26.20079,39.628498,-33.993576,22.24609,-38.088444,-38.100826,0.0,5.632539,23.251587,44.294966,41.425042,56.898559,54.221827,65.497736,64.244956,77.521146,0.0,66.8359,26.760201,84.356369,16.091778,80.316033,5.124951,66.599556,-5.222374,44.987869,0.0,13.098337,32.295589,62.687116,49.174298,76.785958,60.594555,86.74478,67.321806,89.91065,-11.579332,291.370946,-47.596235,280.135496
104,3.164177,0.464462,0.394947,0.337725,0.0,-1.373257,-17.357597,36.701626,-29.591949,36.093533,-37.029911,18.864109,-40.486691,-40.525967,0.0,5.646309,23.28282,43.843496,41.330069,55.665353,54.154185,64.649977,64.250946,77.392335,0.0,66.596066,26.336609,84.173664,15.742378,79.924015,4.851334,66.546467,-5.374832,45.276707,0.0,13.134782,31.905067,62.026115,48.896175,76.180952,60.502214,86.300746,67.432944,89.759831,-8.281694,291.80247,-47.067827,280.440283
105,-0.663895,2.972986,0.187512,0.166529,0.0,-0.355533,-15.680694,38.351475,-27.718437,34.765927,-34.678516,19.03719,-37.678436,-30.028129,0.0,5.349401,22.438679,41.12675,40.564179,52.696085,53.283887,61.020189,63.110872,71.950135,0.0,66.378364,26.253387,84.133667,15.721332,79.685806,4.887851,66.451034,-5.275875,45.547485,0.0,13.264544,31.619767,61.504188,48.696572,75.776795,60.429447,86.064834,67.483703,89.763721,-8.775416,294.748048,-46.710142,280.579404
106,-2.11568,-3.333744,0.220722,0.192476,0.0,1.201446,-14.250286,39.854713,-26.268723,38.617973,-33.993039,21.063011,-37.846836,-36.704785,0.0,6.501441,23.335517,43.287891,41.906991,54.940762,55.037648,64.14881,65.277015,77.623479,0.0,66.183231,26.145676,84.17094,15.741154,79.662037,5.00251,66.451,-5.103905,45.86198,0.0,13.298161,31.439802,61.148654,48.533255,75.402699,60.356063,85.717426,67.557519,89.656003,-10.713443,291.400306,-46.311767,280.757882
107,-0.722741,-1.147496,0.082901,0.294796,0.0,0.601594,-14.511039,39.845925,-26.02074,38.864434,-33.343769,21.789162,-36.739322,-36.385963,0.0,8.496239,24.226601,44.371228,42.594743,56.694721,55.581213,65.51615,65.887258,78.798256,0.0,66.00246,26.33004,84.091907,16.047443,79.37653,5.323288,66.184284,-4.83609,45.884685,0.0,13.05463,31.159307,60.647908,48.203162,74.845612,60.079149,85.11578,67.419754,89.268038,-11.256781,290.250568,-46.049463,281.050436
108,-2.536743,-1.567275,0.107094,0.320583,0.0,5.650349,-13.306091,44.030777,-24.754097,42.29773,-31.837063,24.782845,-34.841663,-34.592136,0.0,8.843907,25.127231,46.453452,43.563138,58.924541,56.613951,68.042952,67.118376,81.313079,0.0,65.865108,26.361408,84.270572,16.138012,79.285183,5.430278,66.026081,-4.688404,45.858844,0.0,12.868465,30.878269,60.468079,47.931473,74.440999,59.873793,84.473996,67.304911,88.840047,-13.611397,288.69564,-45.760242,281.383366
109,-3.033897,-0.672721,0.026081,0.179472,0.0,8.163402,-10.350723,46.219231,-21.603413,45.160606,-28.943058,27.642288,-32.286564,-32.154167,0.0,8.597275,25.127453,47.118825,43.609327,59.624753,56.65399,68.792392,67.124884,81.971264,0.0,65.729461,26.309189,84.396927,16.12175,79.629753,5.471786,66.19812,-4.561924,45.926994,0.0,12.798971,30.481263,60.386444,47.534553,74.214473,59.497905,83.965925,66.955935,88.338731,-16.474909,288.031678,-45.563776,281.571597
110,-2.221745,-3.082395,0.138096,0.176408,0.0,11.132378,-8.931919,47.499081,-19.941055,48.699932,-27.781757,29.682805,-31.721763,-38.903045,0.0,7.707032,25.824343,49.355745,44.462593,61.844569,57.898458,72.164038,68.830813,88.041897,0.0,65.671772,26.132995,84.443836,16.007331,80.016185,5.459644,66.386478,-4.456467,46.042408,0.0,12.732528,30.036846,60.228759,47.157827,73.899324,59.223141,83.37432,66.793075,87.923374,-18.526486,284.948561,-45.255512,281.747283
111,2.138157,-0.276037,0.129993,0.109225,0.0,8.846501,-11.168747,45.186562,-22.58416,46.569672,-30.222862,27.426293,-33.660827,-41.548931,0.0,7.702932,26.330697,50.282706,44.828848,62.152654,58.013771,72.479855,68.659135,87.985507,0.0,65.57888,25.907043,84.447006,15.753994,80.236313,5.274811,66.410751,-4.505962,45.788017,0.0,12.718016,29.609779,60.108159,46.787608,73.75342,58.921119,82.983945,66.528263,87.581832,-16.204073,284.668093,-44.941263,281.852077
112,-2.225567,0.506415,0.089413,0.063701,0.0,11.986084,-8.387706,47.979046,-19.831558,49.579411,-27.9207,29.955105,-31.85773,-39.411563,0.0,5.632169,25.321102,49.699189,44.044667,60.989635,57.540269,72.008489,68.262536,87.92945,0.0,65.513477,25.673309,84.385128,15.457191,80.313137,5.023052,66.378101,-4.61649,45.584896,0.0,12.792944,29.249096,60.116311,46.533024,73.685334,58.763854,82.772945,66.419435,87.357938,-18.220385,285.165101,-44.642595,281.906371
113,0.153134,-3.60494,0.104095,-0.029245,0.0,16.157936,-8.255768,46.839706,-20.348282,50.597008,-29.723374,29.184013,-34.799011,-48.516403,0.0,2.938628,26.381691,52.589381,45.571533,64.387476,59.779722,76.560051,71.247095,95.104762,0.0,65.424122,25.31583,84.066914,15.063469,80.347538,4.745121,66.380253,-4.693119,45.353153,0.0,12.990187,29.0469,60.116422,46.421922,73.718618,58.678934,82.703068,66.275285,87.117988,-17.814079,281.544825,-44.285328,281.86179
114,0.179397,0.336269,-0.107448,-0.052302,0.0,15.876252,-8.470436,46.569992,-20.260883,49.909401,-29.507995,28.541542,-34.407898,-48.800388,0.0,3.126583,26.539474,51.898911,45.438027,64.345757,59.660901,76.381406,71.287318,95.258939,0.0,65.416694,25.362053,83.844772,15.076389,80.146614,4.741619,66.183998,-4.712986,45.258201,0.0,13.112761,29.052235,60.110123,46.517116,73.644937,58.838596,82.676416,66.461462,87.115925,-17.32374,281.865178,-44.081834,281.793572
115,0.894413,0.03106,-0.188542,-0.087328,0.0,13.673344,-9.430057,45.10056,-21.18013,48.193737,-30.377243,26.933613,-35.014927,-50.197929,0.0,3.817188,26.819846,51.923982,45.444858,64.676702,59.573759,76.384321,71.183899,95.201685,0.0,65.384525,25.518872,83.72144,15.192616,80.040493,4.773571,65.98843,-4.767082,44.918621,0.0,13.276598,29.084543,60.160759,46.566554,73.653372,58.896135,82.746738,66.472997,87.16398,-16.057915,281.880056,-43.898964,281.690062
116,-1.772014,-0.107693,-0.307846,-0.087908,0.0,14.689247,-7.796562,46.7845,-19.264527,49.649231,-28.618561,28.773353,-33.520146,-48.440953,0.0,3.943283,26.518579,51.437612,45.193595,64.53422,59.447418,76.35352,71.188036,95.597851,0.0,65.491345,25.65089,83.709995,15.310261,80.046284,4.840302,66.058582,-4.738174,44.974079,0.0,13.438076,29.088631,60.158746,46.643396,73.527389,59.015993,82.730263,66.565092,87.132536,-17.419418,281.754073,-43.796299,281.583864
117,0.829719,-0.575081,-0.244194,-0.146682,0.0,13.767289,-9.254516,45.762474,-20.720901,48.583718,-29.758403,28.287438,-34.1586,-49.250942,0.0,4.024978,27.323161,51.743683,45.965117,64.763375,60.099873,76.553887,71.7069,96.132757,0.0,65.52705,25.626274,83.772984,15.258659,80.141087,4.753075,66.207607,-4.862057,44.950756,0.0,13.598824,29.019248,60.071777,46.63485,73.420499,59.036655,82.745194,66.527214,87.144985,-16.143883,281.163711,-43.594677,281.421901
118,2.199818,0.089402,-0.216064,-0.066159,0.0,11.723225,-11.574097,43.822323,-23.509563,46.301273,-32.451599,26.048389,-36.572399,-51.597427,0.0,3.432372,27.401597,51.708189,45.991929,64.130977,60.050732,76.128588,71.611088,96.164386,0.0,65.481731,25.731159,83.825122,15.316349,80.062946,4.68473,66.151943,-5.109982,44.579349,0.0,13.587252,28.883768,59.895319,46.489601,73.27215,58.909411,82.734178,66.397118,87.242946,-13.447735,281.236771,-43.314411,281.3394
119,1.325706,2.462372,0.00238,0.01298,0.0,10.447712,-12.417606,44.365048,-24.713481,44.620823,-33.384498,25.203724,-37.267238,-48.203064,0.0,4.748816,26.385148,50.525792,44.959845,62.633554,58.730038,73.871091,69.815608,92.163329,0.0,65.341381,25.607334,83.759731,15.11237,79.840588,4.358013,65.99699,-5.569714,44.044476,0.0,13.491736,28.728601,59.624098,46.293469,73.092221,58.69268,82.678417,66.135642,87.218023,-11.624514,283.703537,-42.814516,281.356774
120,2.01503,0.088253,-0.073585,-0.016524,0.0,7.534676,-14.576637,42.821331,-27.155891,42.978825,-35.691387,24.072613,-39.305076,-49.66864,0.0,6.378781,26.701904,50.773733,44.932515,62.058053,58.40927,73.221329,69.347257,92.259216,0.0,65.092174,25.554347,83.663944,14.99604,79.63409,4.147098,65.848445,-5.910428,43.686939,0.0,13.481115,28.677867,59.175629,46.253639,72.895336,58.630287,82.691718,66.042979,87.221098,-9.120112,283.80723,-42.398729,281.35569
