takenoko1/special-research/HandMotion_SimilarSearch_自分用/NewProject/handData/test_key/d4_feature_d3/85.csv
frame,vel_0x_L,vel_0y_L,vel_0x_R,vel_0y_R,posFromWrist_0x_L,posFromWrist_1x_L,posFromWrist_2x_L,posFromWrist_3x_L,posFromWrist_4x_L,posFromWrist_5x_L,posFromWrist_6x_L,posFromWrist_7x_L,posFromWrist_8x_L,posFromWrist_9x_L,posFromWrist_0y_L,posFromWrist_1y_L,posFromWrist_2y_L,posFromWrist_3y_L,posFromWrist_4y_L,posFromWrist_5y_L,posFromWrist_6y_L,posFromWrist_7y_L,posFromWrist_8y_L,posFromWrist_9y_L,posFromWrist_0x_R,posFromWrist_1x_R,posFromWrist_2x_R,posFromWrist_3x_R,posFromWrist_4x_R,posFromWrist_5x_R,posFromWrist_6x_R,posFromWrist_7x_R,posFromWrist_8x_R,posFromWrist_9x_R,posFromWrist_0y_R,posFromWrist_1y_R,posFromWrist_2y_R,posFromWrist_3y_R,posFromWrist_4y_R,posFromWrist_5y_R,posFromWrist_6y_R,posFromWrist_7y_R,posFromWrist_8y_R,posFromWrist_9y_R,posFromBody_0x_L,posFromBody_0y_L,posFromBody_0x_R,posFromBody_0y_R
7,0.37484,0.538673,2.360493,-0.159946,0.0,-68.569531,-34.176727,-78.871285,-23.725319,-69.092697,-11.076668,-53.300526,1.97097,-34.614876,0.0,10.810349,34.456039,60.80904,50.419027,74.883058,61.083026,83.687839,66.965136,86.977493,0.0,-29.99362,5.627575,-45.164635,16.784569,-39.022728,25.645614,-19.602682,32.833397,43.489609,0.0,1.75286,7.845958,50.362247,28.83517,66.044233,44.668229,71.499932,57.197703,71.521884,18.021675,304.532472,-10.06818,311.310222
8,0.447945,-0.064393,-1.121132,-0.252954,0.0,-69.353772,-34.452427,-79.938858,-23.990525,-69.99218,-11.417611,-54.464333,1.39167,-36.16618,0.0,10.994834,34.680155,60.909927,50.703016,74.553693,61.396422,83.743315,67.369662,87.173761,0.0,-27.833868,7.622303,-44.940697,18.765404,-38.055748,27.229934,-19.476786,33.902,44.645004,0.0,1.872593,7.269234,50.848864,28.718202,66.325605,44.647863,71.181311,57.092257,70.636247,18.751357,304.645837,-10.907575,311.235026
9,0.814865,-0.19171,-0.068556,-0.135876,0.0,-70.32359,-34.998127,-81.05547,-24.494923,-70.805397,-11.944565,-55.295494,0.803146,-37.067746,0.0,10.951065,34.889785,61.288469,50.876374,74.573725,61.485688,83.930023,67.415073,87.303992,0.0,-28.448862,7.298761,-44.294317,18.515459,-37.388186,27.078363,-18.798637,33.799513,44.387529,0.0,2.139516,6.630278,50.424343,28.180943,66.366706,44.325805,71.178959,56.968541,70.25014,19.755026,304.601602,-10.787327,311.246625
10,0.656936,-0.176606,2.077995,0.202406,0.0,-71.06979,-35.243705,-81.679023,-24.649051,-71.236404,-12.072967,-55.646152,0.643227,-37.084133,0.0,10.927451,34.978162,61.589959,50.883574,74.947771,61.34691,84.382864,67.106778,87.603716,0.0,-29.214964,4.141566,-46.547796,15.813692,-39.826269,25.269488,-21.369964,32.973456,42.414133,0.0,0.972112,5.997743,49.835157,27.452831,65.667926,43.582379,70.816669,56.264548,69.346176,20.536462,304.551137,-8.584832,311.575172
11,0.374108,-0.215065,-0.955719,0.216978,0.0,-71.327179,-35.436299,-81.89272,-24.824925,-71.268631,-12.259804,-55.737076,0.427391,-37.206688,0.0,11.008407,35.086523,61.917916,51.007903,75.12691,61.466126,84.523791,67.184572,87.704827,0.0,-28.272772,4.169707,-46.857542,17.03924,-39.657125,27.39699,-20.74205,35.651877,49.081026,0.0,-0.915709,5.148367,51.131163,26.543643,66.423208,42.410628,71.166128,54.432773,67.410609,21.000738,304.442579,-9.450383,311.898657
12,0.475914,-0.115769,-0.711856,0.082734,0.0,-71.751732,-35.714024,-82.314766,-25.060021,-71.515492,-12.491021,-55.994099,0.153236,-37.361824,0.0,10.966749,35.276429,62.089125,51.224634,75.269849,61.627281,84.782698,67.22093,87.7471,0.0,-27.556389,4.527597,-46.560763,17.894777,-39.513022,28.55758,-20.531382,36.912855,53.261415,0.0,-2.204774,4.694426,51.191141,26.165829,66.582641,42.082961,71.483901,53.900989,66.475275,21.526423,304.426222,-10.112468,312.080803
13,0.384155,-0.063171,-2.008931,0.17279,0.0,-71.841534,-35.87962,-82.525875,-25.219917,-71.652443,-12.693008,-56.151581,-0.161385,-37.579239,0.0,10.966737,35.221212,62.305338,51.344022,75.254054,61.896662,84.797876,67.550393,87.742395,0.0,-23.33987,6.484228,-45.019495,20.017325,-37.82662,30.630736,-18.612917,38.809954,56.288618,0.0,-2.574103,5.470036,51.117732,26.683742,66.003928,42.347129,71.153919,53.957615,66.662255,21.931171,304.442737,-12.100806,312.333279
14,0.224533,-0.155883,0.409441,0.371885,0.0,-71.899029,-35.739155,-82.785233,-25.081512,-71.915016,-12.679504,-56.689716,-0.42453,-38.148434,0.0,11.278515,35.248247,62.393481,51.510033,75.132801,62.181986,84.846931,67.899419,87.805665,0.0,-24.147766,7.274769,-43.331726,20.09594,-37.02737,29.866242,-17.176403,37.226578,52.419251,0.0,-1.388285,6.460687,49.97782,27.632309,65.083749,43.435833,70.901712,55.438619,68.216656,22.165707,304.352726,-11.681362,312.771036
15,0.356941,-0.243506,0.298393,-0.448332,0.0,-72.086551,-35.639374,-82.98983,-25.007766,-72.22958,-12.74778,-57.214657,-0.75254,-38.842632,0.0,11.581907,35.435733,62.493108,51.84073,75.208321,62.586068,85.065193,68.32499,88.109958,0.0,-24.439453,8.948468,-41.929492,20.844567,-36.222484,29.319855,-15.938999,35.400078,46.703843,0.0,0.347654,8.37275,50.987302,29.713112,65.433305,45.577769,71.606321,57.733634,71.00355,22.531814,304.164764,-11.373803,312.378248
16,0.201622,-0.263144,0.254792,0.007657,0.0,-72.221878,-35.315346,-83.035125,-24.616035,-72.269039,-12.441742,-57.416141,-0.652061,-39.12553,0.0,11.764775,35.573869,62.700097,52.044865,75.447555,62.793513,85.495903,68.492211,88.573803,0.0,-24.811581,9.886184,-42.150799,21.044059,-36.712361,28.718788,-17.353901,34.031067,46.585464,0.0,0.625964,8.933938,50.508761,30.595501,65.357241,46.690412,71.216515,59.033752,72.056864,22.742151,303.939001,-11.110296,312.423286
17,0.240532,-0.208197,0.375046,0.527435,0.0,-72.373432,-35.137916,-82.832897,-24.441444,-72.194732,-12.361656,-57.497623,-0.71933,-39.331821,0.0,11.820066,35.695542,63.008749,52.260337,75.575427,63.073637,85.480576,68.816919,88.540284,0.0,-24.650139,10.031501,-42.935864,21.095123,-37.274163,28.619934,-18.656743,33.736587,46.490798,0.0,1.061205,9.053623,50.174556,30.702971,64.918072,46.760709,70.310661,59.198045,72.48561,22.989607,303.750508,-10.728326,312.970425
18,0.375229,-0.126539,2.6067,0.223808,0.0,-72.786987,-35.432899,-82.856255,-24.772568,-72.247112,-12.714912,-57.673222,-1.028458,-39.461723,0.0,11.7246,35.91131,63.12111,52.401276,75.765001,63.088741,85.506203,68.734,88.54578,0.0,-28.388156,8.045323,-44.899406,18.564251,-39.977268,25.759106,-22.695533,30.600964,43.845486,0.0,0.946708,8.499462,48.680986,30.537147,64.749506,47.052406,70.105033,59.91251,72.933115,23.363394,303.640321,-8.123068,313.210585
19,0.29361,0.02239,-1.08744,-0.346358,0.0,-73.033264,-35.62151,-82.883229,-24.985749,-72.313042,-12.942078,-57.670647,-1.211472,-39.408463,0.0,11.427038,35.83164,63.091014,52.277232,75.826999,62.918026,85.27559,68.558581,88.403348,0.0,-26.78928,9.308384,-46.271576,19.973705,-40.378063,27.157665,-24.113194,31.832394,48.957905,0.0,-0.142594,8.35341,49.576145,30.698402,65.586755,47.261752,70.152494,59.867778,72.660252,23.641943,303.66733,-9.225569,312.868846
20,0.166923,0.035149,-0.766079,2.278763,0.0,-73.187908,-35.786636,-82.829464,-25.173683,-72.208259,-13.122345,-57.522079,-1.321289,-39.234203,0.0,11.078728,35.639262,63.098077,52.06649,75.811487,62.730576,84.933665,68.428892,88.250428,0.0,-18.416782,9.045296,-45.020439,19.889832,-39.082111,27.495758,-24.180359,32.727814,48.428719,0.0,5.520623,7.168272,46.583745,27.928649,62.62649,43.631359,67.16696,55.707541,69.394508,23.785543,303.701806,-10.014971,315.146936
21,0.324234,0.11325,-1.503582,-0.609711,0.0,-73.510643,-36.1287,-83.067478,-25.59581,-72.426006,-13.577705,-57.525306,-1.773285,-39.200638,0.0,10.854981,35.506808,63.043886,51.977001,75.722925,62.68582,84.574105,68.413417,87.94674,0.0,-17.213367,11.005794,-42.744747,21.976215,-36.986973,29.338291,-21.267117,34.161724,50.699009,0.0,5.344448,6.936399,46.991433,27.813052,62.778964,43.590603,67.505105,55.733229,69.18752,24.072704,303.808872,-11.555626,314.531041
22,0.18512,0.044942,-0.818413,-0.758135,0.0,-73.636803,-36.241173,-83.219925,-25.690956,-72.500313,-13.65374,-57.382244,-1.816406,-38.99112,0.0,10.802568,35.371414,63.01653,51.856934,75.750367,62.560886,84.574068,68.252891,87.977121,0.0,-16.50832,12.619824,-40.582008,22.92976,-34.237118,29.597042,-16.768776,33.810185,49.761967,0.0,5.723374,7.832657,47.528872,28.758167,63.293715,44.450133,68.433029,56.561673,70.315083,24.20497,303.843205,-12.426893,313.762297
23,0.103935,0.128009,2.611965,-0.020192,0.0,-73.568413,-36.133335,-83.198238,-25.600571,-72.515293,-13.579811,-57.263592,-1.746689,-38.894737,0.0,10.643276,35.277676,62.833452,51.776584,75.509762,62.510077,84.391583,68.2212,87.698145,0.0,-20.470871,10.360199,-42.082843,20.730515,-35.530334,27.677788,-16.950382,32.297219,45.258133,0.0,5.100868,7.904398,48.040733,28.299547,63.681903,43.511341,69.334832,55.122765,70.771727,24.246328,303.955418,-9.877505,313.726309
24,-0.019958,-0.05481,0.257836,-0.742166,0.0,-73.308552,-35.810967,-82.984612,-25.28032,-72.201657,-13.255005,-57.025383,-1.430558,-38.664299,0.0,10.828219,35.32399,62.898278,51.830492,75.383026,62.550821,84.347679,68.209283,87.61635,0.0,-21.449696,9.736404,-41.22955,20.283211,-35.240731,27.450577,-16.307041,32.411316,45.954071,0.0,4.635628,7.78154,47.392478,28.320036,63.86934,43.711943,69.970726,55.462232,70.849508,24.152104,303.885424,-9.693935,312.968959
25,0.128746,-0.117079,-0.748369,-2.561444,0.0,-73.014714,-35.71542,-82.898301,-25.126671,-72.006134,-13.01294,-56.840985,-1.068352,-38.52261,0.0,10.971776,35.566422,63.075366,51.981003,75.504143,62.605717,84.658296,68.195834,87.807246,0.0,-29.18775,11.302122,-41.6372,21.910726,-35.561726,28.852071,-15.654265,33.387067,54.225774,0.0,-2.072307,7.830329,49.111634,30.108624,66.985396,46.578243,72.787668,58.90536,72.52831,24.163748,303.756631,-10.559406,310.395801
26,0.175094,-0.165232,0.832683,0.01361,0.0,-72.727215,-35.462311,-82.890518,-24.876159,-72.050022,-12.724983,-57.066971,-0.750618,-38.759434,0.0,11.087966,35.812498,63.118419,52.21726,75.513616,62.823005,84.802903,68.387569,87.836824,0.0,-30.766165,10.793879,-42.341228,21.08919,-36.02631,27.910876,-16.05443,32.513369,52.766207,0.0,-1.459052,7.836751,48.860594,30.047454,67.417772,46.567757,73.303074,59.009829,72.512341,24.204815,303.580327,-9.86075,310.398339
27,0.303269,-0.184226,1.053154,0.084449,0.0,-72.458783,-35.279217,-82.954262,-24.7202,-72.103833,-12.576027,-57.460579,-0.604294,-39.194287,0.0,11.187495,36.063377,63.057458,52.434584,75.44616,63.006144,85.013373,68.55821,87.998462,0.0,-31.933004,9.095781,-42.624,19.343302,-35.856411,26.45711,-15.811575,31.581591,51.716166,0.0,-2.225485,8.338029,48.919677,30.468605,67.645385,46.93584,73.451436,59.313531,72.735027,24.332697,303.385791,-8.982983,310.472478
28,0.280037,-0.303194,-1.852547,-0.646724,0.0,-72.326603,-35.076153,-83.087849,-24.499718,-72.128094,-12.356553,-57.846016,-0.412606,-39.63477,0.0,11.431174,36.25048,63.257887,52.633692,75.498511,63.208277,85.40592,68.747783,88.483079,0.0,-28.896657,10.64934,-40.157157,20.648661,-32.586147,27.485842,-11.081022,32.399546,53.156268,0.0,-2.279393,10.378694,49.804647,32.932495,67.758573,49.463037,73.613,61.908468,73.925055,24.410689,303.074218,-11.037575,309.817375
29,0.429679,-0.169209,2.808381,0.31016,0.0,-72.426132,-35.234127,-83.328037,-24.721023,-72.43238,-12.606536,-58.513103,-0.654167,-40.315189,0.0,11.416033,36.395903,63.282378,52.731431,75.436885,63.28549,85.621355,68.843336,88.730933,0.0,-26.868468,8.813524,-40.578759,18.121805,-33.091645,24.214273,-13.265196,28.176401,38.423715,0.0,2.239786,14.117645,49.965383,35.698444,65.885016,51.280759,72.305015,62.803009,73.82744,24.600088,302.902789,-8.469474,310.125315
30,0.323708,-0.107989,1.306646,0.218399,0.0,-72.588776,-35.194839,-83.398098,-24.742905,-72.6259,-12.721252,-59.094189,-0.916626,-41.027172,0.0,11.450181,36.306044,63.196644,52.717426,75.012153,63.352119,85.34874,68.957117,88.583029,0.0,-28.164276,7.512085,-41.4814,16.631103,-34.117699,22.832771,-14.532715,27.04866,36.004532,0.0,2.099007,13.752792,49.347916,35.358162,65.559647,51.006952,72.086258,62.598047,73.750456,24.699497,302.794874,-7.387127,310.343788
31,0.292007,-0.187906,0.467365,0.072075,0.0,-72.646442,-35.179389,-83.322074,-24.737319,-72.617843,-12.789619,-59.478904,-1.065925,-41.676841,0.0,11.681251,36.128943,63.358553,52.527284,74.984883,63.196754,85.451912,68.845904,88.976106,0.0,-27.980541,6.368214,-41.572185,15.52232,-34.367672,22.157948,-14.942333,26.902302,35.46658,0.0,2.731801,14.088616,49.356277,35.425038,65.584347,50.859652,71.854656,62.263928,74.044931,24.783039,302.609753,-7.128227,310.418648
32,0.25367,-0.322004,0.218239,-0.148423,0.0,-72.53001,-35.09769,-83.257381,-24.644325,-72.569904,-12.735145,-59.685173,-1.03553,-42.023838,0.0,11.872776,35.92203,63.641024,52.295596,75.198021,62.998301,85.614093,68.698074,89.276658,0.0,-23.573193,6.66711,-40.85883,15.917095,-35.253651,22.308666,-18.221569,26.559574,27.232922,0.0,6.719618,15.272358,48.218031,36.304117,63.598836,51.614822,70.561899,62.987754,73.260244,24.866106,302.299852,-7.080591,310.282328
33,0.425675,-0.620555,-0.715084,3.576497,0.0,-72.283505,-35.079621,-84.109005,-24.81839,-73.697491,-13.142052,-61.161072,-1.623436,-43.458069,0.0,11.015792,35.523506,63.092977,51.776288,74.509566,62.50683,84.848981,68.381616,89.267532,0.0,-24.030075,6.658035,-41.75275,16.389221,-36.828873,22.828194,-20.628788,26.88929,23.871277,0.0,9.850883,13.761771,44.145332,32.977585,58.821825,47.541914,66.588137,58.684195,69.824352,25.025236,301.726555,-8.06222,313.906083
34,0.345451,-0.70435,-7.395058,8.093985,0.0,-72.042801,-34.816509,-85.281498,-24.802231,-75.816467,-13.438683,-63.558174,-2.262772,-45.877178,0.0,9.684169,34.916153,62.360247,51.11446,73.760843,61.935009,83.92338,67.999566,89.016566,0.0,-4.875549,17.900871,-35.010452,26.124024,-32.657787,30.482186,-19.168144,32.188591,28.894352,0.0,14.069955,8.488928,40.487744,21.324344,50.757591,30.507593,54.38129,36.954657,53.841369,25.05447,301.074393,-15.773495,322.052256
35,1.453079,-1.572017,-2.415195,6.666105,0.0,-71.172558,-34.789604,-87.916385,-25.504944,-80.136703,-14.751663,-67.692386,-4.168304,-49.431484,0.0,8.209483,34.336107,60.55033,50.604586,72.428108,61.557022,82.826309,67.781686,88.96593,0.0,6.468876,23.440166,-32.335774,30.435573,-33.518704,33.134159,-23.972718,32.906696,14.867992,0.0,22.892977,9.426682,39.136596,14.25134,42.012535,16.134407,41.000569,16.107941,36.511672,25.862606,299.618007,-18.833633,328.833992
36,1.812767,-2.182556,-11.290329,-4.65776,0.0,-69.833988,-34.555652,-91.159,-26.099304,-85.05114,-16.187782,-72.630832,-6.445335,-53.836658,0.0,6.863003,33.607773,58.618332,50.063381,70.784115,61.257409,81.337717,67.701769,88.147207,0.0,21.213512,29.71043,-19.219471,35.117706,-23.522152,36.459011,-18.58794,35.095756,9.466404,0.0,32.916811,15.744787,45.445068,13.459281,42.224487,8.987649,37.303288,2.982656,27.533323,26.686981,297.556034,-31.112354,324.296815
37,1.685463,-1.937468,-11.894222,-8.66583,0.0,-68.482887,-34.645386,-94.231636,-26.949669,-89.758896,-17.799637,-77.374214,-8.764457,-58.214355,0.0,5.34472,33.169764,56.54726,49.811957,68.717896,61.138761,79.403866,67.644488,87.225877,0.0,30.493846,34.072849,-7.462201,38.24834,-12.950959,38.939174,-10.59367,36.840557,14.064273,0.0,38.247995,20.00843,53.664714,11.683474,48.07314,1.608475,38.958162,-9.835149,23.787185,27.24733,295.703785,-44.13169,315.716204
38,1.681183,-1.565719,-10.531083,-31.127765,0.0,-67.592812,-34.60762,-95.58942,-27.424484,-92.581993,-18.763916,-80.122215,-10.170731,-60.649773,0.0,5.072314,32.993393,55.519141,49.739845,68.130835,61.147876,78.863847,67.720034,86.636939,0.0,45.539921,40.013466,13.40831,39.575936,4.901219,35.782391,0.791325,29.129918,14.815888,0.0,46.333372,23.905696,64.413892,14.584064,58.91009,3.93313,48.031644,-7.702006,30.58073,27.926119,294.227879,-55.665167,284.678252
39,1.318817,-1.10495,-12.259208,-47.693289,0.0,-66.733349,-34.24237,-95.292984,-27.075714,-92.840309,-18.496559,-79.830505,-9.901634,-60.112953,0.0,6.274855,33.037014,56.245104,49.952416,69.339229,61.591158,80.500443,68.360226,88.028325,0.0,46.00399,35.335235,31.36417,33.647529,24.353542,29.985969,19.05669,24.413028,24.832054,0.0,42.453507,22.591567,63.207437,13.412677,58.090588,3.767961,46.490403,-5.82286,28.988558,28.378475,293.299967,-68.790836,237.162001
40,0.167931,0.422138,-19.104836,-66.211892,0.0,-66.722729,-33.668541,-93.22387,-26.165817,-90.906624,-17.358582,-77.728615,-8.298203,-57.63731,0.0,7.627621,33.238629,58.134321,50.170271,71.620438,61.922548,82.774575,68.889032,90.084428,0.0,55.785221,34.893482,51.636051,32.488724,47.561119,28.716408,42.017361,23.459347,41.453316,0.0,35.549157,19.202248,58.374844,17.191562,59.54528,15.188829,54.328686,12.956552,41.609157,27.933872,293.802028,-88.508206,171.030032
41,-0.248566,1.323583,-13.401066,-61.65523,0.0,-67.097877,-33.09629,-90.442921,-25.213669,-88.484653,-15.924362,-74.901981,-6.19265,-54.057209,0.0,8.809339,33.580986,59.86432,50.484383,73.971041,62.251505,84.967913,69.308737,92.459275,0.0,57.901394,33.625569,58.668103,31.412041,56.648289,27.80317,51.453392,22.790326,47.413182,0.0,24.22725,6.267216,40.528105,9.380499,46.36505,13.354021,46.402317,17.886563,41.17604,26.894886,295.1886,-102.699692,109.437791
42,0.098717,1.059106,-12.10279,-58.830111,0.0,-67.809013,-32.432465,-88.062916,-24.225128,-86.420071,-14.46872,-72.498711,-4.091812,-50.900231,0.0,10.450751,33.572316,61.751228,50.440849,76.844955,62.319121,87.802911,69.649575,94.888759,0.0,59.821975,32.996097,64.103942,30.267013,62.489559,26.313056,56.762489,21.815036,51.197776,0.0,13.79059,-8.379889,20.645929,-1.454698,28.134253,7.566111,33.051303,18.17243,33.849958,26.135376,296.380794,-115.660709,50.740768
43,-0.08226,0.586988,-14.201157,-49.20237,0.0,-67.936444,-31.775322,-86.352196,-23.309052,-84.764626,-13.160774,-70.448559,-2.278496,-48.453942,0.0,11.998722,33.527707,63.44241,50.433154,79.315329,62.459714,90.230319,69.965736,97.142623,0.0,58.281818,29.566406,59.659458,28.826557,59.898022,28.004425,55.561043,27.332027,51.846474,0.0,-2.081922,-24.158478,-2.173948,-17.623494,4.566282,-8.061535,10.745312,3.6756,14.499589,24.800886,297.710491,-131.114096,2.281107
44,0.250602,0.035802,-7.289248,-36.687512,0.0,-67.975811,-31.552803,-85.929348,-23.134964,-84.593135,-12.842857,-70.358001,-1.754562,-48.028644,0.0,12.512733,33.456707,63.72934,50.376234,80.173574,62.405523,90.874019,69.923203,97.954555,0.0,49.93623,26.264288,51.329417,26.591191,51.404137,27.184386,48.130428,27.952774,45.362766,0.0,-11.731931,-32.896639,-13.388619,-22.792737,-2.387539,-9.336351,8.812301,6.082068,17.150325,23.266302,298.407714,-140.18853,-33.744984
45,0.475846,-0.695951,-3.591025,-16.30423,0.0,-67.937096,-31.539391,-85.975262,-23.101113,-84.607258,-12.678452,-70.601372,-1.448891,-48.442623,0.0,12.948802,33.238567,63.940464,50.039631,80.598836,62.057941,91.159156,69.6402,98.001102,0.0,43.389007,23.438584,45.194764,23.749709,44.282103,24.959996,40.760719,26.553223,39.327061,0.0,-18.705629,-41.52677,-23.632078,-34.215821,-12.736433,-22.572305,-2.39988,-8.030739,7.122577,21.708,298.439701,-145.813703,-49.321276
46,0.440323,-0.897283,0.750346,-9.045664,0.0,-67.969643,-31.721375,-86.056927,-23.198387,-84.312092,-12.683213,-70.462807,-1.287896,-48.632847,0.0,13.206733,33.079115,64.326491,49.707525,81.165791,61.673347,91.877524,69.314084,98.333344,0.0,39.608511,20.094229,41.009211,19.849989,39.221472,21.010283,35.276047,22.67379,33.763779,0.0,-23.640337,-46.552583,-30.273532,-40.566622,-18.010996,-29.711017,-7.502299,-15.722113,1.63394,20.319294,298.205927,-146.892386,-57.703431
47,0.321579,-0.746625,-0.17823,-7.678176,0.0,-67.90099,-31.684227,-85.823525,-23.034439,-83.844189,-12.465111,-70.058327,-1.03759,-48.404457,0.0,13.188592,33.12738,64.545174,49.636118,81.39023,61.584353,92.268911,69.244393,98.68573,0.0,36.58967,18.173799,38.859434,17.755079,36.127691,19.057779,32.036362,20.684414,30.197868,0.0,-28.114788,-49.791359,-36.974784,-44.478786,-21.792184,-33.865074,-11.158753,-20.086411,-1.904507,18.64472,297.740782,-149.066769,-65.100127
48,0.331512,-0.302712,0.817494,1.909886,0.0,-67.899559,-31.587868,-85.66769,-22.791252,-83.730881,-12.154701,-70.102089,-0.684219,-48.423283,0.0,12.990273,33.015129,64.596896,49.535896,81.372729,61.509832,92.358769,69.187705,98.88995,0.0,36.540141,18.536439,40.167718,18.210655,36.268516,19.576993,32.045746,21.359196,30.387841,0.0,-29.19314,-49.663178,-41.823454,-44.247127,-22.456603,-33.44698,-10.650063,-19.539529,-1.585504,17.145269,296.83542,-150.080238,-63.792891
49,0.584404,-0.159316,0.817495,1.909886,0.0,-67.904446,-31.848656,-85.796448,-23.008896,-83.8335,-12.290359,-70.114826,-0.684837,-48.242214,0.0,12.871379,33.112756,64.575258,49.681713,81.384363,61.658058,92.420816,69.302116,98.923468,0.0,36.490612,18.899078,41.476001,18.666229,36.40934,20.096206,32.05513,22.033977,30.577812,0.0,-30.271493,-49.534997,-46.672124,-44.015467,-23.121022,-33.028885,-10.141373,-18.992646,-1.266501,16.228014,296.006217,-150.764402,-62.552892
50,0.488045,-0.052674,0.817494,1.909886,0.0,-67.748772,-31.760422,-85.535774,-22.889305,-83.631249,-12.119774,-69.765106,-0.502098,-47.780056,0.0,12.887509,33.228848,64.53506,49.85117,81.509532,61.816238,92.5746,69.36225,98.887975,0.0,36.441083,19.261718,42.784286,19.121804,36.550164,20.61542,32.064514,22.708759,30.767784,0.0,-31.349845,-49.406816,-51.520795,-43.783808,-23.78544,-32.610791,-9.632683,-18.445764,-0.947498,15.327215,295.169359,-151.335752,-61.42719
51,0.688911,-0.024008,0.817495,1.909886,0.0,-67.620941,-31.67514,-85.302005,-22.791618,-83.57373,-11.956489,-69.577011,-0.335335,-47.515949,0.0,12.961251,33.248805,64.324737,49.968668,81.507172,61.974924,92.538859,69.488541,98.682234,0.0,36.391553,19.624357,44.092569,19.577379,36.690988,21.134634,32.073898,23.383541,30.957756,0.0,-32.428198,-49.278635,-56.369465,-43.552148,-24.449859,-32.192697,-9.123994,-17.898881,-0.628495,14.847599,294.439877,-151.686784,-60.222778
52,0.81688,-0.024787,0.817494,1.909887,0.0,-67.743073,-31.684708,-85.359238,-22.828194,-83.749867,-11.966309,-69.583752,-0.351975,-47.464325,0.0,13.125075,33.35782,64.513916,50.128552,81.679518,62.107107,92.605216,69.530655,98.663215,0.0,36.342025,19.986997,45.400853,20.032954,36.831813,21.653848,32.083282,24.058323,31.147728,0.0,-33.506551,-49.150454,-61.218137,-43.32049,-25.114279,-31.774604,-8.615305,-17.352,-0.309494,14.883728,294.287421,-151.650041,-58.44056
53,0.684013,0.154228,0.817494,1.909886,0.0,-67.87365,-31.891892,-85.3293,-23.105667,-83.875431,-12.231514,-69.468819,-0.615784,-47.458477,0.0,13.204103,33.550259,64.418524,50.385409,81.598291,62.36063,92.454187,69.754179,98.573455,0.0,36.292496,20.349636,46.709137,20.488529,36.972637,22.173062,32.092667,24.733105,31.3377,0.0,-34.584903,-49.022273,-66.066807,-43.088831,-25.778698,-31.35651,-8.106615,-16.805118,0.009509,15.175667,294.724997,-151.224621,-56.247326
54,0.50338,0.440231,0.817495,1.909886,0.0,-68.003105,-31.712769,-85.029866,-22.987999,-83.71558,-12.225037,-69.379853,-0.757347,-47.349964,0.0,13.201473,33.520557,64.358577,50.332094,81.424859,62.271437,92.204023,69.651167,98.342459,0.0,36.242966,20.712275,48.01742,20.944104,37.113461,22.692275,32.10205,25.407886,31.527671,0.0,-35.663256,-48.894092,-70.915478,-42.857171,-26.443117,-30.938415,-7.597925,-16.258235,0.328512,15.719118,295.839243,-150.367055,-53.663425
55,0.61869,0.571401,0.817494,1.909886,0.0,-68.381252,-31.917228,-85.225376,-23.170967,-83.923176,-12.443664,-69.629184,-1.029579,-47.515537,0.0,13.173685,33.767176,64.373706,50.618073,81.332925,62.513203,92.089736,69.838395,98.364615,0.0,36.193438,21.074915,49.325705,21.399679,37.254286,23.211489,32.111435,26.082668,31.717644,0.0,-36.741608,-48.765911,-75.764148,-42.625512,-27.107535,-30.520321,-7.089235,-15.711353,0.647515,17.082166,297.242579,-148.805203,-50.921604
56,0.42009,0.604142,-0.122978,3.209774,0.0,-68.874813,-31.99363,-85.384827,-23.235558,-84.169933,-12.560005,-69.983986,-1.248047,-47.87867,0.0,13.298149,34.01409,64.349622,50.861887,81.138374,62.694403,91.868916,69.945704,98.445483,0.0,37.126047,21.289141,51.993101,22.203306,38.281282,24.847383,33.665268,28.62006,33.801899,0.0,-35.470881,-46.813744,-69.970722,-40.760233,-24.28598,-28.792071,-4.702787,-13.988086,2.966638,18.742155,298.756561,-147.688282,-46.80199
57,-0.029686,0.764173,-0.581598,4.134034,0.0,-68.942356,-32.119057,-85.250759,-23.348579,-83.998135,-12.708595,-70.060307,-1.461273,-48.039036,0.0,13.283416,34.080485,64.034091,50.91897,80.9468,62.724908,91.574157,69.968071,98.328479,0.0,37.821268,21.206993,50.766338,23.526327,39.91414,27.487545,36.362824,32.193341,36.600392,0.0,-32.580934,-44.599091,-59.903205,-38.248886,-21.485293,-26.363352,-3.410524,-11.709372,4.920594,20.430187,300.258642,-146.552162,-41.930048
58,0.087135,0.589964,-0.540258,4.433535,0.0,-69.13789,-32.222969,-85.511902,-23.427154,-83.997963,-12.797012,-70.297714,-1.582878,-48.079834,0.0,13.402791,34.209592,64.013824,51.051585,80.890607,62.816471,91.429426,69.96954,98.345719,0.0,38.661079,20.976796,49.040612,24.713233,41.528995,29.904168,39.174797,35.461445,39.410603,0.0,-29.839453,-42.851424,-48.993549,-36.121361,-18.712595,-24.164724,-2.45052,-9.630913,6.190991,22.365972,301.481397,-145.24377,-36.863722
59,-0.009178,0.354064,-0.442351,4.117334,0.0,-69.30265,-32.319168,-85.727417,-23.49694,-84.086815,-12.854233,-70.454853,-1.648064,-48.365364,0.0,13.642247,34.377406,63.98227,51.201664,80.864091,62.947493,91.398712,70.06839,98.568305,0.0,38.880386,20.679794,46.695957,25.851711,42.955787,32.227981,41.859775,38.528377,42.031643,0.0,-27.271199,-41.307451,-37.423961,-34.141698,-16.008128,-22.02707,-1.766711,-7.543881,7.290562,24.215761,302.166267,-143.827154,-32.415582
60,-0.337211,0.330711,0.246609,3.945567,0.0,-69.304333,-32.238762,-85.595147,-23.468926,-83.99786,-12.898064,-70.512166,-1.77047,-48.593571,0.0,13.744246,34.331216,63.660216,51.135405,80.577026,62.895252,91.054687,70.076319,98.517163,0.0,39.356472,20.101936,44.143043,26.554756,44.176803,34.015789,44.357711,40.945644,44.278598,0.0,-24.409889,-39.858835,-25.052964,-32.353727,-13.288213,-20.258303,-1.410991,-5.998756,7.959844,25.443163,302.787023,-142.015932,-28.17997
61,-0.355111,0.52904,2.134883,2.196073,0.0,-69.365547,-32.395385,-85.477787,-23.631935,-84.000217,-13.099296,-70.61372,-2.003402,-48.751876,0.0,13.597663,34.209815,63.303942,51.029405,80.029843,62.814434,90.618755,70.047494,98.326849,0.0,39.016846,18.763756,39.286503,25.773056,43.915398,33.542965,44.908734,40.557736,44.485611,0.0,-23.615821,-40.150945,-23.320488,-31.829404,-14.82728,-19.450978,-3.753764,-5.401037,5.968733,26.528932,303.575251,-138.440169,-25.724709
62,-0.581611,0.511862,4.839055,1.039531,0.0,-69.318604,-32.228714,-85.175949,-23.389504,-83.881668,-12.820107,-70.51775,-1.683792,-48.656433,0.0,13.553178,34.145742,63.116948,50.948943,79.697008,62.711532,90.509691,69.931539,98.373865,0.0,38.585964,16.535854,37.3469,23.331115,42.266624,31.023731,43.726615,38.267555,43.64788,0.0,-25.5437,-40.477734,-26.404081,-31.841229,-17.881023,-19.617741,-6.488344,-6.061266,2.796201,27.162747,304.400857,-132.385688,-24.371434
63,-0.741509,0.632114,7.084487,-0.137481,0.0,-69.244537,-32.265976,-84.811443,-23.340248,-83.612972,-12.714477,-70.314079,-1.506569,-48.644691,0.0,13.555636,34.157796,62.870206,50.924268,79.502396,62.659996,90.601415,69.893661,98.548347,0.0,38.80465,13.395951,35.319592,19.723595,40.186444,27.339615,41.928132,34.864975,42.222622,0.0,-29.560737,-39.917492,-29.434865,-30.80481,-20.628954,-18.807743,-8.831433,-5.880337,0.343845,27.527521,305.391683,-124.194918,-24.150203
64,-0.687584,0.61065,8.959504,-2.199061,0.0,-69.237476,-32.334022,-84.807506,-23.355285,-83.633388,-12.673164,-70.395847,-1.405609,-48.632114,0.0,13.525736,34.299859,62.624217,51.04457,79.351367,62.720511,90.729917,69.884497,98.687224,0.0,38.639824,10.188873,32.841756,15.847907,37.383638,23.183001,39.216085,30.794437,40.120964,0.0,-30.859326,-37.74035,-30.0909,-28.898581,-21.633535,-17.924923,-10.153698,-6.34716,-1.850719,27.783765,306.429445,-114.291586,-25.922152
65,-0.72258,0.589926,10.243467,-4.405076,0.0,-69.230461,-32.342788,-84.885887,-23.293853,-83.689098,-12.546501,-70.494815,-1.23397,-48.694015,0.0,13.461232,34.41185,62.697923,51.148978,79.417798,62.792265,91.074547,69.883263,98.930595,0.0,37.214206,7.128673,29.502722,12.091056,33.875923,18.997084,35.650525,26.504433,37.52782,0.0,-29.90575,-34.054642,-28.513661,-26.07871,-20.978444,-16.661368,-10.403245,-6.911253,-3.528026,27.998376,307.414663,-103.110928,-29.931936
66,-1.25695,0.43907,11.268588,-6.33325,0.0,-68.761986,-32.131737,-85.136627,-23.025764,-83.680584,-12.209633,-70.309319,-0.76371,-48.568977,0.0,13.493367,34.690295,63.04832,51.375479,80.05526,62.988558,91.833274,70.053916,99.385016,0.0,34.618146,4.843229,26.038746,9.154303,30.053771,15.389809,31.446874,22.287865,34.214765,0.0,-26.68879,-29.038991,-23.905315,-22.906861,-17.875229,-15.734682,-9.087429,-8.343504,-4.458095,27.449272,308.29071,-91.134494,-35.828209
67,-1.135139,0.343666,10.995959,-8.478749,0.0,-68.557583,-32.236016,-85.637284,-23.161011,-84.031174,-12.301278,-70.523083,-0.715371,-48.644211,0.0,13.563342,34.898443,63.516029,51.534807,80.868574,63.148479,92.697409,70.2375,99.959616,0.0,31.346718,3.609902,22.482537,7.041802,26.10244,12.259369,26.792084,18.06855,30.366646,0.0,-19.823883,-22.837939,-15.720309,-19.122985,-11.56135,-14.52253,-5.540994,-9.712432,-3.75461,26.797978,309.006749,-79.65469,-43.934585
68,-1.134156,0.259945,10.68211,-9.979018,0.0,-68.292469,-32.107292,-86.006687,-23.100448,-84.359894,-12.239387,-70.550869,-0.486694,-48.211612,0.0,13.636936,34.935851,64.495884,51.4612,81.987775,63.05852,93.847794,70.153,100.62095,0.0,26.277117,3.302645,18.443539,5.914398,21.689833,9.95204,21.598686,14.39768,26.228766,0.0,-8.176131,-15.643729,-5.395568,-15.281581,-3.850178,-14.045202,-1.309164,-12.361441,-3.000776,25.981579,309.526012,-68.654823,-53.654285
69,-1.419708,0.354916,10.68211,-9.979018,0.0,-67.958622,-32.241989,-86.07803,-23.225395,-84.333389,-12.311073,-70.089203,-0.295921,-47.551987,0.0,13.669133,34.988056,65.577394,51.387471,83.301627,62.970946,95.250604,70.116556,101.537055,0.0,21.207516,2.995388,14.404541,4.786995,17.277225,7.64471,16.405289,10.72681,22.090885,0.0,3.471621,-8.449518,4.929172,-11.440177,3.860994,-13.567874,2.922666,-15.01045,-2.246943,24.751797,310.013231,-57.782787,-63.501
70,-1.201767,0.289227,10.68211,-9.979017,0.0,-67.867687,-32.439674,-86.348591,-23.439949,-84.341961,-12.472481,-69.550976,-0.199608,-46.736034,0.0,13.937093,34.970246,66.879895,51.149694,84.901061,62.67841,96.87927,69.888474,102.491741,0.0,16.137914,2.688131,10.365543,3.659591,12.864618,5.337381,11.211891,7.05594,17.953005,0.0,15.119372,-1.255309,15.253911,-7.598775,11.572166,-13.090547,7.154495,-17.65946,-1.49311,23.580729,310.4002,-47.069978,-73.382275
71,-0.85215,0.196045,10.68211,-9.979018,0.0,-67.86525,-32.506622,-86.405594,-23.491333,-84.105823,-12.463852,-69.044483,-0.05777,-45.853157,0.0,14.155726,34.794431,68.208233,50.828345,86.359594,62.375845,98.299394,69.678226,103.31974,0.0,11.068313,2.380874,6.326545,2.532188,8.452011,3.030052,6.018493,3.38507,13.815124,0.0,26.767124,5.938901,25.578651,-3.757371,19.283338,-12.61322,11.386325,-20.30847,-0.739276,22.708643,310.556431,-36.407804,-83.401107
72,-0.744965,0.234775,10.682109,-9.979018,0.0,-67.895233,-32.475219,-86.343967,-23.383941,-83.80997,-12.310409,-68.225692,0.16182,-44.925876,0.0,14.344041,34.619714,69.529136,50.467352,87.633456,62.0037,99.500427,69.373575,103.978444,0.0,5.998713,2.073618,2.287549,1.404786,4.039404,0.722723,0.825097,-0.285799,9.677245,0.0,38.414876,13.133111,35.903391,0.084033,26.99451,-12.135892,15.618155,-22.957479,0.014558,21.914823,310.60966,-25.77455,-93.561671
73,-0.639541,0.400353,10.68211,-9.979018,0.0,-68.110497,-32.364784,-86.452389,-23.185272,-83.762547,-12.118149,-67.822792,0.251999,-44.451496,0.0,14.455784,34.606203,70.419034,50.412271,88.497825,61.955559,100.301046,69.345354,104.616436,0.0,0.929112,1.766362,-1.751449,0.277382,-0.373203,-1.584606,-4.368301,-3.956669,5.539364,0.0,50.062627,20.327322,46.228131,3.925437,34.705683,-11.658564,19.849985,-25.606488,0.768391,21.197806,310.700434,-15.169916,-103.850268
74,-0.516472,0.673215,7.68773,-0.052418,0.0,-68.317783,-32.115509,-86.402344,-22.944031,-83.725182,-11.952621,-67.560059,0.27697,-43.91676,0.0,14.767179,34.652504,71.068957,50.45394,88.985567,62.006491,100.671944,69.381022,104.953051,0.0,-2.56982,1.638059,-4.332485,-0.479509,-3.575676,-3.16789,-7.832071,-6.388469,2.256125,0.0,53.193474,23.391973,48.691386,6.083166,36.712467,-10.405172,20.852791,-25.133226,1.708769,20.673924,310.925881,-7.489596,-104.350454
75,-0.472916,0.634103,4.693351,9.874183,0.0,-68.316639,-31.80709,-86.297012,-22.666717,-83.527656,-11.728363,-67.282722,0.434738,-43.458526,0.0,15.039325,34.781327,71.309079,50.509713,89.174301,62.025065,100.686418,69.410711,105.087382,0.0,-4.498082,1.688708,-5.455561,-0.86589,-5.568015,-4.027131,-9.566213,-7.581199,-0.172473,0.0,47.807413,22.327065,43.293155,6.557219,33.014863,-8.375715,18.626573,-21.537693,2.835689,20.216509,311.083882,-2.780744,-94.952373
76,-0.273239,0.814216,1.69897,19.800784,0.0,-68.405044,-31.735794,-86.157623,-22.658569,-83.465286,-11.771667,-67.098884,0.442566,-43.104217,0.0,15.092999,34.983881,71.255036,50.57728,89.061347,61.970416,100.593422,69.287285,105.305349,0.0,-4.855674,1.918312,-5.120675,-0.881758,-6.350219,-4.162325,-9.570726,-7.534858,-1.746429,0.0,33.904446,17.132597,30.033438,5.347597,23.61287,-5.570195,13.171329,-14.81989,4.149152,20.046026,311.309435,-0.979018,-75.740252
77,-0.002724,1.005618,-1.295409,29.727384,0.0,-68.499561,-31.668937,-86.065509,-22.723136,-83.487476,-11.94667,-67.077724,0.222519,-42.87545,0.0,15.044463,35.126784,70.917298,50.777314,88.666922,62.159632,100.2338,69.446959,105.271966,0.0,-3.642598,2.326869,-3.327828,-0.527115,-5.922289,-3.573475,-7.845612,-6.249447,-2.465744,0.0,11.484573,7.808571,8.912236,2.454301,8.506489,-1.988611,4.487062,-4.979816,5.649159,20.244913,311.633918,-2.072816,-46.694003
78,-0.133346,1.105221,-3.221421,31.326632,0.0,-68.285076,-31.492676,-85.555355,-22.537331,-82.995861,-11.775467,-66.599064,0.402649,-42.385597,0.0,14.874316,35.309898,70.579239,50.894085,88.185702,62.188247,99.874548,69.3787,105.015925,0.0,-0.819431,2.281986,-0.667213,-0.32579,-4.324579,-2.848491,-4.851288,-4.417316,-2.272178,0.0,-10.29526,-0.768376,-9.133364,0.91064,-1.26442,3.434144,0.897511,6.930591,9.862513,20.607102,311.837688,-4.798702,-16.268822
79,-0.045021,1.265822,-2.597517,23.265987,0.0,-67.858017,-31.092545,-85.055226,-22.125137,-82.499806,-11.390534,-66.207218,0.728691,-42.059063,0.0,14.575802,35.212876,69.945198,50.774968,87.569074,62.048592,99.042807,69.254124,104.31339,0.0,2.114725,2.549189,1.795739,-0.050388,-2.462021,-2.385103,-2.402504,-3.421217,-2.072605,0.0,-23.900653,-6.498186,-18.793579,0.460615,-4.711899,8.101521,2.162098,16.195103,15.691902,21.211905,311.940502,-6.746395,5.834157
80,0.116295,1.40371,-1.708479,16.075827,0.0,-67.599495,-30.918274,-84.686108,-21.881081,-82.381405,-11.128853,-66.076321,0.947937,-41.915062,0.0,14.270076,35.322372,69.442883,51.044867,87.005565,62.360321,98.340421,69.489381,103.826612,0.0,4.488186,2.662682,3.612729,0.029066,-0.941105,-2.230019,-0.676847,-2.95974,-1.960316,0.0,-31.922095,-9.785695,-23.50752,0.675574,-4.878456,11.677047,4.950198,22.720759,20.533067,22.024407,311.895773,-7.758667,20.461545
81,0.182899,1.500585,-0.819441,8.885669,0.0,-67.555034,-30.803238,-84.537014,-21.763847,-82.40403,-11.047394,-66.102951,0.939354,-41.952255,0.0,14.160777,35.38348,68.934331,51.230883,86.494876,62.568703,97.709368,69.636767,103.334337,0.0,6.300952,2.622466,4.783757,-0.087427,0.238169,-2.38324,0.325682,-3.032884,-1.935313,0.0,-34.359589,-10.630905,-23.275188,1.555517,-1.764093,14.16072,9.261811,26.507559,24.386006,22.950399,311.808721,-7.835015,27.759577
82,-0.136482,1.437599,0.069598,1.695508,0.0,-67.269321,-30.401527,-84.26207,-21.308327,-82.197716,-10.596199,-65.999794,1.299499,-41.900391,0.0,14.089344,35.462582,68.346381,51.357533,85.950929,62.670258,97.039228,69.663628,102.912631,0.0,7.55302,2.428539,5.308822,-0.399868,1.075802,-2.844767,0.605083,-3.640652,-1.997595,0.0,-31.213132,-9.033813,-18.096582,3.100445,4.631195,15.552543,15.096939,27.555504,27.250723,23.600447,311.489228,-6.978887,27.697993
83,0.25502,1.210888,-0.109734,2.832702,0.0,-67.175102,-30.331009,-84.379806,-21.39267,-82.53804,-10.761612,-66.289158,1.096207,-42.254516,0.0,14.236768,35.497978,67.784082,51.468141,85.544377,62.827117,96.356479,69.88288,102.423939,0.0,8.204975,2.713299,5.778122,-0.384426,1.612148,-3.026686,0.621777,-4.09069,-2.2054,0.0,-31.639671,-9.871061,-18.90879,2.277046,3.267543,14.787407,14.131839,26.916531,26.60041,24.487644,311.048647,-6.456444,28.879226
84,0.210617,0.797297,0.155401,3.703187,0.0,-67.283741,-30.373901,-84.535286,-21.480377,-82.683094,-10.811577,-66.377735,1.148895,-42.431785,0.0,14.318031,35.585354,67.444837,51.521752,85.453801,62.80874,96.217355,69.775693,102.289273,0.0,8.185244,2.532263,5.799122,-0.639009,1.542006,-3.255314,0.460883,-4.23932,-2.506499,0.0,-34.656701,-11.113144,-23.160109,1.024995,-1.138616,13.685798,9.836115,26.184599,23.34584,25.224243,310.449727,-5.775061,31.186196
85,-0.004989,0.699039,0.155402,3.703188,0.0,-67.211163,-30.132523,-84.449547,-21.293313,-82.520863,-10.683266,-66.203534,1.231407,-42.362355,0.0,14.43658,35.498546,66.948562,51.326202,85.140937,62.508398,96.054594,69.382825,102.104319,0.0,8.165512,2.351226,5.820121,-0.893593,1.471862,-3.483944,0.299987,-4.387951,-2.807599,0.0,-37.673731,-12.355228,-27.41143,-0.227056,-5.544775,12.584188,5.540391,25.452666,20.091268,25.777766,309.904634,-5.061147,33.645252
86,-0.025017,0.53035,0.155401,3.703188,0.0,-67.033459,-29.91671,-84.26302,-21.068024,-82.306538,-10.459282,-66.047814,1.43811,-42.257057,0.0,14.464848,35.522159,66.474503,51.273775,84.906742,62.340511,95.771073,69.102873,101.784093,0.0,8.14578,2.170191,5.841121,-1.148176,1.40172,-3.712573,0.139093,-4.536581,-3.108697,0.0,-40.690761,-13.597312,-31.662751,-1.479108,-9.950935,11.482579,1.244667,24.720732,16.836697,26.324936,309.336617,-4.333559,36.250073
87,0.324806,0.314593,0.155401,3.703187,0.0,-67.064335,-30.04438,-84.193565,-21.245476,-82.254307,-10.665985,-65.999302,1.271141,-42.209599,0.0,14.565873,35.620516,66.233702,51.261895,84.820761,62.209971,95.76454,68.863208,101.678389,0.0,8.126049,1.989155,5.862122,-1.40276,1.331577,-3.941202,-0.021801,-4.685211,-3.409796,0.0,-43.70779,-14.839396,-35.91407,-2.731159,-14.357094,10.38097,-3.051057,23.9888,13.582127,27.101406,308.787532,-3.726494,39.089582
88,0.239571,0.345531,0.155401,3.703188,0.0,-67.18253,-30.118767,-84.02726,-21.315491,-82.127896,-10.735405,-65.970257,1.236717,-42.132615,0.0,14.606307,35.720205,65.944352,51.284322,84.741004,62.105255,95.753202,68.612019,101.650144,0.0,8.106318,1.808119,5.883122,-1.657343,1.261435,-4.169831,-0.182695,-4.833841,-3.710894,0.0,-46.724821,-16.08148,-40.165391,-3.98321,-18.763254,9.27936,-7.346781,23.256867,10.327556,27.740021,308.495339,-3.172049,42.155046
89,0.417114,0.274036,0.155402,3.703188,0.0,-67.349728,-30.286789,-84.030728,-21.470329,-82.190483,-10.894821,-66.076653,1.106781,-42.246391,0.0,14.711789,35.924648,65.876957,51.386865,84.685268,62.111133,95.784337,68.544723,101.723874,0.0,8.086586,1.627082,5.904121,-1.911927,1.191291,-4.398461,-0.34359,-4.982472,-4.011994,0.0,-49.741851,-17.323564,-44.416712,-5.235262,-23.169414,8.177751,-11.642505,22.524934,7.072984,28.461634,308.314731,-2.712148,45.40359
90,0.241264,0.241358,0.155401,3.703187,0.0,-67.436245,-30.305122,-84.019993,-21.408096,-82.182403,-10.776993,-66.161339,1.246903,-42.346962,0.0,14.73681,36.115815,66.037471,51.57876,84.830715,62.266966,95.917977,68.649513,101.849993,0.0,8.066854,1.446047,5.925121,-2.16651,1.121149,-4.62709,-0.504484,-5.131102,-4.313092,0.0,-52.75888,-18.565647,-48.668031,-6.487313,-27.575573,7.076142,-15.938229,21.793002,3.818414,28.901796,308.32827,-2.357849,48.878958
91,0.450463,0.313198,0.155401,3.703188,0.0,-67.519215,-30.326294,-84.138371,-21.418007,-82.25433,-10.820343,-66.198109,1.106964,-42.38958,0.0,14.974153,36.294978,66.327118,51.796591,84.96911,62.496418,96.112219,68.857835,102.072233,0.0,8.047123,1.265011,5.946121,-2.421093,1.051006,-4.855719,-0.665379,-5.279732,-4.614191,0.0,-55.775911,-19.807731,-52.919352,-7.739365,-31.981732,5.974532,-20.233953,21.061069,0.563843,29.261902,308.601167,-2.292805,52.541845
92,0.56163,0.369144,-0.797993,4.557693,0.0,-67.671936,-30.378731,-84.390805,-21.40741,-82.529309,-10.775116,-66.51463,1.15171,-42.68026,0.0,15.049575,36.333176,66.552754,51.858008,85.024809,62.56448,96.151023,68.914756,102.024129,0.0,8.500351,1.213967,6.735729,-2.252598,2.250962,-4.555132,0.568955,-4.956814,-3.292448,0.0,-57.425651,-21.126082,-57.629566,-9.832024,-39.39743,3.384253,-27.176122,18.474309,-4.881617,29.651785,309.115511,-3.262545,57.244738
93,0.484291,0.221511,-0.713934,4.861532,0.0,-67.720688,-30.392716,-84.607269,-21.323525,-82.499497,-10.668366,-66.464001,1.256492,-42.71584,0.0,15.109078,36.308427,66.973694,51.801296,85.294362,62.514956,96.408127,68.927711,102.138442,0.0,8.741496,0.596712,7.676674,-2.556821,4.055495,-4.648959,2.135542,-5.01602,-2.095296,0.0,-56.900764,-22.393894,-62.319065,-12.264551,-47.481009,0.116525,-34.720641,14.919508,-11.431208,29.856016,309.596547,-4.256539,62.365795
94,0.746406,0.072779,-1.442703,5.020235,0.0,-67.847225,-30.396148,-84.855468,-21.343757,-82.836444,-10.72174,-66.721824,1.108223,-43.021396,0.0,15.308964,36.35185,67.447184,51.957587,85.469251,62.753535,96.693401,69.227226,102.326336,0.0,9.068812,0.04059,8.881153,-2.465204,6.625052,-4.016446,4.716932,-4.041281,0.300935,0.0,-54.928666,-23.461982,-65.763722,-14.758614,-55.017199,-3.571549,-42.167073,10.521543,-18.359679,30.22586,310.091689,-6.075804,67.808393
95,1.088746,-0.007373,-1.321257,4.590115,0.0,-68.146431,-30.433754,-85.181546,-21.469231,-83.260323,-10.937714,-67.042866,0.787673,-43.298939,0.0,15.47926,36.38722,67.859639,52.083842,85.60409,62.931981,96.943688,69.423913,102.547353,0.0,9.319325,-0.163387,10.324826,-2.296611,9.280667,-3.661926,7.082898,-3.723976,2.546265,0.0,-51.832123,-24.6005,-69.051843,-17.398623,-62.489373,-7.532062,-49.708211,5.559618,-25.489199,30.788985,310.668453,-7.922682,72.982645
96,0.913307,-0.429153,-2.31697,2.610863,0.0,-68.270783,-30.451355,-85.293789,-21.466095,-83.481617,-10.875962,-67.112549,0.891975,-43.418358,0.0,15.756445,36.604273,68.340428,52.381096,85.985361,63.236003,97.43553,69.685031,102.817993,0.0,11.480129,-0.007576,13.625827,-1.457188,13.852718,-2.284298,11.761539,-1.819542,7.150417,0.0,-49.218845,-24.104619,-69.544308,-17.875404,-65.923906,-8.782051,-52.669359,3.807925,-27.845231,31.179377,311.004987,-10.762567,76.359195
97,1.034958,-0.509528,-2.581902,1.657597,0.0,-68.304291,-30.401093,-85.412098,-21.497452,-83.532269,-10.900177,-67.024887,0.818,-43.371025,0.0,16.06663,36.665777,68.660321,52.604151,86.307341,63.562985,97.814234,70.032575,103.094746,0.0,14.737347,0.78693,18.086002,-0.055469,19.425076,-0.2234,17.174572,1.051872,13.003063,0.0,-47.363375,-23.040289,-67.172549,-16.585123,-63.662557,-7.339598,-50.096652,5.175351,-25.757708,31.607781,311.261312,-13.951023,78.782645
98,1.516433,-0.954896,-3.032844,0.507922,0.0,-68.346164,-30.021789,-85.649826,-21.051658,-83.840355,-10.307235,-67.147854,1.38144,-43.528164,0.0,16.563696,36.434497,68.959761,52.507561,86.711411,63.577953,98.333987,70.056213,103.409192,0.0,20.106639,4.016738,25.197132,3.4491,27.204219,3.069362,25.198184,3.951301,20.212062,0.0,-42.325468,-20.1922,-56.877205,-12.044955,-51.030967,-1.526347,-36.941437,11.150469,-13.496473,32.254675,311.070476,-17.853406,80.054627
99,1.302452,-1.212345,-3.385712,5.592877,0.0,-68.181106,-29.539489,-85.548568,-20.430084,-83.620479,-9.559639,-66.927177,2.073967,-43.298149,0.0,17.021624,36.160596,69.442833,52.384121,87.34597,63.591982,98.897804,70.124311,103.787042,0.0,25.656269,13.527855,33.386112,13.83609,35.20586,12.96627,32.5284,12.385837,26.893947,0.0,-41.840764,-18.563409,-46.687857,-8.442405,-38.454649,3.415242,-24.186698,16.61911,-2.350542,32.567819,310.501573,-22.228426,86.290946
100,1.376793,-1.233008,-3.317997,7.143127,0.0,-68.070465,-29.230201,-85.580166,-20.04261,-83.530208,-9.064064,-66.860687,2.563202,-43.192691,0.0,17.405156,35.934059,69.74299,52.249716,87.873751,63.565714,99.336665,70.173551,104.050716,0.0,31.902122,20.033089,42.553734,20.933201,44.267235,19.934543,41.592476,18.662224,34.731262,0.0,-41.486619,-16.104316,-34.487803,-3.698967,-23.25297,10.018597,-8.975305,24.379631,10.830275,32.973055,309.739569,-26.51798,93.905077
101,1.463379,-1.473723,-3.135538,13.020401,0.0,-67.887691,-28.899513,-85.608604,-19.656441,-83.414978,-8.605705,-66.80524,2.96901,-43.192096,0.0,17.666225,35.35216,70.056633,51.797777,88.4,63.308634,99.84003,70.091053,104.248157,0.0,37.357675,28.085752,51.611006,28.847986,52.98567,26.706979,49.284559,23.344145,40.942377,0.0,-39.067639,-14.065416,-21.280602,0.242785,-8.106946,15.415312,5.383012,30.574272,22.152609,33.489612,308.507587,-30.60034,107.167219
102,1.302017,-1.695469,-2.730469,17.017185,0.0,-67.852386,-28.691139,-85.716167,-19.3358,-83.287811,-8.208206,-66.763698,3.384728,-43.160224,0.0,17.926799,34.976508,70.509721,51.411726,89.1095,63.006687,100.603487,69.935504,104.808962,0.0,42.363848,37.276949,60.487478,37.265905,61.0072,33.094202,55.78771,26.580202,45.01478,0.0,-35.676572,-11.304493,-6.675933,4.619623,8.334719,21.112139,20.580832,37.148974,34.137283,33.946415,306.969893,-34.176023,124.342179
103,0.673279,-1.364536,-1.948242,20.807931,0.0,-67.453056,-28.614601,-85.507267,-19.26757,-82.925434,-8.159317,-66.529255,3.43689,-42.928482,0.0,17.776981,34.59951,70.742866,51.095428,89.403062,62.830242,100.791999,69.947137,105.066066,0.0,45.369341,42.27749,68.483213,40.824835,68.057836,35.107263,61.314955,26.919062,48.697374,0.0,-34.488055,-8.48931,4.68531,7.388981,18.251397,23.732265,28.152841,39.948485,38.306541,34.06402,305.644229,-36.679939,145.188982
104,0.574311,-1.250384,-0.475582,18.146662,0.0,-67.142224,-28.523346,-85.545502,-19.257637,-82.877427,-8.226723,-66.625718,3.371017,-42.877213,0.0,17.627433,34.195267,70.437868,50.676612,89.304854,62.453712,100.671117,69.663814,104.975133,0.0,47.928594,39.021841,73.888384,35.426004,72.58259,28.451952,65.238733,19.831197,49.269773,0.0,-27.803493,-2.762121,16.417672,12.02701,30.968591,27.125875,38.735558,41.712218,45.60368,34.29463,304.356477,-37.499222,163.298276
105,-0.928688,1.730148,-1.848313,22.111322,0.0,-66.064076,-27.139344,-84.312527,-17.961434,-81.481831,-7.065194,-65.767113,4.461112,-42.011925,0.0,14.667452,30.81495,67.23412,46.777222,86.284406,58.667794,97.456402,66.408789,101.770508,0.0,50.700411,40.128737,77.863112,34.949404,74.969256,26.450753,66.2824,16.501191,48.919504,0.0,-19.065711,4.498641,30.255568,18.903289,46.094219,33.107465,53.12341,46.298205,57.18032,33.085099,306.034103,-39.628378,185.357076
106,-0.665062,0.916883,-2.218626,23.298091,0.0,-62.524086,-26.576317,-84.032513,-18.017876,-80.975224,-7.437447,-65.184105,4.303253,-41.250161,0.0,15.806611,29.77154,64.123332,44.733295,83.295328,55.990247,93.674436,63.548608,98.694646,0.0,53.18422,41.03722,79.87825,34.693623,74.790127,25.069765,65.023705,14.120791,47.918473,0.0,-8.862395,12.838639,44.563438,27.651217,62.33567,41.562473,69.951428,53.790012,71.955291,31.825522,306.953141,-42.441519,208.657322
107,0.021995,3.308636,-3.213993,19.969984,0.0,-58.992771,-26.250412,-83.675285,-18.668999,-80.623524,-8.757889,-64.827701,2.713898,-41.452881,0.0,18.90868,27.779942,58.392721,40.548087,75.698249,50.256166,85.372205,56.582075,91.014303,0.0,56.698963,36.766606,83.015957,29.706036,77.651528,20.271361,67.749012,10.006594,49.617062,0.0,-0.388064,19.252013,52.993383,34.815562,71.117419,48.280548,78.855196,59.042688,80.067184,31.099577,310.26932,-46.403452,228.634849
108,-0.162643,-0.692963,-4.089123,19.79265,0.0,-57.012726,-24.303383,-83.106903,-17.989769,-80.670227,-9.123528,-66.571152,1.511032,-43.340435,0.0,16.114844,29.330211,51.578094,41.386077,68.19135,50.586752,79.999709,56.542506,90.321204,0.0,60.493561,34.048497,83.911721,26.420678,78.298062,17.191985,66.836495,7.446654,47.687165,0.0,6.659695,25.033926,59.21938,41.022676,79.125582,53.81825,88.111829,62.906867,89.161858,30.061982,309.606244,-51.367527,248.457386
109,0.420662,1.081645,-4.830951,18.868555,0.0,-54.244137,-25.491532,-74.297894,-19.843735,-70.055718,-11.634888,-57.373661,-1.561043,-38.107624,0.0,15.137199,28.444253,51.039334,39.048824,65.494611,47.166175,74.519458,52.555973,83.440997,0.0,64.32764,34.080219,86.190456,25.534687,80.804077,15.967329,67.723285,6.064344,48.947422,0.0,11.459085,29.13908,65.33787,46.557686,85.301759,60.100206,95.38231,69.458339,96.942928,29.472393,310.736944,-57.208729,267.374996
110,1.301696,-2.688366,-3.132832,14.018942,0.0,-50.837265,-27.86499,-65.008758,-22.69416,-58.719085,-14.95388,-47.402114,-5.274101,-32.142299,0.0,18.255916,31.787914,54.664873,41.400539,67.566387,48.273483,74.754802,52.471276,82.315559,0.0,67.730953,31.722908,87.927395,22.412338,84.198086,12.86808,70.046139,3.398712,49.805386,0.0,13.62818,31.439469,67.770608,49.380508,86.864947,62.786473,97.289121,71.696378,99.528154,29.748006,308.083995,-61.367644,281.429355
111,1.327195,-1.398128,-1.498867,9.181323,0.0,-50.38036,-29.820877,-53.208092,-24.787377,-44.840058,-17.44542,-35.883603,-8.475701,-25.362248,0.0,16.642946,32.879501,58.100814,42.059971,69.593245,48.525647,75.212743,52.265845,81.066496,0.0,69.977898,28.259136,90.528992,18.107437,88.839546,8.696835,73.782211,-0.02132,51.054062,0.0,13.302892,32.25087,66.681479,49.728385,83.937138,62.013938,93.715316,69.617699,96.170277,30.427472,306.669321,-63.51424,290.594132
112,-0.608151,-2.806982,1.647251,8.558435,0.0,-48.729481,-32.748613,-37.783104,-29.25884,-28.311378,-23.119068,-22.978088,-15.411644,-20.638824,0.0,13.701008,33.146528,63.380338,44.473214,75.844189,52.514989,80.073611,57.809976,84.454747,0.0,70.062641,27.716698,90.382862,16.694195,88.668446,6.721848,72.193325,-2.17773,48.711125,0.0,13.529527,33.821305,67.992267,50.436254,84.967764,61.559195,94.63962,68.084312,96.722115,29.355549,303.834918,-62.330761,299.125146
113,-1.38945,2.113272,2.180867,5.207782,0.0,-44.790825,-38.785933,-19.21019,-38.361162,-9.051888,-34.23991,-7.080242,-28.224747,-17.379032,0.0,17.354385,28.326044,69.023992,41.609341,81.804512,51.178747,82.245843,58.084407,81.278775,0.0,69.761695,28.161289,90.274292,17.152027,88.984771,6.935485,72.583831,-2.28098,49.392471,0.0,12.669913,34.408861,67.467747,51.01477,83.954341,61.825908,93.080855,68.166045,95.313144,27.63442,305.894177,-60.481573,304.278915
114,-8.722939,1.788785,2.711963,2.668124,0.0,-32.885273,-35.508676,-2.48632,-38.239431,6.930657,-36.581211,4.992886,-32.762878,-10.725505,0.0,19.576449,27.031015,67.233367,42.022539,81.015787,52.830942,82.612826,60.480694,81.955289,0.0,69.22427,27.739769,89.836338,16.898758,88.578404,6.686085,71.910816,-2.508442,49.515873,0.0,12.750028,35.344121,66.381323,52.012274,82.075091,62.484131,91.069471,68.50424,93.858712,18.68946,307.632355,-57.991631,306.896432
115,-10.229782,4.821102,2.330303,1.448715,0.0,-17.718349,-29.34696,15.362595,-34.852129,23.392823,-35.660877,16.233158,-33.891014,-7.322147,0.0,17.361301,22.687392,62.47903,39.057568,76.021513,51.374867,78.691675,60.502887,78.864335,0.0,68.246613,27.901394,89.932068,17.016426,87.500611,6.669583,70.99894,-2.568763,49.902489,0.0,13.251638,36.164091,65.836066,52.951027,80.474409,63.210895,89.417054,68.86291,91.885032,8.307472,312.415252,-55.813534,308.306942
116,-1.178764,1.672288,1.85788,0.3974,0.0,-16.057331,-33.309076,21.417069,-42.32876,27.3181,-45.285851,17.057179,-45.142261,-13.640888,0.0,16.75853,18.690287,60.21868,37.3424,74.280225,51.658178,77.254693,62.738017,77.793397,0.0,67.630417,27.502384,89.402504,16.607243,86.216835,6.218411,70.120331,-2.92622,49.908279,0.0,13.9211,36.262794,65.422413,53.162968,79.009257,63.417328,87.859191,68.912126,90.149995,7.039415,314.062642,-54.044947,308.679444
117,-6.523807,1.578149,0.368923,-0.446381,0.0,-4.737694,-29.475701,30.013092,-39.790684,35.353385,-43.957684,22.690086,-44.792393,-9.78019,0.0,16.356807,17.8145,57.494697,37.164102,71.447931,51.923748,75.058465,63.102338,75.598226,0.0,67.09425,27.491661,88.690991,16.658501,85.410176,6.329968,70.003018,-2.585827,50.410137,0.0,15.07929,36.586267,65.552583,53.516587,77.979161,63.807207,86.866738,69.242293,89.034572,0.440993,315.669817,-53.750639,308.262089
118,-7.827508,2.666741,0.341618,-0.630286,0.0,8.221688,-21.278995,38.025376,-30.983516,43.856598,-35.318744,29.448098,-36.235736,-1.110511,0.0,14.21329,16.980906,54.109848,35.281073,67.113324,49.548864,70.7884,60.34864,70.931722,0.0,66.681038,27.266842,88.25972,16.317249,84.485435,5.935386,69.496353,-2.8377,50.360344,0.0,16.149202,36.956707,65.771339,53.926375,77.470473,64.204657,86.483168,69.498903,88.166324,-7.441367,318.450435,-53.463873,307.74568
119,-1.701976,1.94909,0.276855,-0.551209,0.0,12.988163,-18.572056,40.661007,-27.906246,45.899334,-32.148812,30.051052,-32.772,-3.343403,0.0,9.993155,14.700896,51.424866,32.890171,64.232791,47.583793,68.545872,59.111495,68.975062,0.0,66.462754,26.978966,87.828575,15.89114,83.914902,5.401932,69.56472,-3.408542,50.145516,0.0,16.893134,36.954077,65.996481,53.962833,77.217457,64.238361,86.726132,69.386727,87.695984,-9.150936,320.54256,-53.194611,307.337506
120,4.636093,-4.244921,0.042561,-0.400711,0.0,6.939319,-24.561413,36.21928,-34.882439,40.869861,-39.590515,26.387295,-40.658501,-7.875263,0.0,10.290718,15.69462,53.689192,35.054387,67.927256,50.375257,71.858917,62.390344,72.248945,0.0,66.520557,26.965771,87.929523,15.711296,84.244915,5.071941,69.64674,-3.860756,49.620083,0.0,17.483839,36.832034,66.04051,53.792241,77.473302,64.04113,86.823327,69.153014,87.507522,-4.487755,316.45837,-53.124962,307.097526
121,-9.692631,1.432548,0.024032,-0.193859,0.0,21.338448,-15.169178,46.565163,-24.971329,51.446915,-29.990456,35.63475,-31.518917,0.454331,0.0,9.34091,15.756753,52.052905,35.059068,66.056144,50.184028,70.213034,61.837628,69.988534,0.0,66.574139,26.975029,87.905423,15.775235,84.633419,5.158287,70.063649,-3.783256,49.755124,0.0,17.815784,36.915273,66.01371,53.824178,77.647475,64.036227,86.91841,69.109122,87.504261,-14.146111,318.056273,-53.066655,307.069022
122,-3.970253,1.007989,0.111672,-0.143879,0.0,25.704689,-10.738129,51.889389,-20.747612,56.063164,-26.154613,39.153442,-28.054768,2.66153,0.0,7.168086,13.633058,51.048374,32.963592,64.684272,48.498563,69.077617,60.857649,69.332275,0.0,66.586567,26.893341,87.961063,15.620739,84.784595,4.939087,70.106586,-4.062252,49.485523,0.0,17.89238,37.008665,66.022046,53.884213,77.908272,64.045305,86.959018,69.042037,87.327334,-18.082169,319.183493,-52.920788,307.044374
123,2.389023,-3.354283,-0.018917,-0.110348,0.0,22.030746,-12.807495,49.690086,-23.435406,53.263779,-29.721485,37.633781,-32.861183,1.721077,0.0,5.867314,14.014923,52.621207,34.033629,67.205135,50.116956,72.568887,62.977232,72.936116,0.0,66.716423,26.924011,88.134544,15.707119,84.971054,5.092254,70.3144,-3.857586,49.773124,0.0,17.973582,37.008689,66.017786,53.895217,77.982978,64.096385,86.825995,69.119003,87.165968,-15.657675,315.912761,-52.904234,307.017577
124,-0.402077,-3.076084,-0.097927,-0.00531,0.0,21.401505,-12.613197,50.312737,-23.722412,53.461647,-30.482631,37.19307,-34.355587,2.43924,0.0,8.172383,15.754222,54.996658,36.243873,70.274093,52.47445,74.63382,65.458672,74.689124,0.0,67.123523,26.995067,88.471241,15.728588,85.273098,5.076404,70.351124,-3.879994,49.730632,0.0,17.718638,37.063054,65.961395,53.887942,78.072046,64.059149,86.548636,69.059499,86.887535,-16.034804,312.914597,-52.977213,307.090187
125,-4.42519,0.699644,-0.221432,0.001729,0.0,26.289814,-6.067669,54.333653,-17.248134,57.11974,-25.069599,40.636334,-30.382049,8.081623,0.0,5.40599,14.729795,52.851783,35.143012,68.25567,51.478528,73.495625,64.580446,73.472456,0.0,67.35965,27.002495,88.726982,15.780922,85.531792,5.196808,70.71183,-3.693214,50.205482,0.0,17.366068,37.105316,65.812193,53.901971,77.794997,64.07077,86.211677,69.04253,86.636149,-20.447966,313.678514,-53.186617,307.156189
126,1.413174,-1.828923,-0.101658,-0.223055,0.0,23.665077,-6.014397,52.641998,-17.654938,55.237564,-26.556416,39.941391,-33.256371,9.82988,0.0,3.802615,14.168693,52.708039,34.629692,68.612438,51.244048,75.06737,64.812009,75.783254,0.0,67.527775,27.050526,88.970615,15.707909,85.576733,5.039932,70.557964,-3.903637,49.921017,0.0,17.272739,37.213367,65.844724,54.049308,77.91147,64.210178,86.048186,69.119052,86.436448,-19.022329,311.910853,-53.275812,306.994396
127,3.132431,-2.281579,-0.142136,-0.202924,0.0,19.256905,-8.647751,48.939194,-20.403557,51.542038,-29.942596,38.016174,-37.508011,8.498085,0.0,2.68618,15.009289,53.48197,35.763492,70.302127,52.531742,77.361607,66.27936,78.015939,0.0,67.656384,27.222611,89.305836,15.811478,85.649838,5.076577,70.464947,-3.921363,49.760983,0.0,17.214965,37.341635,65.990479,54.181478,78.033464,64.318451,86.021535,69.162536,86.383676,-15.865826,309.707009,-53.393876,306.869207
128,-3.310455,0.491533,0.019982,-0.287238,0.0,23.103836,-5.591652,53.016998,-17.595658,54.510154,-27.039345,38.840057,-34.380982,8.627884,0.0,4.70464,16.173248,53.635543,36.779854,69.654687,53.035897,76.084757,66.210928,78.037997,0.0,67.564716,27.212894,89.231518,15.645412,85.326908,4.742901,69.971203,-4.419754,49.037693,0.0,17.318199,37.432803,66.281348,54.299385,78.382453,64.405655,86.301783,69.171687,86.487133,-19.147647,310.259885,-53.34526,306.643312
129,2.513889,-0.266947,-0.098271,-0.40449,0.0,20.033695,-8.30777,49.933262,-20.731762,51.73328,-30.782559,37.694378,-38.727036,7.194546,0.0,1.886006,14.993333,53.4229,35.865627,69.306563,52.348344,77.059191,65.68784,79.257345,0.0,67.31147,27.352696,89.221276,15.728211,85.029602,4.770195,69.813286,-4.465198,48.869248,0.0,17.737805,37.52801,66.614825,54.462813,78.715127,64.583113,86.6793,69.310848,86.71367,-16.606625,310.038559,-53.416398,306.284443
130,-1.118008,-0.446233,0.185029,-0.238431,0.0,22.513413,-8.571521,51.816101,-21.173458,52.813545,-30.526668,37.004952,-37.52837,5.986016,0.0,5.739762,16.399909,54.963832,37.096893,70.400064,53.355542,77.220409,66.477739,80.038698,0.0,66.890945,27.345348,88.757194,15.642379,84.608459,4.548877,69.236,-4.837086,48.289878,0.0,18.115854,37.646966,66.99706,54.58829,79.056965,64.676011,86.767986,69.369487,86.615142,-17.694443,309.641192,-53.201179,306.094878
131,-1.426712,0.261686,-0.00721,-0.203566,0.0,23.301865,-7.263473,53.379296,-20.178657,53.960747,-29.941944,37.155304,-37.452678,5.344208,0.0,5.572172,16.50796,54.783792,37.216355,70.148245,53.414835,76.775868,66.432155,79.744099,0.0,66.487221,27.237556,88.356788,15.447235,84.186607,4.282287,68.769424,-5.139199,47.932892,0.0,18.31143,37.652857,67.402587,54.647879,79.267027,64.747455,86.912778,69.437288,86.718017,-19.079722,309.964706,-53.166956,305.95314
132,1.890358,-0.325474,0.020359,-0.025046,0.0,20.67675,-10.425899,51.027992,-23.89024,51.567742,-33.543537,34.395813,-40.794697,2.764664,0.0,6.815516,16.711353,56.046897,37.41077,70.83612,53.543881,77.048471,66.46513,79.394628,0.0,66.096302,26.976951,87.621654,15.168079,83.762066,3.992042,68.397159,-5.45953,47.69601,0.0,18.680722,37.580831,67.6116,54.602344,79.290777,64.724571,86.970095,69.445501,86.731726,-17.154259,309.703498,-53.111492,305.99236
133,-0.97855,0.602338,-0.045891,0.202417,0.0,22.047489,-11.602901,49.059162,-24.234695,51.46249,-32.943752,36.112507,-39.184765,6.448803,0.0,6.579654,15.672242,54.905329,36.763182,71.121506,53.362125,76.532077,66.665448,77.547847,0.0,66.097424,26.983028,87.036427,15.252136,83.756115,4.084969,68.400364,-5.399483,47.726109,0.0,18.943001,37.575954,67.716416,54.540496,79.008899,64.672714,86.726429,69.483725,86.76527,-18.076487,310.371554,-53.101061,306.260495
134,-5.221195,-0.138506,-0.083794,0.135678,0.0,29.101685,-7.51767,55.898483,-20.034519,57.171707,-28.220478,40.609795,-33.665886,11.28653,0.0,9.696321,16.248484,55.358182,37.34098,71.636974,53.992473,76.841706,67.376677,78.767565,0.0,66.289181,26.893261,86.40746,15.219338,83.637898,4.070114,68.212567,-5.439377,47.565571,0.0,19.137799,37.681102,68.062169,54.519106,78.97916,64.622609,86.716116,69.503881,86.985348,-23.21751,310.302579,-53.104683,306.465704
135,1.842476,0.784008,-0.1478,0.108286,0.0,25.831581,-9.310089,53.122513,-21.913239,55.133675,-30.668461,40.268005,-36.91333,11.523926,0.0,6.900583,14.368332,54.554426,35.67614,71.00644,52.695171,76.836754,66.380433,77.849621,0.0,66.574905,26.831291,85.918007,15.235393,83.516853,4.160087,68.264465,-5.275841,47.656975,0.0,19.331646,37.678953,68.166551,54.490873,78.767035,64.629488,86.766949,69.581204,87.376685,-21.268713,311.158283,-53.146162,306.645686
136,1.570473,0.005755,0.047104,0.096306,0.0,24.171569,-11.708817,51.269302,-24.442898,53.246246,-32.93953,38.889495,-38.866219,10.886032,0.0,7.150401,14.196308,55.191814,35.497607,71.662884,52.626677,77.416182,66.361599,78.049112,0.0,66.774238,26.688961,85.39714,15.140922,83.340568,4.096298,68.164352,-5.327282,47.517036,0.0,19.666555,37.701418,68.137627,54.450599,78.460394,64.624103,86.644325,69.664616,87.610571,-19.595655,311.233553,-52.996473,306.811507
137,-4.412636,1.091241,0.146461,-0.000445,0.0,29.224159,-6.549626,55.685211,-19.167492,57.43927,-28.269871,43.037933,-35.223072,15.654716,0.0,5.438667,12.879752,53.351973,34.208505,70.230114,51.580798,76.430794,65.59088,77.315307,0.0,66.774399,26.685906,84.976525,15.106327,82.93364,3.967186,67.494828,-5.551941,46.805466,0.0,19.690737,37.938898,68.5034,54.549042,78.652649,64.650249,86.562555,69.699172,87.774852,-23.914667,312.401988,-52.756388,306.888256
138,0.826412,-0.231231,-0.01165,-0.178841,0.0,27.828724,-5.46183,56.443462,-18.819031,57.448689,-29.359886,43.160877,-38.093193,14.37624,0.0,2.626702,11.909654,53.212355,33.10426,69.390185,50.617937,77.190362,64.911477,78.188298,0.0,66.531578,26.498738,84.745033,14.804238,82.416001,3.630844,66.861717,-5.847095,46.314217,0.0,19.817325,38.324664,68.939246,54.844703,79.15647,64.82121,86.824908,69.715671,87.861512,-23.025553,312.247532,-52.705336,306.78619
139,3.358578,0.428758,0.04588,0.030023,0.0,22.92604,-7.669567,51.078941,-21.191151,52.70668,-32.502983,39.90113,-42.438057,11.451462,0.0,-0.621814,10.966725,52.077481,32.175867,68.355359,49.79095,76.505253,64.194839,76.593704,0.0,66.116283,26.393165,84.632503,14.622345,82.008281,3.417057,66.328868,-6.025292,45.855022,0.0,19.752129,38.483894,69.034478,54.971353,79.356763,64.885764,86.757056,69.703754,87.75561,-19.624935,312.750983,-52.617416,306.890906
140,0.185737,-0.036198,-0.004429,-0.043411,0.0,22.638359,-7.880149,50.65622,-21.181411,52.570725,-32.359611,40.181878,-42.225906,11.736832,0.0,-1.182298,11.255149,51.801988,32.24152,67.990563,49.715293,76.422927,64.058963,76.537104,0.0,65.712707,26.259018,84.603698,14.42324,81.622306,3.20692,65.82756,-6.200363,45.520935,0.0,19.758415,38.678939,69.388382,55.121419,79.710174,64.975241,86.862675,69.720995,87.718893,-19.425396,312.780305,-52.608043,306.913015
141,1.21193,-0.116647,-0.11491,-0.075039,0.0,21.947754,-8.816151,49.188972,-22.025814,51.320411,-33.112633,39.220459,-42.865254,10.514831,0.0,-1.219126,11.754772,51.969382,32.505232,67.984598,49.775636,76.498362,63.977268,76.531979,0.0,65.478687,26.1305,84.708034,14.264682,81.466381,3.069248,65.604663,-6.278801,45.327724,0.0,19.89502,38.989815,69.725181,55.339855,80.218034,65.071041,87.106515,69.68271,87.721944,-18.209358,312.717004,-52.718845,306.891322
142,-0.447831,-0.662631,-0.10207,-0.099035,0.0,23.943055,-8.612091,50.671692,-22.076076,51.859223,-32.638847,37.687706,-41.475643,8.723042,0.0,2.719278,14.161765,52.748857,34.385198,69.073776,50.917512,76.510267,64.474173,77.371883,0.0,65.235305,26.044452,85.016784,14.1324,81.504753,2.992756,65.832779,-6.271797,45.479255,0.0,20.057052,39.045304,69.648919,55.440458,80.33079,65.178955,87.345402,69.747312,87.760426,-18.65399,312.097358,-52.817716,306.835272
143,1.720025,-0.187104,0.133815,-0.022206,0.0,21.647392,-10.202145,49.387138,-23.775456,50.227501,-34.396649,35.687255,-43.174462,6.06055,0.0,3.552032,14.592413,53.853424,34.64129,69.948471,50.903779,76.928651,64.195086,77.614883,0.0,65.098881,25.890507,85.115468,13.976681,81.528271,2.884278,65.84348,-6.332542,45.409687,0.0,20.193842,38.871452,69.40424,55.352946,80.188493,65.176263,87.146677,69.789056,87.56001,-16.931356,311.951154,-52.681292,306.853966
144,1.31575,-0.080979,0.221386,-0.185411,0.0,20.260872,-11.514199,48.362503,-25.183045,49.238273,-35.81543,34.239029,-44.546826,4.419262,0.0,4.516734,14.762708,54.519513,34.584294,70.594034,50.601955,77.17669,63.670726,77.705495,0.0,64.953621,25.747376,85.102204,13.769978,81.41082,2.637314,65.707467,-6.606056,45.160675,0.0,20.496604,38.853062,69.323297,55.422378,80.230346,65.290797,87.116456,69.888523,87.32805,-15.621162,311.891377,-52.465462,306.689757
145,2.531296,-0.418693,-0.028038,-0.042645,0.0,17.357093,-14.060315,45.548355,-28.062264,46.215888,-38.630974,30.995635,-47.01495,0.981227,0.0,5.735811,15.046328,55.53984,34.924057,71.417143,50.857145,77.644573,63.796944,78.092906,0.0,65.001412,25.686322,85.282998,13.639653,81.606812,2.45755,65.692109,-6.780761,45.092331,0.0,20.581955,38.786841,69.160721,55.45408,80.311165,65.373531,86.884509,69.973541,86.829391,-13.092224,311.508206,-52.495858,306.682634
146,-2.879883,-0.279087,0.095524,0.085475,0.0,20.429809,-12.252755,47.695381,-25.768856,48.504959,-35.334584,32.606895,-42.514378,3.595722,0.0,10.739335,16.200813,55.580953,36.178578,71.995411,52.047792,76.581367,64.813121,77.091178,0.0,64.979153,25.694561,85.3205,13.608341,81.714855,2.38068,65.569554,-6.897583,44.931507,0.0,20.391974,38.50505,68.922043,55.265729,80.188245,65.265702,86.4404,69.938479,86.230066,-15.968416,311.277115,-52.396643,306.816105
147,5.386207,0.397932,0.030007,0.025984,0.0,12.360581,-17.120876,41.230156,-30.583042,43.137932,-40.381256,29.06543,-47.834587,-0.232956,0.0,8.37401,14.584855,55.961595,34.675536,71.902711,50.774116,76.995403,63.737404,76.451715,0.0,65.161846,25.67205,85.105098,13.578071,81.702083,2.316272,65.33781,-6.96999,44.809009,0.0,20.265399,38.342103,68.800259,55.210229,79.906886,65.269148,85.910236,69.963798,85.631952,-10.569706,311.728377,-52.354133,306.895419
148,-1.981693,0.372034,-0.022866,0.058169,0.0,15.583843,-16.888996,41.068233,-29.561131,44.107578,-37.882359,30.395565,-43.66309,3.716022,0.0,10.67567,15.282128,54.77364,35.645178,71.900722,51.879275,75.56803,64.768587,75.313223,0.0,65.316822,25.699562,85.044285,13.546177,81.74667,2.226471,65.229618,-7.073833,44.760853,0.0,20.071058,38.134239,68.676215,55.112144,79.617931,65.256119,85.396954,70.010271,85.157474,-12.527847,312.154153,-52.353447,307.00733
149,-3.25375,0.327635,-0.016857,0.198898,0.0,19.616501,-14.989265,44.705956,-27.167782,48.037537,-34.334942,33.643341,-38.60107,7.202957,0.0,12.213281,16.155254,54.57788,36.344057,71.657537,52.465744,74.885034,65.254773,74.944388,0.0,65.436951,25.659302,84.945419,13.481919,81.755516,2.173771,65.023613,-7.088035,44.742417,0.0,19.692589,37.842863,68.476761,54.928758,79.249738,65.138262,84.757233,69.942901,84.560422,-15.748902,312.542643,-52.337609,307.267083
150,-0.46804,0.392585,0.212563,-0.026972,0.0,20.105804,-14.468319,45.607475,-26.525231,48.671219,-33.696007,34.073776,-37.996365,7.615379,0.0,11.326804,15.722877,54.251108,35.910482,71.336805,51.949189,74.586359,64.602972,74.643577,0.0,65.463135,25.586963,84.680008,13.440822,81.664146,2.211696,64.952911,-6.963101,44.803573,0.0,19.533545,37.571988,68.352852,54.759672,78.772753,65.085984,84.17085,69.994944,84.317347,-16.188583,312.967122,-52.096687,307.272005
151,-0.45203,-0.120809,0.121387,-0.08965,0.0,20.573787,-13.979199,46.755031,-25.976349,50.049076,-33.14843,34.803462,-37.452576,7.745304,0.0,9.862047,16.251881,54.492219,36.286111,71.434495,52.198933,74.937299,64.778986,75.111077,0.0,65.45525,25.466847,84.461758,13.375981,81.660015,2.255745,64.944981,-6.803798,44.862499,0.0,19.490641,37.473547,68.223609,54.78877,78.345774,65.189429,83.745205,70.126016,84.240406,-16.619018,312.841598,-51.953705,307.17764
