takenoko1/special-research/HandMotion_SimilarSearch_自分用/NewProject/handData/test_key/d4_feature_d3/86.csv
frame,vel_0x_L,vel_0y_L,vel_0x_R,vel_0y_R,posFromWrist_0x_L,posFromWrist_1x_L,posFromWrist_2x_L,posFromWrist_3x_L,posFromWrist_4x_L,posFromWrist_5x_L,posFromWrist_6x_L,posFromWrist_7x_L,posFromWrist_8x_L,posFromWrist_9x_L,posFromWrist_0y_L,posFromWrist_1y_L,posFromWrist_2y_L,posFromWrist_3y_L,posFromWrist_4y_L,posFromWrist_5y_L,posFromWrist_6y_L,posFromWrist_7y_L,posFromWrist_8y_L,posFromWrist_9y_L,posFromWrist_0x_R,posFromWrist_1x_R,posFromWrist_2x_R,posFromWrist_3x_R,posFromWrist_4x_R,posFromWrist_5x_R,posFromWrist_6x_R,posFromWrist_7x_R,posFromWrist_8x_R,posFromWrist_9x_R,posFromWrist_0y_R,posFromWrist_1y_R,posFromWrist_2y_R,posFromWrist_3y_R,posFromWrist_4y_R,posFromWrist_5y_R,posFromWrist_6y_R,posFromWrist_7y_R,posFromWrist_8y_R,posFromWrist_9y_R,posFromBody_0x_L,posFromBody_0y_L,posFromBody_0x_R,posFromBody_0y_R
6,-6.775268,1.607512,0.255214,0.546232,0.0,9.801922,-9.575295,32.181713,-17.495098,34.827175,-23.670525,23.12923,-29.071564,4.557392,0.0,-12.67442,6.792298,20.698837,27.171787,37.767836,43.757367,46.413684,56.815134,53.599061,0.0,68.948285,22.971325,87.774067,13.577019,86.805119,6.011673,74.18684,0.620133,54.739369,0.0,13.011318,34.307911,55.897485,52.037652,66.681701,63.173388,74.757321,68.69716,76.783821,-6.059955,306.272253,-51.93861,288.240404
7,-3.60751,-0.821528,0.897503,0.181101,0.0,13.590775,-7.100235,37.415566,-14.955196,40.369698,-21.374794,29.080422,-27.076492,9.499375,0.0,-13.84012,5.667552,20.462259,26.417629,38.387366,43.618799,47.775615,57.528092,54.757722,0.0,68.289917,22.590901,87.05008,13.144409,86.162842,5.504803,73.854515,0.039379,54.542702,0.0,12.835021,33.693285,55.604505,51.5488,66.128307,62.916804,74.333146,68.620368,76.738349,-9.128495,304.597091,-50.502137,287.567871
8,-4.089374,-0.586332,0.630684,0.01608,0.0,18.79375,-2.795586,43.576023,-10.684342,46.475429,-17.731739,34.998081,-24.21072,14.566326,0.0,-14.452919,4.591131,20.722611,25.454261,39.028829,43.002073,48.792841,57.377569,55.50248,0.0,67.874909,22.18776,86.579659,12.709076,85.948128,5.066757,73.859642,-0.318798,54.561676,0.0,12.778383,33.442702,55.425021,51.327795,66.100445,62.795526,74.072793,68.516343,76.584318,-13.061308,303.584131,-49.714892,287.157323
9,-2.015316,-3.672347,0.541455,0.061306,0.0,19.257065,-1.000099,47.295089,-8.192047,49.74131,-15.665417,38.994163,-23.297745,18.400978,0.0,-16.090564,6.933188,21.919952,28.403053,40.34168,46.332594,51.611378,61.187903,59.321497,0.0,67.736835,21.926296,86.114673,12.453598,85.769908,4.841091,73.824634,-0.442784,54.618061,0.0,12.671456,33.120908,55.299556,51.06948,65.984576,62.682164,73.65746,68.510971,76.317705,-15.119247,299.832151,-49.21606,287.138996
10,-4.386521,-1.117176,0.333549,0.159526,0.0,24.308396,1.656796,53.158493,-5.169101,56.05037,-12.411586,45.391297,-19.958381,24.293015,0.0,-16.40517,6.695536,22.631143,28.360211,41.005028,46.524527,52.656738,61.690243,59.903902,0.0,67.558514,21.731106,85.852375,12.293919,85.658535,4.774212,73.777874,-0.390358,54.636257,0.0,12.416884,32.850231,55.090148,50.858973,65.86126,62.566296,73.360947,68.479836,76.028194,-19.63896,298.7366,-49.015703,287.320147
11,-2.175396,-2.453751,0.256668,0.127119,0.0,23.798321,4.471825,57.18916,-1.743038,59.695507,-9.731701,49.582981,-18.805034,27.467457,0.0,-19.688526,7.603056,22.82231,29.424689,41.387485,47.947318,54.710865,63.665502,62.905552,0.0,67.323315,21.602806,85.684147,12.217289,85.62109,4.754757,73.732739,-0.344788,54.611858,0.0,12.079826,32.826433,55.00539,50.828358,65.91859,62.513857,73.154824,68.409626,75.718627,-21.921587,296.2405,-48.866266,287.404917
12,-1.597011,-0.901791,0.223183,-0.00468,0.0,25.460289,5.117214,59.545578,-1.187222,62.243362,-9.20818,52.022301,-18.276879,29.5475,0.0,-18.620058,7.943981,24.646615,29.680904,42.63036,48.13788,55.812097,63.880604,63.493342,0.0,67.142727,21.65823,85.549518,12.249985,85.456318,4.70145,73.460964,-0.508347,54.240337,0.0,11.788079,32.871967,54.894844,50.767162,65.917465,62.389405,73.072165,68.275318,75.63498,-23.606781,295.280664,-48.731266,287.342192
13,0.124889,0.220918,0.002941,-0.057749,0.0,25.005879,4.53455,58.792431,-1.194717,62.268391,-8.471947,52.802845,-16.99332,30.598332,0.0,-18.147766,7.857889,23.685359,29.47162,42.092737,47.898276,55.19752,63.692858,62.6463,0.0,66.932693,21.694164,85.598236,12.423843,85.543625,4.937519,73.67411,-0.286491,54.5587,0.0,11.758785,32.996184,54.674827,50.825294,65.924172,62.39227,73.331183,68.234921,75.955316,-23.54623,295.458925,-48.792663,287.241786
14,1.439942,0.412901,-0.013504,-0.158143,0.0,23.347652,3.953956,56.62231,-1.772519,60.48254,-8.882115,51.157939,-17.337902,29.108287,0.0,-17.865135,7.750306,22.433233,29.120173,41.535426,47.479472,54.472138,63.272189,61.974133,0.0,66.775452,21.624653,85.803612,12.423008,85.690475,4.97842,73.846916,-0.251015,54.795662,0.0,11.852201,33.153055,54.4598,50.936766,66.100099,62.450007,73.77171,68.229562,76.454457,-22.167772,295.834877,-48.867651,287.046694
15,1.530578,0.264057,0.11618,-0.10295,0.0,22.033619,3.69397,54.655529,-2.071106,58.448971,-9.152767,49.373738,-17.67271,27.762669,0.0,-17.821935,7.311496,20.941343,28.594059,40.992727,47.008748,53.824944,62.869897,61.308477,0.0,66.75634,21.658173,86.021073,12.453781,85.802857,4.936146,73.913864,-0.390747,54.737686,0.0,11.898921,33.08718,54.047492,50.836767,66.172297,62.320627,73.977734,68.078866,76.77667,-20.705132,296.033525,-48.819409,286.878335
16,1.346478,0.356781,0.020199,-0.200454,0.0,21.140968,3.512706,52.97731,-2.11314,56.896019,-8.993649,48.027763,-17.382798,27.006683,0.0,-17.615626,7.111462,19.25862,28.296361,40.179079,46.703764,52.980668,62.559936,60.507648,0.0,66.743603,21.65514,86.306385,12.456711,85.928707,4.91668,74.057774,-0.48373,54.798695,0.0,12.147541,33.10563,53.711768,50.826381,66.306567,62.269955,74.51889,67.960576,77.375563,-19.469724,296.336611,-48.91028,286.624186
17,0.443687,0.387497,-0.015942,-0.108891,0.0,21.08828,3.65078,52.368256,-1.660824,56.656426,-8.203995,48.062325,-16.333397,27.33474,0.0,-17.538686,6.704884,17.267366,27.897848,39.133348,46.439891,52.111506,62.406423,59.891329,0.0,66.919327,21.63778,86.703164,12.50837,86.285729,5.048344,74.453705,-0.241413,55.279908,0.0,12.273635,33.155204,53.429593,50.947856,66.54212,62.403867,74.756,68.056364,77.607473,-19.214733,296.679747,-49.114918,286.470934
18,-0.04985,-0.101703,0.221867,-0.127317,0.0,21.031952,3.735695,52.882232,-1.732247,56.950676,-8.358387,48.20549,-16.526459,27.314689,0.0,-17.232725,6.6088,17.577946,27.754797,39.453005,46.308573,52.36467,62.348353,60.057215,0.0,67.1227,21.551411,86.756413,12.287338,86.240307,4.751267,74.336964,-0.526337,55.08926,0.0,12.35669,33.02454,53.35658,50.886934,66.654148,62.434779,74.73535,68.154078,77.584712,-19.537256,296.486669,-49.165724,286.252242
19,-0.715599,0.033999,0.21579,-0.095466,0.0,21.689003,4.565792,54.318649,-0.921936,58.236946,-7.616867,49.454315,-15.791119,28.425338,0.0,-16.911696,6.750518,17.657111,27.84457,39.447621,46.340721,52.193067,62.344402,60.02707,0.0,67.175091,21.736633,86.890766,12.380047,86.159923,4.725346,74.119503,-0.654762,54.691509,0.0,12.406781,33.008682,53.249566,50.857034,66.822553,62.395234,74.84098,68.110371,77.62296,-20.576849,296.419851,-49.273928,286.055959
20,0.036243,0.183115,0.333183,-0.103284,0.0,21.969074,4.715859,54.858776,-0.844208,58.726788,-7.580131,49.816074,-15.658504,28.562382,0.0,-16.257661,6.814714,17.917512,27.895773,39.313252,46.367335,51.914584,62.370065,59.952327,0.0,67.057789,21.709179,86.913861,12.245098,85.916004,4.531872,73.721958,-0.8852,54.303829,0.0,12.542842,33.045807,53.540905,50.899716,67.131615,62.439534,75.106409,68.151793,77.758045,-20.914873,296.498101,-49.315012,285.84781
21,0.62685,0.327994,0.294365,-0.089131,0.0,20.995651,4.222252,54.506333,-1.416584,58.24633,-8.167488,49.084259,-16.203838,27.511803,0.0,-15.896804,6.833103,18.287038,27.881323,39.326886,46.263766,51.657257,62.217949,59.79138,0.0,67.125584,21.785614,86.824917,12.220104,85.684399,4.405975,73.382321,-1.089512,53.85149,0.0,12.598653,32.884627,53.581352,50.734114,67.153413,62.328273,75.177792,68.100269,77.83532,-20.686552,296.712082,-49.419176,285.644666
22,0.853306,0.170134,0.311623,-0.034024,0.0,20.059879,3.883644,53.966778,-1.829704,57.475285,-8.674725,48.127522,-16.775997,26.360836,0.0,-15.875784,6.917146,18.775584,27.915571,39.591067,46.184714,51.619245,62.058868,59.739732,0.0,66.952778,21.71252,86.743915,12.048935,85.447139,4.171783,73.075962,-1.409592,53.496036,0.0,12.710853,32.867015,53.724476,50.705931,67.16286,62.284578,75.358992,68.036246,78.007369,-20.230608,296.744108,-49.504915,285.472534
23,-0.747082,-0.347753,0.186596,-0.056279,0.0,20.853218,4.954857,55.400025,-0.713447,58.709839,-7.644161,49.140198,-15.797001,27.387726,0.0,-15.724965,7.177028,19.194942,28.189359,39.814801,46.43442,51.750797,62.175921,59.937259,0.0,66.832397,21.834583,86.813873,12.152778,85.428543,4.225753,73.01374,-1.424698,53.394287,0.0,12.69833,32.800942,53.62092,50.641735,67.008472,62.199399,75.42099,67.921958,78.123076,-21.367819,296.279993,-49.708448,285.299893
24,-0.023048,-0.272949,0.158168,-0.075064,0.0,20.898537,5.509723,56.104729,-0.467217,58.729065,-7.729729,48.839653,-16.236843,27.026848,0.0,-15.850664,6.977907,20.120791,27.933107,40.526449,46.167819,52.281838,61.858734,60.186237,0.0,66.635891,21.964646,86.806035,12.20295,85.464627,4.167675,73.068272,-1.626136,53.364865,0.0,12.72492,32.705772,53.766256,50.612947,66.838498,62.222518,75.459485,67.976311,78.279997,-21.781952,295.900466,-49.941365,285.118251
25,-0.153774,-0.529831,-0.072567,-0.201307,0.0,20.608303,5.889427,56.688228,-0.174878,58.954822,-7.660653,48.895832,-16.481621,26.876232,0.0,-16.519606,7.156415,20.892115,28.112171,41.061862,46.366013,52.824266,62.045208,60.722193,0.0,66.671448,22.271782,86.882905,12.566277,85.771546,4.505208,73.371323,-1.364994,53.628869,0.0,12.7122,32.900484,53.84342,50.73672,66.874993,62.291976,75.605488,68.001827,78.491493,-22.303762,295.26523,-50.381968,284.811539
26,-0.005036,-0.582381,-0.268363,-0.159735,0.0,20.642384,5.962143,57.204632,-0.216877,59.348477,-7.895805,49.341808,-16.924667,27.050709,0.0,-16.58101,7.343631,21.562293,28.283788,41.607366,46.545374,53.474424,62.242365,61.328447,0.0,66.765037,22.598121,87.45124,12.969451,86.441986,4.941947,74.057189,-0.948109,54.281021,0.0,12.691204,33.334403,53.994004,51.136034,67.042027,62.578522,75.766038,68.152348,78.603507,-22.654844,294.583465,-50.996377,284.55242
27,0.29551,-0.507366,-0.065426,-0.109225,0.0,20.100208,5.384582,57.188632,-0.817933,59.274913,-8.500924,49.328899,-17.576752,26.917865,0.0,-16.599178,7.48599,22.156455,28.410265,41.98802,46.652251,53.955028,62.339425,61.758328,0.0,66.879558,23.000839,87.582698,13.40197,86.715122,5.324821,74.231357,-0.6362,54.395771,0.0,12.589452,33.567018,54.189371,51.348518,67.161799,62.746681,75.70503,68.279493,78.351714,-22.680009,293.986514,-51.382478,284.35361
28,0.738029,-0.275901,0.068401,-0.03206,0.0,19.728207,4.437275,56.35461,-1.744286,58.566479,-9.442371,48.784733,-18.608894,26.130627,0.0,-17.23701,7.337258,22.205868,28.352307,42.05954,46.715521,54.237091,62.598986,62.094399,0.0,67.041733,23.351784,87.664879,13.808304,86.903435,5.699467,74.341415,-0.360111,54.509788,0.0,12.610311,33.766088,54.448499,51.533917,67.230662,62.904663,75.593508,68.433313,78.11064,-22.260841,293.615617,-51.632938,284.226554
29,0.485378,-0.348198,0.087273,-0.046955,0.0,19.530442,3.890007,55.776741,-2.109409,58.461548,-9.685856,48.866135,-18.754486,25.955429,0.0,-17.655863,7.550507,22.057828,28.750201,41.871102,47.268841,54.366557,63.33226,62.560824,0.0,67.27597,23.48125,87.804748,14.021598,87.107093,5.968563,74.552238,-0.071251,54.779457,0.0,12.56795,33.937495,54.591637,51.667903,67.264699,62.999005,75.518901,68.501386,77.914693,-22.068959,293.179437,-51.839161,284.091617
30,0.572891,0.143755,0.265445,0.008793,0.0,19.205613,3.746235,55.185288,-2.286174,57.981995,-9.804313,48.38704,-18.866477,25.476403,0.0,-17.928368,7.218265,21.645471,28.439535,41.767065,46.987445,54.300521,63.066338,62.36883,0.0,67.42947,23.25325,87.785649,13.806977,87.183483,5.843342,74.77866,-0.080749,55.028836,0.0,12.514412,33.927195,54.483673,51.745165,66.922268,63.105697,75.192118,68.613525,77.627604,-21.764323,293.23948,-51.841971,284.016698
31,-0.773025,0.002878,0.658299,0.010176,0.0,20.698196,4.907215,56.122902,-1.128479,58.963234,-8.667515,49.183319,-17.757225,26.361465,0.0,-18.655615,6.974536,20.957916,28.369695,41.356523,47.081947,54.07197,63.189678,62.240475,0.0,67.504783,23.060337,87.128723,13.604301,86.60836,5.624267,74.281196,-0.306988,54.65435,0.0,12.469928,33.600808,54.33583,51.465585,66.593102,62.930376,74.886874,68.57387,77.471783,-22.795704,293.164651,-51.442028,283.949167
32,-1.280823,-0.5293,0.452877,-0.464141,0.0,23.248352,7.067448,58.116623,0.690903,60.147583,-7.24855,49.900429,-16.73592,27.454285,0.0,-19.061451,6.737785,21.445016,28.492764,41.972842,47.457217,54.792746,63.563046,62.64851,0.0,67.263187,22.887348,86.770626,13.497276,86.181896,5.618202,74.02399,-0.271843,54.731907,0.0,12.770307,33.497425,55.059879,51.393535,67.117388,62.935724,75.558978,68.703842,78.198981,-24.316469,292.562572,-51.229093,283.412247
33,3.13963,-0.378592,0.7607,-1.583045,0.0,21.148372,3.402992,55.223041,-3.924408,56.467609,-12.019329,45.837673,-21.182213,23.702396,0.0,-17.855144,7.237865,25.722023,28.657292,45.260928,47.179044,57.569452,62.666973,64.446077,0.0,67.119026,22.904137,85.675552,13.257832,84.747894,4.977036,72.276444,-1.457943,52.975273,0.0,14.276744,33.387299,57.739722,51.093637,70.047864,62.600665,78.439522,68.550243,80.907946,-21.416822,292.100919,-50.708376,281.746141
34,3.022876,7.180622,2.202267,-4.079159,0.0,6.365307,0.563267,37.47662,-2.610317,39.696465,-6.591442,33.287087,-11.774116,18.947296,0.0,-11.061598,9.635608,19.140602,24.84702,32.058381,37.09514,39.013836,46.263013,42.592594,0.0,65.20364,22.565243,81.652553,12.346996,78.472309,2.869148,64.086307,-5.125351,43.98072,0.0,17.40244,32.61679,62.443339,49.294268,75.038335,60.447627,82.134878,66.635957,82.337469,-18.753874,299.177467,-48.866037,277.562908
35,7.068535,3.8121,3.085075,1.627976,0.0,-5.736706,-6.019832,11.368275,-7.884682,12.188301,-9.766388,9.406574,-12.030109,3.511894,0.0,-7.776501,10.247246,16.833817,23.127839,27.813398,33.229008,34.497275,40.573923,38.032165,0.0,54.330254,25.634903,63.325802,16.428715,57.408325,6.805699,43.814186,-2.306099,27.980244,0.0,25.967864,30.377337,62.086075,41.581233,70.382292,48.764239,73.641096,52.056042,71.647076,-12.120695,302.957445,-46.216318,279.158762
36,8.697178,-0.725135,-2.777229,-14.100867,0.0,-21.827202,-12.932739,-17.214317,-12.980335,-17.29129,-12.407867,-16.648224,-11.741215,-14.393715,0.0,-2.257608,12.747372,18.651588,24.57948,27.762182,33.401996,34.635892,39.18875,38.51961,0.0,54.120415,26.997562,56.210461,20.30508,49.709026,12.406677,38.155094,4.425121,26.944164,0.0,27.965539,23.251068,54.256011,25.704572,55.34577,26.150385,52.601113,24.778069,46.374596,-3.788429,302.507565,-49.358459,265.33315
37,9.74342,-0.97373,-5.288555,-29.244328,0.0,-39.488022,-20.940869,-47.038937,-18.835785,-47.670834,-15.324292,-43.082577,-11.138466,-32.962189,0.0,3.779681,15.773537,19.431953,26.367302,26.968035,33.691333,34.313308,37.90596,39.138152,0.0,52.983432,30.535022,48.027546,26.108391,40.262375,19.145805,30.173652,10.949341,22.709106,0.0,24.306271,14.307582,39.063347,9.440798,35.565125,4.326172,28.057151,-1.046244,18.770235,5.594439,302.169658,-55.007566,236.724645
38,5.342125,-1.850944,-12.239182,-54.35932,0.0,-52.711029,-23.153252,-71.851708,-18.199231,-73.068558,-11.901101,-64.594494,-4.782967,-46.327526,0.0,9.149546,18.601608,17.178001,28.593825,24.215696,35.054313,32.64727,38.238893,39.102213,0.0,49.149319,31.940289,38.05893,31.926029,32.080067,28.572396,26.161034,22.956242,23.378231,0.0,11.226058,6.977049,21.928868,2.329188,19.760619,-1.541457,14.508296,-5.121227,8.511411,10.700329,301.088321,-67.482983,183.134932
39,6.064293,-9.413838,-9.477299,-59.777166,0.0,-54.010071,-26.975064,-82.685555,-24.345967,-86.219742,-19.562806,-78.491559,-13.267159,-59.897061,0.0,9.08787,19.684426,25.722344,35.039086,37.892807,46.477053,51.948152,54.296248,62.451378,0.0,42.679608,26.744671,27.78748,27.057976,22.458424,25.08482,19.337735,21.271546,20.083535,0.0,-1.18914,-9.709789,-3.820893,-15.467947,-6.853239,-18.882349,-9.281797,-20.687357,-11.491813,16.464455,292.745029,-77.260449,124.428312
40,1.389587,-6.68258,-14.145145,-76.287673,0.0,-57.572834,-26.866608,-84.42564,-23.628067,-87.718815,-18.36898,-80.129894,-11.83699,-61.907318,0.0,13.295493,23.45971,30.538086,40.276459,43.004111,52.470572,57.820591,60.352247,69.157769,0.0,43.303158,18.262985,30.895947,18.497383,28.383671,17.881527,27.02002,16.40984,26.952221,0.0,-21.264675,-23.268822,-26.404785,-26.143467,-25.782408,-26.06836,-23.348072,-23.830096,-21.598335,17.138329,287.229343,-92.121307,49.307533
41,0.721596,-2.024747,-12.153046,-71.317436,0.0,-58.760216,-27.235039,-84.608219,-23.943833,-88.400082,-18.567673,-80.630379,-11.878327,-62.688526,0.0,15.189922,25.236937,31.449818,42.056798,44.098798,54.032068,58.956601,61.785523,70.601556,0.0,31.342301,11.418732,22.001576,11.241406,21.957699,11.243168,22.81445,11.019013,22.311036,0.0,-37.132749,-30.125887,-43.493866,-27.261405,-36.424151,-21.560867,-27.525657,-14.431748,-19.585104,16.142269,286.13703,-105.992009,-21.077469
42,0.401504,-1.250853,-13.301353,-66.586013,0.0,-59.712169,-27.613472,-84.713699,-24.291092,-88.709278,-18.923836,-80.990707,-12.308006,-63.17593,0.0,16.226514,26.531373,32.207903,43.282518,44.859093,55.120171,59.517962,62.768157,71.38812,0.0,18.793304,2.326023,13.215855,3.128574,18.132557,5.566578,23.527405,9.004978,24.035969,0.0,-49.89374,-33.687641,-56.205855,-26.938605,-45.281132,-17.358368,-31.594308,-6.897008,-18.090783,14.325279,285.506911,-121.511856,-87.042748
43,0.181961,-0.693692,-8.177776,-47.656763,0.0,-60.328228,-27.904175,-84.750892,-24.603012,-88.721889,-19.304466,-81.128219,-12.84597,-63.701179,0.0,16.792876,27.467596,32.703784,44.212912,45.272216,55.889001,59.620677,63.36195,71.5267,0.0,14.318607,-6.786175,3.891197,-7.240265,10.037143,-3.787915,19.682498,2.667537,23.907005,0.0,-51.153017,-39.612251,-71.521106,-35.380544,-64.15644,-27.7144,-50.330671,-18.304243,-33.033593,11.547826,285.713213,-132.649046,-133.799517
44,0.108673,-0.577416,-12.657715,-45.667527,0.0,-60.897068,-28.34008,-84.690914,-24.934364,-88.585659,-19.506431,-81.005069,-12.934776,-63.587837,0.0,17.415061,28.145925,33.015476,44.735741,45.592417,56.2197,59.990032,63.568122,71.806949,0.0,12.264461,-8.649788,-3.473122,-5.878865,7.706451,1.365337,24.329029,12.232097,35.369579,0.0,-53.759445,-35.301642,-79.416183,-31.183819,-73.678949,-23.966147,-59.088356,-15.254899,-35.985716,8.772245,286.299029,-148.191015,-178.303812
45,0.31231,-0.378764,-10.418144,-34.48171,0.0,-61.289109,-28.980378,-85.043564,-25.402977,-88.722485,-19.795739,-81.111248,-13.092636,-63.736164,0.0,17.579304,28.301757,33.259735,44.846026,45.764243,56.275213,60.060846,63.629687,71.872082,0.0,12.736351,-8.530655,-9.127099,-3.281354,4.910774,6.592098,27.524673,19.948795,44.927696,0.0,-53.315641,-33.202877,-88.68137,-29.301699,-85.423733,-22.251849,-70.163359,-13.621093,-40.860676,6.591631,287.248998,-161.102083,-211.456789
46,0.150764,-0.353546,-6.692479,-24.289152,0.0,-61.327228,-29.594971,-85.5825,-25.847969,-88.901562,-20.05957,-81.272907,-13.23809,-63.796783,0.0,17.620616,28.148394,33.528621,44.756118,46.078935,56.239891,60.339328,63.630576,71.976576,0.0,13.97604,-8.479808,-13.979587,-1.94474,0.804062,9.476475,26.917271,24.432919,50.693425,0.0,-49.566009,-33.032685,-95.46369,-29.023123,-95.598156,-21.636242,-79.465674,-12.336145,-44.284522,5.138426,288.402672,-169.398531,-234.238721
47,-0.103088,-0.441948,-2.440143,-13.45757,0.0,-61.050282,-30.176399,-86.187229,-26.188637,-88.837487,-20.148216,-81.061615,-13.17128,-63.677433,0.0,17.847055,27.982879,34.302799,44.768283,46.733329,56.365554,60.911076,63.741653,72.098213,0.0,17.803974,-8.49186,-17.961788,-1.773514,-4.876728,10.158016,23.660408,25.475326,53.059604,0.0,-43.139362,-34.258952,-99.889315,-29.882521,-102.679651,-21.727178,-85.66324,-11.098046,-44.909097,3.920014,289.570736,-172.953998,-246.086279
48,0.011604,-0.323523,-0.285748,-5.314749,0.0,-60.911682,-30.833897,-86.998123,-26.663383,-89.186897,-20.385475,-81.072533,-13.209778,-63.489269,0.0,17.766607,27.638855,34.881363,44.573819,47.237485,56.351697,61.276824,63.851063,72.034845,0.0,16.869656,-6.782947,-18.360718,0.8722,-5.658348,12.875199,23.305161,26.956581,54.99392,0.0,-40.209096,-34.035478,-100.643434,-30.253766,-104.978172,-22.366055,-88.990406,-11.929865,-47.460038,3.258345,290.48731,-173.913019,-250.160931
49,-0.079513,-0.184893,0.338871,1.972984,0.0,-60.956681,-30.935544,-87.738144,-26.685677,-89.634408,-20.34652,-81.401265,-13.187966,-63.77924,0.0,17.508675,27.255484,35.069566,44.287667,47.445225,56.165038,61.359347,63.652313,71.836947,0.0,16.882725,-4.953838,-14.05331,3.48983,-1.377365,15.798546,27.19249,29.261318,57.664982,0.0,-37.0768,-33.15161,-100.522066,-29.532768,-104.356978,-21.975817,-88.743665,-12.213126,-49.655771,2.442759,291.019682,-174.310221,-247.470682
50,-0.258866,-0.15303,5.647213,2.47194,0.0,-61.018329,-30.985256,-88.144787,-26.763428,-89.960037,-20.422142,-81.659843,-13.279747,-63.949722,0.0,17.191155,26.914733,35.071036,43.980842,47.38865,55.950134,61.218581,63.445634,71.607939,0.0,14.570893,-4.084087,-8.689316,2.351406,1.157891,12.038281,22.65556,22.753807,46.329895,0.0,-36.134112,-31.884165,-86.908859,-28.8247,-89.272344,-22.188532,-76.208241,-13.54566,-44.861032,1.3824,290.891262,-169.464501,-244.974132
51,-0.217483,-0.342813,6.624355,6.590727,0.0,-61.335949,-31.11089,-88.41306,-26.991166,-90.369244,-20.701104,-82.164471,-13.578438,-64.455849,0.0,16.962591,26.583416,34.9081,43.702841,47.152157,55.765179,60.948521,63.318255,71.591069,0.0,14.048032,-3.566854,-2.577701,1.185179,4.751628,8.71647,20.39734,17.080408,36.912057,0.0,-36.399769,-31.342775,-73.958706,-28.459761,-73.792888,-22.356507,-62.65922,-14.437563,-38.678543,0.46641,289.76626,-163.538653,-239.165594
52,-0.320092,-0.363846,7.074829,10.07049,0.0,-61.797981,-30.998806,-88.433967,-27.126503,-90.855056,-21.053398,-82.871475,-14.092323,-65.11156,0.0,16.955428,26.340602,34.372935,43.489778,46.572852,55.604875,60.43309,63.240079,71.502642,0.0,13.493698,-3.407529,4.212731,-0.104364,9.666888,5.693565,19.264244,12.45026,29.018627,0.0,-37.244957,-32.059553,-61.545433,-28.903516,-59.441176,-22.871888,-49.42866,-15.190844,-32.456462,-0.46859,288.287597,-157.078732,-230.209921
53,-0.384796,-0.328586,7.408013,12.727223,0.0,-62.145389,-30.846428,-88.22612,-27.234146,-91.228031,-21.371864,-83.531673,-14.595932,-65.940662,0.0,17.15645,26.155696,33.7497,43.312653,45.899143,55.427836,59.939853,63.082553,71.520982,0.0,12.785311,-3.542839,11.026325,-1.754093,14.207485,2.482916,18.190252,8.287783,21.57728,0.0,-38.126148,-34.284933,-50.345923,-30.557416,-46.192516,-24.21117,-37.336759,-16.499402,-26.701507,-1.193745,286.649053,-150.011078,-218.792656
54,-0.127556,-0.381173,8.108356,14.947922,0.0,-62.338714,-31.226623,-88.210727,-27.74707,-91.493591,-21.915527,-83.905197,-15.16127,-66.445083,0.0,17.466005,25.959898,33.701016,43.136219,45.584561,55.314623,59.680946,63.099399,71.540544,0.0,13.830672,-4.423141,14.891453,-3.77861,14.586182,-0.667448,14.392748,4.531775,14.222346,0.0,-40.372103,-38.379417,-41.176611,-34.478428,-36.667719,-27.810116,-29.378307,-19.687514,-21.954487,-1.431147,284.80019,-142.012568,-205.312424
55,-0.101211,-0.281804,2.697739,13.834392,0.0,-62.217133,-31.339749,-88.080311,-28.030655,-91.584961,-22.283821,-84.04232,-15.569595,-66.763779,0.0,18.092586,25.730396,33.874337,42.973828,45.574274,55.196556,59.802482,63.084653,71.732699,0.0,18.129839,-6.433971,16.412796,-4.083973,17.504368,1.474108,19.422541,9.211332,20.849482,0.0,-42.600947,-42.141514,-41.863735,-36.949568,-37.094824,-29.079556,-28.38736,-19.962426,-19.538542,-1.452478,283.252586,-139.234949,-192.743832
56,0.0569,0.126699,1.184521,10.031829,0.0,-62.044636,-31.41219,-88.436966,-28.110008,-91.811531,-22.327423,-84.258511,-15.585022,-66.881184,0.0,18.344504,25.739239,34.191537,42.944077,45.614449,55.150936,59.759542,63.031017,71.570877,0.0,22.184472,-7.591456,17.833763,-3.59717,20.314607,4.052499,23.838361,13.810784,26.404527,0.0,-43.500606,-44.668862,-42.49167,-38.435049,-37.449906,-29.642626,-27.656522,-19.75929,-17.719208,-1.311018,282.543592,-137.965868,-183.547696
57,0.262504,0.313952,0.082855,6.179823,0.0,-61.803463,-31.838378,-88.991352,-28.443397,-91.996856,-22.514694,-84.226306,-15.654075,-66.65562,0.0,18.223584,25.734854,34.443898,42.869507,45.97475,55.065831,60.000405,62.928103,71.389725,0.0,25.710963,-8.200464,18.555599,-2.819383,22.526979,6.436526,27.253673,17.493201,30.493198,0.0,-44.297735,-45.990728,-42.837306,-38.880419,-37.47432,-29.481436,-26.822288,-19.187855,-16.114404,-0.877877,282.125962,-137.712376,-178.099455
58,0.356118,0.28047,-1.036709,2.177792,0.0,-61.898037,-32.37743,-89.308983,-28.856232,-91.815285,-22.767083,-83.913941,-15.756729,-66.4044,0.0,18.122634,25.81944,34.999639,42.895059,46.452118,55.096101,60.401017,62.951791,71.309178,0.0,28.517636,-8.321399,18.513886,-1.729648,24.187798,8.750782,29.738869,20.555214,33.357857,0.0,-45.351077,-45.892819,-42.691579,-38.289047,-37.171815,-28.74456,-25.93374,-18.499253,-14.857893,-0.306444,281.777189,-138.53377,-176.550906
59,0.278595,0.271418,-1.88047,-1.697194,0.0,-62.012078,-32.657009,-89.563534,-29.058129,-91.796265,-22.904137,-83.816483,-15.827751,-66.289421,0.0,18.098317,26.056105,35.292225,43.135836,46.762241,55.316784,60.727862,63.104895,71.300829,0.0,30.440472,-8.144463,17.705063,-0.728085,24.940121,10.427273,30.944389,22.278912,34.557449,0.0,-46.693238,-44.740459,-42.260911,-36.841086,-36.448311,-27.416226,-25.030005,-17.483413,-13.870103,0.188862,281.544761,-140.197529,-178.751946
60,0.340095,0.170258,-0.299995,-1.562594,0.0,-62.33408,-33.056431,-89.976059,-29.327911,-92.008816,-23.058151,-83.978679,-15.914429,-66.419369,0.0,17.945769,26.315877,35.523765,43.412775,47.046972,55.611939,60.907766,63.383352,71.289134,0.0,30.25336,-8.074082,17.404037,-0.347672,24.547405,10.894283,30.61885,22.676937,34.342586,0.0,-46.56166,-43.742152,-42.132973,-35.811294,-35.946817,-26.548355,-24.642419,-16.853411,-13.438514,0.783565,281.36436,-140.242916,-180.665199
61,0.212975,-0.086055,0.054073,-1.382484,0.0,-62.700932,-33.149185,-89.990685,-29.291725,-92.106434,-22.932907,-83.649021,-15.792549,-66.091324,0.0,17.869111,26.592345,35.84126,43.802802,47.644357,56.043895,61.403955,63.808824,71.401458,0.0,29.911663,-8.243797,16.406181,-0.285095,23.715008,11.024345,30.030807,22.725746,34.094936,0.0,-47.292492,-42.770518,-41.677138,-34.771314,-35.390322,-25.650772,-24.080555,-16.295872,-13.006733,1.232237,281.058776,-139.953146,-182.267212
62,0.401436,-0.084413,-0.043682,-1.337962,0.0,-63.120037,-33.129982,-90.144127,-29.28859,-92.440155,-22.962731,-83.992871,-15.849862,-66.502018,0.0,17.730581,26.703138,35.940222,43.947817,47.808651,56.231271,61.602087,64.0724,71.708345,0.0,29.378242,-8.38036,15.592644,-0.149471,23.114914,11.281769,29.701183,23.018875,34.267479,0.0,-48.225145,-42.065177,-41.360284,-33.975357,-34.864773,-24.829038,-23.507428,-15.595761,-12.616446,1.763174,280.834168,-139.867327,-183.745369
63,-0.0103,-0.146608,-0.095204,-0.961809,0.0,-63.174271,-32.807785,-90.20937,-28.943939,-92.62571,-22.652367,-84.204632,-15.586578,-66.574322,0.0,17.707165,26.78245,36.158855,44.071738,48.010636,56.385277,61.710348,64.252872,71.96314,0.0,28.98325,-8.422565,15.234684,-0.199962,22.784523,11.143525,29.429158,22.797673,34.163556,0.0,-47.842055,-41.912162,-41.35555,-33.666093,-34.573166,-24.40136,-23.327487,-15.167824,-12.462267,1.821762,280.640009,-139.893643,-184.754729
64,-0.337509,-0.073236,-0.295314,-0.856885,0.0,-63.046841,-32.336186,-90.119076,-28.473152,-92.528698,-22.257729,-84.192639,-15.284821,-66.348164,0.0,17.653306,26.74787,36.504349,44.051287,48.221032,56.408001,61.773222,64.326565,72.172869,0.0,28.32138,-8.287777,15.049621,0.044437,22.807285,11.388565,29.496517,23.07106,34.420074,0.0,-47.606224,-41.572493,-41.252314,-33.276847,-34.315615,-23.951377,-23.110595,-14.765274,-12.399378,1.560963,280.544691,-140.112247,-185.633696
65,-0.32753,-0.003335,-0.480378,-1.0751,0.0,-63.07259,-31.945839,-89.945549,-28.052788,-92.372967,-21.879616,-84.029743,-14.984276,-66.105732,0.0,17.615219,26.796493,36.724391,44.081582,48.478779,56.437728,61.87169,64.367444,72.318279,0.0,28.239258,-7.847877,15.0397,0.607762,22.981877,11.967339,29.763863,23.654915,34.854699,0.0,-46.874843,-41.231852,-41.094025,-32.67905,-33.988458,-23.113037,-22.703484,-13.827047,-12.102052,1.30473,280.547537,-140.521328,-186.702615
66,-0.262619,0.100073,-0.533695,-1.140403,0.0,-62.873131,-31.782326,-89.90633,-27.874169,-92.293282,-21.753731,-84.120667,-14.91378,-66.129124,0.0,17.883772,26.786366,36.805073,44.023511,48.563686,56.354266,61.936021,64.263357,72.444929,0.0,27.898739,-7.343582,15.60212,1.117413,23.472565,12.393173,30.166752,23.983612,35.066323,0.0,-46.237159,-41.038333,-41.060597,-32.317634,-33.562674,-22.552677,-22.359451,-13.131451,-11.595761,1.173025,280.698823,-140.924109,-187.791805
67,-0.371407,0.063751,-0.354652,-0.908679,0.0,-62.7495,-31.535694,-89.820923,-27.60276,-92.156444,-21.506378,-83.982982,-14.695175,-65.921001,0.0,18.153127,26.896405,37.083901,44.135811,48.86546,56.444138,62.142404,64.287181,72.579533,0.0,27.531887,-6.900295,16.068146,1.452884,23.894233,12.592037,30.395862,24.107677,35.048847,0.0,-44.618014,-40.962062,-41.011422,-32.291017,-33.457337,-22.514991,-22.320076,-13.084329,-11.468052,0.981296,280.896375,-141.099083,-188.566683
68,-0.412697,0.239876,-0.314472,-0.98294,0.0,-62.624588,-31.293079,-89.816825,-27.372596,-92.114673,-21.356208,-83.994026,-14.634292,-65.895481,0.0,18.145605,26.960477,36.838073,44.205366,48.820209,56.473691,62.254876,64.253514,72.832993,0.0,27.317001,-6.473305,16.349556,1.913406,24.037948,12.996482,30.485721,24.477481,35.050621,0.0,-43.952844,-40.576335,-40.848907,-31.97177,-33.207312,-22.186411,-21.999245,-12.769599,-11.118804,0.820129,281.323799,-141.162025,-189.362075
69,-0.218376,0.204036,-0.494557,-0.835974,0.0,-62.71067,-31.368725,-89.801204,-27.408714,-92.268745,-21.385666,-84.0172,-14.652511,-65.965061,0.0,18.226424,27.149124,36.517711,44.382231,48.866546,56.60291,62.35249,64.369086,73.033385,0.0,27.78011,-5.976517,16.869003,2.48719,24.452625,13.549736,30.813469,25.019726,35.260048,0.0,-42.368298,-40.297149,-40.811993,-31.647457,-33.116379,-21.791887,-21.822006,-12.352133,-10.992003,0.871587,281.740852,-141.386748,-189.985032
70,-0.298553,0.11472,-0.430893,-0.590319,0.0,-62.561325,-31.520371,-89.771656,-27.559777,-92.370999,-21.523865,-84.066902,-14.719986,-65.915337,0.0,18.094167,27.151149,36.308822,44.372376,48.989985,56.58657,62.493059,64.386512,73.212301,0.0,27.736256,-5.595989,17.334206,2.903939,24.814945,13.910992,31.065216,25.316036,35.320038,0.0,-41.52701,-40.05978,-40.737481,-31.535734,-33.036121,-21.777366,-21.764893,-12.437203,-10.946344,0.851824,282.086541,-141.538851,-190.344382
71,-0.440186,0.155487,-0.333572,-0.552907,0.0,-62.456405,-31.460666,-89.695644,-27.569,-92.359256,-21.563965,-84.151153,-14.733261,-65.97694,0.0,18.082003,27.136317,36.067835,44.363793,48.763967,56.5533,62.424109,64.337285,73.409248,0.0,27.971935,-5.4711,17.421421,3.034469,24.908295,14.019298,31.118774,25.422306,35.322624,0.0,-41.016315,-39.926726,-40.657885,-31.579373,-33.107718,-21.96619,-21.786956,-12.722286,-11.025746,0.664489,282.462245,-141.619572,-190.677072
72,-0.523796,0.193291,-0.108982,-0.599223,0.0,-62.288326,-31.556156,-89.73119,-27.644325,-92.32806,-21.602211,-84.136516,-14.717811,-65.919628,0.0,17.988451,26.973506,36.042357,44.215642,48.70129,56.434789,62.326531,64.297296,73.424315,0.0,28.057262,-5.762581,17.241588,2.695884,24.614341,13.653557,30.78503,25.030803,34.9128,0.0,-42.409442,-39.492389,-40.417796,-31.450824,-32.852198,-22.109327,-21.562765,-13.07279,-10.663339,0.405927,282.832704,-141.46332,-191.099127
73,-0.377312,0.042176,-0.148522,-0.363407,0.0,-62.13898,-31.801586,-89.675079,-27.889858,-92.436595,-21.752517,-84.229202,-14.774276,-66.044963,0.0,18.323545,26.894922,35.999613,44.168118,48.659337,56.413175,62.172315,64.343571,73.326514,0.0,27.311028,-5.836795,17.246281,2.68261,24.606995,13.667118,30.815094,25.088974,35.076176,0.0,-43.76486,-39.222136,-40.346713,-31.352648,-32.554984,-22.169769,-21.375618,-13.223517,-10.624371,0.289546,283.037633,-141.350911,-191.299781
74,-0.463897,-0.004693,-0.12585,-0.171104,0.0,-61.917973,-31.931431,-89.675194,-27.988404,-92.423435,-21.728073,-84.247387,-14.643036,-66.070324,0.0,18.727628,26.842533,36.116062,44.151236,48.724977,56.401122,62.23924,64.302457,73.313152,0.0,25.827392,-5.881348,17.262313,2.531959,24.597519,13.438385,30.775886,24.871559,35.058746,0.0,-44.462069,-39.228246,-40.310231,-31.638889,-32.446449,-22.633465,-21.330448,-13.748239,-10.474939,0.100743,283.167244,-141.201667,-191.336581
75,-0.329659,-0.052068,0.059154,-0.152079,0.0,-62.109936,-32.098732,-89.770191,-28.072517,-92.40612,-21.67662,-84.21017,-14.522529,-66.103855,0.0,19.267623,26.822131,36.412489,44.146073,48.810588,56.407531,62.368447,64.302742,73.473555,0.0,25.266483,-6.013882,17.050598,2.336678,24.444031,13.182335,30.532688,24.600723,34.873158,0.0,-45.977443,-39.039478,-40.225833,-31.650591,-32.185355,-22.753891,-21.017099,-13.928179,-10.023691,0.039013,283.221581,-140.874584,-191.382255
76,-0.307892,-0.037001,0.181973,-0.14336,0.0,-62.438438,-32.321056,-89.775329,-28.261173,-92.48117,-21.77536,-84.199367,-14.564048,-66.116523,0.0,19.729726,26.752835,36.819943,44.064044,49.08434,56.33206,62.548351,64.26763,73.643232,0.0,24.696167,-6.14581,16.727428,2.163974,24.194835,12.928127,30.178733,24.279453,34.647892,0.0,-47.807397,-38.773087,-39.978668,-31.433142,-31.627588,-22.562054,-20.45416,-13.756423,-9.348704,0.001813,283.266782,-140.421919,-191.443413
77,-0.209724,-0.012264,-0.017727,-0.025858,0.0,-62.772743,-32.387833,-89.811298,-28.29475,-92.601574,-21.771996,-84.233471,-14.602249,-66.223824,0.0,20.272142,26.863196,37.022645,44.174985,49.170853,56.381337,62.700381,64.212698,73.794595,0.0,24.43396,-6.177155,16.627384,2.235958,24.075668,13.010994,30.016067,24.376762,34.61681,0.0,-48.704078,-38.441049,-39.794173,-30.959196,-31.298564,-22.012351,-20.206596,-13.200555,-9.124463,0.022224,283.309958,-140.209511,-191.413831
78,-0.07045,-0.048276,-0.061409,-0.052932,0.0,-63.174236,-32.534489,-90.092995,-28.431427,-92.754055,-21.919647,-84.275516,-14.797462,-66.257492,0.0,20.405559,26.913867,37.434816,44.214579,49.546171,56.417584,63.101474,64.227702,74.125009,0.0,24.75317,-6.288002,16.517154,2.142689,23.987354,12.896518,29.696846,24.217552,34.190677,0.0,-49.188625,-38.224852,-39.615486,-30.654612,-31.129992,-21.586138,-19.892201,-12.704107,-8.574894,0.194755,283.264967,-140.027939,-191.463478
79,-0.008491,0.17358,0.212677,-0.275302,0.0,-63.471451,-32.565319,-90.205788,-28.523163,-92.916081,-22.111313,-84.408657,-15.088166,-66.251381,0.0,20.274377,26.780228,37.479845,44.063056,49.486669,56.253452,63.026003,64.067139,74.10872,0.0,25.806083,-6.763779,16.084877,1.724647,23.51548,12.528019,29.082287,23.823543,33.579071,0.0,-51.095953,-37.659746,-39.152429,-29.90143,-30.523016,-20.724482,-19.257017,-11.826235,-7.894259,0.473271,283.438775,-139.528255,-191.738552
80,-0.004349,0.299267,-0.104187,-0.31284,0.0,-63.460911,-32.411888,-90.364655,-28.448742,-93.190739,-22.172836,-84.750641,-15.284363,-66.40345,0.0,19.933095,26.690048,37.173971,43.96512,49.179671,56.134818,62.698689,63.938588,73.872512,0.0,26.487259,-6.936528,15.762417,1.656704,23.192653,12.535892,28.731445,23.795334,33.210685,0.0,-51.698566,-37.279375,-38.809455,-29.408483,-30.222764,-20.101053,-18.88565,-11.11911,-7.543696,0.86566,283.73774,-139.235704,-192.051694
81,0.194458,0.354312,-0.214634,-0.390794,0.0,-63.653721,-32.281036,-90.94043,-28.309685,-93.553482,-22.12983,-85.224701,-15.3788,-66.790684,0.0,19.283283,26.625839,36.723773,43.965083,48.699697,56.197704,62.369312,64.032633,73.704946,0.0,27.02932,-6.92133,15.736656,1.649059,23.061241,12.52557,28.576835,23.739544,32.953583,0.0,-52.092095,-36.859503,-38.529589,-28.890418,-29.833458,-19.426621,-18.371859,-10.32365,-7.166854,1.518328,284.091471,-138.992128,-192.443069
82,0.307136,0.507514,-0.216568,-0.607679,0.0,-64.08966,-31.963749,-91.783905,-27.924957,-93.948291,-21.854003,-85.744709,-15.33403,-67.198986,0.0,18.670311,26.319928,36.950199,43.699186,48.929656,56.046181,62.508374,63.956063,73.620175,0.0,27.417881,-6.850582,15.684093,1.59732,23.009239,12.404171,28.484596,23.564953,32.869549,0.0,-52.183081,-36.783563,-38.273017,-28.811282,-29.407269,-19.302815,-17.974545,-10.131749,-6.890096,2.351617,284.607988,-138.682543,-193.041745
83,0.325722,0.667794,-0.791199,-0.800971,0.0,-64.303985,-31.442367,-92.218929,-27.385254,-94.338146,-21.395737,-86.199497,-14.91259,-67.367695,0.0,18.062329,26.222893,36.990781,43.645895,48.887134,56.016577,62.739728,63.869081,73.888332,0.0,27.849747,-6.803421,15.590778,1.711544,23.004021,12.580376,28.617302,23.752945,33.083794,0.0,-52.274083,-36.58012,-38.108001,-28.559563,-29.251729,-19.067039,-17.946464,-9.963908,-6.760466,3.256599,285.324809,-138.894482,-193.793689
84,0.63002,0.637647,-1.634502,-1.074729,0.0,-64.776695,-31.064552,-92.936462,-26.84547,-94.916359,-20.841476,-86.62944,-14.3787,-67.617038,0.0,17.389669,26.178791,37.653561,43.619182,49.691421,56.066706,63.69408,63.938562,74.496302,0.0,26.997631,-6.778027,15.927669,1.825412,23.111263,12.760139,28.982425,24.041473,33.720977,0.0,-52.249917,-36.021411,-38.483928,-28.356475,-29.184403,-19.231428,-18.062187,-10.384431,-7.314688,4.564029,286.152931,-139.851574,-194.677943
85,0.73066,0.781896,-0.529478,2.000188,0.0,-65.623203,-30.70435,-93.608242,-26.357643,-95.399883,-20.393601,-87.119042,-13.985115,-68.013085,0.0,17.038915,26.20107,38.438977,43.718736,50.278136,56.240114,64.756089,64.090913,75.538785,0.0,25.468891,-6.859168,16.126493,1.367152,22.701393,11.922695,28.47725,22.946886,33.26735,0.0,-52.624376,-35.687451,-39.060914,-28.407476,-29.282328,-19.695091,-18.391719,-11.112905,-8.152439,5.98209,287.174675,-139.693651,-192.437907
86,0.571129,0.802088,0.440025,5.198111,0.0,-66.000676,-30.490105,-93.761067,-26.042611,-95.514416,-20.052933,-87.23259,-13.575463,-67.978993,0.0,16.863519,26.287805,39.249118,43.793096,51.098652,56.330455,65.890815,64.15711,76.612465,0.0,23.202027,-7.046398,15.989656,0.453561,21.720005,10.257454,27.084564,20.646875,31.672465,0.0,-52.841613,-35.678016,-40.042702,-28.909835,-29.998201,-20.676572,-19.323112,-12.374349,-9.54469,7.391098,288.306174,-138.415747,-186.910385
87,0.525146,0.718281,1.304174,8.397915,0.0,-66.371807,-30.364082,-93.426636,-25.924782,-95.56683,-19.889305,-87.091518,-13.173134,-67.440571,0.0,16.743847,26.468413,39.345053,44.001677,51.312357,56.532811,66.72547,64.315586,77.690614,0.0,20.412474,-6.989538,15.781483,-0.61937,20.374753,7.984085,25.000232,17.264248,28.943086,0.0,-53.178809,-35.764279,-41.295917,-29.456229,-30.987028,-21.536509,-20.31684,-13.343323,-11.010313,8.982788,289.357981,-136.045029,-178.178944
88,0.60997,0.583715,2.95966,11.560947,0.0,-66.892822,-30.413898,-93.432987,-25.865089,-95.592499,-19.758751,-86.915073,-12.953407,-67.124988,0.0,16.690518,26.549429,39.625152,44.030377,51.724158,56.571244,67.214841,64.391341,78.106046,0.0,16.994556,-7.108521,15.179043,-2.507217,18.248749,4.340858,21.754314,12.056923,24.763573,0.0,-53.977177,-36.125782,-42.613175,-30.411139,-31.982533,-22.83994,-21.351637,-14.671194,-12.78483,10.846847,290.272632,-131.83128,-166.287061
89,0.207665,0.422274,4.596891,14.966213,0.0,-67.086491,-30.469048,-93.327874,-25.926338,-95.312668,-19.782898,-86.534729,-12.854828,-66.595642,0.0,16.808585,26.615835,39.664858,44.113123,51.811806,56.65515,67.644933,64.41509,78.74368,0.0,14.072405,-6.910663,14.060011,-4.490558,15.704041,0.145913,17.601832,5.772772,19.169438,0.0,-54.515232,-37.300421,-43.934937,-31.916222,-33.525824,-24.354897,-22.76792,-15.952719,-14.351566,12.336245,291.036037,-125.952656,-150.979717
90,-0.244171,0.111941,4.596892,14.966213,0.0,-66.907448,-30.411416,-93.055298,-25.723023,-94.970032,-19.417832,-85.798577,-12.331673,-65.749066,0.0,16.950216,26.794158,40.044833,44.310058,52.494247,56.877477,68.395336,64.593043,79.418069,0.0,11.150253,-6.712807,12.940979,-6.4739,13.159332,-4.049034,13.449348,-0.51138,13.575302,0.0,-55.053287,-38.475061,-45.256698,-33.421306,-35.069115,-25.869854,-24.184204,-17.234244,-15.918303,13.520308,291.584118,-119.92753,-135.577364
91,-0.418992,0.064183,4.596891,14.966212,0.0,-66.738338,-30.298484,-92.789543,-25.496337,-94.61697,-19.071739,-85.100772,-11.859947,-64.903358,0.0,16.947586,27.020511,40.531328,44.650599,53.209737,57.294873,69.187545,65.008611,80.37052,0.0,8.228102,-6.51495,11.821947,-8.457241,10.614624,-8.24398,9.296866,-6.79553,7.981167,0.0,-55.591341,-39.6497,-46.578459,-34.926388,-36.612406,-27.38481,-25.600486,-18.515768,-17.485038,14.465784,292.287727,-113.966171,-119.971726
92,-0.424781,0.076879,4.596892,14.966213,0.0,-66.29789,-30.425114,-92.690232,-25.515587,-94.257363,-18.944573,-84.454033,-11.564759,-64.339737,0.0,16.803522,27.30334,40.759755,44.978951,53.652784,57.672353,70.007702,65.418646,81.386599,0.0,5.30595,-6.317093,10.702915,-10.440583,8.069915,-12.438927,5.144382,-13.079682,2.387031,0.0,-56.129396,-40.82434,-47.900221,-36.431471,-38.155697,-28.899767,-27.016769,-19.797293,-19.051774,15.37373,293.075936,-108.036552,-104.294183
93,-0.564881,0.109064,4.596891,14.966213,0.0,-65.928783,-30.566745,-92.477657,-25.472557,-93.694759,-18.693054,-83.588253,-11.098274,-63.54689,0.0,16.865025,27.545772,41.380458,45.362482,54.671629,58.144398,71.171265,65.923233,82.693941,0.0,2.383799,-6.119236,9.583883,-12.423924,5.525207,-16.633873,0.991899,-19.363833,-3.207104,0.0,-56.66745,-41.99898,-49.221982,-37.936554,-39.698988,-30.414724,-28.433052,-21.078818,-20.618511,16.16629,294.493201,-102.08222,-88.019769
94,-0.474357,0.122562,4.596891,14.966212,0.0,-65.575882,-30.537896,-92.185993,-25.264801,-93.228081,-18.315743,-82.866783,-10.562577,-62.921986,0.0,17.040422,27.855438,42.059663,45.853151,55.641246,58.764298,72.164903,66.662583,83.865803,0.0,-0.538353,-5.921379,8.464852,-14.407264,2.9805,-20.828819,-3.160583,-25.647983,-8.801239,0.0,-57.205504,-43.173618,-50.543743,-39.441637,-41.242279,-31.92968,-29.849334,-22.360343,-22.185246,17.121552,295.871813,-96.05571,-71.797507
95,-0.093636,0.306307,0.733881,17.740184,0.0,-65.373287,-30.716045,-91.91336,-25.421951,-92.772777,-18.384224,-82.383934,-10.458435,-62.450672,0.0,17.17258,28.116642,42.539883,46.246761,56.278523,59.206999,72.777788,67.12865,84.644044,0.0,2.174667,-3.813604,10.404185,-11.986703,5.159037,-18.334596,-0.986573,-23.233812,-6.917105,0.0,-57.305524,-41.517232,-49.079451,-36.523706,-39.139453,-28.056783,-27.048856,-17.787391,-18.735783,18.562391,297.244352,-93.787354,-52.991091
96,0.484657,0.405342,-3.129129,20.514155,0.0,-65.453041,-31.100486,-91.931568,-25.787429,-92.634521,-18.61441,-82.040268,-10.483749,-62.146751,0.0,17.005816,28.131981,42.906446,46.285861,56.805204,59.252645,73.284314,67.19565,84.741412,0.0,10.522858,0.204089,15.401882,-5.162239,12.06082,-9.151205,7.51393,-12.121319,2.445297,0.0,-56.96751,-37.029818,-44.829104,-29.18276,-33.390511,-18.796033,-20.031617,-7.359962,-10.270119,20.808157,298.181711,-95.155374,-31.944919
97,0.732445,0.218226,-1.909,24.847056,0.0,-65.665226,-31.311893,-91.88332,-25.98127,-92.633869,-18.705047,-81.999561,-10.438545,-62.251991,0.0,16.962406,28.211096,43.548292,46.389145,57.487942,59.376528,73.581704,67.379802,84.655332,0.0,21.359674,4.826261,22.138544,1.867256,20.050346,0.038606,16.866381,-1.048852,12.447596,0.0,-53.892368,-31.450206,-38.544921,-20.224524,-25.193666,-7.376546,-10.386091,5.637279,0.662249,23.271675,298.53564,-95.333301,-6.96216
98,0.869248,0.167097,-0.688872,29.179956,0.0,-65.745427,-31.383969,-91.918499,-26.122033,-92.857144,-18.854439,-82.23206,-10.558365,-62.481057,0.0,16.740746,28.24386,43.909273,46.452809,57.831076,59.469339,73.867732,67.527718,84.575661,0.0,34.685114,10.052914,30.61417,9.101784,29.127617,9.234839,27.070782,9.983591,23.089794,0.0,-48.080097,-24.778394,-30.226898,-9.648996,-14.548919,6.201677,1.887722,21.204331,14.061322,25.483487,297.858763,-94.679609,21.373822
99,1.115364,0.12497,0.226994,33.579849,0.0,-65.964798,-31.634491,-92.144257,-26.424385,-93.254105,-19.131295,-82.622029,-10.77887,-62.903836,0.0,16.361451,28.249455,44.017163,46.439867,57.915427,59.437847,73.926506,67.493126,84.396141,0.0,48.974344,16.179771,40.656704,17.23431,40.488184,19.188085,39.348375,21.525409,35.246172,0.0,-39.578047,-15.265999,-19.663483,3.773395,-2.079763,22.169358,15.558559,38.4911,29.01997,27.556847,296.891427,-93.494619,53.861365
100,1.050178,-0.120784,5.005869,35.205772,0.0,-66.047573,-31.739445,-92.387489,-26.51683,-93.697929,-19.186477,-82.893951,-10.826248,-63.148647,0.0,16.25776,28.169291,44.345713,46.389726,58.406714,59.471834,74.375222,67.630706,84.373997,0.0,58.592193,21.296916,49.20778,21.860933,49.408802,23.209179,47.372669,24.878282,41.438461,0.0,-28.824253,-5.744049,-9.640731,15.619634,8.567684,35.138642,26.40966,51.643107,40.521994,29.049648,295.51337,-88.046127,87.809864
101,0.728211,-0.125341,9.721487,36.608775,0.0,-65.650223,-31.669854,-92.527439,-26.496849,-94.064244,-19.253517,-83.329205,-10.941262,-63.498906,0.0,16.598054,28.355703,44.370462,46.53311,58.565388,59.566065,74.536168,67.669498,84.505031,0.0,63.015077,24.844905,55.17148,23.370523,51.447189,22.415319,46.482999,21.824621,39.420593,0.0,-16.28188,2.073523,2.613126,24.89173,22.349937,45.259059,40.77593,61.968245,53.689065,29.734869,294.140149,-78.36763,123.170759
102,0.023163,1.451913,9.353965,36.452848,0.0,-60.749497,-31.27945,-92.175076,-26.484215,-94.281167,-19.527855,-83.607571,-11.425988,-63.280541,0.0,16.997431,26.912225,42.854872,44.550959,57.266838,57.442987,72.582595,65.791964,82.511135,0.0,65.389544,28.129177,59.867203,25.961953,50.238848,23.489256,42.153912,21.102774,36.030939,0.0,-4.250021,9.925542,17.850303,34.395406,40.465212,55.759727,60.245845,72.75118,71.07068,29.350279,294.510102,-69.421418,158.541647
103,1.452896,10.36745,7.263405,33.784688,0.0,-61.807835,-31.099915,-93.55299,-26.477829,-91.919609,-19.655274,-79.371415,-11.76725,-59.587716,0.0,20.34019,23.270358,35.373809,33.697928,40.839487,40.146931,48.354697,43.176258,53.10444,0.0,66.578928,30.006741,69.095707,26.212898,59.055697,21.702925,46.991524,17.175928,36.922434,0.0,4.699812,17.660948,30.075032,41.430038,52.725917,61.241731,71.158316,76.151269,79.707364,30.224917,304.045941,-62.736271,191.494724
104,-0.215126,9.461126,6.109143,30.250718,0.0,-62.200619,-28.488625,-91.409775,-23.423287,-87.421109,-16.591416,-74.364121,-9.198235,-56.15593,0.0,22.027348,21.1364,26.910953,25.291351,26.058316,25.618961,27.980174,23.015947,27.033935,0.0,67.969682,31.193996,74.834301,25.668594,64.039249,19.345464,50.123125,13.140323,37.888206,0.0,12.390332,23.8143,41.21409,46.339109,62.696225,64.354217,79.745402,77.233124,86.740742,29.216887,312.684005,-57.420032,220.92238
105,0.141128,10.006839,3.984466,25.726667,0.0,-60.213455,-32.314556,-75.118057,-28.167354,-67.467098,-21.952034,-57.52755,-14.806881,-48.582676,0.0,24.567068,16.323092,24.879476,14.83981,19.792033,10.355236,16.532438,3.97443,9.395116,0.0,68.630716,30.945294,79.70945,24.351608,68.44352,17.019991,52.962816,9.878643,38.998409,0.0,16.33617,27.608381,52.125005,48.79281,73.549007,65.358637,89.651749,76.692597,94.614179,28.373623,321.943034,-54.419958,245.901237
106,0.664444,5.59155,2.787546,19.820653,0.0,-50.821243,-34.978077,-56.942734,-33.151611,-47.503921,-28.524422,-41.260116,-22.635029,-40.350265,0.0,27.182099,13.210451,24.610453,9.570313,17.953611,3.771011,12.255283,-3.303289,3.488799,0.0,69.592255,29.836098,84.360993,21.656777,75.737297,13.179966,59.652077,5.208973,42.855538,0.0,17.837829,30.283082,58.178484,49.695941,77.429904,64.222454,91.850416,73.61111,95.667604,27.925472,326.925389,-52.745007,265.112695
107,-3.298805,-0.145225,0.885784,12.584475,0.0,-43.734306,-35.014801,-33.345474,-36.390633,-22.559544,-34.615608,-20.29969,-31.269928,-29.235134,0.0,24.210657,12.062807,27.665901,9.30207,21.169807,4.188333,14.351821,-2.282048,3.644127,0.0,70.442265,28.475934,89.141705,18.068688,85.465565,8.216092,69.572674,-0.520282,48.565213,0.0,17.872335,32.159886,59.504673,49.282979,74.777995,60.983027,85.753723,67.651306,89.265519,23.425341,326.276215,-53.060549,277.193221
108,-9.02924,-7.712429,0.957608,7.616592,0.0,-24.895603,-31.336612,-5.088959,-35.301407,3.826859,-35.528801,-0.066273,-33.77235,-16.695259,0.0,20.365879,13.260605,34.722393,17.817155,37.508559,19.488393,36.146024,19.067144,29.163707,0.0,70.020675,28.023674,87.682525,17.164684,84.364059,6.982212,70.127746,-1.949066,49.972664,0.0,18.50834,33.360685,62.165721,50.068593,76.096774,60.932935,86.222076,66.819207,89.625252,13.359695,318.145344,-53.139347,284.391371
109,-7.836525,-5.753681,0.459057,3.668802,0.0,-6.458164,-28.720653,21.538616,-35.653164,28.536335,-38.179138,19.444233,-37.943928,-4.328808,0.0,16.711107,12.549573,42.841238,23.056949,51.925823,30.902043,54.154445,36.564889,51.159537,0.0,68.970256,27.263008,88.231853,16.451168,85.373394,6.242866,71.073246,-2.763016,50.679691,0.0,18.006791,33.567931,63.781741,50.441577,78.272871,61.134118,87.87091,66.753961,90.160566,4.717197,312.093063,-53.486263,287.761573
110,-0.112861,-8.164331,0.928768,0.778043,0.0,-1.213086,-28.151173,25.280971,-37.717129,29.457676,-42.106144,19.703601,-43.536827,-3.924374,0.0,11.915051,14.640467,46.286405,30.852495,59.826035,43.844053,64.658474,54.006565,66.072682,0.0,68.053688,26.748951,87.912666,15.673416,84.724708,5.180179,70.616844,-4.01825,50.245147,0.0,18.853833,33.690382,63.840441,50.855688,78.113147,61.445562,87.367336,66.874856,88.667861,4.057469,303.747948,-53.104362,288.358832
111,-5.303948,-0.980905,0.290725,-0.388991,0.0,0.505818,-25.241009,29.600544,-34.312649,34.509831,-38.363205,25.566822,-39.489841,2.290203,0.0,9.618886,15.720778,46.236164,32.395983,60.505487,45.36226,64.845553,55.452055,65.456647,0.0,67.003602,26.733124,87.47992,15.463429,83.865899,4.712655,69.780259,-4.720619,49.223214,0.0,19.941703,33.877499,63.943441,51.06832,78.366028,61.488838,86.937565,66.656643,87.588822,-1.611483,302.664803,-53.178641,287.867601
112,2.323082,0.305628,0.382554,-0.382556,0.0,-2.609608,-26.836223,26.582874,-35.897999,31.54446,-39.699726,22.915936,-40.497333,-0.764271,0.0,10.184273,15.567155,46.006514,32.055738,60.395496,44.90811,64.27688,54.991014,64.958284,0.0,66.113754,26.456165,86.606185,15.135955,83.255195,4.238868,69.121948,-5.445363,48.120574,0.0,20.540472,34.083572,64.113909,51.14058,78.771432,61.454912,87.397779,66.562128,87.568729,0.507007,302.891733,-53.000679,287.406347
113,2.364796,1.020092,0.179889,0.034568,0.0,-5.16433,-29.25697,24.112312,-38.045254,28.876533,-41.515034,20.688263,-41.965485,-3.034676,0.0,9.014708,15.724705,45.407795,31.72173,59.393843,44.071862,63.58472,53.556404,64.07713,0.0,65.747784,26.059674,86.044453,14.71542,83.070042,3.809303,68.864468,-5.847416,47.952999,0.0,20.963672,34.091698,64.061273,51.071395,78.691341,61.39494,87.366619,66.525658,87.438559,2.699856,303.825878,-52.992737,287.354968
114,7.450241,-1.847202,-0.156326,0.034679,0.0,-15.790398,-36.545746,15.409447,-46.344853,20.529877,-50.31031,13.154869,-51.096977,-11.54274,0.0,9.461806,15.544036,47.034523,31.868832,61.243836,44.52532,64.946613,54.430086,65.176905,0.0,65.127079,25.641975,85.818706,14.302048,82.955852,3.475193,68.823612,-6.029446,47.965794,0.0,21.222406,34.121882,64.089147,51.085572,78.455541,61.435522,87.342697,66.568377,87.437954,10.04056,301.906144,-53.2586,287.317115
115,-4.550469,2.136441,-0.427437,0.1174,0.0,-11.294769,-32.634292,18.191643,-41.296222,24.684952,-44.61074,17.244141,-44.964466,-6.639244,0.0,10.169798,15.786221,44.780336,31.34583,58.670647,43.338439,62.601283,52.649512,62.780569,0.0,64.676891,25.526402,85.976177,14.366386,83.476788,3.717293,69.397305,-5.565674,48.847721,0.0,21.278142,33.901272,63.808479,50.871175,78.088472,61.365769,87.029326,66.663485,87.426085,5.42609,303.974474,-53.750038,287.366404
116,4.490479,-1.012732,-0.363579,0.029591,0.0,-17.092495,-35.540085,14.732231,-45.793144,19.608696,-50.54734,11.662056,-52.2346,-14.35849,0.0,9.341825,13.450092,45.915668,29.768824,59.877843,42.703362,63.847518,53.126177,64.343757,0.0,64.227253,25.221039,86.158688,14.139908,83.880673,3.622124,69.875576,-5.466613,49.364834,0.0,21.52418,33.870817,63.648978,50.889255,77.887807,61.465965,86.891845,66.799199,87.441893,9.874992,302.888262,-54.155194,287.322515
117,-2.669792,4.352527,-0.448608,0.148769,0.0,-18.827076,-34.76928,15.202148,-43.082062,21.697975,-46.012196,14.582611,-46.142006,-9.445564,0.0,12.033501,13.876676,43.325917,27.802012,55.49806,38.376708,58.608341,46.597997,58.502279,0.0,64.003132,24.982418,86.673122,13.965946,84.347111,3.615669,70.542309,-5.259201,50.0602,0.0,21.478324,33.618036,62.974885,50.704893,77.379021,61.423863,86.599506,66.846723,87.538199,7.189963,307.172083,-54.619039,287.402578
118,5.770981,-0.73373,-0.299126,0.100628,0.0,-28.971039,-39.342247,9.242386,-48.608391,14.89627,-52.284829,7.905395,-53.142815,-18.68866,0.0,12.588747,12.529702,45.229175,26.463312,57.130567,37.206253,59.642006,45.849779,59.058452,0.0,63.807347,24.629379,86.951786,13.635773,84.47263,3.429886,70.837727,-5.245868,50.219136,0.0,21.446548,33.473948,62.438682,50.576317,77.212888,61.335005,86.423246,66.733609,87.478721,12.97078,306.376003,-54.908329,287.440856
119,-3.502442,4.167547,-0.319668,0.172012,0.0,-30.365627,-38.443611,10.846344,-45.925861,18.525398,-47.862968,12.498345,-47.124779,-11.58062,0.0,16.193502,13.349686,42.943102,24.7127,52.775496,32.896594,54.390887,39.021815,53.272118,0.0,63.970345,24.419667,87.167817,13.545468,84.723244,3.503163,71.244049,-4.979873,50.691422,0.0,21.357208,33.216115,61.873765,50.327722,76.911694,61.190892,86.225324,66.678676,87.52002,9.503208,310.472506,-55.193127,287.541824
120,4.315064,-0.80914,-0.125129,0.11535,0.0,-36.603894,-41.939701,7.015457,-50.498108,13.563881,-53.283898,7.714531,-53.308377,-17.677941,0.0,16.503316,12.184851,44.241651,23.694152,53.773778,32.076622,55.071561,38.542643,53.816064,0.0,64.054619,24.090786,87.323021,13.188389,84.733268,3.170551,71.341873,-5.212452,50.72454,0.0,21.333372,33.099159,61.557763,50.219226,76.689566,61.086607,85.937616,66.521446,87.367249,13.869582,309.588695,-55.266946,287.582503
