takenoko1/special-research/HandMotion_SimilarSearch_自分用/NewProject/handData/test_key/d4_feature_d3/88.csv
frame,vel_0x_L,vel_0y_L,vel_0x_R,vel_0y_R,posFromWrist_0x_L,posFromWrist_1x_L,posFromWrist_2x_L,posFromWrist_3x_L,posFromWrist_4x_L,posFromWrist_5x_L,posFromWrist_6x_L,posFromWrist_7x_L,posFromWrist_8x_L,posFromWrist_9x_L,posFromWrist_0y_L,posFromWrist_1y_L,posFromWrist_2y_L,posFromWrist_3y_L,posFromWrist_4y_L,posFromWrist_5y_L,posFromWrist_6y_L,posFromWrist_7y_L,posFromWrist_8y_L,posFromWrist_9y_L,posFromWrist_0x_R,posFromWrist_1x_R,posFromWrist_2x_R,posFromWrist_3x_R,posFromWrist_4x_R,posFromWrist_5x_R,posFromWrist_6x_R,posFromWrist_7x_R,posFromWrist_8x_R,posFromWrist_9x_R,posFromWrist_0y_R,posFromWrist_1y_R,posFromWrist_2y_R,posFromWrist_3y_R,posFromWrist_4y_R,posFromWrist_5y_R,posFromWrist_6y_R,posFromWrist_7y_R,posFromWrist_8y_R,posFromWrist_9y_R,posFromBody_0x_L,posFromBody_0y_L,posFromBody_0x_R,posFromBody_0y_R
6,-0.876068,1.656306,0.082329,-0.218312,0.0,-46.109962,-41.956558,4.594185,-42.319874,17.305321,-37.737774,19.392929,-31.284325,-24.139183,0.0,41.350188,7.463711,29.356294,-4.182466,20.60762,-16.843091,10.147038,-28.575003,0.287807,0.0,61.053062,22.226292,83.597946,11.685287,80.410492,1.835174,66.621689,-6.671105,45.783073,0.0,22.362134,28.712138,58.367601,46.017407,73.155256,57.620841,82.418213,63.77033,85.864479,13.862978,341.563805,-44.838598,287.702478
7,0.334694,-2.185816,0.201828,-0.035729,0.0,-49.500813,-43.089684,6.220505,-44.34581,17.314842,-40.602276,17.809525,-34.888538,-39.090179,0.0,42.051228,7.2514,30.37089,-2.56962,21.874528,-13.470544,12.617017,-23.479952,8.253931,0.0,61.066063,22.130356,83.535324,11.542923,80.118049,1.710949,66.363235,-6.737137,45.649292,0.0,22.452153,28.771493,58.292932,46.069438,72.949541,57.680862,82.470503,63.822101,85.966034,14.598793,339.537833,-44.235649,287.826593
8,-1.558067,1.402488,0.329578,-0.111731,0.0,-46.749516,-41.374066,6.656776,-41.770626,19.175445,-37.329449,20.150573,-30.885018,-27.54855,0.0,41.362501,7.241718,29.369323,-3.027759,20.904157,-14.347918,11.720413,-24.88081,4.071587,0.0,60.899998,21.886059,83.345753,11.246968,79.790348,1.439839,66.078564,-6.948074,45.452946,0.0,22.532626,28.599691,58.319473,45.969267,72.935202,57.6561,82.67486,63.855706,86.242811,13.341843,341.131917,-43.604954,287.906458
9,1.227699,-1.14079,0.38926,0.090872,0.0,-50.460102,-43.264,6.445106,-44.928291,17.797577,-41.440338,17.593895,-35.831944,-38.635403,0.0,42.217967,6.72625,29.618894,-2.871801,21.316835,-13.611668,12.656389,-23.419622,8.608502,0.0,60.67464,21.601066,83.117168,10.940219,79.549106,1.182506,65.848171,-7.156243,45.286686,0.0,22.434838,28.271759,58.046931,45.730428,72.626043,57.546135,82.494462,63.861103,86.330558,14.817112,340.179558,-42.968124,288.185761
10,-0.894699,1.691949,0.498504,0.107408,0.0,-46.965099,-41.787266,3.769478,-42.643742,18.130028,-38.403637,19.325203,-31.960831,-25.689675,0.0,41.597869,6.79215,27.546069,-3.724377,20.292964,-15.319832,11.504806,-25.987278,4.140304,0.0,60.461003,21.312596,82.732418,10.557186,79.142681,0.737892,65.334881,-7.641414,44.792141,0.0,22.313228,28.022831,57.895952,45.510116,72.412127,57.390883,82.340013,63.785632,86.380367,14.114451,342.037888,-42.277582,288.45955
11,0.863708,-2.773902,0.412365,0.079276,0.0,-49.743518,-43.587352,5.387558,-45.776092,18.037148,-42.556572,17.090378,-37.007961,-38.775753,0.0,43.264203,5.787273,28.567321,-2.517034,21.930819,-11.888498,14.776676,-20.387702,12.902118,0.0,60.312035,21.012108,82.403366,10.192131,78.799278,0.363842,64.985413,-8.005337,44.450089,0.0,22.325392,27.645227,57.849885,45.150975,72.1816,57.135309,82.196615,63.64936,86.548364,15.14526,339.426713,-41.698116,288.701553
12,-0.979362,2.899033,0.359722,0.013424,0.0,-46.881157,-42.857163,4.540489,-44.1381,19.277527,-39.994732,19.576103,-33.386353,-23.707134,0.0,42.301379,5.82688,27.24301,-4.574853,19.913878,-16.029937,11.604693,-26.640721,3.655847,0.0,60.049794,20.829335,82.106976,9.950558,78.521405,0.079743,64.730313,-8.342628,44.159306,0.0,22.328159,27.542734,57.983118,45.050828,72.128014,57.074177,82.122194,63.653054,86.746991,14.305699,342.485553,-41.198593,288.874784
13,1.142074,-5.193382,0.043888,-0.042793,0.0,-48.247329,-43.818889,4.944237,-46.389141,17.466248,-43.494083,15.530411,-38.258617,-37.482616,0.0,44.769197,5.324738,29.518759,-0.483086,24.485446,-7.495278,18.628753,-13.959014,16.794901,0.0,59.975876,20.926484,82.099938,10.089673,78.486947,0.21761,64.884247,-8.248134,44.257943,0.0,22.435629,27.792737,58.033939,45.165474,72.015554,57.093097,81.969374,63.633133,86.875988,15.55046,337.419297,-41.052018,288.959117
14,-2.925224,-4.700466,-0.069076,-0.19565,0.0,-38.012524,-39.568107,9.351792,-43.03149,21.27816,-40.987347,17.109535,-36.3097,-35.028145,0.0,40.746725,6.449386,31.404518,5.158382,29.719991,2.203464,26.567398,-0.84466,26.464361,0.0,60.080498,21.111477,82.21273,10.369446,78.642609,0.547954,65.277031,-7.888859,44.698036,0.0,22.632712,28.098451,58.296242,45.337054,72.089444,57.158812,81.994729,63.651534,87.026523,12.671184,332.818008,-41.075146,288.862644
15,1.408631,-4.346427,-0.132259,-0.113905,0.0,-39.966019,-40.803956,12.000938,-45.508198,20.618957,-44.75647,13.744812,-41.507561,-50.511635,0.0,42.894961,5.721398,33.759049,8.560991,32.801807,9.675537,31.863818,10.441859,38.421848,0.0,60.101497,21.299846,82.386646,10.666637,78.844242,0.934764,65.759639,-7.466755,45.236011,0.0,22.732278,28.183172,58.343901,45.381835,72.061101,57.191985,81.945279,63.701589,87.048667,14.102108,328.554901,-41.185112,288.832059
16,-1.714943,0.50828,-0.150239,-0.059169,0.0,-36.879799,-38.332936,13.601417,-42.756318,22.684204,-41.938511,15.37223,-38.494526,-47.653805,0.0,41.373085,6.188182,32.98344,9.990414,32.499736,12.030821,32.570255,13.492515,39.227085,0.0,60.202847,21.461953,82.623265,10.951367,79.249844,1.296044,66.316372,-7.088996,45.7878,0.0,22.646198,28.316195,58.229045,45.506756,72.037722,57.293206,81.8025,63.807343,86.889289,12.384499,329.117713,-41.338017,288.827422
17,2.160598,-4.135252,-0.033428,-0.045226,0.0,-38.517585,-39.09399,13.365532,-44.861583,20.182457,-45.415329,10.565621,-43.432331,-64.232311,0.0,43.249211,5.680396,34.163095,13.313932,35.730555,19.128314,38.139043,24.207582,51.873668,0.0,60.352776,21.580159,82.781914,11.144348,79.454567,1.553547,66.635147,-6.781471,46.110695,0.0,22.563119,28.407178,58.164652,45.606125,72.040266,57.389252,81.764696,63.889249,86.81546,14.528595,325.007223,-41.387947,288.806958
18,-0.28585,4.721548,0.076836,0.00951,0.0,-37.792225,-38.205002,13.415451,-43.138447,21.684997,-43.087097,13.050659,-40.378555,-59.861012,0.0,40.703056,5.957013,31.323477,10.04431,31.258923,12.633554,32.273791,14.803266,43.503795,0.0,60.567398,21.686005,82.768364,11.262497,79.51339,1.682613,66.596352,-6.640732,46.079544,0.0,22.393503,28.33199,58.07688,45.588859,72.003833,57.418003,81.712937,63.942218,86.528394,14.225899,329.747886,-41.327957,288.835583
19,2.643791,3.862723,0.081299,0.069889,0.0,-47.511578,-41.736305,9.49736,-45.634987,18.473488,-44.801754,11.584076,-41.655075,-63.092937,0.0,45.153791,4.723338,29.111046,5.874909,26.533423,5.897349,25.920019,5.956086,36.948544,0.0,60.633407,21.714123,82.675255,11.206215,79.36045,1.529594,66.270813,-6.891461,45.574699,0.0,22.20793,28.29457,57.982809,45.612102,72.075822,57.430958,81.67049,63.914875,86.096191,16.85063,333.621069,-41.265718,288.915932
20,-1.504784,2.05514,0.078117,0.079077,0.0,-42.411586,-38.952369,11.50866,-42.693569,20.739121,-41.800998,13.527947,-38.370277,-54.819728,0.0,41.554767,5.036685,26.886907,5.620498,24.811575,5.124111,24.534044,4.492367,34.613391,0.0,60.799873,21.782066,82.618378,11.267029,79.289749,1.54319,66.094826,-6.938896,45.285896,0.0,22.068585,28.326952,57.935842,45.6607,72.004278,57.477901,81.53296,63.947862,85.701594,15.329584,335.685956,-41.203863,289.004756
21,2.277695,-1.974408,0.059075,0.126885,0.0,-44.561188,-40.774624,9.501068,-44.655384,18.246254,-43.916336,10.994545,-40.882004,-59.200561,0.0,43.378738,5.442904,28.401485,6.727844,26.587986,6.759287,26.163403,6.700216,36.67683,0.0,60.922966,21.83971,82.533943,11.336654,79.198562,1.590934,65.916641,-6.914567,44.982627,0.0,21.807603,28.205489,57.801807,45.542781,71.954211,57.346237,81.37284,63.793931,85.259041,17.595491,333.718894,-41.156576,289.138987
22,-2.451485,1.865468,0.04961,0.030727,0.0,-41.048835,-38.467243,11.982262,-42.166282,21.346024,-41.198776,14.096169,-37.645717,-52.874919,0.0,40.842377,4.70133,27.08252,5.557883,25.08897,5.297963,25.070605,4.812753,34.035851,0.0,60.998897,21.88195,82.569111,11.421466,79.302646,1.652996,65.911594,-6.895432,44.935283,0.0,21.566183,28.071811,57.613913,45.396791,71.87638,57.199184,81.224936,63.677964,84.817031,15.131973,335.591463,-41.118999,289.176815
23,0.686806,-2.65528,0.183288,0.105272,0.0,-43.556763,-39.636783,11.260368,-43.560264,20.127434,-42.726803,13.128914,-39.518761,-55.769977,0.0,42.236084,4.411363,28.989941,6.9775,27.706162,8.268306,28.050618,9.343776,39.298394,0.0,61.024739,21.721791,82.503445,11.26022,79.303929,1.499542,65.868473,-7.042396,44.932377,0.0,21.358961,27.877644,57.369332,45.229386,71.71084,57.072164,80.966041,63.604283,84.522593,15.808119,332.931126,-40.946371,289.27703
24,-1.820915,1.378578,0.206932,-0.008793,0.0,-39.358383,-36.820759,13.238502,-40.527477,22.610664,-39.618919,15.079742,-36.166798,-49.184818,0.0,39.563588,4.038526,27.541462,6.886233,26.694925,8.58653,27.771235,9.877682,38.981244,0.0,61.077885,21.625443,82.448925,11.241326,79.4408,1.558857,66.064259,-6.923458,45.207676,0.0,21.265718,27.685513,57.261145,45.044048,71.513942,56.973672,80.788434,63.623487,84.508588,13.976206,334.300503,-40.750437,289.259036
25,1.032303,-3.001762,0.229889,0.081461,0.0,-43.916989,-39.119946,11.745003,-42.888336,21.132019,-41.996796,14.046066,-38.741398,-56.450775,0.0,42.905273,4.530591,30.382425,8.461437,29.172945,11.020707,30.020395,13.195038,42.575007,0.0,61.166622,21.212986,82.417042,10.821099,79.426106,1.225468,65.965107,-7.112686,45.304516,0.0,21.115973,27.347232,56.89867,44.763775,71.312253,56.737205,80.573556,63.427627,84.292202,14.987366,331.281512,-40.541691,289.323268
26,-2.751984,-2.897638,0.252079,0.010461,0.0,-33.105125,-35.880855,16.526184,-40.787865,25.018593,-40.563789,17.0327,-37.321266,-52.33493,0.0,36.790019,5.427281,31.943995,11.334276,32.359451,15.438554,34.220102,18.719143,46.475966,0.0,61.246376,20.967121,82.351708,10.595158,79.410141,1.072952,65.94294,-7.168453,45.491043,0.0,21.138759,27.275947,56.697128,44.674768,71.032202,56.652582,80.382042,63.377831,84.41096,12.179678,328.338546,-40.345316,289.288401
27,-2.814606,-3.129029,-0.057323,0.110236,0.0,-23.851055,-31.764759,21.771676,-37.545364,28.040337,-38.346965,19.302887,-35.946178,-51.368774,0.0,28.876876,6.797633,32.941819,14.988653,35.91872,21.007762,38.413659,25.98587,52.289075,0.0,61.450733,20.839622,82.581264,10.540123,79.693737,1.152488,66.375561,-6.917439,46.019748,0.0,21.094163,27.37954,56.489203,44.778657,70.561109,56.73413,80.074378,63.419119,84.580404,9.288992,325.131042,-40.478719,289.320162
28,0.280404,-4.616029,-0.390301,0.235566,0.0,-19.809403,-30.803479,23.769424,-37.783448,27.888954,-39.372666,16.461593,-37.521344,-53.022194,0.0,28.019941,8.459263,34.997639,19.493494,39.766352,27.860539,43.901554,34.71686,57.915687,0.0,61.891548,20.367279,82.922791,10.201321,80.286232,1.14949,67.006348,-6.452122,46.701553,0.0,20.954199,27.878446,57.062135,45.21706,70.773469,57.019194,80.407755,63.501197,84.741659,9.4565,320.376868,-40.981916,289.417583
29,-1.353859,-4.147935,-1.197407,-0.087328,0.0,-13.124703,-28.873719,27.143737,-36.629872,24.930175,-38.80996,6.798351,-37.227105,-55.811726,0.0,18.745597,9.802248,36.016446,24.025368,43.404376,34.774411,49.297552,43.668557,62.457911,0.0,62.198147,19.495251,82.99458,9.557682,80.94183,1.126007,67.669178,-5.633033,47.103161,0.0,20.807049,28.664431,58.023491,45.991077,71.68309,57.611665,80.739665,63.889039,84.460769,7.93245,316.032737,-42.349514,289.134059
30,0.570282,2.06854,-2.278358,-1.808187,0.0,-17.037804,-25.314434,10.491863,-31.238652,7.565609,-32.509026,-7.148953,-30.38308,-51.682766,0.0,17.562792,12.527096,35.209269,22.748962,39.76456,28.998808,41.681614,32.69662,47.142376,0.0,61.43304,18.864303,82.238376,9.27396,78.586979,1.183468,63.403324,-5.23439,41.444034,0.0,21.863178,29.452896,59.18215,46.513856,73.671366,57.882983,82.805585,63.962311,85.511155,8.296246,317.835487,-44.834358,287.060082
31,3.401229,-4.11364,-3.437554,-0.30028,0.0,-30.880565,-25.642021,-12.368717,-28.2159,-16.444473,-27.183357,-26.057167,-23.43861,-51.054153,0.0,9.600546,16.092071,38.614163,26.054722,45.154643,32.224267,47.350253,35.784487,51.875805,0.0,54.118641,21.674538,71.496769,15.646786,64.618458,9.803238,51.957573,4.563858,36.773644,0.0,18.500732,25.737312,56.524425,42.917018,74.306987,55.107512,83.704227,62.687672,86.353443,11.463026,313.465799,-48.506361,286.503754
32,5.126839,-6.892013,-3.550335,-11.688859,0.0,-45.030464,-28.707046,-37.645306,-27.941311,-41.339229,-24.20842,-45.916374,-18.539051,-52.81588,0.0,15.944352,20.988039,45.817311,31.493488,53.215394,37.749842,56.028656,40.850578,58.1329,0.0,51.154976,20.602398,61.473599,14.071061,53.912327,7.963829,42.398518,2.584889,30.131184,0.0,20.552834,23.003362,50.266712,38.141426,66.598288,49.144658,74.298948,56.414596,76.472908,16.308151,306.352763,-52.33841,274.593872
33,0.02227,-4.217183,-8.749752,-24.438677,0.0,-50.094738,-26.666187,-57.455566,-22.426975,-61.025436,-16.184326,-59.277683,-8.39637,-47.663303,0.0,13.431962,24.608071,50.643452,35.424051,59.453865,41.769893,63.079775,44.437314,63.506792,0.0,48.594578,16.6577,51.084252,10.644654,42.97593,5.555638,33.625351,1.347027,24.401734,0.0,18.888451,15.225453,39.479681,30.460552,56.184045,43.06869,64.552473,52.841693,67.982832,16.044565,302.144068,-61.374018,250.163683
34,3.494934,-6.511766,-13.349693,-34.896152,0.0,-62.68238,-28.486587,-81.105011,-21.209358,-80.156055,-12.558677,-67.303974,-3.085167,-47.363021,0.0,22.229111,29.027165,58.370294,39.681766,67.660272,45.874492,71.113763,47.920889,71.387478,0.0,47.391712,11.955654,44.523628,7.440754,34.278912,4.439129,26.387982,2.487488,20.683113,0.0,9.462658,4.50715,23.121571,19.946853,41.097406,34.204202,51.087987,46.604574,57.142479,19.268709,295.856842,-74.994501,215.492071
35,0.160721,-9.1595,-14.317543,-46.110206,0.0,-61.521263,-29.655441,-83.272774,-21.578132,-83.086361,-11.790207,-69.355659,-1.046264,-47.143993,0.0,19.761923,31.185712,65.225972,47.312079,80.162989,58.996022,89.221293,66.549296,94.531705,0.0,44.164616,6.55703,37.402382,3.101658,28.521252,1.967033,23.267887,2.595303,21.795719,0.0,-4.669455,-6.648389,3.931989,8.826697,22.420377,24.576979,33.498111,39.348919,43.263284,19.106724,287.008385,-89.63475,169.692908
36,-0.604889,-1.047238,-11.525276,-54.248076,0.0,-60.847423,-29.947448,-83.328197,-21.540046,-82.515037,-11.440658,-68.715797,-0.522239,-46.671718,0.0,30.442632,31.818864,66.615999,48.195468,80.998003,59.814216,90.3658,66.980956,95.216703,0.0,43.003097,-3.188439,36.450531,-10.453858,28.815227,-13.472717,21.241001,-13.416687,14.872639,0.0,-18.573962,-18.563786,-15.786907,-6.095692,-1.483999,7.763292,9.55692,21.293086,19.309841,17.890674,286.724835,-101.771187,116.20852
37,-0.175964,-0.428856,-14.036236,-53.085897,0.0,-61.184555,-30.303246,-83.384754,-21.901291,-82.632053,-11.673111,-68.553795,-0.583809,-46.44128,0.0,30.941946,31.858173,66.542441,48.251241,80.869352,59.89312,90.223712,67.066319,95.713472,0.0,36.703915,-9.147674,34.637169,-15.694771,27.452797,-17.432087,18.19146,-15.904198,10.972824,0.0,-37.609422,-30.505716,-36.164228,-18.280506,-19.667006,-3.676354,-3.897062,11.04269,7.025567,17.016775,287.611476,-116.505358,64.43812
38,0.152481,-0.317299,-10.459923,-48.549866,0.0,-61.575737,-30.608322,-83.733959,-22.221817,-82.775757,-12.009132,-68.563236,-0.965355,-46.495548,0.0,30.959446,31.797152,66.12223,48.164556,80.877899,59.81739,90.153663,67.032839,95.818127,0.0,30.025704,-12.788624,33.072533,-18.716171,23.791947,-19.713203,13.948586,-17.302082,6.747368,0.0,-52.993055,-37.567771,-51.691702,-27.143536,-30.838693,-14.103708,-14.447873,-0.503519,-4.061831,16.177139,288.954167,-127.957398,17.548244
39,-0.149071,-0.418532,-8.594639,-41.206853,0.0,-61.43486,-30.609535,-83.57072,-22.261917,-82.667415,-12.115333,-68.441974,-1.178329,-46.513538,0.0,30.848049,31.706478,65.91218,48.109858,80.972624,59.830222,90.16878,67.138679,95.974244,0.0,24.825657,-12.836677,30.692769,-18.052631,19.785222,-18.61956,11.063187,-16.128559,5.038353,0.0,-61.759208,-40.666129,-64.360848,-32.095295,-39.181976,-20.825629,-23.94986,-8.659451,-14.44218,14.314733,290.131127,-138.265372,-22.063117
40,-0.198486,-0.395363,-7.209079,-33.564745,0.0,-61.351673,-30.596603,-83.420391,-22.228203,-82.497242,-12.057449,-68.320679,-1.118408,-46.443237,0.0,30.812357,31.61421,65.796275,48.015614,81.040315,59.773979,90.112092,67.14047,96.152567,0.0,23.531444,-11.605683,33.000068,-15.688671,17.685024,-15.176663,11.176849,-12.265263,7.029121,0.0,-63.297241,-45.308012,-73.882984,-37.708136,-43.009384,-27.257496,-28.197652,-15.722822,-20.632473,11.806692,291.286629,-147.784006,-54.076997
41,-0.219429,-0.402724,-8.696583,-27.874136,0.0,-61.291649,-30.514916,-83.219101,-22.152786,-82.225193,-11.984825,-68.035641,-1.088974,-46.340126,0.0,30.780839,31.515435,65.675651,47.967733,81.075834,59.811067,90.118626,67.269034,96.326111,0.0,27.473808,-9.046463,40.341785,-9.834526,21.369839,-5.943501,17.782242,-0.065689,16.564533,0.0,-60.53177,-45.193437,-80.738095,-36.554224,-42.139253,-25.319061,-26.931262,-13.11504,-18.174251,9.193045,291.982299,-158.874807,-80.852739
42,-0.307709,-0.26071,-5.142815,-19.265085,0.0,-61.188103,-30.325584,-83.129825,-21.939102,-82.141182,-11.780136,-68.042976,-0.940017,-46.575187,0.0,30.659722,31.29485,65.384165,47.753903,80.838317,59.658037,89.988752,67.197638,96.293012,0.0,32.230786,-5.586994,47.703038,-3.623943,23.75774,2.792931,23.660786,10.643647,24.821308,0.0,-56.450108,-46.137731,-81.8308,-37.230117,-37.719726,-26.002836,-25.366989,-13.961005,-16.672379,6.421388,292.12398,-166.48157,-99.715433
43,-0.204117,-0.193007,-2.530929,-11.857635,0.0,-61.131809,-30.294845,-83.178943,-21.93544,-82.224815,-11.810714,-68.275257,-1.016372,-46.966541,0.0,30.551473,31.054035,64.997866,47.556722,80.520178,59.528311,89.650286,67.172074,95.970379,0.0,35.557949,-0.612122,55.721592,2.934986,28.995987,10.766601,30.072979,19.494667,32.472015,0.0,-51.67737,-47.299086,-82.983529,-38.87349,-37.890383,-28.078391,-26.447414,-16.354288,-17.035719,3.691675,291.722905,-171.538095,-111.781136
44,-0.264839,-0.221165,2.406326,-8.610798,0.0,-61.079086,-30.24852,-83.186176,-21.949859,-82.195312,-11.863975,-68.325817,-1.096435,-47.248306,0.0,30.349426,30.947701,64.542642,47.466368,80.189949,59.478849,89.36259,67.176482,95.647757,0.0,37.159367,1.439232,60.995842,5.207405,32.009045,13.306915,33.238117,22.278408,35.623982,0.0,-46.239558,-49.436843,-81.640983,-41.523809,-36.426195,-30.973501,-24.481078,-19.390859,-14.983537,1.316911,290.984216,-171.241694,-120.909458
45,-0.228927,-0.124711,3.222462,-3.515396,0.0,-60.767178,-30.130165,-83.216458,-21.958626,-82.253174,-12.01941,-68.481125,-1.397324,-47.572644,0.0,29.98805,30.637121,63.918073,47.22096,79.764748,59.331846,89.092309,67.141457,95.303671,0.0,37.926372,3.157688,63.127338,7.366173,34.397117,15.69033,35.534454,24.754795,37.36243,0.0,-44.596691,-48.987392,-79.70829,-42.273653,-36.469682,-32.903704,-24.95034,-22.224044,-15.160958,-0.442989,290.132372,-169.550205,-125.151987
46,-0.216431,-0.159724,3.976787,-2.220242,0.0,-60.462616,-30.084114,-83.354336,-22.091286,-82.393913,-12.302147,-68.743252,-1.787361,-48.005081,0.0,29.571667,30.392454,63.415277,47.013528,79.364384,59.179335,88.749952,67.060836,94.898441,0.0,38.310013,4.305073,64.533314,8.18937,35.588871,16.101414,36.433079,24.864109,37.778389,0.0,-42.758499,-48.3854,-75.790109,-42.119135,-34.036809,-33.110602,-23.133992,-22.653892,-13.665054,-1.840267,289.013278,-166.754265,-128.331599
47,-0.071068,-0.298538,2.968975,-0.332427,0.0,-60.3792,-30.153351,-83.565662,-22.317261,-82.507347,-12.638901,-69.050583,-2.161789,-48.317493,0.0,29.352465,30.25102,63.202497,46.883185,79.203918,59.087116,88.638295,67.040112,94.646523,0.0,37.653637,4.913842,66.11039,8.589604,36.69571,16.27747,37.566307,24.972977,38.917969,0.0,-42.176504,-47.746901,-72.844615,-41.763314,-32.586838,-32.889801,-22.033838,-22.362631,-12.428889,-2.893633,287.793396,-164.767588,-129.58537
48,-0.027626,-0.277655,2.323986,0.40775,0.0,-60.291847,-30.079445,-83.78413,-22.35379,-82.723801,-12.770737,-69.335071,-2.35556,-48.652256,0.0,29.247589,30.094718,63.02804,46.728834,79.107662,58.961813,88.649114,66.962579,94.630172,0.0,38.99659,4.608513,66.862347,8.275372,36.56131,15.870095,37.693268,24.599144,39.220128,0.0,-42.154021,-47.090376,-71.39859,-41.154445,-31.319306,-32.364002,-21.307779,-22.019271,-12.066098,-3.5438,286.688286,-163.066143,-130.005075
49,0.113937,-0.178953,0.558758,0.600091,0.0,-60.307434,-30.126869,-84.014556,-22.433143,-83.077171,-12.829513,-69.658058,-2.36087,-48.766399,0.0,29.22379,29.982715,63.066215,46.635011,79.058769,58.889281,88.691845,66.925307,94.590924,0.0,38.103619,5.052647,67.62283,8.898022,36.41827,16.476666,38.068554,25.180985,39.980965,0.0,-41.404695,-46.559922,-70.047232,-40.765958,-30.481909,-32.098689,-20.856165,-21.910072,-11.735043,-3.732388,285.902428,-162.80991,-130.011889
50,0.053147,-0.119598,0.375103,0.518141,0.0,-60.456631,-30.091805,-84.055092,-22.431679,-83.29628,-12.812256,-69.786266,-2.289894,-48.759751,0.0,29.260173,30.005439,63.13829,46.614719,79.05883,58.836287,88.611458,66.85212,94.591455,0.0,37.596325,5.322453,68.045151,9.077351,34.976956,16.467385,37.1189,25.001736,39.564182,0.0,-40.304562,-46.223718,-69.544666,-40.35663,-29.873241,-31.615871,-20.552488,-21.379718,-11.397168,-3.857746,285.422933,-162.613312,-129.853645
51,-0.033852,-0.077262,-0.730911,-0.007428,0.0,-60.469208,-29.98336,-83.964878,-22.217972,-83.243706,-12.492164,-69.495529,-1.908348,-48.384338,0.0,29.581028,30.032461,63.423107,46.62597,79.324258,58.843956,88.899425,66.851107,94.596666,0.0,36.197044,5.857475,68.040058,9.751614,34.770012,17.110737,37.289154,25.634903,40.008739,0.0,-39.242955,-45.618188,-69.445066,-39.726856,-29.837426,-30.987265,-20.501431,-20.742322,-11.340704,-3.963141,285.236771,-163.415766,-129.969973
52,-0.068527,-0.018142,-0.237213,-0.560515,0.0,-60.321476,-29.873611,-83.81163,-22.011337,-83.161297,-12.205811,-69.090019,-1.607941,-48.005848,0.0,29.972452,30.071586,63.573803,46.753731,79.61651,59.009484,89.131211,67.011386,94.668074,0.0,36.322426,5.901947,67.504211,9.782387,33.805881,17.05133,36.394512,25.537273,39.306198,0.0,-38.429455,-45.275022,-69.572253,-39.374789,-29.556733,-30.656221,-20.178167,-20.387207,-11.190175,-4.058544,285.176596,-163.679855,-130.572521
53,-0.149918,0.076595,-0.654934,-1.02213,0.0,-60.294925,-29.821449,-83.619644,-21.858306,-82.895668,-11.96585,-68.585929,-1.350494,-47.571006,0.0,30.214699,30.177068,63.791621,46.898833,79.809974,59.154017,89.410966,67.104173,94.667803,0.0,35.232044,6.458118,67.492184,10.464992,33.711914,17.71273,36.411552,26.111114,39.564079,0.0,-37.829954,-44.504192,-69.19464,-38.58117,-29.178339,-29.90369,-19.614006,-19.637838,-10.575039,-4.185563,285.169846,-164.31189,-131.677996
54,-0.238128,0.116671,-0.234238,-1.063781,0.0,-60.232407,-29.724884,-83.30642,-21.686669,-82.480889,-11.772217,-68.080605,-1.224243,-47.179047,0.0,30.387044,30.110143,63.883531,46.840207,79.907491,59.098269,89.501603,67.029702,94.758132,0.0,34.967091,6.528385,67.312866,10.593682,33.87434,17.828385,36.428684,26.210564,39.548493,0.0,-37.455508,-43.973082,-68.989468,-38.041254,-28.901631,-29.373377,-19.199203,-19.113836,-10.179271,-4.348337,285.181776,-164.470774,-132.846518
55,-0.121559,0.040471,-0.305866,-1.271848,0.0,-60.162175,-29.677231,-83.201764,-21.555703,-82.186306,-11.613625,-67.679055,-1.112641,-46.934956,0.0,30.639678,30.214588,64.010712,46.988569,80.029819,59.245112,89.765142,67.134925,94.858414,0.0,34.660686,6.611286,67.241386,10.79908,34.172642,18.009018,36.546616,26.293167,39.438618,0.0,-37.461795,-43.347755,-68.655652,-37.329995,-28.552406,-28.611204,-18.707717,-18.300889,-9.547185,-4.390142,285.114934,-164.696886,-134.225679
56,-0.084114,0.067592,-0.374359,-0.833013,0.0,-60.179764,-29.658623,-83.052098,-21.519471,-82.079361,-11.576798,-67.580063,-1.073868,-46.790589,0.0,30.670541,30.265792,63.996608,47.017863,79.909183,59.247471,89.713296,67.090786,94.946174,0.0,33.845363,6.579037,67.137039,10.780804,34.232014,17.960449,36.51004,26.169765,39.307125,0.0,-37.629815,-43.098191,-68.461512,-37.101763,-28.26819,-28.33707,-18.331666,-17.961031,-8.926214,-4.404487,285.087384,-165.001476,-135.153834
57,-0.061455,0.021107,-0.382107,-0.518994,0.0,-60.215973,-29.653221,-83.051525,-21.45559,-82.041779,-11.44986,-67.572109,-0.88749,-46.676914,0.0,30.628056,30.293294,64.174177,46.946973,79.891658,59.120363,89.745986,66.926776,94.962019,0.0,33.03075,6.387039,66.960949,10.616604,34.097397,17.771805,36.455486,25.931511,39.171902,0.0,-38.055025,-42.771003,-68.367512,-36.799658,-28.021018,-28.038034,-18.003246,-17.680313,-8.390528,-4.405758,285.053493,-165.323399,-135.727826
58,-0.089928,-0.003285,-0.248897,-0.171203,0.0,-60.113502,-29.526512,-82.956299,-21.310272,-81.965492,-11.26934,-67.524971,-0.648102,-46.51339,0.0,30.619411,30.290812,64.284377,46.854125,79.979034,58.969457,89.781826,66.744674,94.966835,0.0,32.251899,6.166019,66.576095,10.386268,34.097831,17.512218,36.548835,25.633243,39.195762,0.0,-38.019256,-42.704686,-68.363384,-36.808324,-27.975011,-28.102705,-17.939371,-17.790053,-8.417325,-4.42337,285.053157,-165.49998,-135.89608
59,0.031128,-0.028171,-0.220929,-0.0849,0.0,-60.208271,-29.54203,-83.191658,-21.247238,-82.097488,-11.143021,-67.656658,-0.473282,-46.577431,0.0,30.740516,30.355971,64.526735,46.954198,80.100251,59.074297,89.95695,66.827741,94.96134,0.0,31.839112,6.069969,66.23037,10.294224,33.892147,17.402172,36.511322,25.47258,39.156716,0.0,-38.31225,-42.601468,-68.370239,-36.757798,-27.895027,-28.091915,-17.827193,-17.826594,-8.423439,-4.274454,285.071734,-165.603121,-135.934232
60,-0.000664,0.058416,-0.388584,0.251707,0.0,-60.249229,-29.515114,-83.401977,-21.201439,-82.240356,-11.090629,-67.808418,-0.43769,-46.619259,0.0,30.724634,30.310449,64.585781,46.926596,80.132855,59.045386,90.007277,66.784762,94.81835,0.0,30.330872,6.159302,66.134308,10.297074,34.048977,17.387283,36.903191,25.50103,39.669159,0.0,-38.342211,-42.800094,-68.454448,-37.192786,-28.040214,-28.657802,-17.980399,-18.465245,-8.711711,-4.078926,285.206773,-165.795513,-135.605902
61,0.224694,0.077756,-0.168709,0.096528,0.0,-60.518841,-29.749672,-83.763165,-21.45543,-82.588635,-11.338624,-68.189782,-0.648308,-46.873158,0.0,30.573827,30.260024,64.523561,46.881172,80.056322,58.954069,90.024197,66.629534,94.814435,0.0,28.949238,6.072865,65.767434,10.210762,34.396798,17.324982,37.498982,25.577282,40.288536,0.0,-38.727429,-42.739754,-68.276344,-37.325135,-28.175932,-28.965343,-18.027727,-18.962811,-9.051765,-3.624561,285.400311,-165.734551,-135.393592
62,0.320915,0.103889,-0.233047,-0.168758,0.0,-60.827694,-29.92907,-84.13662,-21.684952,-82.809094,-11.61731,-68.47815,-0.935372,-47.082974,0.0,30.490093,30.264828,64.481386,46.873058,80.00371,58.876153,90.111647,66.457189,94.857821,0.0,27.427643,6.118103,65.53062,10.268463,35.145481,17.391186,38.301018,25.704025,40.989395,0.0,-38.69484,-42.611779,-68.103053,-37.300596,-28.145242,-29.038196,-17.954787,-19.136036,-9.203139,-3.015312,285.648285,-165.679264,-135.418265
63,0.320846,-0.026899,-0.000412,-0.54877,0.0,-61.179233,-30.124145,-84.462227,-21.853866,-83.078613,-11.78746,-68.789325,-1.112228,-47.316101,0.0,30.490143,30.412152,64.675258,47.056284,80.128792,59.045473,90.349758,66.578776,95.099809,0.0,27.19424,5.993156,65.196842,10.193241,35.440018,17.336254,38.589786,25.678219,41.084679,0.0,-38.567976,-42.340463,-67.643043,-37.005496,-27.863783,-28.756759,-17.602544,-18.874485,-8.765075,-2.340334,285.78236,-165.325544,-135.806061
64,0.207619,-0.005038,-0.042675,-0.727333,0.0,-61.285435,-30.109085,-84.410339,-21.909714,-83.122616,-11.907669,-68.901672,-1.234405,-47.314373,0.0,30.513398,30.50847,64.6151,47.075797,80.162285,58.97436,90.406147,66.413642,95.29079,0.0,27.707577,5.814949,65.159145,10.0601,35.551826,17.23431,38.668613,25.657162,41.036957,0.0,-38.228473,-42.190744,-67.039103,-36.823494,-27.582893,-28.592284,-17.319456,-18.742538,-8.501652,-1.716568,285.936642,-164.952072,-136.374074
65,0.20977,0.039693,-0.062382,-0.732446,0.0,-61.385879,-30.263466,-84.347534,-22.01049,-83.114284,-11.958503,-68.939472,-1.206527,-47.291931,0.0,30.589845,30.633725,64.68715,47.138708,80.216391,58.94267,90.482977,66.271283,95.620698,0.0,27.983174,5.437626,64.811348,9.708367,36.399731,16.903599,39.353691,25.37067,41.486515,0.0,-38.13862,-41.902101,-66.688849,-36.548019,-27.142678,-28.42218,-16.807206,-18.707349,-8.434075,-1.042523,286.101716,-164.550179,-136.981139
66,0.021286,0.10889,-0.328194,-0.695829,0.0,-61.283695,-30.146873,-84.192455,-21.840591,-82.996834,-11.778122,-68.731762,-1.041046,-47.004043,0.0,30.792226,30.863017,64.797005,47.309189,80.356503,59.045411,90.577382,66.295687,95.794822,0.0,29.086865,4.802937,64.206551,9.122258,36.71378,16.397324,39.50821,24.991414,41.464978,0.0,-38.109199,-41.694943,-66.724728,-36.357559,-27.089615,-28.278678,-16.793271,-18.614013,-8.723888,-0.449776,286.318172,-164.306912,-137.569402
67,-0.167839,0.173408,-0.71268,-0.423114,0.0,-61.033973,-29.973198,-83.941921,-21.567306,-82.887474,-11.434044,-68.613407,-0.617866,-46.744823,0.0,30.782494,30.99347,64.68426,47.417771,80.27393,59.133257,90.502762,66.350089,95.914531,0.0,31.806232,3.855652,62.979641,8.379192,35.639877,15.832214,38.402378,24.711513,40.57315,0.0,-39.097066,-41.320723,-66.527155,-35.919566,-27.101576,-27.794672,-16.835734,-18.188089,-8.55995,0.011541,286.683179,-164.390436,-137.800917
68,-0.085213,0.37958,-1.241227,0.548381,0.0,-60.845993,-29.900207,-83.816562,-21.45726,-82.840702,-11.281562,-68.544639,-0.399856,-46.534389,0.0,30.641777,31.004993,64.471864,47.412448,80.061731,59.097602,90.179227,66.274951,95.828686,0.0,32.708222,3.149918,61.872265,7.665287,34.872002,15.19233,37.402428,24.297741,39.442841,0.0,-40.229158,-41.045165,-66.747005,-35.587858,-27.250423,-27.373386,-16.890744,-17.758795,-8.466716,0.712932,287.438097,-164.845059,-136.877198
69,-0.079696,0.404774,-2.43497,1.96911,0.0,-60.744473,-29.918221,-83.759525,-21.40416,-82.864357,-11.137551,-68.569119,-0.167519,-46.417706,0.0,30.392811,31.030594,64.414077,47.416869,79.87091,59.0761,89.902523,66.221216,95.645435,0.0,29.578777,3.848384,61.654975,8.616016,35.437488,16.273475,37.865284,25.426506,39.835922,0.0,-40.958471,-40.431147,-67.638147,-34.790488,-27.571173,-26.365648,-16.974627,-16.633718,-8.577435,1.488281,288.386367,-166.424984,-134.364592
70,0.03788,0.293462,-1.599015,2.969725,0.0,-60.902161,-29.964249,-83.848789,-21.423775,-82.900017,-11.110268,-68.603863,-0.090683,-46.339463,0.0,30.226617,31.076649,64.602096,47.461651,79.957707,59.128193,89.858669,66.277335,95.58413,0.0,31.115353,4.015881,61.242153,8.942826,34.17651,16.647652,36.669068,25.900292,38.87875,0.0,-42.107828,-39.485952,-67.663736,-33.203795,-27.152363,-24.095505,-16.131576,-13.835451,-7.281877,2.337193,289.547493,-167.212967,-130.527203
71,0.035476,0.147856,-1.125503,4.171716,0.0,-61.084636,-29.953857,-83.978725,-21.35353,-82.898529,-10.980972,-68.641433,0.087754,-46.299362,0.0,30.091914,31.052009,64.848121,47.466331,80.110464,59.161822,89.891927,66.335762,95.620932,0.0,34.018799,4.835575,61.894535,9.773105,33.463268,17.325508,35.994335,26.384342,38.402893,0.0,-41.731324,-37.555921,-67.141464,-30.260721,-25.130828,-20.22975,-13.698452,-9.265714,-4.533258,3.31311,291.018728,-167.398029,-125.032108
72,0.154908,0.125649,-0.407135,5.745975,0.0,-61.360245,-30.107872,-84.331993,-21.461106,-83.122193,-11.057419,-68.837906,-0.031151,-46.522042,0.0,30.01012,31.108228,65.128098,47.600071,80.252775,59.327758,90.014576,66.499871,95.713262,0.0,34.691986,7.505562,63.970356,12.4407,33.682056,19.534332,36.053592,27.814979,38.326698,0.0,-38.993888,-35.066386,-65.38326,-26.691483,-22.74901,-15.690944,-10.742324,-3.862643,-1.750628,4.495159,292.839457,-166.778023,-117.591053
73,0.149322,-0.112818,2.158676,6.643208,0.0,-61.768867,-30.276741,-84.720611,-21.620865,-83.211147,-11.2378,-68.906547,-0.28244,-46.694458,0.0,29.803676,31.301321,65.304914,47.841367,80.376238,59.585665,90.254551,66.718406,95.880939,0.0,35.856731,9.196701,63.624927,14.143295,33.09367,20.921711,35.201145,28.646324,37.579182,0.0,-35.856899,-30.874484,-60.510248,-21.455323,-18.908668,-9.5686,-6.788309,3.031698,2.302413,5.575584,294.502609,-163.688244,-109.171875
74,0.25145,-0.341924,2.935953,12.442513,0.0,-62.145836,-30.578797,-85.362637,-21.938072,-83.458294,-11.626442,-69.200833,-0.757553,-47.083843,0.0,29.571988,31.537343,65.350029,48.191775,80.374287,59.997244,90.428872,67.121055,96.163805,0.0,41.453968,9.884028,63.529015,14.837494,32.458723,21.443647,34.355272,28.90761,36.564148,0.0,-34.279444,-29.025145,-57.758697,-18.463018,-16.709538,-5.519637,-4.229276,8.028131,5.23516,6.745892,296.194966,-159.833433,-94.695081
75,0.266281,-0.588123,1.968739,18.459983,0.0,-62.442524,-30.816788,-86.046032,-22.245644,-83.80941,-12.043923,-69.662716,-1.315796,-47.617321,0.0,29.40767,31.65599,65.38735,48.393773,80.256751,60.258979,90.487707,67.376492,96.235139,0.0,44.417278,11.402429,65.042049,16.710868,33.574213,23.466379,35.428888,30.830938,37.123832,0.0,-33.289946,-29.749026,-58.255695,-18.189417,-17.104824,-4.235445,-4.170033,10.244508,5.664091,8.354462,297.25029,-156.522405,-74.591651
76,0.420708,-0.660964,3.828689,20.257242,0.0,-62.722538,-31.229416,-86.803048,-22.742638,-84.371441,-12.617821,-70.380673,-1.946045,-48.312642,0.0,28.908294,31.65394,65.14125,48.453547,79.894572,60.396126,90.320685,67.558347,96.169671,0.0,45.789471,12.359579,65.626053,17.43813,34.169317,24.018076,35.139341,31.179503,36.325035,0.0,-33.931778,-30.110391,-56.11069,-17.721992,-16.581002,-2.891831,-3.062274,12.640374,7.511181,10.515553,296.614804,-150.953333,-54.308931
77,0.216522,-0.8774,6.455429,20.602259,0.0,-62.892964,-31.497208,-87.105961,-23.12629,-84.642552,-13.078011,-70.865593,-2.404267,-48.712166,0.0,28.334498,31.483337,64.829127,48.253514,79.512091,60.248247,90.002238,67.47186,95.984915,0.0,47.627484,10.084723,57.944378,14.60289,32.249548,21.315039,32.741907,28.913023,33.216351,0.0,-35.936221,-27.790866,-48.287768,-14.106728,-13.157151,1.571069,0.601643,17.686908,12.065947,12.763739,294.429351,-142.46624,-35.014725
78,0.302032,-1.133799,4.198883,26.661123,0.0,-63.010963,-31.635429,-87.46368,-23.298408,-85.102157,-13.24665,-71.562492,-2.521385,-49.368232,0.0,28.143022,31.245004,64.606381,48.036189,79.232312,60.124314,89.82042,67.497807,96.067537,0.0,52.093352,10.030844,58.161822,14.261851,32.934117,20.866322,33.159628,28.411572,33.034722,0.0,-37.716858,-27.995312,-45.764575,-12.931645,-11.43466,3.781191,3.319699,20.586553,15.273862,15.284317,291.506294,-136.048811,-10.14286
79,0.227532,-1.191425,4.413809,27.190124,0.0,-63.102986,-31.502724,-87.646683,-23.239311,-85.406868,-13.257065,-72.012966,-2.578995,-49.814049,0.0,27.647734,30.989778,64.399702,47.827411,78.900984,60.065589,89.653546,67.631805,96.210699,0.0,57.818041,11.100952,62.622706,15.031798,34.651949,21.181349,34.303997,28.158491,33.757599,0.0,-37.475853,-26.735721,-43.002129,-10.339665,-8.081011,7.278076,7.765645,24.548197,19.951156,17.866808,288.018442,-129.280043,14.750837
80,0.178344,-1.040371,6.427082,24.398773,0.0,-63.046886,-31.402381,-87.722259,-23.172065,-85.757686,-13.201812,-72.478076,-2.449813,-50.259681,0.0,26.989364,30.738022,63.836391,47.579668,78.313898,59.918599,89.303656,67.666534,96.240327,0.0,62.030577,12.228378,67.012053,15.129324,36.592158,20.111407,35.174767,26.034525,33.224407,0.0,-34.027562,-22.174502,-34.154826,-5.026839,-1.546311,13.051055,14.282827,30.585862,26.749383,19.894638,284.726209,-121.003475,36.897748
81,-0.036987,-1.076075,6.578871,27.267812,0.0,-63.049301,-31.094948,-87.686199,-22.888092,-85.87492,-12.959358,-72.827041,-2.249061,-50.807648,0.0,26.577625,30.519536,63.522353,47.381857,77.942124,59.80441,89.138288,67.678106,96.30141,0.0,67.245432,14.258852,67.313124,16.215963,37.898644,19.927454,35.670124,24.502688,32.579395,0.0,-29.079909,-18.445287,-25.586114,-0.417266,4.018435,18.294763,20.261634,36.12006,32.776776,20.961616,282.505269,-113.320639,63.020695
82,0.080177,-0.854638,5.694717,31.298017,0.0,-63.126182,-30.930931,-87.894241,-22.743438,-86.204635,-12.920082,-73.220169,-2.35231,-51.403907,0.0,26.113718,30.304249,62.907146,47.244438,77.307897,59.779006,88.70895,67.796173,95.992164,0.0,72.820284,18.785345,70.729403,19.39218,41.271561,21.21028,37.415463,23.759829,33.659478,0.0,-23.227791,-17.74587,-21.745207,0.710809,7.341411,20.159521,24.72769,38.855931,37.199692,21.593925,281.365057,-107.07379,94.033138
83,-0.030487,-0.576156,5.735585,28.618846,0.0,-63.249973,-30.943771,-87.969097,-22.865867,-86.52206,-13.180046,-73.54755,-2.751846,-51.875702,0.0,25.636104,30.07003,62.11816,47.100065,76.41884,59.747179,88.089581,67.862628,95.494419,0.0,77.186016,21.029932,70.620185,20.348224,44.660116,20.605499,39.617672,21.603641,34.219574,0.0,-15.033595,-15.172413,-15.276586,3.791058,11.19807,23.906919,28.66652,43.344964,40.134609,21.844116,280.70263,-101.057527,122.565713
84,0.045273,-0.220646,5.699066,25.685732,0.0,-63.581543,-30.958923,-88.17263,-23.034576,-86.982067,-13.518196,-74.087986,-3.278114,-52.554188,0.0,25.415778,29.839034,60.993611,46.867315,75.532671,59.463324,87.381773,67.520765,94.747226,0.0,76.961265,23.531645,72.203705,21.290703,53.703054,19.787464,46.786548,18.88187,37.413391,0.0,-10.400424,-9.094641,-3.903043,9.746639,16.344201,29.130491,31.696644,47.641712,41.607449,21.851366,280.416192,-95.396484,148.185653
85,-0.175827,0.608192,5.962429,26.249699,0.0,-61.039821,-30.951576,-88.012916,-23.536194,-87.466999,-14.333679,-74.90974,-4.27034,-53.319488,0.0,23.580024,29.106563,59.056377,45.96366,73.716938,58.48195,85.53772,66.558336,93.007569,0.0,75.375194,25.359072,71.150574,21.612293,61.89739,18.270927,53.051731,15.149299,40.103313,0.0,-7.460228,-3.109303,6.366143,14.369009,21.904807,31.509339,35.563844,47.250529,41.714753,21.619245,280.826103,-89.490349,174.237071
86,-0.232979,1.464003,10.938932,26.656149,0.0,-59.645061,-30.602874,-87.198612,-24.041153,-87.44934,-15.454879,-74.933303,-5.687942,-53.576534,0.0,19.168267,27.857846,54.924855,44.17622,70.691464,56.35145,82.422067,64.260109,89.973426,0.0,67.44183,23.350342,64.536507,21.302616,57.236916,19.179222,47.538403,16.695923,35.904614,0.0,-6.345769,2.423197,15.390648,22.103091,31.243164,40.351424,47.856075,55.87344,54.995942,21.377586,282.061784,-78.560097,200.664898
87,-0.905021,1.170627,4.286637,21.563022,0.0,-58.193962,-27.786415,-82.820355,-22.314331,-85.899433,-14.832093,-74.789566,-5.900391,-53.682415,0.0,14.481398,26.038136,45.448316,42.196329,63.367532,54.321307,77.584638,62.21564,87.277872,0.0,65.445064,23.58974,73.515815,21.435642,66.847377,19.170353,56.753666,16.57172,43.12429,0.0,-3.696232,10.770815,22.751803,31.418609,39.080242,48.789,55.804909,62.015395,62.357591,20.519778,282.968935,-74.226247,221.964444
88,-1.0868,2.100292,4.564773,18.241528,0.0,-56.623215,-22.985413,-76.418747,-18.415535,-80.593082,-12.213249,-71.256546,-4.840141,-51.855469,0.0,9.161687,24.363218,37.433742,39.555659,55.122926,50.809277,69.4065,57.988503,81.181736,0.0,62.801136,24.290886,80.924401,21.081459,75.920002,17.952484,64.844124,14.730354,48.21967,0.0,-3.075047,18.248136,33.178349,38.734552,49.351189,54.411117,65.275867,64.835932,71.297495,19.399572,284.786274,-69.69488,239.923019
89,-0.30883,2.354099,5.411019,15.025419,0.0,-55.021626,-24.549843,-66.085774,-21.818653,-73.034661,-16.940117,-68.378872,-10.547539,-54.463692,0.0,8.408035,25.05455,32.014761,39.228888,47.515633,49.304234,61.617772,55.6636,75.378506,0.0,62.467884,23.278896,80.669586,19.066932,76.857502,15.32769,65.364532,12.003307,48.546901,0.0,-0.148843,22.890186,40.891271,43.327177,57.986577,58.315484,74.700042,67.504859,80.977959,19.061119,286.889583,-64.313484,254.697648
90,-0.820542,5.000388,4.327812,10.716377,0.0,-53.89183,-27.220928,-46.879428,-26.284629,-52.661453,-22.642181,-52.587627,-17.258949,-57.663253,0.0,12.0613,21.267496,27.624207,34.075779,40.577764,43.100639,53.584142,49.154872,68.57692,0.0,63.922142,22.757126,81.740799,17.806595,77.465572,13.791652,66.02195,10.722885,49.802982,0.0,2.301438,26.393571,46.965795,48.391044,65.391982,64.456883,82.957343,74.297367,91.371492,18.299778,291.772472,-59.926471,265.296526
91,-2.637771,3.968909,-2.225006,4.862919,0.0,-43.93911,-27.362526,-26.275898,-28.665848,-31.064587,-26.805885,-36.0336,-23.014069,-59.703175,0.0,9.694852,19.244886,25.72574,31.935522,36.581018,40.592053,48.742848,46.668158,65.280856,0.0,70.908874,25.54454,92.742851,17.195915,91.270843,10.190643,79.13459,4.777095,58.582603,0.0,5.584596,29.868032,51.719057,49.490757,67.92549,62.910714,80.971216,70.486341,86.647128,15.847819,295.659503,-61.965665,270.077567
92,0.79145,3.68997,2.360424,4.121939,0.0,-43.361766,-32.926689,-12.333721,-35.379398,-13.492458,-34.160316,-21.532951,-30.933117,-62.888145,0.0,13.258468,18.603633,29.910405,30.155085,36.769715,37.726278,44.865305,43.315913,61.495741,0.0,71.228794,25.357887,92.479717,15.900776,91.503971,7.759243,78.486042,1.286853,56.635608,0.0,6.457339,30.318575,55.895596,48.58079,71.249366,61.013989,81.891432,68.011323,86.170168,16.902197,299.25318,-59.342313,274.103213
93,-1.238342,3.002441,2.364704,2.598543,0.0,-35.520801,-38.372326,2.217716,-43.136581,2.757626,-43.077347,-9.4487,-40.114838,-64.105247,0.0,16.051068,17.200849,33.06427,29.22421,39.152305,37.156013,45.932784,43.500189,60.816955,0.0,71.009399,25.511833,91.453399,15.590057,89.888397,6.800972,76.320648,-0.404526,55.13768,0.0,6.51315,30.553487,56.865807,48.312757,71.749484,60.411404,81.640195,67.334527,85.569016,15.991219,302.172168,-56.650245,276.618303
94,0.529472,2.866096,1.691128,1.227759,0.0,-34.928192,-39.560188,9.744439,-45.144218,13.329895,-45.753032,1.251915,-43.386692,-64.252773,0.0,16.456509,13.072969,33.410776,25.138061,39.811095,33.63803,45.315255,40.784924,59.431214,0.0,71.011127,25.640384,90.802951,15.328491,88.803485,6.045913,74.961902,-1.660469,54.003902,0.0,7.100729,30.758992,57.807587,48.384054,72.380832,60.365289,81.943254,67.209161,85.637361,16.868316,304.952289,-54.611492,277.760087
95,-4.4263,4.108847,1.011211,0.75627,0.0,-34.727989,-37.263759,12.253167,-42.022052,17.247872,-42.056041,6.928093,-39.011284,-49.522167,0.0,16.193231,12.371238,31.864596,21.944355,37.467347,28.213418,40.801758,33.113436,50.427474,0.0,71.079048,25.46196,90.023804,14.920349,87.307777,5.380348,73.182381,-2.568626,52.378418,0.0,7.853442,30.87838,58.169271,48.40779,72.422192,60.228116,81.818394,66.898408,85.51491,12.727769,308.993902,-53.314528,278.449123
96,1.891365,0.532993,0.399364,0.213212,0.0,-44.744567,-38.680549,9.058274,-42.70832,13.999489,-42.297569,4.536232,-39.103008,-46.480774,0.0,23.623028,12.042281,31.156022,20.705876,35.783536,26.538314,38.561761,30.952369,47.021642,0.0,71.219754,25.126305,89.288533,14.394974,86.256146,4.781113,72.06886,-3.184501,51.176274,0.0,8.497177,31.067324,58.327006,48.651581,72.340805,60.418986,81.878144,66.958268,85.603682,14.8272,309.473296,-52.707098,278.608736
97,-2.032928,3.785584,0.248909,-0.0536,0.0,-42.751305,-37.220833,10.048508,-40.63718,15.754509,-39.623669,7.511925,-35.716724,-34.473644,0.0,23.77008,9.910657,28.803999,17.011016,33.119895,21.853249,35.194018,25.475021,40.176979,0.0,71.467061,24.904404,88.704518,14.197564,85.395573,4.58709,71.432385,-3.433811,50.716359,0.0,9.131417,30.930671,58.159552,48.524017,71.914913,60.283531,81.766981,66.764595,85.697432,12.928482,313.242531,-52.323979,278.538787
98,0.379463,4.843604,0.038567,-0.137086,0.0,-52.991569,-39.262539,6.705277,-40.218132,14.466683,-37.011131,10.352715,-31.192383,-27.28696,0.0,28.138996,8.061158,26.473723,10.86349,27.989695,12.103315,26.973024,12.499691,27.973912,0.0,71.679943,24.700642,88.423794,14.151856,85.062595,4.69685,71.464634,-3.252811,50.934666,0.0,9.435118,30.677939,57.923208,48.311485,71.40341,60.14999,81.388661,66.700004,85.691788,13.419559,318.071451,-52.173798,278.387017
99,-3.403976,4.191025,0.119579,-0.141581,0.0,-52.854996,-38.124516,8.260711,-37.208988,18.095787,-32.474568,15.715645,-25.186718,-18.268181,0.0,28.873122,7.102038,25.019501,6.973585,24.733164,5.646025,21.966696,3.696552,20.40241,0.0,71.485703,24.40852,88.029694,13.973133,84.655472,4.653237,71.415436,-3.213443,51.035843,0.0,9.72669,30.254676,57.96237,47.950418,71.290493,59.939198,81.079612,66.666424,85.524703,10.161278,322.256477,-51.908524,278.239437
100,3.343986,1.270638,0.031872,-0.152659,0.0,-58.239841,-41.000438,3.25161,-39.101131,14.102143,-33.252228,13.769646,-24.965172,-19.587616,0.0,28.184506,6.362738,24.367182,4.625192,23.2464,1.741152,18.945273,-1.603856,15.16768,0.0,71.195355,24.215183,87.721195,13.919712,84.758572,4.722233,71.677014,-3.079662,51.410717,0.0,9.943693,29.859807,57.718468,47.586065,71.080541,59.697914,80.834932,66.581986,85.36099,13.692816,323.524358,-51.6891,278.084021
101,-3.465957,0.978485,0.084412,-0.09869,0.0,-55.078904,-40.568047,6.349708,-37.874749,18.356643,-31.116703,18.946106,-21.642689,-10.821385,0.0,27.505893,6.1259,24.386003,3.80758,23.400244,0.316977,18.151225,-3.525702,12.860684,0.0,70.999134,23.982101,87.481739,13.836994,84.915996,4.775047,72.007473,-2.910576,51.991802,0.0,10.082558,29.382192,57.514939,47.13157,70.866193,59.377591,80.483968,66.438516,85.111433,10.426003,324.497322,-51.405544,277.97981
102,-0.129181,2.881027,0.115242,0.043275,0.0,-60.321534,-42.565499,4.887725,-38.728409,18.590812,-30.679276,21.016502,-20.067742,-9.831082,0.0,29.419761,5.046268,24.093516,-0.725345,20.675965,-7.697461,12.356023,-14.831177,1.411108,0.0,70.684925,23.71986,87.099735,13.639938,84.926296,4.65834,72.128277,-2.948456,52.110935,0.0,9.991142,29.036933,57.13894,46.853298,70.615462,59.232601,80.18622,66.433044,84.839891,10.531054,327.374354,-51.05607,278.01909
103,-1.99672,-4.465395,0.200683,0.116745,0.0,-52.446659,-40.370235,8.790299,-38.332752,20.598725,-31.816681,20.304909,-22.583038,-15.348209,0.0,26.297735,6.339372,26.110014,4.186098,25.195428,0.395067,19.299734,-3.964586,12.469582,0.0,70.503857,23.431881,86.778042,13.333168,84.764065,4.362751,71.883831,-3.179832,51.893338,0.0,10.002134,28.744138,56.855506,46.599936,70.425851,59.062306,79.995621,66.312347,84.525804,8.774099,322.905115,-50.615622,278.131991
104,0.967186,2.555331,0.066513,0.146929,0.0,-56.154487,-42.408519,6.936241,-39.844597,20.061219,-32.582657,21.189057,-22.658157,-11.512985,0.0,26.441378,4.720992,25.241062,-0.224549,22.831363,-6.736155,14.407841,-13.521031,1.374317,0.0,70.506443,23.268746,86.703518,13.143792,84.669651,4.153576,71.691067,-3.373821,51.705632,0.0,9.893244,28.518181,56.552546,46.410955,70.127794,58.918057,79.747076,66.15728,84.293524,9.954683,325.459047,-50.335711,278.277521
105,-3.414756,-2.315159,-0.019168,0.186548,0.0,-51.739357,-39.963341,11.52349,-37.915467,24.106246,-31.399292,24.073814,-22.218911,-7.644562,0.0,26.99817,5.546472,26.682428,2.596087,25.283151,-2.076629,18.050473,-7.160923,7.746145,0.0,70.573356,23.139427,86.805908,13.007995,84.567947,4.033355,71.534179,-3.450932,51.608413,0.0,9.826763,28.353949,56.342336,46.276228,69.928995,58.801608,79.49858,66.032581,84.043929,6.711978,323.145364,-50.182828,278.465545
106,1.948196,4.241698,0.003353,0.131343,0.0,-57.373375,-42.496262,8.085022,-39.592506,22.52037,-32.164513,24.455933,-22.213738,-7.128868,0.0,28.081062,3.572323,25.178446,-3.136093,21.313155,-11.230165,11.597715,-19.313627,-3.122496,0.0,70.522808,23.038936,86.741764,12.912975,84.382908,3.937454,71.281414,-3.547669,51.315113,0.0,9.809658,28.277292,56.241016,46.195693,69.890957,58.712168,79.412376,65.921665,84.059144,8.798103,327.389776,-50.041546,278.599602
107,-3.097916,-1.585084,0.11721,0.189549,0.0,-53.583538,-40.585064,11.339653,-37.860821,25.649552,-30.622719,27.228379,-20.779987,-2.275177,0.0,29.147726,4.881691,27.061254,-1.118942,23.181438,-8.571747,14.077106,-16.049944,1.848079,0.0,70.472088,22.733654,86.665844,12.656445,84.21777,3.771538,71.111652,-3.575409,51.205662,0.0,9.760098,27.993376,56.237916,45.908653,69.757477,58.479715,79.216294,65.759348,83.974596,5.802458,325.805899,-49.822065,278.790358
108,1.485214,5.529997,0.111466,0.188327,0.0,-61.615539,-42.820529,7.513001,-37.944396,24.302308,-28.923454,28.883492,-17.424831,6.010895,0.0,31.441506,2.637298,24.273259,-7.389203,17.59037,-18.330561,5.821866,-28.923906,-11.297757,0.0,70.360302,22.603168,86.405513,12.586132,83.938098,3.733062,70.792385,-3.595253,50.896648,0.0,9.570708,27.726639,56.12611,45.644484,69.667346,58.269047,79.015395,65.63387,83.952056,7.367139,331.336498,-49.631132,278.979287
109,-1.220855,-4.556946,0.277107,0.085487,0.0,-58.198563,-41.510376,10.086845,-37.527764,25.492561,-29.368149,28.578003,-18.539795,2.990043,0.0,31.71679,4.417328,26.186534,-1.414517,21.829573,-8.331415,13.231977,-15.362292,2.672595,0.0,70.092373,22.500778,86.011608,12.536705,83.631786,3.680958,70.43153,-3.711148,50.546711,0.0,9.543897,27.442958,55.868055,45.319282,69.514946,57.977832,78.883595,65.409988,83.837904,6.200249,326.782075,-49.30006,279.067297
110,4.000534,-1.194796,0.355716,-0.022205,0.0,-61.60191,-43.514889,6.8768,-40.181282,21.467331,-32.62381,23.722046,-22.395069,-8.183453,0.0,30.923334,4.296309,25.86537,-0.140643,22.319735,-5.535851,15.263553,-11.2623,6.546494,0.0,69.783509,22.178845,85.496132,12.178311,83.002327,3.294457,69.806763,-4.139877,49.761109,0.0,9.63525,27.283172,55.806823,45.13918,69.506658,57.811513,78.968995,65.240928,83.797544,10.242371,325.591555,-48.902756,279.049368
111,1.248207,-5.419525,0.366154,0.131145,0.0,-54.115139,-42.055321,7.683632,-40.183594,20.244209,-34.093689,19.914986,-25.176533,-11.839359,0.0,25.246186,7.030939,27.802468,7.173125,27.461211,5.887272,23.72767,3.668135,19.762849,0.0,69.496914,21.987923,85.013867,11.965931,82.356251,3.0504,69.048924,-4.431209,49.054814,0.0,9.642315,27.02676,55.554857,44.850004,69.119966,57.516606,78.723649,64.922,83.504082,11.5282,320.183303,-48.49898,279.191786
112,3.597725,0.504871,0.337956,-0.089834,0.0,-57.989239,-44.376354,4.600891,-42.725636,16.766487,-36.876503,16.489517,-28.089649,-19.163395,0.0,24.68348,5.178315,26.397671,6.397479,26.623912,6.311176,23.678109,5.224245,20.296212,0.0,69.053032,22.090416,84.593399,12.024856,81.717155,2.937927,68.331436,-4.827793,48.266899,0.0,9.85418,27.159337,55.480633,44.853547,69.020325,57.400293,78.741519,64.693881,83.44385,15.161677,320.7053,-48.125272,279.119078
113,-0.134812,-0.927973,0.347854,-0.029838,0.0,-55.947303,-44.853618,5.184929,-43.320488,17.207589,-37.54161,16.787545,-28.773433,-18.683818,0.0,24.948599,6.421141,27.746609,8.083796,27.917522,8.249534,25.41253,7.325279,23.382522,0.0,68.684029,22.219036,84.279282,12.064911,81.200455,2.7762,67.72641,-5.272785,47.611885,0.0,10.038332,27.135267,55.292949,44.72365,68.745597,57.176719,78.695342,64.371655,83.30569,15.054731,319.812503,-47.749552,279.124416
114,-0.629447,1.358163,0.267552,0.02864,0.0,-52.477822,-42.734837,5.555465,-41.4432,17.392112,-35.903653,17.23162,-27.476738,-15.971501,0.0,22.513151,6.263419,26.803952,7.299294,26.905025,6.781122,24.320623,5.372435,21.289962,0.0,68.422977,22.381027,84.062313,12.162163,80.762935,2.70005,67.174267,-5.588024,47.002796,0.0,10.061464,27.237946,55.273238,44.746645,68.606152,57.122379,78.636815,64.265827,83.247879,14.452389,321.211632,-47.454895,279.194022
115,-1.441521,4.169215,0.296711,0.124488,0.0,-53.186417,-43.342072,5.861549,-40.947693,19.71476,-34.126076,20.780914,-24.489315,-8.15934,0.0,22.495824,5.492267,25.852477,2.013113,23.20462,-2.959956,17.155154,-8.367329,7.342421,0.0,68.247299,22.75225,83.841018,12.580249,80.598518,3.013229,66.863067,-5.464485,46.872162,0.0,9.985585,27.218359,55.015493,44.657404,68.239454,56.97382,78.275193,64.104968,83.100741,13.026226,325.44009,-47.142826,279.377753
116,-5.663681,2.373711,0.234764,-0.106235,0.0,-53.688183,-41.186325,9.803123,-37.927643,25.031364,-30.426132,27.9421,-20.322693,1.380272,0.0,29.236955,4.53637,26.0071,-1.790478,21.007675,-9.343739,12.700281,-16.980919,1.135491,0.0,68.086098,22.96178,83.715797,12.807609,80.453293,3.154564,66.614754,-5.466683,46.573585,0.0,10.080434,27.321507,55.080478,44.717944,68.418135,57.014341,78.426889,64.16904,83.097912,7.375162,327.882461,-46.895445,279.340178
117,-1.308151,1.106728,0.220905,-0.034741,0.0,-53.393681,-40.584904,10.727371,-37.077977,26.816185,-29.264981,29.541664,-19.022381,4.20108,0.0,28.626219,5.027385,25.649108,-3.44823,19.643374,-13.166065,9.782747,-22.829177,-5.341102,0.0,68.124333,22.944866,83.790882,12.731003,80.355023,3.051579,66.400555,-5.527817,46.375523,0.0,10.099428,27.28379,55.073661,44.733938,68.453728,57.078228,78.505374,64.273571,83.156069,6.06593,329.059399,-46.675621,279.375647
118,-3.26841,-3.74189,0.063057,-0.088105,0.0,-48.403496,-36.770703,14.675331,-34.698487,29.719002,-28.22612,30.759018,-19.366677,2.716804,0.0,28.151815,5.891434,27.819746,-0.281878,23.53943,-7.904966,15.162196,-15.549816,2.153422,0.0,68.155232,22.970318,83.917614,12.707634,80.347286,3.003296,66.206646,-5.536617,46.187588,0.0,10.186805,27.322927,55.15322,44.863465,68.478959,57.247547,78.543967,64.441828,83.180349,2.779226,325.38294,-46.630858,279.352973
119,0.955719,2.679313,-0.004738,-0.128416,0.0,-54.758068,-39.616322,13.088081,-36.503769,29.799545,-28.971256,31.70208,-19.080483,2.682747,0.0,30.81805,4.538038,27.013138,-5.03703,20.337523,-15.771499,9.269589,-26.329708,-8.930072,0.0,68.269032,23.011334,84.083256,12.682434,80.383198,2.938076,66.100308,-5.551208,46.15662,0.0,10.308502,27.364386,55.242585,44.959388,68.520826,57.354993,78.610546,64.523166,83.298811,3.693237,328.144054,-46.677304,279.306358
120,-1.429688,-5.121863,-0.13797,-0.246681,0.0,-49.636734,-37.081936,15.980667,-35.562389,30.876412,-29.481056,30.69088,-20.981025,-5.498966,0.0,30.528848,6.215747,29.603457,1.374404,25.243334,-5.051468,17.444837,-11.713312,6.39365,0.0,68.379513,23.062351,84.503369,12.664776,80.546322,2.852669,66.306118,-5.660671,46.342358,0.0,10.540635,27.624133,55.486771,45.205142,68.668447,57.565031,78.912926,64.692745,83.530857,2.204813,323.090672,-46.87401,279.128158
