takenoko1/special-research/HandMotion_SimilarSearch_自分用/NewProject/handData/test_key/d4_feature_d3/9.csv
frame,vel_0x_L,vel_0y_L,vel_0x_R,vel_0y_R,posFromWrist_0x_L,posFromWrist_1x_L,posFromWrist_2x_L,posFromWrist_3x_L,posFromWrist_4x_L,posFromWrist_5x_L,posFromWrist_6x_L,posFromWrist_7x_L,posFromWrist_8x_L,posFromWrist_9x_L,posFromWrist_0y_L,posFromWrist_1y_L,posFromWrist_2y_L,posFromWrist_3y_L,posFromWrist_4y_L,posFromWrist_5y_L,posFromWrist_6y_L,posFromWrist_7y_L,posFromWrist_8y_L,posFromWrist_9y_L,posFromWrist_0x_R,posFromWrist_1x_R,posFromWrist_2x_R,posFromWrist_3x_R,posFromWrist_4x_R,posFromWrist_5x_R,posFromWrist_6x_R,posFromWrist_7x_R,posFromWrist_8x_R,posFromWrist_9x_R,posFromWrist_0y_R,posFromWrist_1y_R,posFromWrist_2y_R,posFromWrist_3y_R,posFromWrist_4y_R,posFromWrist_5y_R,posFromWrist_6y_R,posFromWrist_7y_R,posFromWrist_8y_R,posFromWrist_9y_R,posFromBody_0x_L,posFromBody_0y_L,posFromBody_0x_R,posFromBody_0y_R
7,-5.593621,0.642451,0.435585,0.414555,0.0,-0.61457,-19.476905,40.897065,-28.443924,45.758057,-32.989288,33.404252,-33.834148,-16.27153,0.0,18.691109,13.636912,53.859574,26.887785,59.680106,36.670692,63.265385,44.63079,71.266978,0.0,62.002224,18.044644,77.707112,8.116345,77.234677,-1.310268,63.226238,-9.799232,42.335461,0.0,3.294014,21.930968,53.888375,38.673962,69.425853,51.70141,78.905072,60.746079,84.172271,-4.86505,303.204461,-39.784327,289.481358
8,5.756024,-0.211112,0.083233,0.093935,0.0,-12.604832,-26.121174,33.886997,-34.93737,38.937206,-38.56255,27.189754,-38.567299,-22.780735,0.0,26.762295,13.124445,53.690081,26.205109,59.375417,36.021448,63.063127,44.187323,71.115628,0.0,61.494393,17.644547,77.643082,7.904663,77.24604,-1.280353,63.371544,-9.480606,42.620545,0.0,3.290964,21.671184,53.507695,38.618226,68.905371,51.814857,79.02262,60.929477,84.090489,1.314532,302.821714,-39.277536,289.403658
9,-4.125973,3.52627,0.05183,-0.147299,0.0,-7.018032,-22.709862,37.105682,-29.964043,43.0345,-32.653896,32.887596,-31.851265,-18.010437,0.0,23.778589,12.009911,52.095068,22.861818,56.224491,30.833907,59.760579,37.386972,66.318831,0.0,61.104618,17.311226,77.662686,7.635132,77.063153,-1.479618,63.284993,-9.591133,42.570591,0.0,3.525541,21.872206,53.491529,38.838638,68.841767,52.032268,79.291567,61.076357,84.199453,-2.608286,306.197319,-39.022551,289.105694
10,6.235302,-3.334782,-0.211818,-0.077806,0.0,-12.229774,-28.041847,30.85191,-36.78075,35.857601,-39.995258,24.742916,-39.533627,-25.047443,0.0,24.883897,12.178972,53.126177,25.086278,58.777105,34.902753,63.488081,43.044372,70.808728,0.0,61.189407,17.30183,78.035659,7.697639,77.203376,-1.370659,63.620109,-9.432862,42.990761,0.0,3.685043,21.779951,53.504015,38.7769,68.830863,52.002196,79.545387,61.10023,84.318805,3.655764,302.76014,-39.205621,288.925491
11,-4.668995,0.327055,-0.13805,-0.106161,0.0,-4.713604,-23.184574,36.30613,-31.617576,41.310402,-35.193901,30.126595,-35.04055,-16.361652,0.0,22.27945,12.173167,53.556317,24.741439,59.285545,34.276876,63.574939,42.007348,69.308477,0.0,61.331714,17.360515,78.308292,7.665275,77.209133,-1.49445,63.373066,-9.620716,42.787422,0.0,3.514722,21.816433,53.530802,38.738664,69.043494,51.90852,79.67689,60.973221,84.468821,-1.053526,302.988416,-39.383966,288.720551
12,-0.50132,5.036018,-0.058834,-0.018303,0.0,-9.671013,-23.373882,35.126267,-30.838829,40.811898,-33.644382,29.835938,-33.074775,-14.968517,0.0,25.859603,10.009334,49.456843,20.25001,54.418155,27.845533,57.48184,33.983215,61.706124,0.0,61.327308,17.323242,78.303268,7.546325,77.155357,-1.680039,63.139755,-9.841919,42.55125,0.0,3.402633,21.626711,53.610831,38.540334,69.283295,51.708474,79.814569,60.801074,84.526607,-1.683712,307.93325,-39.571666,288.611064
13,1.633278,-1.116707,-0.258271,-0.195082,0.0,-8.938488,-24.499695,33.700791,-32.481582,38.967705,-35.512092,27.320526,-35.184288,-16.829338,0.0,23.065248,10.074394,50.110126,21.377894,56.057382,29.876393,59.336699,36.706915,63.091248,0.0,61.607552,17.729359,78.821595,7.871338,77.445488,-1.491348,63.257378,-9.783508,42.731793,0.0,3.364323,21.708753,53.826303,38.596885,69.575931,51.756824,79.885841,60.847053,84.636683,-0.177607,306.724146,-39.95711,288.323585
14,0.136448,-0.550135,-0.24765,-0.103605,0.0,-9.794563,-24.998875,33.73708,-33.243999,39.133747,-36.397808,27.363293,-36.081871,-16.973602,0.0,23.005845,9.922526,50.188599,22.072327,56.821692,31.277239,59.803916,38.639407,63.517512,0.0,61.91066,18.24709,79.092705,8.380806,77.80426,-1.10067,63.442612,-9.553894,42.808605,0.0,3.303524,21.685918,53.897884,38.571716,69.655712,51.773374,80.029189,60.923599,84.704041,-0.140631,306.090583,-40.304232,288.136552
15,-0.737823,3.477734,-0.267757,-0.110632,0.0,-14.663052,-26.391163,32.73627,-32.922215,39.575031,-34.587902,29.430347,-33.09224,-14.734749,0.0,28.954855,8.91198,48.501306,18.483665,53.445995,25.699398,55.227395,31.564217,58.298922,0.0,62.032894,18.680317,79.426037,8.784748,78.181926,-0.78669,63.566402,-9.347946,42.83995,0.0,3.265881,21.8295,54.042701,38.7234,69.803716,51.930924,80.176204,61.058351,84.693111,-0.95553,309.479933,-40.649065,287.937536
16,2.473583,5.043959,-0.028908,-0.071507,0.0,-21.620865,-30.240532,27.220093,-34.720665,35.305595,-34.330136,27.727295,-31.029133,-20.585163,0.0,31.188787,7.315263,45.293903,13.51283,47.935314,18.066096,49.267097,21.866414,51.252743,0.0,62.078419,18.814579,79.504383,9.018471,78.430859,-0.503277,63.905422,-9.052654,43.118488,0.0,3.316022,21.927337,54.050556,38.86671,69.666902,52.131736,80.139315,61.310354,84.651874,1.442602,314.438408,-40.753424,287.780545
17,7.206756,-4.496418,-0.151669,-0.088673,0.0,-26.755416,-37.139465,19.589699,-42.795982,27.626587,-42.683555,20.382225,-39.43127,-29.122146,0.0,29.981406,7.684061,47.819914,16.563474,52.017386,23.624609,54.828142,29.675396,58.226687,0.0,62.15458,19.132004,79.733826,9.444855,78.755196,-0.040466,64.451409,-8.615409,43.651921,0.0,3.359901,22.055431,54.010788,39.04045,69.436029,52.361274,79.986531,61.610485,84.652528,8.585123,309.86968,-40.969328,287.619562
18,-5.486091,1.732704,0.090901,0.003606,0.0,-18.970619,-31.490055,25.322799,-36.714386,33.738395,-36.827671,27.069465,-33.663197,-22.944351,0.0,24.387856,7.298973,46.373115,15.602316,50.286325,21.920273,53.075344,27.151928,56.615458,0.0,61.960659,18.945465,79.420315,9.28133,78.733829,-0.176136,64.479732,-8.714619,43.598087,0.0,3.328113,21.927386,53.829748,38.926435,69.228782,52.292138,79.901501,61.623478,84.59142,3.046904,311.542517,-40.930555,287.563301
19,3.445884,-3.839974,-0.051098,0.013672,0.0,-22.037693,-33.997627,22.395127,-40.847396,29.581673,-42.078014,21.231171,-39.996677,-28.354522,0.0,27.721452,8.659594,48.174658,18.775077,53.412625,26.597422,56.799734,33.171383,62.163523,0.0,61.764748,18.717842,79.298881,9.100525,78.837662,-0.275425,64.727097,-8.712868,43.80558,0.0,3.271042,21.746951,53.564999,38.776875,68.973209,52.193992,79.649312,61.617129,84.557284,6.448499,307.653575,-41.025942,287.528005
20,-5.976573,-1.610302,-0.033772,-0.040509,0.0,-10.907158,-27.015324,30.685512,-34.437642,37.025905,-36.713723,27.267345,-35.45168,-24.620488,0.0,23.273989,10.485022,50.088982,21.111428,55.656474,29.046368,59.276888,35.657269,64.570788,0.0,61.697377,18.706902,79.214779,9.118916,78.872395,-0.272323,64.852147,-8.748493,43.778058,0.0,3.153112,21.749397,53.316825,38.732353,68.806224,52.139418,79.489268,61.57661,84.47901,0.433623,306.007665,-41.098017,287.451888
21,1.401535,-3.625503,-0.252983,-0.051672,0.0,-14.256283,-28.037339,30.076549,-36.757473,35.537464,-40.035908,24.318431,-39.793465,-25.141423,0.0,27.646339,11.826785,51.949362,24.667227,59.113225,34.456965,62.848495,42.689801,70.209663,0.0,61.812367,18.976696,79.221051,9.42746,78.995121,0.003422,65.06828,-8.568889,43.98198,0.0,3.030413,21.644161,53.266288,38.625623,68.778238,52.051237,79.484117,61.537311,84.497238,1.797444,302.35857,-41.388714,287.376624
22,-6.054989,3.647881,-0.042675,-0.090415,0.0,-9.860115,-22.75391,35.287124,-29.644455,41.822982,-31.937359,31.551635,-30.764305,-19.866223,0.0,26.675165,11.833775,51.17968,21.619906,56.007636,28.582253,58.892875,34.244531,63.432543,0.0,61.854035,18.941723,79.093323,9.354687,78.980095,-0.136322,64.903359,-8.771999,43.610012,0.0,2.896341,21.650472,53.08962,38.566627,68.77751,51.935925,79.549387,61.372981,84.460237,-4.292822,305.985104,-41.466666,287.264862
23,4.077873,2.610795,-0.100135,0.028281,0.0,-21.876698,-28.539803,28.976051,-34.30814,36.973595,-35.072411,28.25798,-32.595268,-21.164085,0.0,35.038629,11.82019,50.732249,18.393916,53.249245,22.64353,54.253406,26.238837,56.922963,0.0,61.813247,19.054275,79.09513,9.52074,78.94226,0.037925,64.830711,-8.667332,43.567279,0.0,2.741793,21.603481,52.967886,38.467259,68.6816,51.781969,79.499667,61.18957,84.472921,-0.249418,308.580449,-41.60127,287.277693
24,-1.646107,8.284781,0.154117,-0.029591,0.0,-25.152191,-28.205463,27.54784,-30.985702,38.108082,-29.498977,33.038738,-25.130379,-12.479233,0.0,36.395273,9.600485,46.937291,10.338501,45.148382,9.636164,43.877324,9.090562,40.4636,0.0,61.714771,19.029717,78.827191,9.508919,78.622501,0.018997,64.473484,-8.733547,43.239956,0.0,2.713684,21.725524,52.909804,38.499135,68.630051,51.729494,79.507978,61.052534,84.455952,-1.925904,316.851593,-41.477532,287.234465
25,6.060368,0.570809,-0.107174,-0.134072,0.0,-37.031662,-34.462486,19.696884,-36.92648,30.602394,-34.710331,26.866104,-29.896866,-17.834965,0.0,40.057961,8.784613,45.302609,9.63404,43.722836,9.1173,42.365722,8.751972,39.424488,0.0,62.005783,19.177094,79.087006,9.652302,78.644234,0.18314,64.603111,-8.562801,43.525154,0.0,2.742929,21.836218,53.196387,38.611619,68.601213,51.799358,79.587438,61.070466,84.443985,4.100785,317.403555,-41.618385,287.081546
26,-1.748886,5.810553,0.094826,-0.07804,0.0,-38.385418,-34.365052,20.22615,-34.918167,33.353256,-31.087235,32.035011,-24.696305,-11.082688,0.0,38.309264,7.62126,42.749291,4.113368,38.103623,-0.450148,34.562595,-4.38444,26.618478,0.0,62.110268,19.374058,79.177711,9.806007,78.600952,0.231342,64.596336,-8.64362,43.584103,0.0,2.686723,22.07902,53.301659,38.71552,68.521554,51.764703,79.466234,60.946533,84.2059,2.322951,323.194932,-41.552507,286.98433
27,6.867061,-4.060065,0.08678,0.005002,0.0,-44.066368,-39.561001,15.0844,-42.262916,26.441197,-39.70103,23.864193,-34.407898,-17.399196,0.0,38.631107,8.056737,43.168787,8.105989,41.532327,6.628598,38.906971,5.347265,33.355856,0.0,62.313481,19.485169,79.285252,9.913949,78.612614,0.33165,64.801793,-8.560455,44.018578,0.0,2.640213,22.108203,53.343538,38.69303,68.360707,51.698247,79.286602,60.869974,83.975225,9.161705,319.11833,-41.494034,286.972795
28,-3.243004,-3.260446,0.215115,-0.09454,0.0,-35.633148,-34.772048,20.714756,-38.770694,31.000409,-37.764507,26.745175,-33.83179,-17.026611,0.0,34.067899,9.284606,44.266696,12.028955,44.70221,12.788633,43.730023,13.288738,40.272593,0.0,62.526146,19.673962,79.326759,10.073181,78.589439,0.422619,64.932678,-8.560169,44.292389,0.0,2.625244,22.366678,53.416564,38.873699,68.312183,51.791799,79.203116,60.908025,83.77093,5.889616,315.845028,-41.308004,286.865399
29,4.113499,-4.745458,0.105892,-0.025713,0.0,-39.44117,-37.975891,18.990097,-43.775081,27.487541,-43.819633,21.185257,-40.740211,-22.619453,0.0,33.862358,9.879066,45.959869,16.56235,49.539972,20.884928,49.987687,24.438961,50.386521,0.0,62.859661,19.974667,79.524502,10.343994,78.709637,0.625912,65.201672,-8.456382,44.740242,0.0,2.577956,22.536294,53.575571,39.026063,68.367203,51.885499,79.201399,60.977791,83.646564,9.975603,311.088078,-41.229624,286.828194
30,0.112473,6.304779,0.464596,0.100307,0.0,-40.127278,-38.651493,16.29705,-42.621174,26.723533,-41.099934,23.465469,-36.526852,-18.110928,0.0,33.503439,9.016672,43.013806,10.834974,43.37633,10.64403,41.695027,10.106258,36.588749,0.0,62.740631,19.926418,79.159767,10.296845,78.46685,0.52803,65.00061,-8.64426,44.63665,0.0,2.509883,22.604158,53.374055,38.994805,68.287854,51.776634,79.085716,60.850709,83.573082,10.064244,317.388809,-40.78886,286.924453
31,1.655113,2.352135,0.354595,0.032666,0.0,-40.912033,-38.646149,11.518822,-42.253109,23.60051,-40.415623,21.732078,-35.875362,-14.926163,0.0,32.550877,8.421089,39.77244,9.452778,41.003224,8.558224,38.693339,7.45183,31.84486,0.0,62.602925,19.765297,78.950695,10.131901,78.298542,0.402764,64.890301,-8.728008,44.635586,0.0,2.679647,22.657832,53.334621,39.064694,68.316445,51.831332,79.220666,60.878743,83.718739,11.697945,319.738033,-40.455677,286.954208
32,-0.234215,2.859501,0.235348,0.064431,0.0,-43.819439,-39.287498,10.173432,-41.512161,23.643013,-38.496506,23.247048,-32.909614,-13.093391,0.0,33.643452,7.408827,38.765575,6.428835,38.31329,4.008528,35.366301,1.681797,27.403869,0.0,62.413261,19.826397,78.849884,10.216129,78.124123,0.482231,64.764862,-8.708862,44.565388,0.0,2.799615,22.812528,53.414439,39.204583,68.468029,51.941606,79.421774,60.971788,83.93789,11.439079,322.591254,-40.24498,287.012359
33,5.119263,7.046228,0.192387,0.081226,0.0,-52.528462,-44.450054,1.077255,-44.298374,16.429802,-38.850964,19.450722,-31.324242,-10.828446,0.0,36.455986,5.407126,34.540933,-0.663792,30.863968,-7.761471,24.984748,-14.256638,10.921055,0.0,62.291942,19.753955,78.687343,10.144374,77.949703,0.410774,64.595592,-8.780388,44.299072,0.0,2.865306,22.871068,53.501965,39.264111,68.66778,51.998947,79.672493,61.028315,84.125538,16.524748,329.625505,-40.086187,287.081608
34,-2.748848,6.00813,0.018116,0.078324,0.0,-50.860806,-42.325035,0.451103,-40.026512,18.587585,-33.05975,24.565933,-24.436363,-1.951561,0.0,36.4106,5.07618,30.963299,-5.724424,24.771042,-17.273467,16.422794,-27.590158,-2.420764,0.0,62.324501,19.882255,78.766983,10.297233,77.94001,0.531166,64.551727,-8.733696,44.07621,0.0,2.822587,22.956259,53.636704,39.286674,68.828294,51.989154,79.857782,60.987918,84.188758,13.711029,335.609398,-40.132942,287.135695
35,0.924751,-6.138003,-0.068585,0.11451,0.0,-49.761658,-42.026321,2.261353,-41.762363,18.604134,-36.446205,21.510864,-29.287216,-7.186466,0.0,34.981584,5.171794,33.458398,-0.348532,30.940735,-6.912761,24.930877,-12.779631,11.055806,0.0,62.379147,20.012043,78.893887,10.3946,77.965862,0.576107,64.512348,-8.745197,43.931774,0.0,2.797578,22.877515,53.868231,39.212772,69.057005,51.940272,79.984321,60.954647,84.221202,14.53886,329.445475,-40.298447,287.224285
36,-1.066738,-4.395147,-0.085773,0.09191,0.0,-48.078163,-41.675125,7.21265,-42.59626,20.979252,-38.227158,21.566654,-31.620255,-11.382282,0.0,35.065354,5.879293,37.203227,3.261533,35.302895,-0.584073,31.215549,-4.166288,21.955729,0.0,62.413421,20.150402,79.079475,10.538395,78.040123,0.709545,64.510345,-8.630242,43.754516,0.0,2.650587,22.825224,54.028461,39.162914,69.228399,51.917029,80.052777,60.951349,84.218237,13.346598,325.025996,-40.509744,287.291863
37,0.849518,-1.807015,-0.030064,0.036185,0.0,-45.705357,-41.747658,7.748623,-43.867218,20.58102,-40.343388,20.132801,-34.429951,-12.643376,0.0,33.934507,5.935462,37.926374,4.758079,36.949347,2.14763,33.633263,-0.387966,25.500993,0.0,62.535015,20.073143,79.285778,10.422672,78.132351,0.539784,64.34618,-8.831966,43.459625,0.0,2.493717,22.681445,53.995783,38.997534,69.235612,51.733569,80.001944,60.775633,84.103753,14.045105,323.188183,-40.690819,287.29725
38,-3.768517,-2.048138,0.019318,-0.173308,0.0,-41.692669,-39.611675,12.886723,-42.367172,25.510952,-39.454548,23.632107,-33.862564,-11.700771,0.0,32.162344,5.957742,39.426366,6.736871,39.427996,6.156516,37.608002,5.61972,32.464798,0.0,62.550991,19.761738,79.540455,10.047374,78.257549,0.181617,64.246547,-9.067761,43.441623,0.0,2.449651,22.470098,53.946703,38.869439,69.279787,51.69558,79.970933,60.786389,83.93752,10.100492,321.110015,-40.847597,287.093912
39,1.191193,-6.935349,0.195041,-0.500549,0.0,-41.431103,-39.707073,15.833759,-45.065369,25.613148,-44.1698,20.251659,-40.069347,-24.094803,0.0,34.099751,6.071041,43.516849,11.68997,45.669197,15.661263,46.731724,19.163647,47.494835,0.0,62.560181,19.269001,79.668206,9.569275,78.334442,-0.162357,64.20179,-9.212757,43.343525,0.0,2.271686,22.261196,53.755018,38.777838,69.122818,51.71697,79.706382,60.858217,83.99885,11.103436,314.15515,-40.840805,286.573847
40,-6.024571,1.003901,0.200833,-1.520555,0.0,-34.244533,-33.418167,22.05613,-38.283313,32.410492,-37.710113,26.306969,-33.882648,-20.040149,0.0,31.716691,5.565429,42.968333,10.033812,44.240268,13.008367,45.410722,15.769413,45.952038,0.0,62.541698,19.025894,79.741161,9.304367,78.284443,-0.46764,64.14909,-9.555645,43.049469,0.0,1.805471,21.832464,53.779323,38.324072,69.636928,51.402599,79.851854,60.807891,83.923972,4.862491,315.134623,-40.856346,285.028864
41,3.365445,0.45951,-0.166626,-2.632037,0.0,-40.429367,-38.376824,15.175747,-42.064247,28.040233,-39.917656,24.385173,-34.541119,-15.514813,0.0,34.257387,5.080144,43.613253,6.666698,43.928032,6.964557,42.013103,7.385781,38.860015,0.0,62.858608,18.646328,79.912456,8.984401,78.637401,-0.635536,64.704197,-9.54863,43.775619,0.0,0.634004,20.339005,53.392296,37.027387,70.263558,50.56267,80.048899,60.575326,84.062429,7.993864,315.570711,-41.257044,282.373405
42,-1.644425,2.49957,-0.669297,-4.341968,0.0,-42.348358,-38.961365,8.111229,-40.300907,27.011593,-36.118686,26.605442,-28.826431,-5.472667,0.0,36.264053,5.183144,41.78328,1.067257,39.164198,-4.069575,33.415926,-8.563597,25.560582,0.0,63.285107,18.684895,79.284794,9.271603,78.585904,-0.090671,64.565243,-8.802772,43.224381,0.0,-0.96338,18.634422,52.661134,35.398584,70.807703,49.338666,80.844479,59.849117,84.777919,6.092319,318.058366,-42.183461,278.019522
43,1.684044,-4.47709,-1.166095,-6.644134,0.0,-40.874382,-40.055214,-1.11153,-41.083683,19.401363,-36.473545,20.916767,-28.493076,-5.963665,0.0,38.706479,4.860165,41.501575,-0.626742,36.750547,-7.00346,28.726106,-12.913185,19.379453,0.0,63.833839,17.973118,77.02137,8.658714,75.357261,-0.340645,61.654873,-8.611393,41.263984,0.0,-3.001181,15.664943,51.013695,32.343211,70.914494,46.862573,81.680703,58.557397,84.276307,7.554302,313.567861,-43.571617,271.361973
44,3.165985,-15.010834,-2.677632,-8.958886,0.0,-40.664314,-38.867294,-16.059025,-35.512596,4.07634,-27.537906,9.798168,-16.729786,-0.013756,0.0,39.684582,10.241071,45.653228,4.855126,43.29687,-1.609648,35.982237,-8.141792,26.22009,0.0,62.106903,18.250431,74.042714,9.488182,70.862629,1.073239,57.75008,-6.55941,39.411507,0.0,-0.41931,11.60762,48.359588,27.904381,69.798837,42.997022,80.328863,56.010044,83.08739,10.536844,298.482457,-46.432692,262.328517
45,9.37167,-19.119298,-2.743131,-11.420288,0.0,-46.059437,-41.323563,-33.228367,-34.373337,-12.438252,-23.012066,-2.190445,-9.358006,3.447372,0.0,45.819534,14.796646,51.059452,9.782932,49.326167,3.439572,41.502723,-3.353356,30.183564,0.0,60.126096,18.301443,68.269237,9.654671,62.253788,1.398479,49.505945,-5.958899,33.176307,0.0,-1.213093,4.658346,37.126213,19.334851,57.813255,33.908146,68.235762,47.488253,71.998906,19.784718,279.288722,-49.299619,250.833792
46,9.793259,-29.746779,-2.378815,-13.770033,0.0,-42.672467,-36.070679,-43.763546,-27.679413,-25.804287,-15.767556,-14.616394,-2.05996,-3.49791,0.0,43.809966,15.036213,53.918829,14.685421,55.400518,13.291455,51.140048,11.186581,43.629679,0.0,57.611589,18.428976,59.480347,9.25668,48.940338,0.304836,36.209868,-7.61622,21.304413,0.0,-4.968815,-4.419816,17.976755,7.057609,35.557703,19.736364,45.730663,33.002644,50.686331,29.449751,249.447696,-51.80666,236.969512
47,11.292572,-32.158145,-1.716385,-17.024626,0.0,-39.884468,-32.634133,-46.021752,-23.054501,-32.982342,-11.068474,-20.880066,2.092975,-7.608353,0.0,38.927422,10.492012,48.205496,13.97376,51.941445,17.347383,51.298426,20.049543,47.899671,0.0,53.297339,16.26428,45.753628,6.219177,32.004055,-3.389351,20.005114,-11.584207,8.22876,0.0,-7.835701,-16.062733,-9.301754,-7.613115,4.967821,3.564648,16.653975,16.777377,26.661951,40.491286,217.263888,-53.774082,219.919223
48,8.677139,-31.602132,-2.301658,-18.05887,0.0,-38.686363,-27.029537,-43.936558,-15.244606,-32.782688,-2.053207,-19.408676,11.491173,-2.727264,0.0,28.204377,2.216,26.402531,8.118444,32.358574,15.032508,35.983713,21.948566,40.23936,0.0,47.510255,15.056619,33.770656,4.309707,18.719249,-6.288826,6.161596,-15.312155,-5.154763,0.0,-11.593511,-25.439991,-37.29644,-20.374209,-27.761071,-11.470528,-16.828075,0.434908,-2.118311,48.583225,185.684415,-56.66094,201.883012
49,2.706436,-22.627833,-0.346985,-22.451042,0.0,-33.795902,-21.596901,-33.549992,-9.377197,-19.530167,3.846336,-5.68277,17.087128,10.029625,0.0,13.064862,-14.038178,-7.405808,-10.202669,-5.683014,-3.581858,-2.197451,4.384649,5.828603,0.0,41.72402,12.352392,21.09423,0.109497,4.735084,-11.778408,-8.219084,-22.221995,-19.821877,0.0,-19.29144,-37.438429,-68.480108,-34.909398,-64.134275,-27.607831,-52.308114,-16.36762,-33.222377,50.638653,163.935862,-57.658933,180.31125
50,1.477455,-24.022572,0.173395,-23.960222,0.0,-29.031212,-17.496368,-25.318634,-4.869209,-11.305618,8.288841,3.413773,21.29361,19.44619,0.0,-3.060745,-30.134664,-44.251481,-28.341555,-45.641341,-22.13131,-40.766313,-13.340614,-27.565594,0.0,35.627312,9.722843,11.045563,-3.713814,-5.246384,-16.441681,-18.823837,-27.805584,-30.414963,0.0,-24.780836,-46.715854,-92.991811,-45.689346,-92.314032,-39.277863,-79.871268,-28.551155,-56.359249,51.414539,141.708025,-58.187107,158.145763
51,-5.080765,-21.672177,1.802364,-25.883161,0.0,-20.160095,-12.986412,-15.034584,0.402695,-0.238288,13.725266,15.047791,26.911629,30.522629,0.0,-19.721458,-41.937651,-79.218128,-42.253745,-84.27939,-37.337523,-78.120218,-29.186191,-60.169565,0.0,28.643738,6.718323,3.222313,-7.297382,-11.450981,-20.261581,-25.354545,-31.975548,-36.854576,0.0,-26.802674,-52.608566,-109.5395,-51.659666,-110.287384,-45.138699,-97.41393,-34.526428,-70.253592,45.694232,122.24651,-57.024285,134.473264
52,-6.953979,-20.225872,2.000336,-23.586089,0.0,-13.077713,-7.705811,-9.396492,7.087921,6.355545,21.522308,22.283112,35.889816,39.315308,0.0,-32.131234,-49.475777,-104.088465,-51.181607,-112.568964,-47.675289,-106.015201,-40.36572,-84.872941,0.0,23.093548,6.071514,2.592602,-8.576637,-12.438606,-21.964909,-26.88422,-34.409111,-39.751579,0.0,-29.496523,-55.859268,-117.616763,-55.571431,-120.588612,-49.733189,-110.066923,-39.66915,-83.994231,38.270136,104.578216,-55.494066,113.444753
53,-4.293343,-21.359604,3.620785,-22.881102,0.0,-9.756729,-6.31137,-7.734169,8.708702,8.013657,23.156136,23.700417,37.636963,40.781365,0.0,-39.550737,-52.919263,-110.643894,-55.074606,-120.678169,-52.392662,-114.539116,-45.708167,-95.167753,0.0,19.114769,5.78881,2.184253,-9.421269,-13.330594,-23.080742,-27.420811,-36.182866,-40.369206,0.0,-31.823625,-60.251464,-123.941216,-60.35447,-128.446828,-54.800379,-118.832431,-44.841142,-91.999148,33.918771,86.589802,-51.931303,93.934841
54,-3.654785,-16.957083,3.900821,-18.277758,0.0,-6.597244,-6.914383,-9.28331,7.905579,5.226288,22.181809,21.599419,36.782959,38.557549,0.0,-44.468534,-54.078559,-112.187099,-56.873006,-122.947602,-55.287348,-117.807745,-49.579788,-100.735435,0.0,17.495201,6.161946,3.329384,-9.313236,-11.744201,-23.3069,-26.297847,-36.809818,-39.556709,0.0,-35.149668,-61.151334,-126.631409,-62.235647,-132.287901,-57.580524,-123.939486,-48.401535,-97.438741,30.382976,72.785368,-47.911492,78.809732
55,-5.533951,-13.934839,4.875321,-15.101569,0.0,-3.55046,-6.899894,-10.562736,7.799836,4.053429,21.9879,20.281701,36.732834,37.282631,0.0,-49.328075,-54.470637,-111.46515,-57.704024,-122.768235,-56.867695,-118.870839,-51.831134,-103.339178,0.0,18.40187,6.159645,4.676147,-9.469963,-10.283055,-23.745026,-24.875977,-37.73505,-39.15477,0.0,-39.790793,-61.692324,-128.260707,-63.430487,-134.775906,-59.404712,-127.223176,-50.604117,-101.327184,25.234039,61.362983,-42.651157,66.220617
56,-5.3432,-8.715261,3.377495,-10.36716,0.0,-2.699204,-7.113922,-12.035397,7.464935,1.604828,21.609489,17.737701,36.473671,35.28907,0.0,-50.183609,-55.328796,-111.211245,-58.894061,-122.869877,-58.560219,-120.123978,-53.822172,-106.175196,0.0,17.818977,8.250446,9.711307,-8.117306,-6.427895,-23.179059,-21.643124,-38.032219,-37.83759,0.0,-42.695939,-62.13952,-131.152675,-64.747258,-138.471513,-61.464532,-131.229938,-53.129344,-105.5766,20.396067,55.066714,-38.768434,58.272449
57,-5.222328,-7.34515,2.516304,-7.970743,0.0,-2.168953,-7.375409,-14.270211,7.182907,-0.680764,21.473007,15.812759,36.575317,34.177963,0.0,-50.614263,-55.48579,-112.525102,-59.066313,-123.83122,-58.729434,-121.256931,-53.892512,-107.104194,0.0,16.002994,10.730747,14.145973,-6.103569,-2.837128,-21.963467,-19.156929,-37.75739,-37.002903,0.0,-45.205037,-62.189902,-133.369985,-65.480254,-141.169377,-62.739542,-134.470241,-54.816242,-108.465432,15.754967,49.714683,-35.670902,52.294825
58,-3.687195,-5.15209,1.704357,-5.059674,0.0,-1.677223,-8.743618,-18.169121,5.982399,-4.601097,20.648803,12.301254,36.22705,31.793884,0.0,-49.870991,-55.579854,-116.034631,-59.314062,-127.16489,-58.796513,-124.146258,-53.673075,-108.112121,0.0,14.531444,12.889435,18.750114,-4.442768,0.558586,-21.084217,-17.306992,-37.69986,-37.038208,0.0,-47.090883,-62.157483,-135.547317,-66.053731,-143.843732,-63.798013,-137.394741,-56.226912,-111.326304,12.647902,45.696852,-33.386415,48.36941
59,-2.660546,-2.925457,1.025745,-2.590319,0.0,-3.670063,-9.910823,-21.588672,5.0029,-7.461616,20.053574,9.384087,35.93882,30.032547,0.0,-48.265832,-55.904951,-119.6207,-59.7439,-131.169255,-59.072815,-127.412496,-53.584574,-109.288602,0.0,12.77417,14.738445,22.599541,-3.176777,2.792427,-20.581203,-15.999996,-37.955543,-37.61198,0.0,-48.209504,-61.829699,-137.195818,-66.26333,-145.620649,-64.553831,-139.708362,-57.388523,-114.072944,10.542904,43.454747,-31.805122,46.462443
60,-1.029579,-1.51273,-0.573749,-0.721652,0.0,-5.892906,-11.262176,-25.226864,3.847252,-10.915878,19.249375,6.462548,35.296074,28.031456,0.0,-46.181738,-55.934765,-123.294535,-59.913572,-134.646342,-59.090439,-130.040984,-53.166315,-110.040803,0.0,9.053112,16.867721,26.701789,-1.512383,5.684864,-19.570839,-14.057545,-37.560769,-37.105957,0.0,-47.151503,-61.373062,-138.326437,-66.384478,-146.909288,-65.192485,-141.541738,-58.493708,-116.496345,9.893417,42.563658,-31.998779,46.362432
61,0.024651,-0.481147,-0.65308,-0.485927,0.0,-8.026806,-11.954018,-27.448128,3.421509,-12.198292,19.167824,5.396507,35.289917,27.210411,0.0,-45.939423,-56.064527,-126.255819,-60.243239,-137.654031,-59.428813,-132.247208,-53.24228,-110.776102,0.0,8.230579,17.245651,28.035163,-1.044457,7.18713,-19.192475,-13.212136,-37.433098,-36.953591,0.0,-48.482125,-60.950707,-137.58826,-66.434261,-146.860393,-65.654378,-142.207067,-59.273732,-117.393393,10.178255,42.445539,-32.391672,46.239533
62,1.146286,0.188246,-1.299797,-0.993132,0.0,-10.819393,-12.133885,-27.378639,3.51947,-12.447705,19.491165,4.916862,35.795608,26.956444,0.0,-46.428962,-56.497089,-127.982762,-60.898392,-139.484017,-59.963522,-133.566271,-53.485546,-111.257206,0.0,7.780895,16.481346,29.214122,-1.761979,6.617511,-19.770012,-13.28341,-37.85542,-37.421162,0.0,-49.265744,-60.895885,-136.676361,-66.445419,-146.512775,-65.687908,-141.893116,-59.318001,-117.179045,11.556685,43.158305,-33.459325,45.770921
63,3.715118,0.200479,-3.331868,-1.7531,0.0,-11.328953,-11.704662,-25.037224,4.057457,-10.453022,19.979553,6.004372,36.23021,27.649773,0.0,-46.760611,-57.044944,-128.926777,-61.314411,-140.340155,-60.266562,-133.929438,-53.636519,-111.973239,0.0,6.431385,14.645039,25.350128,-3.258671,4.243824,-20.826942,-14.195011,-38.530277,-38.328266,0.0,-49.196393,-61.19388,-135.808441,-66.663398,-145.943282,-65.782572,-140.810959,-59.196958,-116.514524,15.414362,43.586013,-36.648634,44.24505
64,7.008705,-0.799724,-5.953331,-3.568346,0.0,-7.81002,-10.50127,-21.581852,5.299439,-6.938335,21.067154,9.095993,37.147705,29.315255,0.0,-48.852906,-58.20014,-129.38431,-62.156149,-140.632895,-60.563526,-133.868002,-53.258693,-111.662442,0.0,6.387635,11.535816,20.363285,-5.872146,0.272198,-22.781971,-16.777393,-39.86895,-40.322365,0.0,-51.326652,-61.54663,-134.709129,-66.581734,-144.653366,-65.239446,-138.713267,-58.316052,-114.806805,22.655136,42.682598,-42.369896,40.573013
65,10.996216,-1.859842,-9.524894,-4.309401,0.0,-2.488598,-8.526489,-15.686016,7.246765,-1.184681,22.778755,14.290627,38.502411,32.47712,0.0,-50.170962,-59.497479,-129.776203,-62.902341,-140.665728,-60.578611,-133.452076,-52.473573,-110.894181,0.0,1.563915,8.482223,13.375499,-8.594422,-5.660992,-25.046414,-21.195317,-41.615502,-43.919289,0.0,-50.892726,-62.657211,-134.666126,-67.074817,-144.3375,-65.130926,-137.311304,-57.7452,-113.589667,33.695223,40.086024,-51.850919,35.52688
66,15.436455,-3.606811,-14.250687,-4.786163,0.0,3.104347,-5.884506,-7.746105,9.537849,5.629486,24.640366,20.475677,39.807014,36.379784,0.0,-50.2394,-60.013866,-129.85454,-62.58621,-139.735242,-59.429874,-131.600261,-50.570456,-108.860239,0.0,-2.574944,4.790863,6.327461,-11.937733,-12.793671,-27.70015,-26.826885,-43.330834,-48.080853,0.0,-49.534242,-64.142413,-134.555154,-67.898802,-143.772842,-65.383504,-135.623097,-57.49852,-112.475196,49.194414,35.511667,-66.03887,29.773171
67,20.109123,-4.080806,-18.238907,-4.670141,0.0,11.622894,-2.918724,-0.289421,11.829369,12.315102,26.221527,26.851502,40.343949,39.126663,0.0,-49.900854,-60.163013,-129.960541,-61.842328,-138.627563,-57.964285,-129.49921,-48.430342,-105.758925,0.0,-7.069519,1.455151,-2.051216,-14.906925,-19.422901,-30.118137,-32.515274,-45.142158,-52.436577,0.0,-48.533316,-65.503941,-135.147976,-68.558845,-143.317266,-65.533205,-134.139462,-57.222773,-111.553657,69.271053,28.136804,-84.310261,21.808973
68,22.791985,-4.470829,-20.840229,-4.430981,0.0,18.568977,0.829399,6.602142,14.817077,18.88797,28.394737,33.502258,41.199737,41.727722,0.0,-49.874696,-60.114421,-129.860357,-61.023641,-137.377531,-56.357292,-126.893836,-46.068352,-101.26802,0.0,-12.345612,-1.213131,-6.818848,-17.478355,-25.404465,-32.352962,-38.057133,-46.937118,-56.579807,0.0,-48.028822,-66.325142,-136.102422,-68.767265,-143.430034,-65.337363,-133.346544,-56.939369,-110.371581,91.867853,19.499014,-105.345675,13.211031
69,24.629471,-3.417787,-22.693737,-2.619088,0.0,23.164238,3.008743,11.073532,17.020477,23.073623,30.444213,37.316803,42.78495,45.041931,0.0,-48.704995,-59.721454,-130.014862,-60.443606,-137.922033,-55.723429,-126.618299,-45.539125,-100.958095,0.0,-19.670963,-2.554138,-10.201275,-18.759739,-29.068737,-33.475868,-41.762718,-47.729324,-59.37965,0.0,-44.398639,-67.126224,-137.09233,-69.432676,-144.668056,-66.069847,-133.895678,-57.845236,-110.699414,116.007351,12.011276,-128.529385,6.521992
70,23.189003,-2.51187,-21.849941,-2.888301,0.0,26.276779,5.080398,13.298606,19.261917,25.20195,32.626968,39.379531,44.866539,47.827949,0.0,-47.829579,-59.58243,-130.15658,-60.132576,-138.167103,-55.421465,-126.627365,-45.42159,-101.191352,0.0,-23.644364,-4.330113,-12.623566,-20.461109,-31.744366,-34.882965,-44.251797,-48.626393,-61.064083,0.0,-42.647385,-66.552544,-136.456119,-68.685644,-144.374693,-65.356649,-133.742723,-57.192892,-110.241418,138.618096,5.927487,-150.957584,0.061772
71,19.816085,-1.330339,-18.930039,-2.075111,0.0,29.531548,6.233597,13.118317,20.922066,25.859963,34.393937,39.818207,46.723572,49.555275,0.0,-47.462071,-59.922235,-130.39238,-60.635397,-139.003345,-56.056462,-127.492488,-46.209902,-102.763708,0.0,-28.288192,-5.010452,-14.658611,-21.223308,-32.929641,-35.638275,-45.346378,-49.118854,-61.758568,0.0,-41.758364,-65.171428,-135.913931,-67.323133,-144.330837,-64.036035,-133.637975,-55.862102,-109.584887,157.815879,1.30834,-170.505925,-5.302147
72,14.566819,-1.313839,-14.558853,-1.390989,0.0,30.258293,6.347007,11.13121,21.80381,24.922714,35.68293,39.117805,48.499168,51.636634,0.0,-47.523327,-59.9159,-130.403711,-60.927773,-139.526408,-56.578926,-128.347595,-47.104888,-105.183385,0.0,-30.426281,-5.157703,-15.217609,-21.431156,-32.737358,-35.862156,-45.1497,-49.012035,-61.3022,0.0,-41.767979,-63.780013,-135.18713,-66.117334,-144.596939,-62.970329,-133.831255,-54.833539,-109.04391,171.848059,-1.037055,-185.599417,-7.724692
73,9.044586,-0.549189,-9.564228,-1.006334,0.0,29.692337,5.447479,8.206856,21.801887,22.471138,36.266899,36.921959,49.933571,53.059433,0.0,-48.065478,-60.117886,-130.391275,-61.580407,-140.466478,-57.632827,-130.137549,-48.644307,-108.937786,0.0,-31.109848,-4.818775,-14.715889,-21.248257,-31.867069,-35.829002,-44.274032,-48.841118,-60.507316,0.0,-41.943184,-62.73656,-134.387697,-65.128839,-144.454691,-62.036916,-133.900687,-53.706094,-108.921033,180.464121,-1.402882,-195.592169,-8.547664
74,3.439888,-0.771078,-5.0308,-0.784527,0.0,29.790756,5.401542,7.0998,22.016762,21.363579,36.568245,36.142204,50.466408,53.024093,0.0,-48.947872,-60.045767,-130.553845,-61.548679,-139.925331,-57.676021,-129.874454,-48.860106,-109.488167,0.0,-31.111427,-4.08221,-13.825744,-20.755554,-30.945305,-35.531456,-42.980839,-48.497589,-59.503372,0.0,-42.730266,-62.14903,-134.096099,-64.535658,-144.249636,-61.329725,-133.891575,-52.647345,-108.604741,183.604431,-1.863625,-200.922547,-9.021856
75,0.318626,-0.71176,-1.891731,0.108965,0.0,28.663925,4.80146,5.782379,21.560784,20.297562,36.177063,35.170578,50.198731,52.265717,0.0,-49.945703,-59.567535,-130.609334,-61.284048,-139.956583,-57.567044,-129.740758,-49.015828,-110.065978,0.0,-30.058388,-2.988991,-12.072292,-19.779648,-29.311913,-34.619991,-41.492432,-47.503155,-58.1567,0.0,-43.946694,-62.105737,-134.317054,-64.648575,-144.473117,-61.427186,-133.784821,-52.560697,-108.302899,183.867359,-2.304918,-202.869976,-8.642424
76,-1.256744,-0.667411,0.150787,0.239814,0.0,27.280472,4.321472,4.622429,21.084617,19.436828,35.732963,34.472603,49.853851,51.607704,0.0,-50.403279,-59.223622,-130.522234,-60.999459,-139.955752,-57.294965,-129.926899,-48.852319,-110.042574,0.0,-29.489776,-2.314499,-11.111297,-19.143951,-28.604438,-34.060112,-40.637729,-47.037494,-57.446285,0.0,-44.485899,-62.646071,-134.853357,-65.176578,-144.84641,-61.87936,-133.888729,-52.92626,-108.321388,182.520985,-2.776882,-202.808819,-8.207163
77,-1.649323,-0.619801,0.960881,0.368853,0.0,26.470871,4.034317,4.115753,20.860497,19.001999,35.547936,34.090256,49.768273,51.065346,0.0,-51.020623,-59.188511,-130.407663,-60.955171,-140.094197,-57.209836,-130.184806,-48.717852,-110.172924,0.0,-29.925316,-2.096787,-11.0541,-18.998097,-28.489483,-33.965184,-40.493477,-47.027653,-57.327519,0.0,-44.463267,-63.147434,-135.453422,-65.557071,-145.356422,-62.085284,-134.231214,-52.943506,-108.556452,180.731872,-3.269255,-201.987728,-7.710882
78,-1.43058,-0.433624,0.680866,0.467704,0.0,25.890656,3.961533,3.671059,20.746971,18.829559,35.428711,33.817703,49.676743,50.7678,0.0,-51.476112,-59.231378,-130.686379,-61.002176,-140.392278,-57.265911,-130.629501,-48.796163,-110.440945,0.0,-29.952828,-1.928295,-10.97612,-18.79905,-28.192658,-33.739529,-40.377537,-46.792202,-57.379131,0.0,-44.155317,-63.072192,-135.772665,-65.540041,-145.821017,-62.072743,-134.566402,-52.92876,-108.715824,179.233515,-3.638505,-201.374639,-7.178804
79,-1.144501,-0.400865,0.537289,0.326258,0.0,24.848832,4.030953,3.407067,20.726349,18.540757,35.344162,33.492897,49.579949,50.612755,0.0,-51.929836,-59.39874,-130.752718,-61.182012,-140.508993,-57.428784,-130.906174,-48.91297,-110.487505,0.0,-30.061455,-2.007592,-11.111126,-18.835305,-28.249627,-33.706193,-40.624592,-46.730908,-57.653286,0.0,-44.287346,-62.790381,-135.714008,-65.275144,-145.863865,-61.825525,-134.569258,-52.683426,-108.53605,178.028766,-4.012922,-200.897598,-6.826098
80,-0.886734,-0.216645,0.397087,0.406911,0.0,24.580307,3.844048,3.018059,20.543656,18.145249,35.147873,33.084847,49.360497,50.459748,0.0,-52.400844,-59.652732,-130.889724,-61.481446,-140.499965,-57.770826,-131.185033,-49.280657,-110.552794,0.0,-29.748322,-2.05362,-11.291474,-18.820713,-28.328385,-33.693272,-40.76381,-46.795018,-58.037682,0.0,-44.088763,-62.454324,-135.461033,-65.000836,-145.746972,-61.635643,-134.382599,-52.566835,-108.301281,177.11095,-4.262467,-200.531593,-6.452087
81,-0.834411,-0.2538,0.243187,0.51648,0.0,24.411117,3.578911,2.713417,20.277076,17.76654,34.85099,32.808403,49.071167,50.209282,0.0,-52.721483,-59.790615,-131.078563,-61.668346,-140.668881,-58.007633,-131.280178,-49.552168,-110.483658,0.0,-28.48383,-2.04332,-11.444275,-18.772259,-28.299328,-33.65308,-40.810559,-46.85059,-58.290562,0.0,-43.697672,-62.31113,-135.199001,-64.927409,-145.708427,-61.621625,-134.389885,-52.618934,-108.252331,176.320765,-4.567882,-200.24418,-5.987222
82,-0.717018,0.461109,0.295875,0.505545,0.0,24.329063,3.025772,2.082252,19.772804,17.047256,34.35823,31.980217,48.58873,49.804939,0.0,-53.195646,-60.125815,-131.561081,-62.168969,-141.0401,-58.61703,-131.722497,-50.23146,-110.799104,0.0,-27.965446,-2.056297,-11.570492,-18.762749,-28.412498,-33.648399,-40.997829,-46.912182,-58.6795,0.0,-43.05897,-62.12951,-134.920791,-64.855476,-145.534026,-61.653137,-134.255727,-52.743207,-108.220882,175.681143,-4.184044,-199.870909,-5.558948
83,-1.013237,0.496306,0.611023,0.587018,0.0,24.028427,2.547226,1.5168,19.357177,16.33731,33.982109,31.408744,48.267563,49.451591,0.0,-53.392339,-60.326818,-131.866313,-62.473009,-141.304718,-58.929702,-131.961785,-50.489971,-110.807471,0.0,-27.991608,-2.162956,-11.781692,-18.910377,-28.66008,-33.828083,-41.187401,-47.142288,-58.92057,0.0,-42.846969,-62.212256,-134.735163,-64.900609,-145.272047,-61.634377,-134.080275,-52.644388,-108.157823,174.751774,-3.768776,-199.176018,-5.052968
84,-1.604645,0.850229,0.724342,0.687646,0.0,24.367149,2.256363,1.374458,19.093963,16.226463,33.732765,31.330788,48.062462,49.351868,0.0,-53.355443,-60.563044,-131.804723,-62.69058,-141.384799,-59.003364,-131.904851,-50.367162,-110.467856,0.0,-27.523143,-2.178703,-11.956169,-18.980175,-28.893894,-33.953304,-41.329879,-47.320026,-59.051044,0.0,-42.922446,-62.114406,-134.460188,-64.761621,-144.830389,-61.448372,-133.648924,-52.454159,-107.87905,173.302139,-2.986309,-198.296666,-4.433084
85,-1.910065,1.416462,1.001988,0.970822,0.0,24.268181,2.063439,1.494988,18.878609,16.222573,33.534142,31.189842,47.950836,49.430763,0.0,-53.087323,-60.667767,-131.725732,-62.774542,-141.509591,-58.98558,-131.930706,-50.230632,-110.4436,0.0,-26.722366,-2.109638,-12.163788,-18.981732,-29.188854,-34.017986,-41.550133,-47.487488,-59.340672,0.0,-43.313067,-62.101803,-134.451334,-64.584021,-144.554924,-61.133748,-133.477808,-52.057012,-107.56999,171.557699,-1.680843,-197.129053,-3.573258
86,-2.499824,2.320482,1.453354,1.343133,0.0,23.83834,1.886215,1.878662,18.830154,16.522773,33.59095,31.398353,48.135017,50.318664,0.0,-53.050508,-61.100149,-131.724973,-63.282576,-141.643991,-59.389817,-132.223002,-50.480882,-110.461126,0.0,-26.885662,-1.968201,-12.338986,-18.97348,-29.569668,-34.087303,-42.031952,-47.649617,-59.751938,0.0,-43.719032,-62.011561,-134.458756,-64.223448,-144.128302,-60.568225,-133.076238,-51.303305,-106.968516,169.247034,0.388358,-195.48654,-2.481406
87,-3.148888,3.309779,2.224914,2.140973,0.0,22.782051,1.453308,1.57592,18.633385,16.819473,33.587883,31.90107,48.338242,51.614914,0.0,-52.942167,-61.491505,-131.874915,-63.80341,-142.06926,-59.877127,-132.907894,-50.889657,-110.462972,0.0,-25.660812,-1.814861,-12.714672,-18.896301,-29.954246,-34.067573,-42.733967,-47.786419,-60.716274,0.0,-44.842118,-61.951169,-134.354774,-63.831382,-143.76575,-59.927348,-132.522436,-50.437162,-106.012274,166.435101,3.011821,-192.924671,-1.026749
88,-4.213531,4.696143,2.847073,3.502199,0.0,20.711242,0.888015,1.458,18.185646,17.851707,33.274543,32.477623,48.326797,53.082275,0.0,-52.721582,-62.021558,-131.781042,-64.34877,-142.052068,-60.290132,-132.923819,-51.095922,-109.970932,0.0,-22.92144,-1.578484,-12.931503,-18.705414,-29.921276,-33.905239,-43.124188,-47.75631,-61.28278,0.0,-46.691579,-62.06403,-134.255714,-63.805805,-143.319177,-59.860553,-131.874538,-50.398154,-105.1925,162.700568,6.694538,-189.5986,1.462024
89,-4.863671,6.353346,3.951347,5.060978,0.0,15.548561,0.089035,0.341149,17.21402,18.246895,32.192711,32.547043,47.311249,52.918556,0.0,-52.150125,-62.058139,-130.01356,-64.461743,-140.022017,-60.33287,-131.070357,-50.954798,-107.206694,0.0,-19.475521,-1.275959,-12.758457,-18.467022,-29.562641,-33.553173,-43.10329,-47.493049,-60.633121,0.0,-49.009654,-62.22205,-133.658502,-63.802255,-142.644091,-59.773609,-130.975971,-50.32616,-103.538664,158.379152,11.988401,-185.104998,5.463519
90,-5.835022,8.064085,6.053101,6.679072,0.0,8.141281,-0.941391,-2.350616,15.586235,16.848244,30.252548,30.979614,45.190109,51.119339,0.0,-50.506409,-61.354746,-124.755809,-63.530158,-133.855535,-59.074761,-124.580604,-49.350151,-99.817065,0.0,-15.123722,-1.819817,-12.951107,-18.899563,-29.959889,-33.704086,-43.587307,-47.595028,-59.779381,0.0,-50.16089,-62.107273,-131.892643,-63.285119,-140.277756,-58.879073,-128.108936,-49.12859,-100.181176,153.049301,19.215793,-178.546726,11.305898
91,-6.323433,9.629631,7.292347,9.136048,0.0,0.060974,-2.802704,-7.504509,13.47313,11.790619,27.925324,26.28772,42.357903,45.319886,0.0,-46.81907,-59.881419,-113.45226,-61.380317,-118.792843,-56.349783,-110.286773,-46.427474,-87.642595,0.0,-9.32618,-2.141625,-11.766392,-18.867794,-29.479202,-33.293038,-42.923207,-46.983685,-57.514664,0.0,-51.556808,-61.815386,-127.95937,-62.611046,-136.00125,-57.848175,-123.447089,-47.781456,-95.419071,147.264284,28.433564,-170.715963,20.030086
92,-6.345108,10.136858,8.612514,10.431979,0.0,-11.336242,-7.184601,-15.417034,7.499394,2.503224,20.877525,17.049225,34.275261,34.441178,0.0,-38.165938,-54.391819,-93.228805,-53.583682,-94.26854,-46.892494,-86.227701,-36.090266,-66.411238,0.0,-3.279499,-3.01934,-9.536888,-19.494209,-27.254379,-33.507786,-40.263897,-46.647102,-53.247619,0.0,-50.290826,-60.616996,-119.011217,-60.91843,-125.531048,-55.603986,-114.030287,-45.249325,-87.871824,141.511339,38.910611,-161.511286,30.802254
93,-5.811653,10.483614,1.154091,8.368422,0.0,-25.519157,-14.489685,-26.946224,-2.391392,-11.769481,9.270676,3.183747,21.154862,18.528099,0.0,-24.893767,-44.851973,-64.812223,-40.34164,-61.251021,-31.144268,-53.605353,-19.078114,-36.983621,0.0,-1.608719,0.462593,-2.505443,-10.062424,-14.325199,-18.948944,-22.160694,-27.760322,-29.929321,0.0,-46.671073,-56.695091,-106.227993,-55.071389,-108.73732,-47.780474,-96.709012,-35.807014,-70.25726,136.090639,50.259679,-159.966242,40.03613
94,-3.570808,11.355067,10.26804,16.258173,0.0,-37.686127,-22.022118,-45.340725,-12.396069,-35.430027,-2.164582,-20.889359,8.382477,-5.546357,0.0,-12.634384,-32.629634,-35.19181,-24.893267,-25.745207,-13.523855,-16.925386,-0.485528,-3.10356,0.0,3.385185,3.020222,4.984222,-6.449936,-5.390476,-14.748528,-12.90334,-23.006424,-20.097073,0.0,-45.070841,-53.782589,-90.389512,-51.933893,-89.409626,-44.654712,-77.681185,-32.986755,-56.27751,132.741085,62.63778,-149.476948,57.317337
95,-6.942994,15.834504,5.966411,12.789054,0.0,-47.999198,-29.465492,-61.231098,-21.90446,-56.414394,-12.772567,-42.190017,-3.063285,-27.188186,0.0,0.968163,-19.521448,-5.548901,-8.095074,8.845244,5.38325,17.915079,19.005131,27.25908,0.0,12.780602,6.716401,15.915528,-0.03487,7.584469,-5.959281,0.394684,-11.92052,-5.870887,0.0,-39.327683,-47.989086,-71.85457,-44.393884,-65.649574,-35.827231,-53.759662,-23.479075,-35.918961,125.907537,79.42622,-143.401091,71.060327
96,-5.956924,16.897778,9.051716,15.160529,0.0,-56.21402,-35.993889,-76.639172,-30.820438,-76.092613,-23.121346,-63.511093,-14.142311,-46.804436,0.0,11.52744,-5.179569,19.240203,9.574312,36.640469,24.751785,46.749453,38.968163,55.198783,0.0,21.887902,10.431393,28.026181,4.19212,22.168053,-1.293583,15.359482,-6.403827,7.623093,0.0,-28.469021,-40.029767,-46.254696,-34.897264,-36.813064,-25.111256,-26.310986,-11.972294,-12.671067,119.818531,96.995985,-134.481457,86.892843
97,-9.705871,21.755766,7.987622,16.213935,0.0,-61.571343,-39.975701,-87.491066,-35.616898,-89.843148,-28.081765,-77.877594,-18.949471,-59.927605,0.0,19.488863,5.363586,37.522755,22.106129,56.116965,37.941071,67.16701,51.790157,74.231517,0.0,32.344356,16.242313,42.646453,11.058746,39.715713,6.010929,33.060138,1.155132,23.087173,0.0,-18.203571,-29.93505,-23.201649,-22.397646,-10.575184,-10.896613,0.598572,3.338635,12.178737,109.703259,119.112407,-126.903236,103.467434
98,-8.930214,23.06218,14.411384,20.269665,0.0,-63.468819,-40.184647,-96.026642,-35.593415,-100.59755,-28.000077,-89.233887,-18.745766,-69.030602,0.0,21.357924,12.781427,47.303205,30.027008,67.371743,45.39529,79.206704,58.261742,85.650458,0.0,45.8592,17.47546,53.848709,7.629605,49.382229,-1.470291,37.577717,-9.454593,20.923508,0.0,-9.638479,-21.695371,-2.843365,-13.077279,10.730363,-1.495804,20.697639,12.124039,27.388642,100.380558,142.328624,-112.884339,123.891136
99,-14.794922,27.919417,9.896965,15.880669,0.0,-62.379261,-40.395996,-92.972878,-35.472657,-95.666165,-27.781632,-84.392807,-18.260033,-64.776947,0.0,27.683229,20.496308,53.824821,36.241391,70.494567,48.990184,78.804221,58.456843,83.102309,0.0,52.437939,25.974278,61.17223,16.851689,57.952011,7.537216,46.736344,-1.186638,29.791226,0.0,5.635379,-5.477015,19.816331,6.850171,36.058986,20.329186,45.757,34.365617,50.233095,85.217148,170.232257,-103.355862,139.756021
100,-10.080048,21.756721,12.296265,21.742604,0.0,-60.799209,-39.187179,-93.566128,-33.49379,-94.551578,-25.777725,-82.822529,-16.630463,-62.739693,0.0,31.131124,27.319185,61.005356,41.614541,74.700214,52.467929,80.107957,59.911089,85.164229,0.0,55.290882,28.49358,69.470112,17.050094,66.963673,5.488907,55.250736,-5.189793,35.021759,0.0,14.286909,3.083748,37.626724,16.770992,53.234647,31.042204,61.641781,45.286134,64.154071,74.856886,191.849502,-91.339811,161.359149
101,-11.209007,21.540272,9.353989,21.28901,0.0,-60.166363,-37.02594,-91.570473,-30.991379,-91.866818,-23.387535,-80.116345,-14.607994,-59.511921,0.0,33.731188,33.235258,65.662116,45.312724,72.241387,53.675694,76.390546,58.367935,83.896988,0.0,55.83356,33.196826,71.438873,22.278144,68.222557,10.52108,56.74253,-1.15535,39.176548,0.0,20.772234,13.838984,50.956996,28.9604,67.929665,43.295869,75.813871,56.2444,75.684356,63.503889,213.230332,-82.129812,182.488717
102,-7.6241,18.955586,6.391513,20.536742,0.0,-59.538849,-34.387253,-93.410808,-28.374184,-93.389534,-21.578041,-82.253826,-14.04689,-60.505714,0.0,34.636844,36.787363,58.110423,46.23698,61.727651,51.916474,64.779504,54.008676,75.213237,0.0,56.938454,35.575035,74.860165,24.67685,71.62373,13.008511,59.996556,1.378418,43.257557,0.0,24.117501,20.383428,57.796978,36.765343,75.508614,50.828938,83.678527,62.502112,83.198331,55.788334,232.030279,-75.829754,202.86982
103,-9.667557,26.015844,6.564206,19.825266,0.0,-59.308387,-37.796985,-80.43861,-32.84468,-76.595306,-26.487762,-67.473873,-19.177951,-54.059188,0.0,36.709471,33.51453,51.161204,36.015508,48.667611,35.366684,45.762847,31.949416,50.343567,0.0,58.221771,37.804012,77.934562,27.07727,72.638191,15.405635,61.112319,3.430606,45.062667,0.0,26.893268,27.004715,63.684151,44.212332,81.604516,58.017625,90.600798,68.543254,90.252587,46.075716,257.96263,-69.310609,222.611593
104,-5.067444,14.3494,1.455196,16.764435,0.0,-60.905765,-41.312461,-68.157611,-37.585018,-62.70457,-31.775745,-55.187816,-24.822269,-47.416946,0.0,36.208206,27.576166,50.472564,28.929858,47.562403,27.889858,43.638263,24.686073,45.780298,0.0,62.702865,33.004314,84.198555,21.854759,79.60405,10.736778,66.506424,-0.132191,48.556881,0.0,25.069098,26.607733,64.21639,43.692837,81.901053,57.350831,90.944314,67.657839,92.137555,40.936265,272.353909,-67.92742,239.417907
105,-3.554122,13.548621,1.272686,14.418128,0.0,-59.260449,-45.558243,-53.386551,-43.892201,-46.329449,-39.366303,-41.84697,-33.130944,-41.061837,0.0,35.14994,21.448005,46.420045,21.216626,43.366635,19.446674,39.094914,15.883416,39.067596,0.0,65.861641,34.110466,86.716724,23.942459,83.605099,13.662151,70.405666,3.46344,52.804298,0.0,24.285363,30.433913,65.450188,47.742109,83.002619,60.669138,92.801039,69.639064,94.393668,37.324254,286.043571,-66.712623,253.977076
106,-1.75692,14.955023,0.571026,10.734457,0.0,-57.284718,-49.977379,-38.478688,-50.197747,-28.130242,-46.842579,-25.723206,-41.337982,-33.445896,0.0,37.198239,13.699058,40.747665,9.866827,38.639086,5.141204,30.58929,-0.757776,22.856384,0.0,69.83155,32.808426,92.856079,22.907593,92.507011,13.214561,78.501159,3.898086,57.241516,0.0,20.772962,29.917148,61.484156,47.402827,78.842086,60.142888,90.064322,68.957587,93.567855,35.535439,301.186121,-66.173492,264.89906
107,-1.277184,10.388346,2.684898,8.714193,0.0,-52.442173,-53.978714,-19.620964,-56.17036,-6.146049,-53.868496,-6.167267,-48.629436,-22.985458,0.0,39.825583,8.724691,45.183172,1.997762,41.016032,-5.000956,30.055778,-12.449797,15.668649,0.0,70.440182,32.43457,94.30323,22.795395,94.275032,13.243778,79.79084,4.067242,58.215397,0.0,18.776547,30.547077,60.560148,47.551807,77.375872,59.675043,88.100511,67.801187,91.171026,34.259571,311.827912,-63.487278,273.866698
108,-0.616344,-3.351812,2.816437,5.749075,0.0,-45.492405,-51.805659,-13.01881,-55.012453,-0.644898,-53.824665,-1.995163,-49.728007,-19.918442,0.0,39.634082,11.228077,50.097096,8.397488,48.421197,5.015412,40.57987,0.739721,29.701207,0.0,70.360565,32.318928,94.606155,22.80487,95.180626,13.231808,80.546837,4.169506,59.671463,0.0,17.666113,30.565095,59.296673,47.665575,75.941731,59.52526,85.902455,67.356423,88.964683,33.651953,308.722908,-60.662115,279.862581
109,-1.797638,-3.036922,2.237034,2.978815,0.0,-37.985871,-48.296671,-8.601803,-52.440176,2.028351,-52.506363,-1.274735,-49.756067,-21.596833,0.0,35.256435,14.480175,49.991849,14.730709,50.613768,13.568053,45.062394,11.093399,36.673767,0.0,69.495815,32.47998,94.557277,23.226871,94.608822,13.639251,80.565685,4.495468,60.442852,0.0,17.61081,30.935894,57.624534,48.098705,73.005907,59.638536,83.106224,67.055588,87.098339,31.923174,305.921755,-58.356222,283.077165
110,-6.808983,-0.207951,1.76057,0.901124,0.0,-28.376461,-42.157213,8e-05,-46.663542,10.939567,-47.16964,6.022385,-44.899126,-14.94072,0.0,28.161769,15.35235,45.853744,18.759059,48.583662,19.683036,45.063036,18.842335,38.159556,0.0,67.990402,32.332123,94.342827,23.036099,93.492279,13.181855,79.311173,3.78233,59.562104,0.0,18.149557,31.435801,56.042228,48.813453,71.430419,60.036393,81.217143,66.958306,85.144543,25.215191,305.943194,-56.494652,284.207679
111,-3.39988,-8.079856,0.52874,-0.347803,0.0,-24.756111,-41.049207,3.48016,-46.171903,12.769982,-47.062694,7.026948,-45.153459,-14.032539,0.0,23.350659,17.996676,48.308026,26.964725,55.260573,32.708705,55.503042,36.083236,52.2644,0.0,66.861992,32.034634,94.239281,22.628025,92.866493,12.591854,78.350601,3.12339,58.949387,0.0,18.646599,31.712813,55.054222,49.442332,70.497481,60.613624,80.062842,67.239542,84.062293,21.922657,298.090543,-55.858566,284.087081
112,-5.94841,-4.622154,0.193371,-0.641352,0.0,-18.502979,-36.729795,9.187695,-42.113611,17.98629,-43.252212,11.360734,-41.689126,-9.588386,0.0,14.855506,19.076863,47.605504,33.131986,58.888113,43.297839,62.200307,50.381753,62.770738,0.0,66.04533,31.454876,93.824123,22.052902,92.551769,12.029892,78.187466,2.571007,58.672886,0.0,19.228115,31.902189,54.722671,49.758988,70.1695,60.919029,79.982641,67.428597,83.927072,16.065816,293.649895,-55.573626,283.627235
113,-1.53091,-3.719462,0.131184,-0.352089,0.0,-18.301827,-36.917576,10.495399,-42.415695,18.718986,-43.523449,11.833832,-41.963345,-9.251919,0.0,12.550413,20.069822,48.801634,36.546685,62.23724,48.779429,66.539638,57.610825,68.571696,0.0,65.346656,30.846393,93.42192,21.408233,92.366043,11.421283,78.264221,2.006698,58.424949,0.0,19.880632,31.915207,54.398038,49.794001,69.654304,60.921413,79.759673,67.278717,83.535389,14.624188,290.064762,-55.35316,283.409475
114,-2.427979,2.315307,0.064933,0.321633,0.0,-14.84935,-35.020351,12.937798,-40.155006,22.506707,-40.907249,15.808159,-38.99818,-3.621288,0.0,11.025844,18.92702,46.442361,35.141789,59.68754,47.352216,64.272348,56.161308,66.659075,0.0,64.791459,30.414906,93.214852,20.992482,92.577645,11.111916,78.609284,1.874886,58.483086,0.0,20.173378,31.709491,53.895772,49.60339,69.447379,60.771841,79.561886,67.070062,83.075053,12.263523,292.467708,-55.220913,283.818747
115,2.024506,-2.92939,0.158181,0.435711,0.0,-18.708778,-38.023636,10.32074,-43.44754,18.77536,-44.423687,12.608276,-42.63731,-6.850399,0.0,14.763572,20.300657,49.405776,36.097092,62.639642,47.982898,66.594015,56.497526,68.404389,0.0,64.316162,30.029125,92.884941,20.742462,92.579704,11.040161,78.931846,2.01868,58.77935,0.0,20.508992,31.624412,53.693947,49.518434,69.089115,60.755811,79.354244,67.030431,83.044671,14.343733,289.56446,-55.007028,284.2806
116,-4.233089,4.102363,0.20573,0.537414,0.0,-12.223606,-33.634221,15.839779,-38.992424,25.142658,-39.920117,18.643261,-38.033364,-1.824509,0.0,12.637099,18.736459,45.041257,34.092675,58.053539,45.873925,62.880186,54.466396,65.877662,0.0,63.931377,29.608589,92.607411,20.501244,92.407894,11.017651,79.100773,2.219536,58.958576,0.0,20.826697,31.49455,53.343736,49.308013,68.561544,60.557555,79.001995,66.796977,83.03489,10.170021,293.657971,-54.741921,284.809162
117,3.94741,-2.433213,0.315159,0.436205,0.0,-18.360992,-37.803291,11.405766,-43.308037,19.522328,-44.142334,13.579754,-42.182316,-6.244446,0.0,16.659335,19.830379,47.884308,35.115261,60.952041,46.960559,65.103015,55.60879,67.598621,0.0,63.51519,29.23502,92.439766,20.207645,92.15245,10.836582,78.878311,2.165188,58.797752,0.0,21.022804,31.37983,53.046432,49.12312,68.223967,60.364288,78.596394,66.587112,82.978697,14.183624,291.18424,-54.360569,285.204849
118,0.102699,1.243542,0.400223,0.423398,0.0,-16.303104,-36.636257,12.015416,-41.880958,20.816723,-42.434223,15.148236,-40.196765,-3.419895,0.0,16.882896,19.584008,46.905268,34.923712,59.44212,47.06735,64.158234,56.058408,67.560953,0.0,63.021446,28.97826,92.046386,20.074344,91.735405,10.783115,78.677375,2.148697,58.69368,0.0,21.158704,31.212326,52.875741,48.82463,67.814006,60.089832,78.156817,66.42556,83.013104,14.349077,292.384239,-53.897592,285.584704
119,2.785882,-2.295324,0.3517,0.335119,0.0,-21.072361,-39.778508,8.982502,-45.479531,16.561786,-46.248551,11.025592,-44.207303,-6.624493,0.0,19.633654,19.659837,48.956603,35.517009,62.064067,48.145907,66.410641,57.588743,69.358742,0.0,62.426467,28.625724,91.735061,19.792945,91.189865,10.564247,78.315696,1.99364,58.442298,0.0,21.216899,31.076006,52.680734,48.619101,67.515258,59.895677,77.754477,66.298207,82.999915,17.206261,290.012724,-53.47459,285.843632
120,-0.566163,3.574595,0.261943,0.323733,0.0,-19.051883,-37.83498,10.35529,-43.403595,18.502156,-43.828605,12.602063,-41.469463,-4.587833,0.0,16.132765,17.44858,45.095066,33.434292,58.379037,46.434408,63.332631,56.402753,67.268688,0.0,61.791195,28.205681,91.329152,19.459591,90.639393,10.328843,77.948285,1.854847,58.167607,0.0,21.294605,30.893077,52.450392,48.37184,67.280137,59.663779,77.392261,66.140558,82.933854,16.702005,293.500912,-53.15074,286.080958
121,-0.046955,3.313861,0.202996,0.127799,0.0,-19.964607,-37.105224,9.990441,-42.263809,17.957108,-42.337726,12.835694,-39.793396,-3.624435,0.0,10.978383,15.393884,40.775205,31.332492,54.526466,44.325397,59.365327,54.417279,63.279154,0.0,61.354763,27.850776,91.269436,19.092075,90.33546,9.94646,77.866001,1.442619,58.120433,0.0,21.418377,30.88947,52.430348,48.289106,67.19786,59.584911,77.243528,66.115067,83.000754,16.702251,296.714015,-52.900543,286.107999
122,-5.859878,7.994813,0.108947,-0.005212,0.0,-12.67321,-30.589726,17.856811,-35.721176,25.585647,-35.924023,20.290535,-33.558758,3.30233,0.0,0.811648,10.236848,31.653348,25.710464,45.32279,38.693722,51.447615,49.243064,56.87255,0.0,61.040051,27.592404,91.200039,18.799199,90.017155,9.661641,77.858128,1.168477,58.153187,0.0,21.619659,30.944231,52.434201,48.365961,67.181855,59.678451,77.363003,66.19717,83.166702,10.879269,304.61033,-52.7547,286.004289
123,-1.013169,-0.888205,0.009522,-0.043299,0.0,-13.401489,-31.008121,18.317826,-36.476383,25.571732,-36.92958,20.085755,-34.834487,3.415513,0.0,1.015461,10.578191,32.213683,26.209147,46.626624,39.075747,52.21085,49.294773,56.710788,0.0,60.832157,27.288963,91.262295,18.443687,89.781132,9.323044,77.764011,0.891746,58.055706,0.0,21.786372,30.983269,52.221483,48.465687,67.165886,59.778412,77.476945,66.231466,83.311507,9.895792,303.639818,-52.715486,285.878683
124,-4.393787,3.952977,-0.152046,-0.131059,0.0,-6.001648,-25.971027,24.267941,-31.230629,32.646549,-31.60532,26.650143,-29.326824,8.921047,0.0,-3.767998,8.862629,27.634199,24.211509,42.125909,36.852362,48.424006,46.948925,54.10082,0.0,60.855205,27.25225,91.420795,18.371566,89.857258,9.203785,77.949085,0.713058,58.110294,0.0,21.940538,30.940476,52.09303,48.442346,67.073075,59.803322,77.588244,66.304443,83.514974,5.516275,307.535629,-52.853262,285.690458
125,1.317741,-3.157644,-0.056946,-0.063628,0.0,-9.221752,-28.32558,22.20448,-33.637092,29.749569,-34.107135,24.209759,-31.957832,6.505612,0.0,0.35499,10.957672,31.56229,26.342256,46.048431,38.798142,51.559235,48.435207,56.111525,0.0,60.872532,27.183231,91.551144,18.256691,89.967876,9.058216,78.140819,0.5182,58.233204,0.0,22.001536,30.897547,51.8319,48.436282,66.997554,59.836606,77.655009,66.38725,83.616764,6.84803,304.335056,-52.896194,285.583901
126,0.37642,-2.717451,-0.080967,0.021329,0.0,-9.318066,-28.630955,21.58929,-34.15487,30.01633,-34.880425,23.747554,-32.859845,5.592212,0.0,3.809507,12.62402,35.03832,28.431236,49.531846,41.07798,54.771245,50.632782,59.636881,0.0,60.841072,27.083874,91.468849,18.149254,90.063606,8.974663,78.196197,0.462204,58.176773,0.0,21.932338,30.743442,51.365721,48.405147,66.747267,59.890823,77.620403,66.479184,83.619876,7.246863,301.594427,-52.954748,285.582052
127,0.124488,-0.844387,-0.121239,0.063862,0.0,-8.285202,-29.570091,20.688412,-35.121952,29.87344,-35.662674,23.345593,-33.398563,5.264157,0.0,5.288095,13.464961,36.229337,29.506002,50.935506,42.079386,55.86435,51.408564,59.849919,0.0,60.934891,26.995262,91.432297,18.084206,90.266945,8.93335,78.386421,0.451767,58.301399,0.0,21.806948,30.587498,50.935741,48.318326,66.499167,59.88508,77.439018,66.527769,83.527547,7.413929,300.735035,-53.033409,285.630909
128,-7.134521,6.467824,-0.091369,0.09018,0.0,-0.303658,-21.064751,29.068142,-26.265907,37.594128,-27.219155,31.213199,-25.557552,12.914074,0.0,-2.208219,9.056217,28.601853,24.605625,43.248384,37.277156,49.613579,47.191827,54.80375,0.0,61.030883,27.032764,91.359718,18.188495,90.452293,9.064235,78.597084,0.579437,58.462577,0.0,21.684151,30.585597,50.735621,48.343002,66.290858,59.947806,77.2212,66.623668,83.396587,0.344959,307.180931,-53.059227,285.699161
129,1.816532,-3.154877,-0.068951,0.168295,0.0,-5.039726,-24.439476,25.927986,-30.027878,33.813881,-31.224976,27.659752,-29.890102,9.278961,0.0,2.008802,11.010357,32.210225,26.658048,46.378215,39.155899,52.13912,48.733375,55.94134,0.0,61.067242,26.863106,91.341053,18.085052,90.629826,9.057381,78.803844,0.685192,58.700283,0.0,21.513324,30.49964,50.503365,48.314004,66.03053,59.961008,77.011693,66.64102,83.197095,2.251762,303.994191,-53.037907,285.835593
130,-4.486702,4.930622,-0.098385,0.167158,0.0,1.940289,-19.840439,31.232117,-25.394943,40.044411,-26.601528,33.944527,-25.229702,14.8713,0.0,-3.522404,7.749973,25.906162,23.296998,40.240446,35.849609,47.247105,45.681645,52.325199,0.0,61.13768,26.765991,91.411194,18.052609,90.767784,9.086529,79.009598,0.788132,58.88839,0.0,21.331149,30.360208,50.384644,48.198074,65.63928,59.927355,76.714229,66.673723,83.041781,-2.130232,308.895009,-53.031584,285.972947
131,-1.684353,3.233227,-0.021194,0.233392,0.0,3.11824,-19.092441,32.940823,-24.705562,40.606945,-25.852249,34.930401,-24.410969,16.515141,0.0,-6.78579,5.346412,22.478459,20.60915,36.680275,33.085154,43.965293,43.148606,48.812317,0.0,61.148574,26.60139,91.421699,18.004463,90.781265,9.183918,79.192245,1.051059,59.22274,0.0,21.22411,30.274905,50.358758,48.108449,65.508789,59.867741,76.476848,66.656025,82.77471,-3.699921,312.097123,-52.938114,286.175226
132,-2.042656,0.284792,0.046028,0.205752,0.0,4.573345,-16.278602,35.332569,-21.77465,42.096737,-23.365597,36.723667,-22.493671,18.387921,0.0,-6.759014,4.865822,22.144711,19.866232,36.176813,32.417225,43.77325,42.724567,48.952837,0.0,61.088814,26.307667,91.311744,17.792347,90.646889,9.117359,79.214653,1.15147,59.333565,0.0,21.070636,30.190456,50.226896,48.042438,65.414249,59.835223,76.362326,66.659582,82.614246,-5.639683,312.347746,-52.789192,286.346809
133,7.433258,-5.770403,-0.081825,0.126045,0.0,-5.037655,-25.344715,25.946034,-30.819225,33.462239,-31.73291,28.575886,-30.053226,10.223957,0.0,1.787107,9.402056,30.504556,24.127702,43.982497,36.021449,49.653741,45.41896,53.488343,0.0,61.074897,26.081806,91.272033,17.636959,90.638626,9.127246,79.394622,1.354637,59.536125,0.0,21.02294,30.016332,50.201677,47.918011,65.330318,59.80641,76.267094,66.733485,82.574467,1.886518,306.54258,-52.778074,286.438091
134,0.185486,2.393792,-0.053868,0.193007,0.0,-2.425964,-23.796936,26.425221,-28.856792,34.140598,-29.526832,28.957546,-27.528316,10.775677,0.0,-0.747624,8.07047,28.007776,22.637034,41.728706,34.695222,48.164655,44.439536,52.935763,0.0,60.844196,26.044007,91.121464,17.651848,90.378559,9.194607,79.214596,1.436451,59.303227,0.0,20.901959,29.875146,50.182856,47.750482,65.476383,59.636967,76.14694,66.627028,82.381867,2.148508,308.910357,-52.755438,286.605083
135,4.224838,-2.656824,-0.135269,0.142582,0.0,-11.128166,-28.776043,20.971928,-33.571964,28.322697,-34.00906,23.526112,-31.878971,6.201336,0.0,6.144277,10.977532,33.966098,24.380088,46.117023,35.225844,50.250238,43.781215,53.61976,0.0,60.663265,25.991215,90.947056,17.664001,90.182888,9.252216,78.998829,1.498089,58.974461,0.0,20.856696,29.798575,50.173618,47.644988,65.641762,59.49651,76.056377,66.504181,82.21892,6.43297,306.217292,-52.831083,286.711424
136,2.6609,-3.124966,-0.170666,0.037952,0.0,-13.291179,-30.4953,18.466805,-35.278461,26.29786,-35.835147,20.236908,-33.814533,2.225304,0.0,9.401785,13.179057,37.177169,27.031416,49.313657,38.09152,53.676719,46.637481,56.913317,0.0,60.546959,26.022915,90.721756,17.714093,90.030968,9.280129,78.87188,1.464054,58.720619,0.0,20.868786,29.750521,50.279754,47.593537,65.794273,59.449505,76.09318,66.487274,82.238667,9.140441,303.036584,-52.955178,286.693634
137,2.973359,-0.168047,-0.214153,0.058428,0.0,-17.43615,-34.634365,14.773384,-39.33363,23.744316,-39.152699,17.460525,-36.356266,-0.803605,0.0,8.566202,13.757769,37.271289,27.860538,49.600055,38.861424,53.766861,47.10703,56.793015,0.0,60.427998,26.162498,90.545643,17.927719,90.046337,9.484898,78.895237,1.592308,58.584377,0.0,20.917594,29.690512,50.480406,47.521055,65.94907,59.400512,76.081374,66.518137,82.223996,12.155423,302.806258,-53.127708,286.689783
138,-5.411328,6.481768,-0.099598,0.131911,0.0,-10.057033,-28.66698,21.24345,-33.579071,29.833981,-33.721676,23.402905,-31.156849,5.002545,0.0,-0.96406,8.781414,28.724118,23.168334,41.500475,34.858144,47.606751,44.052484,51.845201,0.0,60.253235,26.114536,90.27475,17.93169,89.915657,9.461529,78.713402,1.495731,58.354683,0.0,20.861821,29.618956,50.434402,47.415029,66.038052,59.269639,76.070876,66.400589,82.077005,6.778496,309.220104,-53.192905,286.753772
139,-4.893814,4.235868,-0.031677,0.042571,0.0,-6.325893,-24.208156,26.625858,-29.195629,34.037304,-29.665386,28.306446,-27.540504,9.297032,0.0,-6.101694,5.611803,24.523336,19.668012,37.036415,31.356328,43.48506,40.818232,48.009438,0.0,60.290977,26.050026,90.039894,17.909019,89.87883,9.446846,78.712257,1.475567,58.340378,0.0,20.853707,29.560416,50.411912,47.381313,65.945871,59.284051,76.034048,66.460153,82.102113,1.912691,313.388936,-53.196573,286.729307
140,0.767487,-1.032702,-0.045044,0.054699,0.0,-7.121315,-24.40321,26.004627,-29.701756,32.875042,-30.438744,26.811962,-28.613961,7.248722,0.0,-6.715406,5.212377,24.894938,20.219382,38.111008,32.902139,45.28695,43.385753,50.324425,0.0,60.303291,26.038753,90.100136,17.899601,90.00293,9.43848,78.868492,1.467441,58.526939,0.0,20.736677,29.536988,50.327635,47.381807,65.814317,59.32304,75.966418,66.530548,82.130703,2.706368,312.291433,-53.215427,286.719205
141,0.63565,-1.319174,-0.037857,0.090686,0.0,-8.480632,-25.784397,24.54205,-30.692218,32.09467,-31.05138,26.665295,-28.904583,7.662243,0.0,-4.962831,6.469393,27.329683,21.508039,40.520435,34.141778,46.900476,44.501768,51.695062,0.0,60.232475,26.024437,90.223228,17.873211,90.038841,9.405704,78.855125,1.41663,58.504074,0.0,20.658353,29.491095,50.185906,47.367728,65.73056,59.329277,75.913771,66.543294,82.16537,3.366811,310.924269,-53.228491,286.761901
142,0.059258,-0.939174,-0.019867,0.155698,0.0,-8.331139,-25.696484,24.615703,-30.409847,32.27029,-30.798489,26.762295,-28.651646,7.664257,0.0,-4.311587,7.464032,28.428766,22.545051,41.77713,35.119682,48.093086,45.416823,52.872432,0.0,60.187157,26.091511,90.473465,17.882446,90.027191,9.359115,78.728096,1.32177,58.454658,0.0,20.598319,29.422367,50.069963,47.319093,65.573478,59.292523,75.776079,66.502242,82.149166,3.44989,309.945415,-53.224537,286.877919
143,0.721996,-0.050166,-0.012383,0.120178,0.0,-8.635757,-26.794166,23.924881,-31.558136,31.475373,-31.73085,25.72023,-29.356476,6.317299,0.0,-3.774469,7.921071,28.567877,22.993322,42.30149,35.445181,48.362885,45.474028,53.198128,0.0,60.170426,26.204533,90.765404,17.926815,90.041062,9.35075,78.661194,1.272824,58.4301,0.0,20.619562,29.386416,50.077522,47.30278,65.482224,59.292252,75.690691,66.520619,82.159109,4.191238,309.865679,-53.217568,286.968527
144,0.49625,0.372787,0.00998,0.165899,0.0,-9.794334,-27.805561,22.97469,-32.410743,30.901783,-32.322521,25.369824,-29.660854,6.661183,0.0,-4.43053,8.006657,28.209675,23.056357,41.905732,35.486159,47.813097,45.503903,52.832504,0.0,60.152801,26.205425,90.979202,17.87511,90.072074,9.263763,78.624069,1.162857,58.412681,0.0,20.651314,29.30966,50.036223,47.279672,65.413533,59.313061,75.654777,66.562165,82.148339,4.70351,310.211963,-53.191566,287.107923
145,-0.515854,2.74367,0.154781,0.23748,0.0,-12.100467,-28.483589,22.978032,-32.55289,31.875149,-31.951652,27.11871,-28.732234,8.985226,0.0,-3.440474,7.724692,27.364818,20.735183,39.342595,31.201865,43.991327,39.478001,47.75168,0.0,60.162517,26.220142,90.978641,17.876118,89.989803,9.279465,78.584461,1.248196,58.56934,0.0,20.613399,29.24749,50.007608,47.232174,65.439221,59.289398,75.697199,66.533697,82.077845,4.199741,312.935648,-53.0247,287.325418
146,1.569855,1.68092,0.088921,0.223783,0.0,-12.771904,-29.561085,21.306713,-33.414425,29.495053,-32.703804,25.815777,-29.384834,8.319889,0.0,1.652602,8.007732,27.592851,18.649563,37.723376,27.090622,41.161935,33.524805,44.105281,0.0,60.307971,26.238109,90.827373,17.905757,89.81821,9.304218,78.500141,1.292095,58.629283,0.0,20.623699,29.107798,49.792173,47.081812,65.397392,59.160872,75.777031,66.419361,82.013341,5.776851,314.596326,-52.928524,287.528959
147,3.813172,-4.859584,0.076355,0.160959,0.0,-19.110341,-34.029545,16.335239,-38.053791,24.29916,-37.460953,20.997516,-34.194443,3.909999,0.0,10.564779,11.300807,34.670114,21.798574,43.852055,29.914703,45.652931,35.903356,47.791719,0.0,60.412227,26.154258,90.824878,17.832607,89.737621,9.26501,78.475376,1.336681,58.693004,0.0,20.663762,29.066437,49.672673,47.021407,65.332948,59.098392,75.742611,66.32918,81.93966,9.594063,309.713712,-52.848129,287.666888
148,3.939445,-5.192432,0.087203,0.121166,0.0,-23.263229,-37.031582,11.734646,-40.555149,20.703678,-39.802425,17.164135,-36.385597,0.862713,0.0,18.204948,14.856927,41.265145,25.672129,49.915093,33.910708,50.726049,39.860064,52.446737,0.0,60.46011,26.073212,90.819615,17.705006,89.639157,9.10151,78.348004,1.174622,58.61134,0.0,20.696355,29.009467,49.623706,46.961954,65.419511,59.047004,75.874238,66.238037,81.958482,13.534241,304.497006,-52.760193,287.76378
149,6.653355,-6.18171,0.048878,0.047832,0.0,-32.851982,-44.068302,3.456505,-47.316387,13.454338,-46.098244,9.871582,-42.281639,-6.200501,0.0,27.001602,19.361619,49.239877,30.42528,57.561918,38.464035,56.781146,43.893959,57.290859,0.0,60.472458,26.030388,90.802735,17.635597,89.542053,9.035786,78.274361,1.157891,58.635086,0.0,20.693243,29.01558,49.661608,46.946257,65.510247,59.022279,76.023032,66.177867,82.027827,20.186308,298.287443,-52.712603,287.783759
150,0.720405,-2.032898,0.111317,-0.096824,0.0,-27.834984,-42.390243,3.382553,-45.549408,13.005387,-44.311844,9.098969,-40.420795,-6.566848,0.0,24.817812,20.03602,48.850035,33.058799,59.003927,43.016868,59.953166,50.041052,62.146776,0.0,60.280552,26.115623,90.698284,17.641399,89.318722,8.89801,78.068516,0.857746,58.350254,0.0,20.946839,29.151295,49.96432,47.052146,65.587101,59.120289,76.127575,66.288721,82.245373,20.905328,296.225578,-52.602671,287.657968
