takenoko1/special-research/HandMotion_SimilarSearch_自分用/NewProject/handData/test_key/d4_feature_d3/92.csv
frame,vel_0x_L,vel_0y_L,vel_0x_R,vel_0y_R,posFromWrist_0x_L,posFromWrist_1x_L,posFromWrist_2x_L,posFromWrist_3x_L,posFromWrist_4x_L,posFromWrist_5x_L,posFromWrist_6x_L,posFromWrist_7x_L,posFromWrist_8x_L,posFromWrist_9x_L,posFromWrist_0y_L,posFromWrist_1y_L,posFromWrist_2y_L,posFromWrist_3y_L,posFromWrist_4y_L,posFromWrist_5y_L,posFromWrist_6y_L,posFromWrist_7y_L,posFromWrist_8y_L,posFromWrist_9y_L,posFromWrist_0x_R,posFromWrist_1x_R,posFromWrist_2x_R,posFromWrist_3x_R,posFromWrist_4x_R,posFromWrist_5x_R,posFromWrist_6x_R,posFromWrist_7x_R,posFromWrist_8x_R,posFromWrist_9x_R,posFromWrist_0y_R,posFromWrist_1y_R,posFromWrist_2y_R,posFromWrist_3y_R,posFromWrist_4y_R,posFromWrist_5y_R,posFromWrist_6y_R,posFromWrist_7y_R,posFromWrist_8y_R,posFromWrist_9y_R,posFromBody_0x_L,posFromBody_0y_L,posFromBody_0x_R,posFromBody_0y_R
6,-5.778648,2.474623,-0.023323,-0.223511,0.0,-2.487099,-24.443665,30.928928,-34.978192,31.785999,-39.429955,22.252407,-40.42091,-4.280651,0.0,-15.724717,2.220656,27.231277,18.832184,44.676263,33.107298,51.568621,45.133821,53.919842,0.0,67.901001,25.29998,91.108956,16.007092,89.289093,6.973343,75.260056,-0.970115,53.707489,0.0,17.454556,32.652469,56.801388,50.315433,72.888099,61.818609,82.550457,67.968456,87.064721,6.495489,311.547683,-49.589728,282.976225
7,-2.791455,-1.974766,-0.174968,-0.082672,0.0,0.931904,-21.445507,35.127892,-31.792202,35.338326,-36.724285,25.448616,-38.102977,-1.822929,0.0,-13.543236,4.048802,30.09499,20.849891,47.012652,35.026872,53.865996,46.933043,56.651212,0.0,67.843013,25.355598,91.255313,16.097442,89.468021,7.081844,75.366725,-0.853501,53.688068,0.0,17.631669,32.785393,57.081352,50.428869,73.151205,61.900083,82.729411,68.022685,87.18043,3.265268,309.39904,-50.203462,282.719676
8,10.717816,-2.160844,0.001762,0.035124,0.0,-12.038086,-30.721447,24.249286,-41.87059,24.672558,-46.71476,14.760555,-47.955471,-13.906048,0.0,-12.672938,4.55019,31.786679,22.238929,48.12732,37.143614,55.059854,49.629992,58.0093,0.0,67.853954,25.324505,91.334049,16.06374,89.590771,7.051689,75.445141,-0.882523,53.659458,0.0,17.553332,32.837597,56.966558,50.426671,73.119823,61.855177,82.698659,67.977113,87.19436,13.69923,307.11657,-50.485554,282.633174
9,-7.829567,1.479601,0.001579,0.057292,0.0,-1.076328,-23.850208,32.474819,-34.945404,32.491825,-39.947159,22.256779,-41.501392,-4.462177,0.0,-13.911145,4.065907,29.41087,20.980852,46.185283,35.292053,53.727021,47.24939,56.572875,0.0,67.981556,25.368324,91.324848,16.10574,89.61826,7.074909,75.384098,-0.895569,53.553097,0.0,17.491619,32.824209,56.919492,50.36408,73.170755,61.737765,82.68453,67.856502,87.164621,5.661718,308.49494,-50.69192,282.589235
10,-7.976383,0.341875,-0.074627,0.041879,0.0,7.97985,-16.415257,40.609039,-27.039151,40.027221,-32.696011,30.179557,-34.968796,3.383537,0.0,-14.349202,4.567259,29.075281,21.287319,46.468309,35.345035,53.778434,46.847963,56.871154,0.0,68.088318,25.580944,91.473908,16.296055,89.792862,7.210007,75.49839,-0.821148,53.672402,0.0,17.253287,32.785282,56.910168,50.299625,73.127468,61.638878,82.633006,67.751292,87.145294,-2.482767,308.757003,-50.934649,282.551302
11,8.169731,-4.205536,-0.014889,0.093935,0.0,-2.860943,-23.288052,32.394539,-34.569924,32.439972,-40.399063,22.700729,-42.730625,-4.631355,0.0,-10.174986,6.452078,33.189624,24.276446,50.042966,39.151799,57.496587,51.414467,60.622602,0.0,68.168759,25.836102,91.518139,16.552437,89.898274,7.398354,75.54189,-0.733497,53.739682,0.0,16.939718,32.617382,56.87723,50.10994,73.083032,61.457826,82.51936,67.621283,87.111615,5.55863,304.497926,-51.077872,282.591696
12,4.889293,-0.541279,0.025761,0.156241,0.0,-7.861793,-28.235721,26.940548,-40.023937,28.0425,-45.34037,18.372929,-47.276344,-7.806987,0.0,-10.486974,6.323946,32.734992,24.503242,49.98161,39.747925,57.721815,52.221903,60.186249,0.0,68.429192,25.804917,91.652435,16.524124,90.036965,7.391991,75.605919,-0.695663,53.841637,0.0,16.608069,32.539367,56.705316,50.02612,72.877737,61.327458,82.260329,67.457224,86.925585,10.357137,303.93065,-51.142897,282.72194
13,-8.339572,3.476338,0.085934,0.123513,0.0,2.469623,-21.079136,35.859993,-32.219181,36.853981,-37.483372,26.6819,-39.545655,0.782981,0.0,-13.707517,5.258245,30.642975,22.35092,47.903796,36.70463,55.064806,48.317981,57.360773,0.0,68.287823,25.916679,91.726673,16.592193,90.10619,7.43938,75.696132,-0.648514,53.83128,0.0,16.405442,32.379977,56.741218,49.941485,72.755632,61.29557,82.145498,67.4458,86.811915,1.959561,307.382643,-51.114967,282.821108
14,-3.596009,-1.007841,0.200935,0.134196,0.0,6.278515,-17.389732,39.694062,-28.13578,40.036995,-33.817989,30.263947,-36.228355,3.663964,0.0,-12.37272,6.771328,32.886775,23.864855,50.002371,37.928363,56.473197,49.080746,59.02097,0.0,68.134518,25.959503,91.736538,16.605721,90.12917,7.42186,75.698399,-0.698284,53.742634,0.0,16.167493,32.269987,56.693535,49.88381,72.64868,61.260323,81.993037,67.429313,86.673051,-1.678236,306.3703,-50.95582,282.950802
15,9.143498,-2.614871,0.341709,0.160205,0.0,-4.272332,-25.019749,30.438228,-36.560074,30.843212,-42.466839,20.720546,-45.098442,-6.18124,0.0,-11.547969,6.838327,34.915141,25.097023,51.985931,40.074103,58.731805,52.072048,61.204835,0.0,67.99894,25.927506,91.578461,16.522385,89.936303,7.303379,75.464836,-0.845764,53.408043,0.0,16.067062,32.258922,56.636082,49.903126,72.579038,61.265264,81.884788,67.410553,86.548291,7.437561,303.757214,-50.641812,283.112792
16,-10.104058,1.490458,0.438,-0.019155,0.0,9.779355,-15.587413,41.905301,-26.66859,41.99619,-33.028747,31.486485,-36.283344,5.739773,0.0,-12.857585,6.34993,32.885503,23.921764,50.663175,38.495478,57.887195,50.176717,60.265055,0.0,67.792385,25.7379,91.52821,16.268108,89.855541,7.041676,75.427242,-1.07904,53.247585,0.0,16.132999,32.272729,56.500058,50.032975,72.442891,61.405561,81.96452,67.480196,86.501817,-2.696434,305.254295,-50.233749,283.10026
17,4.025048,-1.67729,0.46059,-0.126613,0.0,4.329723,-18.417366,37.776638,-30.059418,37.135654,-37.11081,26.356945,-40.959114,-0.078999,0.0,-12.292815,6.960643,34.87215,25.306579,52.262622,40.342298,59.224993,52.290039,62.103415,0.0,67.674523,25.815377,91.408104,16.241101,89.731339,6.911236,75.373444,-1.297062,53.064309,0.0,16.290537,32.243472,56.585595,50.136456,72.482547,61.590664,82.174175,67.663915,86.621811,1.288531,303.586761,-49.813242,282.983403
18,0.161991,-1.527767,0.38205,-0.165047,0.0,5.758026,-18.493481,38.079185,-30.372013,37.920456,-37.414238,27.370811,-41.087425,1.498306,0.0,-10.100033,7.170681,35.163278,26.031924,53.057832,41.555199,60.720292,53.964933,63.458392,0.0,67.873375,25.800922,91.405334,16.152443,89.63681,6.779343,75.153831,-1.42963,52.87896,0.0,16.426228,32.310323,56.73455,50.277717,72.744777,61.737507,82.346534,67.768361,86.724181,1.390228,302.063178,-49.491486,282.82254
19,-1.144512,0.417297,0.289959,-0.188659,0.0,7.479801,-17.728501,39.540538,-29.717125,39.7672,-36.939492,28.813305,-40.755112,3.316646,0.0,-11.000206,6.743479,34.46577,25.58164,52.543537,41.276841,60.359731,53.853967,62.950433,0.0,68.152096,25.973728,91.511478,16.217754,89.624508,6.767876,75.171764,-1.449223,52.96217,0.0,16.556977,32.392018,57.005226,50.461411,72.823817,61.958683,82.536193,67.941372,86.839777,0.172285,302.476998,-49.274958,282.630404
20,-0.134629,-0.17647,0.322506,-0.156315,0.0,8.212361,-17.512527,40.100338,-29.491138,40.45641,-36.691372,29.530461,-40.467991,3.573933,0.0,-11.153977,6.858421,34.249594,25.774869,52.167427,41.525102,60.194104,54.107934,63.126643,0.0,68.308662,26.010074,91.675964,16.155338,89.675125,6.673347,75.307915,-1.509899,53.172684,0.0,16.708451,32.37232,57.105311,50.586036,72.859249,62.156075,82.678948,68.119954,86.839888,-0.034962,302.296567,-49.02507,282.470128
21,0.196827,0.562645,0.338058,-0.110163,0.0,8.615456,-17.760486,40.093941,-29.68119,40.521973,-36.69857,29.691651,-40.302749,3.581612,0.0,-12.153741,6.457982,33.373356,25.453199,51.402587,41.22581,59.386483,53.772876,62.663268,0.0,68.417794,26.054581,91.665665,16.099835,89.546563,6.586762,75.267884,-1.588462,53.195664,0.0,16.875893,32.307803,57.270852,50.592051,72.949417,62.218665,82.828532,68.204528,86.892895,0.094745,302.856634,-48.754132,282.357387
22,-3.440002,-0.516653,0.347992,0.061812,0.0,13.380592,-13.583405,43.800682,-25.191101,44.379684,-32.782608,33.558609,-37.138138,6.741508,0.0,-11.61881,6.61463,33.000667,25.409788,51.331808,41.185363,59.806225,53.827377,63.549065,0.0,68.388199,26.02137,91.657677,16.037613,89.459954,6.547543,75.181732,-1.591175,53.174836,0.0,16.728495,32.333207,57.398194,50.594274,72.931534,62.169006,82.813502,68.128748,86.674249,-3.407215,302.345088,-48.468098,282.424306
23,-0.270115,-0.322819,0.428387,0.073989,0.0,14.310757,-13.329918,44.272282,-24.848419,44.724438,-32.452744,33.727077,-36.932579,7.153599,0.0,-12.124978,7.056269,33.649998,25.933308,50.954674,41.745267,59.220127,54.383365,63.411807,0.0,68.449551,25.981132,91.522831,15.985016,89.311398,6.51297,75.193531,-1.630817,53.249256,0.0,16.576256,32.299986,57.583198,50.526855,72.730204,62.086322,82.777354,68.060094,86.508635,-3.748507,302.038864,-48.110888,282.51489
24,6.574848,-2.250247,0.395462,0.116733,0.0,7.621285,-18.026516,37.912583,-30.076263,38.299782,-38.036774,27.211464,-43.16692,0.023049,0.0,-12.1983,6.619904,33.898543,26.61875,51.269453,43.419531,60.44239,56.996841,65.458314,0.0,68.457424,25.914951,91.500721,15.90485,89.146236,6.472103,75.114658,-1.64312,53.219822,0.0,16.423226,32.225441,57.626399,50.413444,72.559958,61.951805,82.696695,67.947943,86.306921,2.730858,299.811026,-47.810909,282.654032
25,-6.536865,1.749822,0.354549,0.077188,0.0,17.075294,-13.312729,44.03009,-24.44339,45.820793,-31.620129,34.910179,-35.958859,8.572403,0.0,-11.964674,6.328614,32.68511,25.840732,49.536785,42.199527,58.350743,55.338767,63.392256,0.0,68.662537,25.808155,91.353447,15.832501,89.017548,6.475537,74.963654,-1.549381,53.206192,0.0,16.085328,32.102767,57.895112,50.26964,72.445645,61.832886,82.460871,67.868544,86.208096,-3.975197,301.591007,-47.62555,282.761379
26,7.878811,-2.867282,0.35701,0.071112,0.0,6.815586,-20.134346,35.755085,-31.835163,37.570461,-39.185189,26.352482,-43.498936,-0.54308,0.0,-9.949967,7.168198,35.437709,27.427952,51.353446,44.274922,60.286433,57.813453,65.429724,0.0,68.883087,25.653534,91.276406,15.69199,88.887612,6.409458,74.834702,-1.505848,53.115006,0.0,15.665215,32.019157,58.109855,50.2204,72.227827,61.838962,82.160813,67.88497,85.971122,3.688889,298.752646,-47.483265,282.861412
27,-4.12595,2.882806,0.282681,-0.118635,0.0,11.937561,-17.479614,40.76223,-28.675621,42.76252,-35.165234,31.743416,-38.51413,5.850243,0.0,-12.611287,5.962064,33.302738,25.618986,49.162306,42.061392,57.786875,55.289095,62.67342,0.0,69.196255,25.566765,91.240825,15.55529,88.708912,6.268936,74.75909,-1.629788,53.10165,0.0,15.521423,32.032965,58.2781,50.279866,72.068647,61.947223,82.059888,67.983227,86.000614,-0.686251,301.653332,-47.449774,282.760657
28,-3.390484,-2.116669,0.168754,-0.108841,0.0,15.477253,-13.875435,44.90601,-24.739563,45.799954,-31.438442,35.481319,-35.044796,10.29372,0.0,-8.980313,7.55236,34.787021,27.281518,51.714476,43.586973,60.686527,56.691621,65.46176,0.0,69.433239,25.519432,91.419285,15.483891,88.697445,6.212906,74.800198,-1.634731,53.152897,0.0,15.473579,32.111437,58.321856,50.391177,71.997794,62.072453,81.979452,68.051869,85.981434,-4.339949,299.543733,-47.544234,282.658886
29,1.597344,-0.194637,0.112885,-0.120981,0.0,13.301342,-15.228333,43.292987,-26.162098,44.550945,-32.775948,33.977222,-36.116227,8.316753,0.0,-8.1277,7.654248,35.125413,27.334474,51.703916,43.541908,60.569102,56.591017,65.21193,0.0,69.755527,25.328934,91.648487,15.258419,88.766796,6.040363,74.9137,-1.692341,53.262897,0.0,15.526758,32.239927,58.408294,50.545058,71.962534,62.234362,81.881947,68.128723,85.987621,-3.030509,299.346246,-47.719253,282.535055
30,-0.653985,0.450704,-0.186985,-0.113942,0.0,13.546681,-14.033363,44.944531,-25.017082,45.453747,-31.791618,34.769749,-35.359554,9.257023,0.0,-8.9598,7.389511,34.424953,26.92644,51.320557,43.120782,60.393792,56.231852,65.063322,0.0,69.892982,25.157604,92.166824,15.155456,89.156135,6.079765,75.463966,-1.484001,53.836533,0.0,15.791507,32.621347,58.083635,50.884155,71.818977,62.517191,82.064432,68.30302,86.108072,-3.969361,299.779203,-48.191105,282.403366
31,-3.853408,-0.01361,-0.987957,-0.240901,0.0,18.104702,-9.157322,48.782215,-19.787041,48.953693,-27.206406,38.877697,-31.829213,13.725139,0.0,-7.986329,7.274433,34.104777,26.585207,51.119893,42.626717,60.274898,55.825102,65.43543,0.0,70.398479,25.378853,93.25597,15.59848,90.401676,6.736004,76.619739,-0.655758,54.864452,0.0,15.443296,32.878291,57.712824,51.005902,71.984061,62.549697,82.30915,68.353556,86.862069,-8.133196,299.73273,-49.489489,282.129602
32,1.189235,-1.805397,-1.447392,-1.508007,0.0,12.763802,-11.826919,46.299797,-22.138607,46.803727,-28.984703,36.64856,-33.257251,12.571656,0.0,-7.315052,8.669128,35.613315,28.861451,51.512626,45.203056,60.984411,58.574231,66.135408,0.0,70.167984,24.97736,93.460007,15.581498,91.285515,7.248951,77.087792,0.434464,55.595627,0.0,15.652989,33.365156,58.368935,51.404674,73.510778,62.813557,83.763384,68.553702,88.355515,-7.358826,297.889887,-51.351746,280.584149
33,16.326783,-8.323029,-0.969657,-3.784127,0.0,-5.122673,-20.301762,17.533687,-26.419384,19.526836,-29.115235,13.837394,-29.609345,-1.397667,0.0,1.775905,13.233126,44.600161,31.793472,60.260189,46.890447,69.406512,58.877808,74.085946,0.0,66.574768,23.526809,88.131248,14.975406,85.515747,7.22739,71.850288,0.739105,52.517486,0.0,13.534764,32.037917,58.177027,50.200121,75.839448,61.981161,85.066935,68.47066,88.571667,8.427739,289.479092,-52.861621,276.712256
34,9.135131,-11.760477,-6.131047,-14.881676,0.0,-12.436958,-21.770977,0.34702,-22.625942,4.361721,-20.346244,4.360085,-16.27985,-0.297844,0.0,14.750358,18.643104,52.825983,35.116508,67.950511,48.348609,76.449826,58.527683,81.103905,0.0,62.267132,21.903712,80.464445,15.619555,78.367785,9.851504,66.975483,4.970175,51.779927,0.0,5.588699,28.624385,52.69895,47.216958,72.750328,60.002566,82.203649,67.981331,85.910489,17.01531,277.63624,-59.540228,261.748205
35,13.477089,-15.274063,-11.197723,-25.982215,0.0,-23.013748,-23.457561,-16.498295,-20.625343,-9.866901,-15.102058,-5.116218,-8.196773,-2.035492,0.0,22.040858,22.850789,55.297802,37.227965,67.510293,48.288847,74.059603,56.281252,77.636693,0.0,57.284878,20.140623,70.521784,17.386476,69.690679,14.88965,62.219364,12.829473,53.009434,0.0,-8.11376,22.935616,42.253621,42.284645,64.398733,56.703354,75.083926,66.890696,80.223079,29.642864,262.759862,-71.587486,236.163675
36,25.243653,-38.907737,-12.425251,-30.137276,0.0,-36.697815,-30.657635,-35.902737,-25.039307,-28.030072,-15.837548,-19.426918,-4.822941,-8.386277,0.0,23.080847,22.657739,52.110815,37.52822,65.920257,49.159874,73.322007,57.353647,78.13686,0.0,50.95594,20.604303,57.084886,18.537569,54.869196,16.172567,49.432342,13.761217,45.222668,0.0,-18.272395,11.676423,26.440711,25.317644,43.526384,35.591202,49.659033,43.151466,45.51558,54.153546,224.41453,-84.745708,206.588804
37,32.140434,-46.152184,-20.204876,-46.919346,0.0,-45.861786,-30.420776,-53.769802,-23.446152,-46.240688,-13.917664,-34.747032,-2.83905,-19.800591,0.0,19.706897,10.236125,36.120749,21.448277,49.090658,31.500195,56.154571,39.306935,61.362397,0.0,43.009174,19.938875,44.428613,22.193144,44.27088,23.565393,43.713215,24.123556,44.896019,0.0,-32.869933,0.368248,7.5459,13.716804,25.108267,25.124334,32.628831,34.687293,30.932436,85.990826,179.054996,-105.253738,160.462108
38,21.283539,-45.88142,-23.781017,-53.329231,0.0,-45.325264,-24.041497,-41.098206,-18.607819,-34.678437,-11.639649,-26.323448,-3.525948,-15.677742,0.0,-1.250965,-7.594146,-2.447564,2.818678,10.501435,13.450586,21.477306,23.042839,30.625777,0.0,36.586269,20.888895,35.45046,27.820215,39.354692,33.278074,43.228271,37.313547,48.790226,0.0,-48.826418,-11.983667,-13.190487,-0.440632,2.788828,10.624412,11.383436,20.707093,11.579938,107.481663,134.124878,-128.827457,108.084179
39,22.637832,-50.193712,-15.144757,-40.667018,0.0,-42.237625,-17.532577,-29.510307,-14.028991,-23.637748,-9.905799,-18.87577,-4.895027,-14.664779,0.0,-24.448902,-24.375258,-41.101407,-15.355777,-31.018917,-4.738127,-19.389851,6.39562,-4.872725,0.0,35.493531,19.883583,31.899685,24.477928,33.475365,27.673348,33.600872,29.782917,36.534851,0.0,-53.008838,-21.474391,-32.892252,-15.649098,-28.477234,-9.075736,-24.669024,-2.208954,-24.321301,129.699337,84.871918,-144.392372,68.357913
40,26.219193,-52.66934,-16.953506,-43.193129,0.0,-44.682289,-14.918747,-24.144562,-12.234512,-21.171616,-9.805229,-19.149857,-7.154686,-19.575165,0.0,-40.863391,-39.116744,-73.195444,-30.94977,-64.407582,-19.758175,-49.633879,-6.644567,-27.549255,0.0,29.248569,16.773273,23.759125,21.637962,30.80785,25.820812,33.247616,29.770626,37.70137,0.0,-54.174692,-29.747192,-52.838685,-26.53267,-50.041441,-21.353978,-46.240394,-14.834993,-42.583707,155.586165,32.995157,-161.678243,25.957363
41,16.668205,-29.25632,-17.264122,-37.844734,0.0,-38.820991,-6.764992,-13.058235,-6.124328,-13.618927,-6.934479,-17.099876,-8.824219,-25.422706,0.0,-53.952348,-50.225976,-103.231582,-45.782917,-99.254491,-36.783393,-83.239216,-24.09858,-55.1374,0.0,25.482033,11.478218,17.028957,19.557289,31.133423,27.913696,39.654934,36.371441,48.084549,0.0,-57.144621,-32.688612,-69.309625,-26.265044,-63.776387,-17.436476,-54.293451,-7.106706,-37.022947,171.829445,4.709285,-179.36729,-10.916923
42,13.662918,-22.273244,-11.60059,-18.619947,0.0,-34.378418,-4.336212,-5.640381,-5.419235,-9.940521,-8.210975,-17.251877,-12.671882,-32.079895,0.0,-58.003138,-50.103704,-119.57079,-45.888244,-117.85839,-37.088471,-100.382699,-24.050094,-65.58817,0.0,25.252796,7.403046,10.514477,15.340702,28.69614,24.433777,40.668343,34.057137,51.548412,0.0,-55.278555,-35.757496,-84.659577,-31.535732,-82.669834,-24.395569,-73.706045,-15.245955,-54.092608,184.519289,-16.649136,-191.940954,-28.622047
43,14.073189,-10.904351,-9.959679,-8.176619,0.0,-30.226044,-3.571587,-7.852615,-8.419716,-16.136238,-14.557938,-26.346588,-22.186981,-45.76989,0.0,-57.073183,-48.676547,-121.386296,-44.80106,-124.184617,-36.480828,-108.843524,-23.884961,-71.688122,0.0,23.467839,2.341759,6.470707,9.813069,27.635193,19.238606,40.670975,29.68134,49.98991,0.0,-51.798592,-35.239126,-95.992106,-32.296695,-97.049986,-26.353644,-87.112443,-18.40079,-64.607666,196.964767,-26.511517,-203.528344,-35.756696
44,12.685684,6.686168,-16.560379,1.707096,0.0,-27.02568,-1.995437,-12.709373,-10.022369,-25.022278,-19.297531,-36.036987,-30.02671,-53.681762,0.0,-57.915508,-45.514469,-118.499847,-41.425585,-121.68585,-33.532901,-107.65113,-22.298414,-73.246184,0.0,15.241928,-2.30793,1.486073,10.123753,26.9133,24.849381,45.537426,40.365441,58.746437,0.0,-55.389261,-34.752082,-101.111696,-29.029097,-96.218529,-21.082443,-82.058659,-11.990738,-57.8353,208.615654,-18.593472,-221.12352,-32.817723
45,4.270272,12.777086,-7.508159,19.167951,0.0,-19.224656,-1.756531,-10.93293,-8.68055,-22.78331,-16.399247,-31.952202,-25.08426,-47.195252,0.0,-55.968202,-45.115827,-106.571322,-41.544794,-108.011542,-33.89348,-95.739472,-23.014409,-66.733917,0.0,12.002638,-4.913103,1.416132,7.046076,21.545208,21.1016,37.369222,35.567207,47.832212,0.0,-55.557623,-28.982586,-95.914664,-23.173586,-94.834958,-16.981073,-82.83295,-10.896175,-61.59367,211.430083,-4.951018,-230.087522,-12.784404
46,4.46379,28.00953,-3.292523,22.005562,0.0,-15.462616,1.830758,-12.409355,-6.431213,-23.514175,-15.591499,-30.823516,-25.179199,-41.247482,0.0,-58.012221,-37.329816,-97.794344,-33.345766,-99.51057,-26.885209,-90.5985,-18.693671,-66.755159,0.0,6.381895,-8.142099,1.101088,1.690516,15.904026,13.655663,26.598879,26.536652,32.536291,0.0,-56.177746,-18.377076,-83.975512,-11.099738,-84.128369,-5.998675,-74.464392,-2.934033,-56.508944,214.552351,23.183754,-234.721567,9.3464
47,1.002663,28.273217,-2.893089,24.323747,0.0,-12.357948,6.211029,-13.26226,-2.522346,-22.684639,-12.728119,-28.22081,-23.044624,-32.608818,0.0,-59.611829,-29.699966,-89.107253,-24.220371,-90.515783,-18.188566,-83.335794,-12.413531,-63.564133,0.0,0.854479,-10.916285,2.135645,-0.720709,13.214744,11.465126,19.895365,24.736965,23.463575,0.0,-59.889125,-10.310775,-75.632324,-1.944727,-76.44437,2.230413,-68.229015,2.917176,-53.192576,214.757549,50.885736,-238.412121,33.098912
48,-0.789207,26.336532,-0.24456,24.771567,0.0,-9.056649,8.649971,-11.983178,-0.133278,-19.413987,-10.741311,-23.181359,-21.305947,-23.734635,0.0,-60.158135,-23.476136,-82.470355,-17.002538,-84.270886,-11.729114,-78.591596,-8.18682,-61.569107,0.0,-2.84677,-15.257555,1.585069,-4.937628,9.568988,7.893425,14.950979,22.094261,19.164465,0.0,-59.861121,-5.374527,-71.297359,4.445656,-73.387249,8.100697,-67.297121,6.87744,-53.285042,213.765662,76.162214,-238.859361,56.810425
49,-1.877747,16.671061,3.304275,9.494157,0.0,-7.643303,9.897194,-9.096268,0.450989,-16.937439,-11.071312,-20.991028,-22.427925,-21.939217,0.0,-57.696695,-19.920714,-79.226915,-12.367224,-81.567756,-7.320635,-75.335083,-5.053475,-58.80338,0.0,-3.548406,-17.02339,-1.090673,-7.586591,6.956829,4.892693,11.858649,19.095028,16.280245,0.0,-60.506209,-0.077911,-67.465036,10.760494,-69.329945,14.506055,-63.436387,12.617721,-49.304746,211.91942,91.529931,-235.523581,65.001238
50,4.306091,13.791504,0.64032,7.094221,0.0,-8.885124,12.994011,-12.460968,-1.52536,-23.574165,-18.862358,-30.688865,-36.040512,-32.727333,0.0,-58.841511,-14.229296,-84.721516,-5.166935,-88.977274,-0.487359,-82.732264,-0.080585,-64.946966,0.0,-5.518433,-19.196686,-2.376068,-7.971725,7.227802,6.546581,13.510288,22.57354,18.917221,0.0,-59.626921,-0.584252,-70.052459,9.913429,-72.576526,13.446368,-67.218183,11.140348,-52.120337,216.970167,103.958369,-234.138605,70.732393
51,-1.187301,0.652381,-2.069721,2.346435,0.0,-5.559586,13.063614,-12.269188,-1.505493,-24.172943,-19.166268,-31.153679,-36.747368,-32.644226,0.0,-55.765921,-15.876353,-85.711635,-6.399356,-91.058387,-1.491032,-84.7213,-1.054611,-66.899748,0.0,-5.953068,-20.590519,-1.385216,-6.2127,11.015625,11.582176,19.341854,30.378479,26.037186,0.0,-59.501944,-6.114717,-77.789427,3.507522,-81.4143,6.998829,-75.999974,5.047695,-59.680477,216.478752,103.616392,-235.51244,72.08447
52,0.041839,-1.247334,0.283275,-1.483226,0.0,-3.343872,12.896118,-11.728683,-2.13446,-24.154014,-20.139885,-31.367546,-37.993423,-32.439995,0.0,-54.930215,-17.075755,-86.969571,-7.965464,-93.289188,-3.34539,-87.45089,-2.969676,-69.925821,0.0,-7.414913,-22.209228,-1.620185,-7.455356,10.920239,10.941113,20.275498,30.330975,26.752556,0.0,-57.372716,-9.3465,-81.309806,-0.259612,-86.132902,3.170117,-81.168688,1.314116,-63.827375,216.940406,101.929939,-234.80935,70.162125
53,0.146553,-2.426717,-0.411449,-3.757828,0.0,-2.475952,13.077896,-11.687965,-2.23645,-24.49102,-20.461189,-31.632522,-38.577095,-32.378311,0.0,-55.547034,-18.095582,-87.989379,-9.207339,-94.06302,-4.599609,-88.675018,-3.968032,-71.163454,0.0,-7.301136,-22.038952,-1.353344,-7.323956,11.10466,11.183407,20.535118,30.681828,26.987103,0.0,-57.14674,-10.118608,-81.956586,-1.406359,-87.043109,2.019875,-82.424907,0.381692,-65.120669,217.254078,99.327261,-235.05368,66.228336
54,-0.372871,-2.173985,-0.528316,0.45284,0.0,-1.893837,13.726479,-11.796249,-1.539871,-24.367539,-19.685509,-31.381371,-37.741539,-32.088455,0.0,-56.919159,-19.092548,-89.233897,-10.542512,-95.041443,-5.919605,-89.85581,-5.041526,-71.883655,0.0,-8.535553,-22.669487,-1.898633,-6.787377,11.663692,12.715782,22.355758,32.917808,28.94458,0.0,-55.195488,-11.663294,-83.845308,-3.424597,-89.686644,-0.409646,-86.094091,-2.528914,-68.37465,216.993513,97.04562,-235.46969,66.57352
55,-0.912941,-1.803199,0.300498,-0.528157,0.0,-2.167191,14.951958,-11.587372,-0.462021,-24.025841,-18.689461,-31.343811,-36.770645,-32.005234,0.0,-57.851299,-19.467749,-90.21834,-11.013661,-95.802213,-6.444736,-90.524313,-5.706615,-72.260239,0.0,-7.589836,-22.644207,-2.165771,-6.770187,11.708725,12.66108,22.473198,32.761323,28.971966,0.0,-55.449202,-11.858654,-84.083208,-3.544863,-89.984689,-0.627471,-86.711553,-2.94526,-69.260781,216.25617,95.238463,-234.993594,66.041405
56,-1.106667,-1.037116,0.829091,0.623259,0.0,-2.91275,16.150498,-11.361694,0.444168,-23.567642,-17.947197,-31.043998,-35.925911,-31.85662,0.0,-58.248083,-19.43443,-90.578067,-10.919184,-95.954126,-6.296999,-90.239718,-5.741276,-71.811512,0.0,-6.805676,-22.960041,-2.485245,-7.005146,11.322315,12.459491,21.986217,32.620216,28.610057,0.0,-55.812134,-11.549519,-83.985092,-3.063925,-89.674806,-0.24618,-86.912741,-2.923394,-69.648654,215.377916,94.238737,-233.93609,66.702054
57,-1.120857,-0.386595,0.615852,1.067739,0.0,-3.340393,17.050484,-11.225487,1.142853,-23.236198,-17.358902,-30.6866,-35.227341,-31.568825,0.0,-58.332965,-19.024647,-90.254229,-10.372519,-95.602809,-5.730321,-89.54008,-5.444626,-71.149634,0.0,-6.374714,-22.703831,-2.984539,-6.741325,11.070499,12.67749,21.585342,32.721142,28.388763,0.0,-56.379398,-11.18563,-83.619012,-2.547137,-89.399282,0.165874,-86.929229,-2.749264,-69.996655,214.60667,93.854701,-232.970627,67.772352
58,-0.717888,0.387255,0.191196,1.247395,0.0,-3.746246,17.551415,-11.008278,1.675873,-22.638382,-16.865249,-30.358268,-34.684822,-31.064003,0.0,-58.043781,-18.851085,-90.01397,-10.131631,-95.56947,-5.532972,-89.508976,-5.477465,-71.256412,0.0,-6.03004,-22.177173,-3.201667,-6.110504,10.896721,13.26249,21.481476,33.133061,28.324677,0.0,-56.297041,-10.933984,-83.682114,-2.403616,-89.93485,0.172266,-87.34463,-2.867047,-70.530419,214.320167,94.223533,-232.348046,69.001324
59,-0.214554,0.603135,0.195202,1.077662,0.0,-4.166908,17.251946,-10.924232,1.306916,-22.276268,-17.246841,-30.2555,-34.979415,-30.828598,0.0,-57.570378,-18.557215,-90.053954,-9.848734,-95.611547,-5.391614,-89.561192,-5.569288,-71.63501,0.0,-5.782551,-21.685741,-3.007347,-5.412632,10.909436,14.03199,21.425492,33.825096,28.283272,0.0,-56.324428,-11.081722,-83.982406,-2.879409,-90.714251,-0.470964,-87.952445,-3.581845,-71.39448,214.518264,94.750922,-231.740193,70.00324
60,0.059121,0.75853,-0.227176,0.560645,0.0,-4.256173,16.683838,-11.393349,0.834297,-22.534493,-17.65178,-30.628327,-35.329834,-31.102707,0.0,-57.304938,-18.823316,-90.069157,-10.095692,-95.579739,-5.525785,-89.523605,-5.538425,-71.598825,0.0,-5.404908,-20.990548,-2.249085,-4.443924,11.604412,15.099163,22.012676,34.807525,28.791652,0.0,-56.404333,-11.310718,-84.431394,-3.239754,-91.197337,-0.909738,-88.208735,-4.016865,-71.868075,214.963251,95.394161,-231.581503,70.448594
61,-0.020279,0.381315,0.027042,0.337991,0.0,-4.501854,16.108909,-11.650795,0.54998,-22.72403,-17.72168,-30.821434,-35.395203,-31.518402,0.0,-57.020713,-18.983874,-89.758651,-10.251161,-95.202321,-5.575686,-89.098774,-5.415907,-71.253331,0.0,-5.519142,-20.502445,-1.779282,-3.749096,12.141426,15.789356,22.56308,35.281425,29.141842,0.0,-56.324293,-11.500663,-84.80102,-3.888714,-91.494283,-1.732513,-88.535481,-4.90733,-72.502413,215.291886,95.587177,-231.205547,70.598286
62,-0.080956,0.710296,0.05405,0.288152,0.0,-5.330864,15.524323,-11.818588,0.148476,-22.886352,-17.977272,-31.126373,-35.606506,-32.015487,0.0,-56.263783,-19.539923,-90.164975,-10.886289,-95.272531,-6.121145,-89.168286,-5.74188,-71.481468,0.0,-5.407299,-20.39471,-1.26464,-3.466816,12.540047,16.119153,23.026268,35.525013,29.351475,0.0,-56.077995,-11.537855,-84.738467,-4.267472,-90.989881,-2.225454,-88.271319,-5.45216,-72.499245,215.488615,96.056307,-230.873812,70.645272
63,-0.526794,0.543422,0.124146,0.549702,0.0,-5.787918,15.229728,-12.157814,0.028473,-23.090378,-17.941338,-31.351547,-35.52237,-32.41967,0.0,-55.638535,-19.744342,-90.684036,-11.000632,-95.512215,-6.045945,-89.114032,-5.4679,-71.413289,0.0,-5.720902,-20.422451,-0.960903,-3.363991,12.622456,16.26479,23.096134,35.613121,29.478012,0.0,-56.093179,-11.452411,-84.659438,-4.448895,-90.297269,-2.465768,-87.925214,-5.67821,-72.257306,215.228628,96.38321,-230.482859,70.978455
64,-0.943154,0.876795,0.12981,0.654906,0.0,-5.594375,14.892311,-12.423614,0.068985,-23.334365,-17.599228,-31.394531,-34.975158,-32.440979,0.0,-54.794056,-19.977907,-90.828262,-11.266913,-95.73632,-6.203187,-89.058995,-5.450981,-71.215966,0.0,-5.361946,-20.457699,-0.689197,-3.471737,12.893326,16.129498,23.520504,35.463513,29.76455,0.0,-56.331072,-11.130166,-84.371545,-3.91844,-89.244641,-1.793689,-87.110682,-4.906786,-71.471569,214.593235,97.09879,-230.045288,71.472146
65,-1.089363,0.504964,0.511277,1.336205,0.0,-5.196945,14.726486,-12.496216,0.057747,-23.666267,-17.441299,-31.590179,-34.756279,-32.624702,0.0,-54.236307,-19.71808,-90.529149,-10.910835,-95.471923,-5.739405,-88.620524,-4.900964,-70.891993,0.0,-5.15704,-20.714665,-1.000752,-4.033837,12.720691,15.385871,23.444973,34.721122,29.674976,0.0,-56.275688,-10.958463,-84.004149,-3.430167,-88.50555,-1.100868,-86.667784,-4.158625,-70.752146,213.863651,97.464273,-229.174232,72.66887
66,-1.025665,1.295474,2.904533,-2.31004,0.0,-4.891365,14.443039,-12.862198,-0.150513,-24.408211,-17.583389,-32.145813,-34.772598,-32.845367,0.0,-54.001612,-19.905733,-91.03649,-11.066705,-95.877055,-5.822224,-88.890638,-4.896407,-71.319812,0.0,-4.207592,-19.422157,-1.437355,-5.761803,10.737362,10.89925,19.076179,28.053108,24.149998,0.0,-57.432761,-7.727533,-80.652571,0.204326,-84.155987,2.72541,-81.695066,0.054026,-65.772648,213.319651,98.685195,-225.788034,70.284278
67,-1.262695,1.168058,-0.034012,0.88431,0.0,-4.267548,14.183304,-13.197029,-0.332474,-25.129715,-17.721405,-32.739395,-34.867722,-33.187134,0.0,-54.205629,-19.863094,-91.309624,-10.998477,-96.13979,-5.629427,-88.982973,-4.538093,-71.039854,0.0,-2.759411,-17.298214,-0.536339,-3.79541,11.860771,12.402409,19.844307,28.897717,25.059746,0.0,-56.370377,-7.52832,-78.998315,0.007008,-82.352616,2.343156,-79.687357,-0.116999,-63.938242,212.829277,99.810287,-225.049725,71.125622
68,-1.27327,1.004408,0.240463,0.861961,0.0,-3.718941,13.629959,-13.519615,-1.063362,-26.008095,-18.492508,-33.779182,-35.647613,-34.284531,0.0,-54.596942,-19.921924,-91.310063,-11.197876,-95.99238,-5.806589,-88.917944,-4.550672,-70.920694,0.0,-0.363281,-14.900894,1.316643,-1.697067,13.561066,14.024334,21.192204,29.897587,26.304371,0.0,-55.469215,-7.246837,-77.237872,0.157538,-80.565836,2.438635,-77.547026,0.172271,-62.230632,212.427143,100.755557,-223.938126,71.928445
69,-1.902168,0.355997,1.036938,1.228457,0.0,-3.684769,13.395241,-14.113495,-1.63234,-26.911949,-19.262078,-35.196694,-36.58738,-35.753357,0.0,-55.953901,-19.945321,-90.896261,-10.981576,-95.44269,-5.258066,-88.383581,-3.59246,-70.112455,0.0,1.095245,-12.97411,3.189526,0.074158,15.036301,15.380734,22.315178,30.684998,27.570877,0.0,-54.333126,-8.109478,-76.286113,-1.193562,-79.541132,1.173894,-75.831964,-0.40433,-60.872074,211.52647,101.033162,-221.899693,73.07851
70,-2.389252,0.434118,1.201504,-0.020619,0.0,-5.676659,12.27507,-15.97728,-2.80854,-28.974586,-20.559952,-37.541336,-38.072182,-38.121117,0.0,-56.688243,-20.711138,-90.96087,-11.549266,-95.184691,-5.416851,-87.887972,-3.113975,-69.560265,0.0,3.809749,-10.004448,6.991001,3.045536,18.330883,18.000629,25.059185,32.583423,30.262356,0.0,-53.501915,-7.336634,-74.137217,-0.548763,-77.168205,2.067546,-72.322459,1.315173,-57.416533,210.087255,101.412825,-219.748152,73.003436
71,-2.805931,-0.008584,-0.057621,3.547092,0.0,-10.86113,9.487175,-20.181267,-5.714012,-33.778564,-23.422028,-42.884834,-40.946754,-43.358254,0.0,-58.317169,-21.616441,-90.832923,-11.957244,-94.712405,-4.983221,-86.766738,-1.533386,-68.31913,0.0,6.780384,-8.886246,11.244896,6.871273,24.559433,24.320778,33.21833,40.907123,39.859371,0.0,-51.704552,-9.028132,-74.681813,-1.679914,-78.071095,1.540463,-72.247179,1.353501,-56.740156,208.238823,101.351689,-218.848274,76.497976
72,-3.808228,0.542496,5.628113,-0.992545,0.0,-17.399322,4.801049,-26.802406,-10.228775,-41.298706,-27.356666,-51.030143,-44.216491,-51.529747,0.0,-57.145097,-22.936085,-91.163763,-12.91671,-93.681926,-4.904958,-84.522679,0.190482,-66.201616,0.0,12.335666,-8.435898,16.363666,7.086925,28.053886,24.390609,36.290851,40.964504,42.196884,0.0,-53.107028,-7.719388,-71.560385,1.555487,-73.389531,6.306736,-66.47569,7.314663,-51.070258,205.646581,101.911107,-212.004175,75.522353
73,-5.272407,1.160383,7.70684,-3.316862,0.0,-24.608826,-1.338822,-37.026833,-16.033997,-53.099762,-32.174629,-62.100128,-47.790024,-61.592354,0.0,-54.348668,-24.470842,-90.278553,-13.830382,-90.739353,-4.493948,-79.816779,2.46654,-61.456091,0.0,16.121498,-7.334289,20.316547,6.893841,32.437843,23.154224,40.009518,39.192089,44.628513,0.0,-51.468122,-3.34949,-63.915196,7.856703,-63.863844,14.284013,-56.285506,16.696601,-39.773168,201.686743,103.089759,-202.984766,72.22376
74,-6.357147,2.036387,10.161987,2.381553,0.0,-33.139733,-8.889885,-50.388703,-23.146477,-68.252632,-38.02945,-76.244316,-51.969315,-73.473358,0.0,-50.142323,-25.048345,-87.326031,-13.557569,-85.137924,-2.891846,-72.803464,5.751254,-54.52483,0.0,20.284241,2.294838,23.619748,15.700688,34.181946,29.465996,40.484242,42.330574,44.098813,0.0,-51.103585,-11.273402,-55.709956,-0.282922,-53.74838,7.458585,-45.506657,12.170796,-30.883141,196.481243,105.173135,-191.671132,74.652302
75,-9.665932,2.222996,11.237721,3.77789,0.0,-40.787796,-16.284004,-64.796013,-28.921417,-82.775459,-41.325737,-88.859184,-52.41275,-83.134964,0.0,-47.413121,-23.939863,-79.334799,-11.516798,-74.627231,0.613478,-61.10097,11.090701,-42.997176,0.0,24.463714,7.118294,26.957565,19.642113,36.048946,31.601555,40.653465,42.535641,42.584747,0.0,-50.27737,-11.597091,-49.018378,0.289925,-44.922554,9.325739,-36.230171,15.414218,-22.266686,188.052109,107.443716,-179.196613,78.477777
76,-12.070084,4.581942,14.302357,9.993922,0.0,-46.367134,-22.262626,-78.498436,-32.407928,-95.266685,-41.5792,-98.133293,-49.031341,-87.808845,0.0,-43.361114,-22.21723,-68.022067,-9.251255,-60.305384,3.971324,-46.588259,16.025177,-28.758296,0.0,28.137851,16.910156,31.400013,27.028633,37.774784,34.970043,39.821823,41.314476,39.391113,0.0,-51.163669,-17.73186,-43.743301,-7.153532,-37.381458,2.189367,-28.795953,10.101076,-17.491712,177.107643,112.021478,-163.768638,88.467519
77,-19.536049,5.697347,12.15109,13.916357,0.0,-52.11264,-26.350891,-87.496925,-34.038551,-101.322418,-40.177391,-102.397178,-44.222145,-90.257446,0.0,-37.984463,-17.196379,-52.063699,-3.018515,-42.612953,10.892643,-28.364114,23.360452,-11.463507,0.0,30.907368,25.260859,38.907898,33.130274,44.838896,37.928799,44.82732,40.866263,42.031346,0.0,-49.451098,-20.451891,-39.232674,-10.328905,-31.775342,-0.421073,-22.8409,8.963451,-12.599511,158.082269,117.540724,-151.106873,102.205775
78,-16.876075,7.01878,10.210957,18.481842,0.0,-56.084519,-29.482659,-93.880623,-35.107315,-106.330445,-38.820328,-106.064141,-40.24379,-92.495636,0.0,-33.680077,-11.531216,-34.627297,3.799497,-23.217562,18.615032,-9.544854,31.940691,7.022504,0.0,37.335216,31.412321,52.343708,38.426405,56.75802,41.627094,55.082531,42.443876,49.504944,0.0,-49.426879,-22.872785,-37.625687,-11.945907,-29.395493,-0.912773,-19.565991,9.837412,-10.613525,141.440443,124.292569,-140.661667,120.420682
79,-15.076103,10.635539,8.064079,14.939395,0.0,-60.077157,-31.359078,-95.613236,-35.031762,-108.349583,-36.562569,-106.073685,-35.720101,-91.639,0.0,-30.052382,-6.897824,-20.485619,8.998826,-7.09721,24.193799,7.528937,37.75866,23.618372,0.0,45.073094,30.153769,68.714848,34.915575,74.146711,37.163475,70.987816,37.709124,61.445995,0.0,-46.211418,-11.26238,-31.643789,2.587083,-22.213025,14.852403,-11.901951,25.523128,-1.730308,126.533444,134.511222,-132.428484,134.943191
80,-14.71296,14.685909,8.580448,17.950875,0.0,-63.087547,-33.926239,-99.283665,-36.287762,-112.386034,-36.109382,-108.052048,-33.279442,-91.484825,0.0,-23.468788,-1.820692,-9.183348,14.53659,6.186094,29.731638,21.544311,42.982245,36.902824,0.0,51.913868,32.957903,82.051255,34.797678,87.395972,34.890736,81.991814,33.668627,69.487759,0.0,-42.935114,-7.50554,-22.609252,6.778837,-11.712978,19.252096,-1.273568,30.099019,7.537879,111.82493,148.522477,-123.84359,152.219412
81,-15.180038,16.376407,6.710404,15.953195,0.0,-64.873993,-37.436119,-105.573361,-38.785824,-118.378893,-37.14196,-112.134133,-32.60479,-93.385094,0.0,-15.503577,4.573421,1.022574,21.522476,18.094488,36.592664,34.476447,49.110405,48.493006,0.0,58.283386,30.477602,91.815319,30.237299,93.783605,29.244404,85.606178,27.635358,70.196972,0.0,-36.611755,1.566929,-9.572691,16.935371,0.841374,29.594579,10.043954,39.433093,18.245524,96.62903,164.197041,-117.149048,167.470764
82,-6.314347,16.922342,7.745046,17.416623,0.0,-65.700439,-40.08712,-112.665939,-40.733287,-125.896036,-38.181083,-116.433929,-32.707878,-93.315662,0.0,-9.673745,9.914436,10.175208,26.874026,28.419417,41.470947,44.794904,53.087737,58.660508,0.0,63.722958,32.640187,101.961617,32.197438,103.239613,31.380604,95.029736,29.903263,80.09285,0.0,-29.038119,13.248514,0.529905,28.805357,10.259288,40.121984,20.025943,47.53711,27.995476,90.307937,180.477716,-109.410748,184.24572
83,-9.157745,18.143308,8.571064,17.163082,0.0,-67.275661,-41.410126,-115.621857,-40.338078,-126.507357,-36.128357,-114.47921,-29.119995,-88.150555,0.0,-4.63911,15.591053,16.087514,31.870092,35.312937,44.984188,52.592339,54.393907,65.103312,0.0,69.155217,33.23243,106.75177,31.585705,107.327923,29.901158,98.417588,27.928299,82.899845,0.0,-22.313338,19.849769,10.980829,35.167231,21.690425,45.384182,33.26475,51.165626,41.135309,81.126577,197.995607,-100.863299,200.783385
84,-10.600777,16.427092,8.058037,17.448209,0.0,-67.647857,-41.584167,-117.279762,-38.470791,-123.766714,-32.581192,-110.082218,-24.233276,-81.847881,0.0,1.945793,22.229988,25.812376,37.807912,44.078617,49.697411,60.965126,57.418219,72.665193,0.0,73.471653,35.202633,107.471237,32.313206,106.574375,29.604527,96.585056,26.912201,80.683708,0.0,-16.466192,26.236342,20.966599,41.12596,31.357909,50.123365,44.002961,54.366088,52.032787,70.515352,213.944664,-92.81571,217.753559
85,-8.624977,15.737815,10.793186,16.623372,0.0,-69.726608,-38.601837,-111.752357,-33.76918,-115.102237,-26.72834,-101.324146,-17.890045,-73.515094,0.0,5.454463,27.910025,33.594484,42.100122,50.407133,52.194906,66.43565,57.460969,77.788464,0.0,75.231217,35.690049,106.652092,32.624268,104.432534,29.670285,94.49366,26.660431,79.520737,0.0,-9.971445,33.202245,26.673831,49.334874,35.397275,58.378407,48.933743,61.70337,57.955355,61.921909,229.449658,-81.99099,234.14411
86,-6.796646,22.696858,7.909241,13.916505,0.0,-69.846531,-39.896587,-90.691749,-35.258926,-89.329891,-28.33398,-77.679279,-19.592308,-60.324268,0.0,15.571046,25.964702,36.691551,36.299325,48.687705,43.028477,60.68607,45.761415,70.045814,0.0,77.458981,37.299854,109.098324,33.763744,108.911282,30.588467,99.375584,27.236961,83.184689,0.0,-4.067846,39.161555,34.35704,56.818258,45.00449,66.374542,60.122955,69.769728,70.160608,55.131923,252.016634,-74.075089,247.930733
87,-6.446663,24.412445,7.264915,12.186802,0.0,-69.459194,-41.782299,-68.818943,-37.054596,-63.535778,-29.80291,-53.207782,-20.699135,-47.853538,0.0,22.517065,21.811271,36.819511,26.753983,43.814535,28.988731,50.318225,28.288679,55.145773,0.0,78.533169,35.234253,105.521863,29.447674,105.338574,24.438458,93.848523,19.724099,74.238019,0.0,-1.123759,38.211686,42.85754,56.52582,55.571493,67.192574,70.63122,71.877442,80.366148,48.692562,276.386128,-66.802872,260.074584
88,-3.06047,15.136631,9.15564,11.397187,0.0,-66.10651,-43.562863,-46.946492,-40.851219,-40.636219,-35.188145,-35.165394,-27.431729,-48.408234,0.0,20.476005,19.841717,40.079957,25.264836,45.025597,28.032749,49.370468,28.492085,56.577333,0.0,75.278675,36.060425,99.812451,28.624867,98.412975,21.560875,85.011509,14.666851,64.906643,0.0,1.384432,38.605715,49.756506,56.647469,62.077541,67.674845,75.118598,73.101681,84.221424,45.603173,291.557691,-57.676151,271.506703
89,-5.200585,13.016543,7.398331,8.627459,0.0,-55.749641,-43.374103,-23.93082,-43.314056,-16.763408,-39.61504,-16.107353,-33.368499,-46.853805,0.0,16.483951,17.662631,39.9775,23.666549,44.579944,26.634101,46.965189,27.631778,55.759523,0.0,72.638614,34.339828,96.651432,26.428871,95.073337,18.593456,80.875088,10.742237,60.560039,0.0,3.154334,37.849174,52.514575,56.102867,65.59046,67.610452,77.605917,73.712874,85.708065,40.343954,304.600679,-50.336454,280.160607
90,-8.848411,12.347958,2.901546,5.604973,0.0,-36.148522,-40.017494,3.064499,-43.143746,9.865951,-42.048775,5.323883,-37.534825,-41.941006,0.0,9.474674,11.171749,35.923537,18.828454,41.281435,23.416793,43.300463,26.618812,52.917979,0.0,72.290955,33.732685,96.334626,25.059574,95.414086,16.230286,80.420906,7.39872,58.267296,0.0,3.569112,35.278813,56.765833,52.691997,71.3682,64.108401,82.480483,70.840048,89.625462,31.442408,316.996506,-47.488043,285.813449
91,-6.418854,1.160426,3.597794,3.818041,0.0,-19.364307,-31.800121,16.752365,-36.579666,20.307472,-37.1315,13.171852,-34.154091,-44.198513,0.0,-5.653448,11.348972,35.661616,22.490908,43.891106,29.822781,48.232469,35.114335,60.648389,0.0,71.101547,32.468239,94.839661,23.989437,94.544609,15.055206,79.766807,6.073036,58.394302,0.0,3.853855,33.491422,55.834203,50.64933,70.416551,62.160928,81.305495,69.222582,88.34955,24.968033,318.238905,-43.94577,289.713463
92,-2.358788,-8.303504,2.792129,1.384802,0.0,-10.625507,-28.554737,22.749779,-35.814697,24.05468,-38.812866,12.731301,-38.281002,-54.170757,0.0,-13.161619,15.98076,39.716889,32.589299,52.22835,44.143838,60.03296,53.104156,78.322111,0.0,69.494591,31.572922,93.432496,23.091511,92.70282,13.763695,77.731797,4.30909,56.816574,0.0,4.744358,32.486287,55.708752,49.673476,69.999094,61.401584,80.347302,68.804038,87.277328,22.549598,310.027715,-41.213288,291.190579
93,-6.771034,-1.430065,-0.411586,-0.014845,0.0,-2.142265,-23.766323,31.318863,-31.840141,32.426033,-35.520939,20.428803,-35.597946,-47.023853,0.0,-5.904735,17.689023,41.184622,34.398511,53.26078,45.891473,61.164042,54.813988,78.397891,0.0,69.9463,30.451126,94.077907,22.243583,93.679676,13.222755,79.01762,4.056415,57.650997,0.0,5.476793,31.499293,55.146811,48.621793,69.950768,60.262277,80.280772,67.607958,86.398324,15.737846,308.717511,-41.665592,291.295595
94,-6.602714,0.47218,0.621791,-0.334094,0.0,8.603531,-18.288426,39.799347,-26.617676,40.617027,-30.625821,27.762474,-30.986561,-39.145558,0.0,-3.17796,16.552655,41.509949,33.549246,52.013669,45.62528,60.188263,55.273412,76.149151,0.0,69.777878,29.892598,94.085953,21.732148,93.28965,12.674687,78.54879,3.530766,57.053032,0.0,6.112068,31.152638,54.81899,48.125579,69.717203,59.755355,79.858597,67.103073,85.839606,9.030327,309.31661,-41.148606,291.08842
95,4.349098,-5.324503,0.613324,-0.307554,0.0,1.626297,-23.078236,33.722374,-31.741837,34.667381,-35.987618,21.840889,-36.605106,-47.274674,0.0,2.010001,21.026423,46.398197,38.227963,56.614976,49.873745,64.142401,59.176964,80.668182,0.0,69.434772,29.349735,93.805652,21.065666,92.633571,11.938362,78.107769,2.847507,56.638515,0.0,7.009499,30.927422,54.599838,47.964645,69.684648,59.640659,79.842282,66.884452,85.57009,13.177843,304.098095,-40.736864,290.886854
96,0.332359,-4.427924,0.484359,0.04572,0.0,0.491959,-23.936416,35.095185,-33.252159,36.482964,-37.955166,22.427925,-38.913448,-46.287403,0.0,12.032067,24.342728,50.689653,42.246507,60.239799,54.417353,67.925774,64.320945,85.001615,0.0,69.428456,29.037964,93.309918,20.72596,92.17075,11.559403,77.849087,2.480805,56.375279,0.0,7.463327,30.732612,54.616238,47.845059,69.634667,59.609266,79.839145,66.810747,85.306737,13.231373,299.705449,-40.531334,290.967852
97,-7.180778,2.686352,0.426133,0.221918,0.0,12.963089,-17.428356,44.984253,-26.326802,46.090942,-30.553929,32.020935,-30.8126,-32.594879,0.0,12.990879,22.302804,49.53607,40.167569,57.621422,52.696172,65.822494,62.739419,81.944711,0.0,69.660884,28.580486,92.913471,20.250503,91.928089,11.127102,77.693332,2.13129,56.296428,0.0,7.487102,30.339497,54.181603,47.541457,69.466225,59.40381,79.576077,66.659385,84.977064,5.66359,302.330974,-40.492206,291.128943
98,-0.914063,-1.032133,0.39204,0.171308,0.0,14.268219,-15.714546,44.375656,-24.508163,45.13646,-29.418926,29.968048,-30.516861,-34.762184,0.0,5.570097,22.049059,48.328589,40.617408,58.138877,53.415761,67.105087,63.36064,83.363032,0.0,69.658081,28.312614,92.535713,20.000885,91.751037,10.918613,77.540291,1.958221,56.172912,0.0,7.503355,30.091544,53.817596,47.329406,69.134971,59.25167,79.147356,66.586186,84.751292,4.292244,301.175757,-40.557449,291.177167
99,5.291771,-2.932391,0.288711,0.137296,0.0,3.215813,-20.46785,37.48835,-29.6758,38.031029,-35.001629,22.26693,-36.488319,-45.057964,0.0,2.760589,24.080635,49.180152,43.203824,60.685872,55.796153,69.571101,65.310508,86.876976,0.0,69.531533,27.962986,92.073533,19.649712,91.662667,10.612816,77.446633,1.696724,56.053162,0.0,7.352387,29.751979,53.458493,47.040316,68.860194,59.000123,78.851991,66.354066,84.461238,9.119053,298.101327,-40.7337,291.172424
100,-4.626343,0.169912,0.162026,0.180003,0.0,10.651017,-16.28849,44.530953,-25.650833,45.013367,-30.935588,29.268013,-32.341461,-36.596271,0.0,7.065841,24.508788,50.415247,43.521011,60.620293,56.348857,69.332387,66.21204,86.856611,0.0,69.354378,27.746361,91.841675,19.519031,91.799904,10.556797,77.621635,1.632076,56.160599,0.0,7.159688,29.279279,53.120656,46.616151,68.481861,58.684701,78.427494,66.213497,84.070012,4.047426,298.119006,-41.016958,291.200194
101,2.547432,-1.081669,0.08258,0.132936,0.0,5.103012,-18.985553,40.169174,-28.270694,40.695191,-33.789894,24.328217,-35.581981,-43.379047,0.0,1.555381,25.632077,50.416741,44.779558,62.042429,57.146671,70.560825,66.386793,88.78037,0.0,69.080063,27.370263,91.566079,19.221451,91.871888,10.33326,77.697213,1.428795,56.141259,0.0,7.132197,29.023163,53.170303,46.353589,68.217755,58.461573,78.160843,66.103075,83.815279,6.104942,296.894706,-41.424294,291.190499
102,1.836869,-2.287112,-0.054897,0.097788,0.0,1.239486,-21.133072,38.379455,-30.99503,38.075958,-36.928952,21.16658,-39.11625,-46.121922,0.0,2.715165,27.125177,51.583108,46.945553,63.614447,59.747969,72.357354,69.455949,90.911266,0.0,68.796055,27.213204,91.249912,19.150509,91.809528,10.311985,77.629658,1.39793,55.996845,0.0,7.069076,28.917039,53.271982,46.161249,68.032454,58.23753,78.129968,65.918256,83.71985,7.471098,294.541453,-41.949904,291.222146
103,-4.292073,3.411117,-0.167278,-0.042583,0.0,1.780209,-18.291103,44.775387,-27.953441,44.679028,-33.211521,29.004147,-34.672268,-33.38443,0.0,15.076549,25.802842,50.727593,43.395349,60.171714,54.672951,67.548813,63.287034,85.06554,0.0,68.633583,27.154083,90.956726,19.129806,91.631584,10.25188,77.448967,1.208198,55.767586,0.0,7.009697,28.799614,53.501347,45.958818,68.098181,58.010585,78.408981,65.72972,83.813291,2.723047,297.911488,-42.57316,291.138481
104,0.24701,0.164405,-0.0821,-0.059713,0.0,1.131259,-18.660622,44.25761,-28.44508,44.439502,-33.675202,28.347209,-35.101731,-34.435559,0.0,15.246349,25.975879,51.507821,43.337439,60.40056,54.480869,67.527101,63.096348,84.672078,0.0,68.462997,27.025051,90.751991,18.958374,91.380752,10.040108,77.133156,0.951302,55.413757,0.0,7.068187,28.710928,53.843679,45.861969,68.313271,57.961642,78.649907,65.746257,83.875239,2.547902,298.054999,-43.077415,291.057874
105,1.120491,0.282928,-0.092297,-0.117239,0.0,-2.159375,-19.850865,42.493183,-29.691033,42.749347,-34.894261,26.878131,-36.278195,-38.200573,0.0,15.635957,25.841263,51.888402,43.020425,60.484256,53.963092,67.640722,62.548956,84.784032,0.0,68.376515,26.872376,90.401448,18.714798,91.047924,9.708744,76.718411,0.557259,54.980564,0.0,7.164196,28.789536,54.200782,45.8893,68.642659,57.964296,79.115134,65.724866,84.130984,3.235583,298.342275,-43.602522,290.944983
106,-6.170609,2.82145,-0.106441,-0.110385,0.0,5.624073,-15.072704,50.573467,-24.548401,50.979893,-29.061653,36.188999,-29.590485,-25.677669,0.0,21.648608,23.708886,50.345272,40.164456,57.412878,50.945893,64.928483,59.546787,81.310053,0.0,68.350113,26.9179,90.178551,18.668724,90.863731,9.559089,76.548317,0.294479,54.706329,0.0,7.248782,28.826253,54.140822,45.869231,68.885919,57.886009,79.522699,65.576504,84.359102,-3.287001,301.185702,-44.060938,290.856575
107,3.308487,-0.493065,-0.108524,-0.181732,0.0,-1.486782,-17.995834,44.24342,-27.358967,45.886974,-32.098125,30.832775,-32.976734,-35.336472,0.0,18.374996,24.180955,50.497301,40.161641,58.84713,50.274938,65.747652,58.286437,82.330528,0.0,68.177181,26.732013,89.940525,18.355945,90.570796,9.197971,76.258312,-0.077214,54.358646,0.0,7.55646,28.729688,54.27471,45.8399,69.226893,57.910241,79.960238,65.610838,84.593347,-0.278131,300.700482,-44.469079,290.682688
108,2.861698,-2.762837,-0.176777,-0.064467,0.0,0.391731,-20.8587,39.838371,-30.750629,41.711151,-35.653747,26.290032,-36.545711,-42.294536,0.0,12.479969,25.529918,52.847967,43.247062,61.906406,54.851842,69.714487,64.1971,87.102353,0.0,68.102256,26.603096,89.72525,18.151817,90.370239,8.999382,76.072746,-0.232556,54.114875,0.0,7.78669,28.72954,54.440732,45.878901,69.41391,57.984724,80.08401,65.683394,84.701669,2.318745,297.949699,-44.910678,290.630275
109,-7.461227,1.225067,-0.275036,-0.239987,0.0,12.912712,-14.674794,49.138366,-24.190842,50.827995,-28.714978,36.003044,-29.146099,-26.226654,0.0,15.4852,23.753123,52.157967,40.990566,60.798924,52.644499,68.878929,62.205871,85.419468,0.0,68.453556,26.539192,89.600292,18.086689,90.408199,8.996223,76.108875,-0.125267,54.173572,0.0,8.157649,29.036575,54.872787,46.230916,69.861181,58.321264,80.43647,65.936695,85.045854,-5.375307,299.169187,-45.418539,290.384709
110,2.016998,-0.414704,-0.3536,-0.263316,0.0,8.797462,-16.941479,44.901398,-26.23344,47.598518,-30.822945,32.111435,-31.428417,-30.450359,0.0,9.728284,23.210264,50.509602,40.956258,60.635509,52.728554,68.73594,62.089669,85.625678,0.0,68.869045,26.481503,89.735722,17.961891,90.455441,8.974022,76.125492,0.077145,54.389889,0.0,8.581381,29.276636,55.297111,46.597503,70.299324,58.709291,80.608148,66.227897,85.180865,-3.541952,298.730011,-45.955782,290.096921
111,1.087807,-0.774053,-0.2085,-0.23028,0.0,11.462127,-17.121643,43.58226,-26.702339,45.681175,-31.97778,29.220932,-33.298645,-34.839924,0.0,4.850877,23.304124,51.911953,41.910597,62.090916,54.280724,69.765714,64.110685,86.347713,0.0,69.246964,26.24231,89.814858,17.650944,90.30732,8.79768,75.978585,0.165047,54.49244,0.0,8.854577,29.44477,55.702367,46.883111,70.594504,59.051351,80.632849,66.535785,85.237688,-2.64699,297.912733,-46.357127,289.823416
112,-5.710888,1.762109,-0.218811,-0.175791,0.0,22.444965,-11.904694,51.30772,-21.280277,52.514545,-26.197632,36.433697,-27.128609,-19.503079,0.0,5.355058,21.389479,50.561522,40.428217,60.095872,53.403782,68.093946,63.733996,83.077943,0.0,69.621758,26.201718,90.020142,17.536824,90.249207,8.737015,75.817932,0.252171,54.551949,0.0,9.070469,29.77106,56.104276,47.261493,70.879803,59.415839,80.700811,66.814551,85.393484,-8.549297,299.629881,-46.767357,289.602664
113,0.89788,-0.873348,-0.169613,-0.276518,0.0,19.786961,-12.834961,48.951222,-22.057926,50.797039,-27.339168,34.049778,-28.70755,-25.914447,0.0,-0.194007,21.445152,49.756037,40.791816,60.693615,53.690563,68.766012,63.80633,84.506069,0.0,69.951817,26.085263,90.231388,17.302117,90.261486,8.554848,75.707692,0.255158,54.665005,0.0,9.396708,30.018888,56.432219,47.642345,71.306424,59.81571,81.030755,67.109706,85.572264,-7.834368,298.712094,-47.119921,289.281707
114,0.887787,-0.209161,-0.170505,-0.062763,0.0,11.253525,-14.369533,46.9594,-23.577553,48.515866,-28.807949,32.623364,-30.088405,-27.819488,0.0,7.57391,22.303866,49.531389,41.432933,60.279715,54.252973,67.833729,64.329937,83.437762,0.0,69.987762,26.089084,90.436043,17.1828,90.117714,8.400925,75.528763,0.134502,54.6698,0.0,9.454642,29.961954,56.404086,47.628401,71.33126,59.801272,81.040784,67.068975,85.595815,-7.127735,298.456892,-47.47158,289.172903
115,0.198624,-0.39477,-0.020851,-0.026417,0.0,10.446716,-14.759949,46.612118,-24.301655,48.373432,-29.789543,32.520069,-31.254856,-28.242188,0.0,8.909337,22.163346,50.216657,41.035902,60.893279,53.821646,68.433918,64.04975,83.789554,0.0,69.924064,25.955715,90.281616,17.021885,89.873497,8.214557,75.232979,-0.076287,54.401161,0.0,9.375046,29.961053,56.446373,47.572073,71.29726,59.68906,81.072882,66.935891,85.695443,-7.10293,298.014874,-47.66625,289.099238
116,-0.081928,-1.174086,-0.343163,-0.10668,0.0,8.879688,-15.434945,45.961189,-25.24934,48.008651,-30.832306,32.23954,-32.324845,-29.840058,0.0,10.616119,23.060074,51.267588,41.881983,61.741866,54.601777,69.322458,64.802883,85.166601,0.0,69.969086,26.049706,90.461563,17.093731,89.998787,8.20966,75.215653,-0.168526,54.35376,0.0,9.425855,29.897722,56.426551,47.481806,71.296754,59.588456,81.119046,66.849786,85.77147,-7.315704,296.803216,-48.140259,288.954986
117,-1.837693,-1.074556,-0.279899,-0.079152,0.0,10.496785,-13.859985,49.696885,-24.228607,50.984848,-30.330608,34.690865,-32.288097,-28.727886,0.0,14.070128,23.675961,52.340551,42.297773,62.81268,54.795575,70.155841,64.784297,87.108688,0.0,69.991516,25.997737,90.336021,17.128189,90.167289,8.262577,75.426681,-0.130394,54.547714,0.0,9.415703,29.783261,56.331048,47.346005,71.175798,59.463115,80.981516,66.778007,85.716365,-9.243611,295.701351,-48.510372,288.848525
118,0.267838,-0.271714,-0.270859,-0.058934,0.0,9.507259,-14.278919,49.110741,-24.826538,50.352333,-31.133423,34.010513,-33.363361,-29.856583,0.0,14.835747,23.160678,52.945063,41.572144,63.198546,54.020483,70.473535,64.059594,87.170834,0.0,70.10305,26.153377,90.257767,17.383941,90.250946,8.499344,75.456756,0.032924,54.618187,0.0,9.254201,29.751274,56.211918,47.243894,70.985742,59.337403,80.748914,66.669215,85.643894,-9.047344,295.395646,-48.852802,288.7556
119,-0.357033,1.487123,-0.274464,-0.133406,0.0,7.738346,-14.94667,48.404823,-24.764534,51.175896,-30.610794,36.179787,-32.756801,-23.923485,0.0,15.818887,23.706823,53.038083,39.976624,62.338869,50.649528,67.923094,59.151745,82.207928,0.0,70.204663,26.269341,90.108021,17.643208,90.385906,8.799076,75.558621,0.293186,54.654705,0.0,9.165466,29.73727,56.198433,47.171165,70.770171,59.262624,80.509471,66.64123,85.568658,-9.456436,296.841332,-49.179325,288.580757
120,-4.185104,-0.211582,-0.23307,-0.238554,0.0,11.955654,-10.838013,52.403457,-20.1591,54.982933,-26.30127,40.050956,-29.322132,-18.072876,0.0,18.519245,23.767672,52.780375,39.557623,62.186605,49.906264,67.799767,58.133172,81.107808,0.0,70.291546,26.554516,90.206188,18.050903,90.609569,9.182361,75.757427,0.534439,54.728222,0.0,9.258807,29.851841,56.144314,47.20509,70.56737,59.311999,80.183984,66.775389,85.62669,-13.674133,296.580615,-49.444988,288.293068
