takenoko1/special-research/HandMotion_SimilarSearch_自分用/NewProject/handData/test_key/d4_feature_d3/93.csv
frame,vel_0x_L,vel_0y_L,vel_0x_R,vel_0y_R,posFromWrist_0x_L,posFromWrist_1x_L,posFromWrist_2x_L,posFromWrist_3x_L,posFromWrist_4x_L,posFromWrist_5x_L,posFromWrist_6x_L,posFromWrist_7x_L,posFromWrist_8x_L,posFromWrist_9x_L,posFromWrist_0y_L,posFromWrist_1y_L,posFromWrist_2y_L,posFromWrist_3y_L,posFromWrist_4y_L,posFromWrist_5y_L,posFromWrist_6y_L,posFromWrist_7y_L,posFromWrist_8y_L,posFromWrist_9y_L,posFromWrist_0x_R,posFromWrist_1x_R,posFromWrist_2x_R,posFromWrist_3x_R,posFromWrist_4x_R,posFromWrist_5x_R,posFromWrist_6x_R,posFromWrist_7x_R,posFromWrist_8x_R,posFromWrist_9x_R,posFromWrist_0y_R,posFromWrist_1y_R,posFromWrist_2y_R,posFromWrist_3y_R,posFromWrist_4y_R,posFromWrist_5y_R,posFromWrist_6y_R,posFromWrist_7y_R,posFromWrist_8y_R,posFromWrist_9y_R,posFromBody_0x_L,posFromBody_0y_L,posFromBody_0x_R,posFromBody_0y_R
6,3.129124,1.84609,-0.078667,0.018093,0.0,19.023868,-0.234021,50.729908,-9.438172,52.549747,-18.383938,34.683094,-25.24387,-22.463551,0.0,-7.280262,18.278604,42.983103,39.48188,58.410444,53.946877,67.985598,64.63349,81.240102,0.0,69.120083,25.012539,87.5873,15.601914,85.690991,6.313225,70.637432,-2.11005,50.434857,0.0,6.957901,28.463754,53.768097,46.206821,66.997913,58.750726,76.567942,66.299059,82.362626,-13.567932,292.437715,-43.95678,286.905656
7,2.128933,4.057719,-0.038109,-0.03968,0.0,18.614112,-3.113972,50.939964,-12.165562,53.319854,-19.803395,34.933937,-24.864888,-19.776124,0.0,-2.506548,16.403243,41.648689,35.801011,55.306386,49.589248,64.991765,60.18226,78.688624,0.0,68.770604,25.218213,87.504719,15.827969,85.848187,6.431752,70.68401,-2.176254,50.256123,0.0,7.073176,28.568877,53.631628,46.299421,66.912857,58.821824,76.461373,66.374863,82.203618,-11.644626,296.553585,-44.200516,286.924127
8,1.494106,0.689579,-0.055366,0.001,0.0,14.111881,-4.54279,49.376186,-13.343994,51.913616,-20.776085,33.856533,-25.710194,-20.633171,0.0,-2.690009,16.40517,40.757285,35.589973,54.453724,49.256735,63.97397,59.74088,77.866244,0.0,68.498051,25.320545,87.446903,15.970528,85.979359,6.529701,70.855694,-2.179287,50.194805,0.0,7.079117,28.641693,53.425555,46.338695,66.727248,58.829976,76.283161,66.355881,82.047031,-10.309027,297.29106,-44.414389,286.973023
9,-0.115986,-0.150782,0.057529,-0.00373,0.0,13.158485,-4.644939,49.471939,-13.52496,51.87339,-20.950745,33.812187,-25.767735,-20.323563,0.0,-2.521196,16.448864,40.977981,35.515971,54.351477,49.099642,63.793585,59.449925,77.593011,0.0,68.248238,25.233376,87.368225,15.876858,86.004296,6.448357,70.94204,-2.231231,50.166275,0.0,7.170903,28.648943,53.291063,46.370126,66.553458,58.847352,76.145767,66.30248,81.864213,-10.564224,297.17894,-44.496071,287.007955
10,-4.181854,-0.477269,0.023186,-0.046893,0.0,18.53952,-0.185955,54.465751,-9.212872,56.488037,-17.536801,37.523277,-23.396256,-15.560257,0.0,-2.090326,15.66824,41.117018,34.772385,54.528491,48.660275,64.455191,59.347271,77.244084,0.0,67.971474,25.254547,87.247147,15.889401,86.00029,6.450497,70.952339,-2.223667,50.18367,0.0,7.306815,28.664022,53.27928,46.411832,66.583209,58.880932,76.151188,66.300034,81.860706,-14.850391,296.725007,-44.577198,286.984398
11,-1.48534,-1.82922,-0.001739,-0.145608,0.0,17.208332,2.754936,55.216449,-6.301896,56.870693,-15.958775,37.379322,-23.580723,-21.100892,0.0,-7.547593,15.727595,40.06857,36.020225,55.27493,50.409677,65.787369,61.268215,80.179081,0.0,67.743873,25.34666,87.202262,16.00106,86.034553,6.547107,70.970489,-2.144898,49.984405,0.0,7.510444,28.786474,53.257755,46.474521,66.539293,58.876783,76.193315,66.216597,82.004881,-16.412109,294.915433,-44.655315,286.858436
12,0.404708,-3.699986,-0.032444,-0.031838,0.0,12.237408,2.45081,52.406743,-6.221912,53.984539,-16.659278,35.060154,-25.548728,-28.184864,0.0,-12.975701,18.427805,41.270406,40.118044,57.963061,54.783681,68.408304,65.378347,83.327994,0.0,67.798519,25.390136,87.070346,16.10313,85.943218,6.714923,70.889843,-1.915284,49.866909,0.0,7.465859,28.729688,53.223125,46.370558,66.570204,58.732398,76.077063,66.031469,81.923098,-16.075362,291.233339,-44.75572,286.84449
13,3.972977,0.369131,-0.103993,-0.232033,0.0,7.596577,-2.300926,48.077625,-11.355972,49.95155,-21.139641,31.418575,-29.127903,-32.495338,0.0,-12.778951,18.257152,41.207026,39.899053,57.506097,54.449995,67.809585,65.007302,82.553323,0.0,67.845085,25.11129,87.006226,15.762074,85.976715,6.459801,70.898026,-1.999409,49.959915,0.0,7.709131,28.649572,53.433903,46.348611,66.852144,58.761161,76.372576,66.073706,82.057207,-12.147806,291.616929,-44.905134,286.626916
14,0.338127,2.202057,-0.070404,-0.315323,0.0,12.040936,-3.864589,50.030331,-12.944824,51.289364,-21.77766,33.026493,-28.278969,-29.165302,0.0,-11.148864,17.305244,42.101073,38.357565,56.974339,52.80999,66.485693,63.44467,80.457959,0.0,67.856644,24.790478,87.166008,15.404778,86.00132,6.208248,71.075043,-2.098343,50.220635,0.0,8.065246,28.646696,53.72155,46.312426,67.137753,58.711353,76.664471,66.007486,82.24304,-11.848011,293.832493,-45.01387,286.3251
15,0.878025,2.723206,0.001076,-0.189821,0.0,13.130722,-6.801521,49.832474,-15.381328,51.824524,-22.428234,34.589562,-26.585827,-24.88686,0.0,-9.109001,16.547517,41.709291,36.580166,54.382217,50.442787,64.129853,60.78114,77.811126,0.0,67.915832,24.418979,87.256668,15.014122,86.065315,5.929481,71.226448,-2.221493,50.359062,0.0,8.176076,28.506893,53.811458,46.115381,67.212076,58.531203,76.795765,65.861261,82.32623,-11.007809,296.573437,-45.050617,286.153017
16,3.291424,0.710549,0.051899,-0.198255,0.0,8.986393,-10.510013,45.941425,-19.092052,47.672711,-25.493168,30.639622,-28.757183,-29.425358,0.0,-10.049916,16.713663,40.87282,36.818622,53.303635,50.543318,62.960831,60.673942,76.884487,0.0,67.951366,24.078941,87.230015,14.622665,86.007442,5.658085,71.300113,-2.292309,50.609012,0.0,8.287683,28.382094,54.003785,46.0355,67.38237,58.502352,76.948744,65.842587,82.315608,-7.76512,297.310916,-45.047453,285.981692
17,1.291969,5.407508,0.035717,-0.348569,0.0,-1.353149,-14.940525,43.473965,-21.781402,46.527272,-25.199546,32.812535,-25.222217,-19.469581,0.0,1.569634,16.022664,39.671639,32.027852,47.869883,42.446048,54.702048,49.972707,64.052147,0.0,68.056343,23.625721,87.403061,14.111355,86.129356,5.248935,71.578308,-2.492111,50.885444,0.0,8.596448,28.52664,54.226359,46.186986,67.548121,58.658939,77.367103,65.955775,82.591633,-6.527338,302.740617,-45.065923,285.655316
18,1.668297,0.423053,0.087147,-0.131566,0.0,-2.781486,-16.381553,42.105412,-23.33115,44.763211,-26.59457,30.94019,-26.385818,-21.1287,0.0,0.972939,15.834621,39.229616,31.961766,47.342274,42.353681,54.081455,49.780156,63.727746,0.0,68.145618,23.655052,87.469127,14.147312,86.044132,5.263298,71.617847,-2.523858,50.931095,0.0,8.545591,28.540485,54.251751,46.108403,67.448679,58.544368,77.356569,65.83619,82.599068,-4.922888,303.187283,-45.042623,285.547363
19,0.925644,0.797654,0.032054,-0.076496,0.0,-3.685364,-17.408844,40.475201,-24.206875,42.878918,-27.236561,30.115231,-26.741169,-22.638862,0.0,0.122229,15.296516,38.76786,31.249451,46.955372,41.403034,53.465187,48.537442,62.848927,0.0,68.30349,23.792038,87.395829,14.25808,85.992669,5.307896,71.4077,-2.551723,50.652626,0.0,8.335305,28.496827,54.128485,46.107847,67.492323,58.587408,77.336451,65.926605,82.605453,-4.05463,304.006633,-45.067955,285.492563
20,2.188786,-2.694368,-0.028965,-0.132751,0.0,-8.941029,-18.159062,37.327675,-25.544621,39.355499,-29.670044,26.517563,-30.395439,-30.293976,0.0,-2.489406,16.995863,38.764612,33.967988,49.234122,44.368104,55.182972,51.401451,65.496699,0.0,68.544537,24.147,87.548481,14.675263,86.037861,5.661622,71.436871,-2.328037,50.630139,0.0,8.237443,28.71593,54.095053,46.228087,67.40675,58.619518,77.281839,65.902152,82.656706,-1.918007,301.331967,-45.149083,285.379514
21,-0.680008,0.985747,0.057312,-0.029084,0.0,-3.999127,-18.51899,39.092926,-25.871006,41.638641,-29.078968,29.890045,-28.720127,-19.611054,0.0,0.132998,16.124341,39.542975,32.657483,48.550952,43.112174,54.292975,50.436785,62.715447,0.0,68.722928,24.425744,87.632367,14.986382,86.030194,5.895985,71.317532,-2.226814,50.530003,0.0,8.005978,28.749028,53.987323,46.209834,67.269886,58.589902,77.161919,65.928197,82.623854,-2.645227,302.333238,-45.138983,285.365954
22,1.033401,-3.183851,0.237488,0.034926,0.0,10.484505,-16.703293,40.669441,-25.793106,41.99128,-30.672569,27.292053,-31.674602,-29.181003,0.0,-8.657791,15.537404,41.13022,35.220113,52.550786,48.735043,60.97947,58.800804,73.418967,0.0,68.745724,24.774857,87.58833,15.306885,85.765721,6.070908,70.964642,-2.261307,50.236233,0.0,7.769313,28.523342,53.955509,45.969736,67.264056,58.374628,77.034923,65.795446,82.614789,-1.658209,299.172809,-44.947878,285.424302
23,-3.199859,1.826367,0.124718,0.005854,0.0,18.546615,-14.148445,45.784561,-22.699723,47.431297,-26.958195,32.8843,-27.091153,-20.793824,0.0,-5.631057,14.504653,41.533895,33.250448,51.56541,46.55014,59.893565,56.811478,71.348538,0.0,68.8419,25.035862,87.60854,15.564091,85.654507,6.287544,70.745418,-2.105221,50.010555,0.0,7.629621,28.371609,53.947185,45.907899,67.357028,58.367551,76.963823,65.836177,82.602142,-4.910717,301.038254,-44.875809,285.469234
24,1.563079,-3.065822,0.239834,-0.133665,0.0,12.298256,-15.026573,42.761353,-23.911857,45.086747,-28.858886,29.327225,-29.794223,-25.866565,0.0,-7.041733,16.291377,41.054762,35.826552,52.344355,49.206742,61.6227,59.424892,74.231121,0.0,68.746856,25.276554,87.653572,15.832432,85.544678,6.525306,70.63417,-1.930184,49.949821,0.0,7.724149,28.471139,54.113689,45.969427,67.40344,58.404009,77.064995,65.871436,82.750294,-3.412016,298.024753,-44.700353,285.38789
25,-2.452789,1.331277,0.269119,-0.075472,0.0,13.049835,-13.252453,45.836151,-21.557121,48.181091,-25.530979,33.027947,-25.515232,-15.434051,0.0,1.253274,15.898064,41.848934,34.202442,51.41059,46.986976,60.014361,57.133692,70.800108,0.0,68.45311,25.105328,87.396126,15.662052,85.261208,6.382542,70.376518,-2.07233,49.898689,0.0,7.776316,28.42185,54.158891,45.969749,67.572068,58.436366,77.24238,65.955788,82.799139,-5.937161,299.411118,-44.50359,285.367506
26,-0.165047,-1.935418,0.15509,-0.106914,0.0,9.544327,-12.44601,45.771492,-21.091518,47.955437,-25.959445,31.033402,-26.96545,-25.046298,0.0,-0.014227,17.278766,42.387595,35.910804,52.981619,48.626547,61.900478,58.321868,74.770931,0.0,68.35437,24.990841,87.498413,15.581887,85.247681,6.297684,70.442734,-2.222374,49.935334,0.0,7.861531,28.445105,54.147071,45.916334,67.544181,58.334601,77.319852,65.830903,82.953021,-6.186757,297.523924,-44.433049,285.308816
27,-0.585891,-2.752759,-0.084457,-0.127293,0.0,4.135895,-12.062554,45.254104,-20.886624,46.792213,-26.406761,28.926613,-28.371105,-27.470513,0.0,-1.806459,19.265894,42.837076,38.775924,54.714706,51.666841,63.451598,60.991042,77.006901,0.0,68.329491,24.982029,87.634781,15.672169,85.533829,6.435951,70.747284,-2.113861,50.228554,0.0,7.884182,28.630072,53.974455,46.026843,67.34763,58.377592,77.227387,65.839747,82.944784,-6.880863,294.817098,-44.625721,285.227456
28,-2.409806,-1.588851,-0.005745,-0.109458,0.0,-2.129631,-10.756851,46.156952,-18.566688,48.240372,-23.224926,32.454712,-24.616687,-19.440982,0.0,5.640159,21.272239,43.134775,40.45745,55.068462,52.642301,62.992732,61.093956,75.465537,0.0,68.261696,24.937626,87.66687,15.723782,85.701119,6.507351,70.89743,-2.094635,50.345123,0.0,7.752702,28.706655,53.753424,45.988841,67.051339,58.297711,77.121695,65.789345,83.022107,-9.400486,293.27426,-44.741283,285.164011
29,0.004578,0.173926,-0.070564,-0.021885,0.0,-1.45404,-10.35498,46.24997,-18.223469,48.381409,-22.829956,32.760521,-24.336262,-18.523395,0.0,6.20157,20.987249,43.201354,40.118959,55.023878,52.513712,62.571928,61.131192,75.178818,0.0,68.293121,24.946586,87.879936,15.782661,86.003013,6.539451,71.202438,-2.161675,50.546448,0.0,7.526326,28.667135,53.434855,45.877753,66.707822,58.150721,76.89932,65.661016,83.030765,-9.519625,293.490402,-44.935564,285.184342
30,1.338295,-0.71155,-0.004521,-0.168393,0.0,4.276222,-11.428493,45.472756,-19.804436,46.973831,-24.698376,31.101151,-26.353752,-19.41608,0.0,1.057192,21.121494,43.581762,41.074596,55.611792,54.180084,63.679026,63.229384,76.224314,0.0,68.427899,25.135231,88.258015,15.91967,86.32687,6.588501,71.474041,-2.183178,50.616383,0.0,7.452472,28.631986,53.368917,45.846,66.559349,58.130813,76.898356,65.638576,83.238246,-8.328444,292.824411,-45.087199,285.061508
31,-0.686943,1.661025,-0.00769,-0.189203,0.0,7.75209,-11.876873,47.189369,-19.485775,49.489265,-23.106434,35.049866,-23.153984,-11.654583,0.0,6.940709,19.943543,44.411686,38.73034,54.776184,51.258399,62.739406,60.294646,74.296045,0.0,68.672253,25.219814,88.39777,16.079269,86.533344,6.813869,71.70409,-1.923386,50.844372,0.0,7.384855,28.50089,53.340289,45.749818,66.699584,58.093849,77.063785,65.682134,83.467587,-9.159765,294.529063,-45.239267,284.915932
32,4.351181,0.631694,0.239571,-0.317361,0.0,3.280747,-15.499054,42.74398,-23.373619,45.36042,-26.77581,32.097221,-26.617538,-14.27029,0.0,8.398241,19.409723,45.241452,37.965117,55.417574,50.256759,62.540163,59.37375,73.753198,0.0,68.638538,25.335708,88.320819,16.241157,86.511783,6.907951,71.510021,-1.962822,50.372234,0.0,7.161924,28.208157,53.850126,45.359655,67.731261,57.675083,77.741608,65.325514,84.011597,-4.923523,295.201062,-45.114635,284.638876
33,2.012787,-1.14032,0.669525,-0.929714,0.0,10.496612,-16.805466,41.782677,-26.166985,43.670723,-30.674938,27.574036,-31.128307,-23.473812,0.0,3.084692,18.510674,49.266714,37.355924,59.410961,50.248694,66.985056,60.210171,78.923313,0.0,68.430416,24.882637,86.923931,15.698581,85.240871,6.252765,70.580486,-2.760258,48.95264,0.0,7.125022,27.284815,55.011158,44.426519,70.404732,56.870709,79.915519,64.771823,85.151768,-3.028496,294.086698,-44.56287,283.735118
34,-0.973663,8.746736,0.836609,-2.567446,0.0,5.59251,-18.814499,37.468002,-25.812996,40.263153,-27.690045,28.53582,-25.282608,-10.776867,0.0,10.809582,13.03319,44.696084,25.745649,50.545911,33.937174,53.71425,40.209015,59.813783,0.0,68.178302,24.77893,84.350658,15.174625,82.120273,5.187378,67.189899,-4.488167,45.377048,0.0,7.926295,25.066061,56.490228,41.810809,72.790163,54.398223,81.968188,62.876554,86.023338,-4.147848,302.853503,-43.87195,281.187741
35,7.580291,-3.49432,1.508205,-4.424133,0.0,-11.841282,-20.784313,15.842789,-23.596012,20.249028,-22.640648,13.818695,-18.646534,-16.050556,0.0,12.167931,16.982561,49.109893,27.981977,55.71442,34.800124,57.759211,39.541061,63.925545,0.0,65.254623,23.495659,77.533791,13.592903,73.720711,3.422974,59.172752,-6.250958,38.867832,0.0,14.297159,21.946022,58.867779,37.978689,76.134664,50.794975,83.350496,60.067182,85.82402,3.286766,299.377403,-42.509422,276.781828
36,9.002632,-6.516842,-2.005863,-9.212556,0.0,-23.288394,-22.278923,-3.784446,-20.802795,3.6927,-16.53376,2.968552,-10.386589,-15.003685,0.0,17.007829,18.794145,55.226444,28.414131,60.684205,34.536202,61.12756,38.532393,65.35382,0.0,61.024206,23.904087,70.315018,14.147312,65.617132,3.814224,52.076145,-6.193257,33.668964,0.0,16.12578,15.39087,52.329837,27.970658,67.020988,38.615638,70.965895,46.735441,69.909247,12.17609,292.827043,-44.628593,267.535754
37,10.657265,-17.956736,-5.672047,-13.861757,0.0,-28.011303,-22.274883,-18.682022,-15.691212,-7.253551,-7.21701,-2.128235,2.396736,-4.502243,0.0,28.112678,17.980893,61.690255,25.668671,65.527611,31.354105,65.184624,35.283901,66.281139,0.0,55.984205,25.869759,62.84998,16.849777,57.876784,6.617191,46.263634,-3.831768,30.516323,0.0,13.529644,5.388501,36.366145,11.886787,44.657891,18.107906,44.424987,23.255056,38.107661,22.667181,274.860238,-50.466814,253.663928
38,18.090019,-28.648239,-5.813015,-26.294783,0.0,-42.309871,-24.677467,-36.840477,-13.025127,-21.801258,-0.638202,-10.648338,11.540268,-0.219772,0.0,32.313521,15.160652,59.403625,20.697021,62.994139,25.782217,61.239057,29.715138,62.041306,0.0,49.291037,23.280567,50.704159,13.283203,45.797934,2.515457,34.507828,-8.062614,21.095307,0.0,6.946816,-8.936261,5.14857,-6.061655,15.436145,-1.443459,20.253727,3.651654,15.366306,40.391281,246.375666,-56.645748,227.532812
39,18.440461,-43.504783,-6.539188,-36.053244,0.0,-41.359291,-22.154229,-45.063446,-7.915787,-27.911396,5.709022,-15.4571,17.922844,-2.223198,0.0,21.81952,7.259199,37.553692,14.522314,55.843942,22.832097,58.80727,30.698933,63.222183,0.0,39.217683,17.70504,37.048336,6.617237,32.530248,-4.04876,22.389496,-13.583325,11.622974,0.0,-5.747784,-23.227732,-29.87065,-23.459852,-10.110679,-20.309896,-4.397858,-15.770932,-8.96256,58.531437,203.95383,-63.485241,192.562515
40,9.378959,-45.045913,-7.086388,-44.512599,0.0,-29.210151,-16.640098,-32.948547,-1.252922,-16.4141,13.120217,-4.406547,26.07518,7.310898,0.0,11.164474,-11.560573,2.979636,-6.366282,35.657102,2.185458,39.68355,11.627201,43.205182,0.0,30.363001,12.423363,25.625965,0.14645,22.032011,-11.153068,12.305214,-21.171833,2.203377,0.0,-23.835227,-37.103476,-66.739005,-39.472407,-31.487122,-37.11054,-24.365336,-32.447934,-28.210108,68.038021,160.455556,-70.444004,149.597555
41,9.617066,-52.409625,-3.634609,-47.57516,0.0,-22.162377,-12.242501,-23.128762,3.430023,-10.196984,17.526993,1.399841,30.268364,12.93489,0.0,-8.790004,-27.88388,-37.649695,-23.827786,14.746443,-15.344366,19.964686,-5.193006,22.878577,0.0,21.185932,5.31443,14.24572,-8.900665,11.767811,-21.056328,2.104957,-31.399384,-7.980572,0.0,-37.79786,-47.431492,-95.623379,-49.212201,-39.355477,-45.623014,-30.126563,-39.329085,-31.725139,78.262837,110.16074,-73.470863,104.137204
42,2.575126,-47.415529,-0.030258,-48.203199,0.0,-14.927971,-6.327507,-12.364036,9.314003,-2.91362,23.080101,8.135743,35.561051,18.770783,0.0,-30.208339,-41.203407,-78.044407,-38.848753,-7.228392,-31.415596,-1.112316,-21.668924,1.822205,0.0,15.078117,-3.816891,4.207889,-20.205586,3.060722,-33.187546,-7.854115,-43.378945,-18.747574,0.0,-48.531526,-53.603032,-112.017471,-52.057333,-36.590355,-44.866917,-23.194159,-34.904106,-20.258859,81.461094,66.166604,-72.87799,59.355398
43,-2.687851,-40.398262,1.510048,-39.863985,0.0,-8.239837,-0.313224,-3.237098,15.434555,2.784256,29.093628,14.440888,41.731247,25.006577,0.0,-48.114519,-51.827189,-109.561413,-50.763476,-25.73517,-44.410013,-17.432592,-35.467461,-16.177169,0.0,9.420147,-8.493119,-1.20195,-25.130505,-0.661274,-38.194062,-11.64402,-48.470215,-22.327664,0.0,-54.897759,-54.919452,-114.486357,-52.654787,-28.161424,-44.857574,-19.614278,-34.324479,-18.070906,79.639423,29.437286,-70.501762,23.160357
44,-4.299156,-36.433262,2.700908,-30.004377,0.0,-8.21299,2.460869,1.169792,18.2967,4.953484,32.409188,16.935173,45.868859,27.645996,0.0,-54.664533,-52.067694,-110.208436,-50.877628,-28.805517,-45.158397,-20.22008,-37.118938,-19.6989,0.0,7.354866,-10.617496,-4.287162,-27.025623,-1.364456,-40.278465,-12.45932,-51.155777,-23.352447,0.0,-55.639413,-54.973663,-113.589522,-52.18954,-23.491568,-43.851333,-15.328589,-32.459642,-14.129625,76.286917,-3.922995,-66.854204,-3.771039
45,-3.78598,-22.917387,3.120163,-18.847566,0.0,-11.735046,1.702423,0.587288,17.063187,3.554604,31.196342,16.114449,45.050423,27.549294,0.0,-56.714839,-51.640443,-110.20265,-50.524107,-32.285073,-45.583172,-22.518924,-38.337793,-22.5405,0.0,6.199745,-11.616806,-5.989597,-28.028137,-0.26136,-41.225509,-11.099395,-52.093403,-21.673954,0.0,-56.836024,-54.63556,-113.38473,-51.882431,-23.324631,-43.753088,-14.798715,-32.403294,-13.793961,72.991499,-23.790482,-63.243479,-19.568705
46,-4.930412,-10.200773,2.486378,-8.120439,0.0,-13.600251,1.115959,-1.306755,16.547653,1.766052,31.018089,14.691078,45.175163,26.513328,0.0,-56.660257,-51.593093,-110.295017,-50.758431,-33.732231,-46.011201,-23.170625,-38.741974,-22.746987,0.0,6.098717,-12.729332,-7.68988,-29.092003,0.595116,-42.096016,-10.924232,-52.629261,-20.959557,0.0,-56.773773,-54.545423,-113.646668,-51.740182,-23.89329,-43.342552,-14.741416,-31.47826,-13.164008,67.920405,-31.243699,-60.897783,-24.941588
47,-3.372368,1.882147,-0.556023,0.980535,0.0,-14.039704,1.00605,-1.756073,16.684295,1.582741,31.343696,15.122658,45.558082,26.587234,0.0,-55.514942,-52.496026,-111.896193,-51.488297,-34.015548,-46.411968,-23.327367,-38.775912,-22.776788,0.0,4.031948,-12.920299,-9.861236,-29.569965,-1.856975,-42.671699,-13.267765,-53.24287,-22.69313,0.0,-53.681158,-53.455763,-115.776527,-50.213342,-22.29666,-41.248083,-14.034306,-28.929271,-11.138607,64.125944,-27.983563,-61.875899,-22.583064
48,2.652214,11.519774,-7.002788,10.4127,0.0,-13.052422,0.43618,-2.710579,16.316551,1.637421,30.947433,14.974274,44.873405,26.344391,0.0,-53.666586,-52.827651,-114.731367,-51.257776,-32.32568,-45.678139,-22.548793,-37.735671,-20.796045,0.0,1.624924,-12.924454,-10.706841,-29.968106,-4.015961,-43.248287,-14.845391,-54.034081,-24.752621,0.0,-51.593327,-52.526191,-117.744006,-48.566964,-21.607685,-38.864406,-13.771509,-26.036931,-9.846689,66.307663,-16.000099,-69.349182,-11.706674
49,11.331825,19.46473,-14.878304,14.651342,0.0,-11.509506,-0.990509,-3.475685,14.608978,1.90464,28.940003,14.942528,42.497269,26.14547,0.0,-50.88292,-53.325797,-118.56278,-51.230773,-31.995352,-45.01978,-21.285176,-36.543283,-18.311603,0.0,-2.6124,-13.159378,-13.268566,-30.749256,-6.82798,-44.118782,-17.26379,-54.852642,-27.02045,0.0,-50.145058,-51.613193,-118.96944,-46.703331,-20.679892,-36.263665,-13.16538,-23.035343,-7.367121,76.904308,3.110819,-84.962666,2.590856
50,19.914665,22.774447,-25.871944,15.741878,0.0,-6.740776,-2.15332,-2.653587,13.546189,4.271096,27.510476,16.855568,40.297097,26.220932,0.0,-51.65861,-51.91614,-116.305518,-49.489985,-30.161451,-42.906397,-20.065481,-34.188239,-16.35175,0.0,-8.60043,-13.513436,-16.498776,-30.737595,-9.856053,-43.884682,-19.669727,-54.189366,-29.518776,0.0,-47.787113,-50.943794,-118.485091,-45.108491,-20.080407,-34.152226,-12.889608,-20.697905,-5.824095,95.358507,24.585661,-112.295076,17.033129
51,29.295273,20.541935,-33.730557,8.064128,0.0,0.017967,0.265869,4.011589,15.57637,7.400185,28.774567,18.807884,40.368393,27.330895,0.0,-47.751853,-51.588597,-115.078957,-48.398077,-29.424985,-41.229867,-19.690039,-32.136217,-15.243509,0.0,-14.211124,-11.288543,-20.053836,-24.969509,-17.827629,-35.497821,-26.300651,-43.8391,-34.315292,0.0,-49.163023,-44.249048,-105.662278,-35.605658,-21.406978,-22.985584,-11.895519,-9.23462,-1.723219,122.86461,43.423281,-147.814803,23.392942
52,38.520333,10.802617,-40.717323,-0.847012,0.0,6.738624,2.388336,10.981246,17.063735,8.869949,29.50035,18.872039,40.068397,27.702438,0.0,-46.679754,-50.952494,-111.969113,-46.770348,-28.738166,-38.70501,-17.995595,-28.944258,-12.466827,0.0,-21.750297,-12.395267,-25.426929,-25.13015,-20.998844,-34.942337,-27.837364,-42.573978,-35.385075,0.0,-49.284807,-45.003922,-107.19086,-35.130785,-23.038128,-21.895374,-11.801078,-7.939306,-2.048712,159.951216,52.354318,-189.965853,20.67435
53,43.874656,0.910516,-40.855854,-11.152686,0.0,13.701004,-0.305832,13.157547,10.736687,11.115532,20.646904,19.58535,29.596367,26.226059,0.0,-48.484151,-48.340056,-107.93302,-42.695401,-34.571233,-33.035328,-20.080956,-21.325998,-12.307431,0.0,-27.508301,-13.274048,-30.153282,-25.362831,-23.726601,-34.578358,-29.895218,-41.409313,-36.794048,0.0,-49.427315,-46.480455,-109.393393,-35.989029,-25.376208,-22.562773,-12.844932,-8.564047,-3.118884,202.496567,51.852348,-232.151012,8.109178
54,37.95948,-11.477246,-36.024364,-17.690073,0.0,22.173569,3.485802,22.700364,14.779381,15.247674,24.565774,22.826821,33.014557,30.017167,0.0,-51.486808,-50.524119,-111.072164,-43.581774,-34.275684,-32.901737,-20.300436,-20.496975,-13.611156,0.0,-31.379689,-12.756718,-32.306523,-23.981324,-26.362404,-32.919251,-31.550675,-39.570511,-38.388176,0.0,-52.960877,-47.823934,-112.118025,-37.308938,-28.01216,-24.417626,-15.721445,-10.794509,-6.445471,239.35711,39.441875,-269.274313,-10.514122
55,32.838112,-18.360361,-26.397412,-22.402092,0.0,28.117836,6.383011,29.615731,17.546013,18.285645,27.185326,25.363861,35.36966,33.743706,0.0,-53.077091,-53.900934,-118.154436,-46.082462,-37.301899,-34.637054,-23.372488,-21.544441,-17.053679,0.0,-31.969906,-12.072292,-32.371273,-23.098125,-27.902206,-31.831306,-32.836601,-38.436115,-39.703594,0.0,-57.659911,-49.068857,-116.101803,-38.797333,-32.235642,-26.391101,-19.457518,-13.047084,-9.91858,271.926183,20.64714,-295.940764,-33.350588
56,25.009049,-22.350451,-17.976059,-19.761287,0.0,30.833496,6.094803,30.473854,17.42427,20.5849,27.184936,27.452934,35.564895,35.89341,0.0,-58.601246,-54.602351,-120.016165,-46.786484,-39.512711,-35.303927,-25.26594,-22.104177,-19.697294,0.0,-32.466202,-13.567634,-30.807609,-27.387989,-24.28751,-38.46682,-29.096008,-47.091888,-38.256248,0.0,-58.995646,-56.006268,-130.31349,-47.761368,-34.069555,-36.931063,-23.003739,-23.994036,-15.822944,297.133621,-1.942715,-313.718434,-53.351279
57,14.921287,-18.743343,-7.590591,-15.098519,0.0,32.383599,6.160241,30.660553,17.888947,22.959252,27.892319,29.861321,36.549981,38.561028,0.0,-62.570118,-55.427398,-121.701877,-47.613865,-40.857642,-36.433589,-27.316178,-23.248166,-22.772768,0.0,-31.814347,-12.62225,-27.762051,-26.672974,-23.665775,-37.963921,-28.868775,-46.933891,-38.618614,0.0,-62.572832,-56.392057,-131.084945,-48.59147,-34.409336,-38.229377,-23.063155,-25.526632,-16.358258,312.229402,-20.690846,-321.134531,-68.454586
58,4.821671,-13.943206,-1.733734,-6.444125,0.0,34.181511,11.646881,36.044357,26.524567,24.506996,38.396278,31.716476,47.909889,42.872681,0.0,-63.520518,-59.100214,-125.146235,-51.196038,-35.078705,-40.339951,-24.143979,-28.037367,-22.296129,0.0,-30.584439,-12.089493,-26.151741,-25.968727,-23.699215,-37.229748,-28.40585,-46.298973,-38.169754,0.0,-65.381398,-56.10798,-130.346876,-48.129639,-32.61461,-37.643675,-21.349711,-25.112941,-15.13124,317.13053,-34.582658,-322.788808,-74.847317
59,2.529991,-4.086988,1.006187,0.040583,0.0,35.666657,11.336632,35.13018,25.852043,24.063927,37.393913,30.854462,46.775208,41.972305,0.0,-63.711179,-58.156087,-123.352571,-49.991121,-33.903409,-38.975526,-22.439383,-26.765339,-20.965457,0.0,-29.794464,-12.6366,-25.096813,-26.067478,-22.455757,-36.752872,-26.754993,-45.247787,-36.787628,0.0,-61.216413,-54.536513,-126.550109,-45.880485,-28.823987,-34.31849,-15.866855,-21.433556,-11.055572,319.702841,-38.601507,-321.740301,-74.738595
60,-2.032997,2.679165,6.577646,11.452978,0.0,36.089516,12.468201,35.901375,26.79554,23.767227,38.071312,29.936874,47.442329,41.017456,0.0,-59.40213,-56.849652,-119.949289,-48.088319,-30.086641,-36.282776,-17.481363,-23.567514,-16.253715,0.0,-30.803381,-14.665609,-27.336673,-27.919813,-22.138109,-38.205379,-25.911169,-46.160951,-35.736757,0.0,-56.214691,-53.453222,-123.20432,-43.912218,-25.0646,-31.12783,-11.02917,-17.617392,-7.024696,317.905678,-35.927362,-314.926821,-63.290637
61,-5.143318,7.957467,11.477898,22.169645,0.0,35.352997,13.436233,37.300895,27.749038,23.270324,38.641044,28.926796,47.951477,39.982269,0.0,-53.427198,-53.42687,-113.152758,-44.055436,-24.816842,-31.275966,-9.940149,-18.09841,-8.68685,0.0,-32.79764,-17.98823,-32.904888,-31.418776,-23.067644,-41.293694,-26.395529,-48.417475,-35.387152,0.0,-51.275207,-53.119096,-122.069041,-42.828295,-23.319848,-29.029853,-8.488659,-14.891531,-4.092916,313.278609,-28.463334,-302.932674,-41.614431
62,-12.02995,16.243001,16.113682,29.333502,0.0,36.08725,15.015576,40.643292,29.024758,23.344998,39.408509,28.470933,48.337304,39.032422,0.0,-49.009894,-51.58563,-109.892595,-41.683189,-22.742661,-28.050603,-5.879321,-14.433683,-3.772666,0.0,-34.155722,-20.351149,-38.450878,-34.028487,-23.739149,-43.813648,-27.076395,-50.583224,-36.332571,0.0,-46.74872,-52.864163,-121.284879,-42.234172,-22.838399,-28.025575,-7.882183,-13.672677,-2.992832,301.763122,-13.153625,-286.304529,-13.214221
63,-18.056762,22.244345,20.718704,29.979492,0.0,37.441727,16.95068,46.002033,30.54055,23.332844,40.563171,28.091354,49.061851,38.639522,0.0,-45.535625,-51.168976,-109.711185,-40.774878,-21.704402,-26.726705,-4.619687,-12.64286,-1.79795,0.0,-35.679067,-21.475588,-42.23719,-35.23633,-22.950376,-45.105389,-26.450003,-51.85354,-36.009058,0.0,-41.638426,-51.576019,-119.184825,-40.947893,-20.987375,-26.800225,-6.970822,-12.489805,-1.533596,284.323116,7.724878,-264.969069,15.399429
64,-19.843529,20.122452,27.09724,28.619111,0.0,35.454094,16.944935,47.290661,29.946053,22.452519,39.368866,27.069397,47.549401,36.973881,0.0,-40.256476,-50.034886,-108.085803,-39.668211,-19.640858,-25.276225,-3.084547,-10.714888,-0.262285,0.0,-36.395685,-22.720075,-45.800113,-36.954305,-22.485094,-47.212921,-26.401239,-54.364923,-36.415449,0.0,-41.109601,-50.64184,-118.713076,-40.044916,-20.335142,-26.238296,-7.438537,-11.865205,-0.86256,265.008922,26.072864,-237.342494,42.244074
65,-26.709846,16.259878,28.182353,20.337122,0.0,34.657242,17.500499,48.452213,30.480926,21.994732,39.831504,27.033462,47.703117,36.139698,0.0,-38.44509,-49.485153,-108.856133,-39.447442,-19.962905,-25.515076,-4.494865,-11.137656,-0.118462,0.0,-34.598706,-22.495388,-43.617566,-37.021912,-21.28426,-47.574223,-25.70533,-55.066979,-35.432557,0.0,-40.847348,-48.625189,-115.029334,-38.492471,-20.297527,-25.104889,-8.227779,-10.797405,-0.58125,238.501002,40.377443,-208.958215,60.625897
66,-28.037796,11.810025,28.490284,9.675901,0.0,30.799667,16.875423,45.615085,29.286689,19.952396,38.37458,25.214103,46.12706,33.788578,0.0,-42.612742,-51.0634,-112.807931,-41.206161,-21.99989,-27.808238,-9.501236,-13.720305,-3.525071,0.0,-29.519852,-20.656724,-38.842518,-35.239769,-19.809655,-45.946553,-24.652565,-53.650143,-34.687512,0.0,-40.329553,-46.327426,-111.526604,-36.952342,-18.782543,-23.934689,-7.998334,-9.730914,-0.171623,211.133543,50.744882,-179.797594,68.859212
67,-30.119099,2.106604,25.620117,0.456656,0.0,26.126472,15.354492,39.988586,27.960594,18.270973,37.410782,24.228081,45.560211,32.383072,0.0,-44.66663,-52.093624,-115.571269,-43.081762,-24.552909,-30.663897,-13.42215,-17.146843,-6.503486,0.0,-20.943398,-20.144543,-29.656449,-34.300221,-14.143513,-44.080788,-19.611695,-50.748379,-28.580406,0.0,-42.050221,-44.567044,-106.947508,-36.290143,-19.036435,-23.819011,-8.539662,-9.868735,-0.539309,182.276722,52.361102,-152.915199,68.825484
68,-27.149643,-6.811886,25.802478,-6.957419,0.0,16.410004,12.732925,28.860626,26.565765,15.169441,36.87291,22.470955,45.875107,30.120438,0.0,-46.852026,-51.945929,-116.500408,-44.79349,-27.366017,-33.495628,-16.625162,-20.746527,-9.677488,0.0,-13.967948,-18.677639,-23.813358,-33.364906,-12.956176,-43.453193,-19.163108,-50.501621,-27.857997,0.0,-44.966971,-45.121674,-108.476405,-38.032066,-20.839733,-26.169787,-10.6588,-12.281601,-2.527617,156.796967,46.446851,-125.442833,62.7657
69,-29.992424,-12.144046,21.05024,-12.13503,0.0,11.119583,10.919128,22.222092,25.769966,13.690613,37.343994,22.227219,47.424385,30.059326,0.0,-50.329754,-51.573574,-119.378194,-45.366336,-28.511944,-35.356081,-19.083625,-23.582766,-11.250388,0.0,-6.735134,-18.257446,-17.431045,-33.119282,-9.359013,-43.063396,-16.6917,-49.785244,-24.346756,0.0,-46.963393,-46.705369,-109.232397,-40.555781,-24.017323,-29.043201,-13.368118,-15.071639,-5.62353,128.685368,35.91495,-102.511768,52.242815
70,-23.4459,-13.068493,17.309589,-14.956018,0.0,2.314499,7.804367,13.282127,23.281586,9.815872,35.792564,19.063248,47.029198,27.652313,0.0,-53.759544,-51.764185,-120.224007,-46.395209,-30.195735,-37.177595,-20.62418,-26.053413,-13.737219,0.0,-1.571331,-18.389431,-14.735687,-33.298404,-5.805244,-43.122093,-14.367782,-49.610595,-22.012939,0.0,-49.403337,-49.259853,-111.791285,-43.846318,-24.841289,-32.628973,-13.953209,-18.530533,-7.710434,107.153784,24.831205,-83.287863,39.271545
71,-22.301491,-10.894261,13.882382,-14.047965,0.0,-2.481651,6.019661,7.640259,22.369034,7.866532,36.021263,18.069763,48.074044,27.511528,0.0,-53.506127,-53.251295,-123.084225,-48.776131,-32.223044,-40.479272,-22.16954,-29.902489,-16.913598,0.0,0.868297,-18.884445,-13.141731,-34.293148,-2.105724,-44.27924,-11.834404,-50.791123,-19.361092,0.0,-52.338063,-51.869747,-115.055363,-46.853515,-25.679669,-35.878379,-14.26127,-21.707524,-9.35985,86.018549,16.087872,-68.239225,27.374508
72,-14.873726,-7.400033,12.062084,-12.133666,0.0,-6.147148,3.88163,3.475136,20.927697,5.582932,35.397858,16.638108,48.236138,26.630173,0.0,-55.444263,-54.897568,-126.16441,-51.104394,-32.626584,-43.227647,-22.479768,-33.04175,-18.556407,0.0,-0.761215,-18.520798,-16.198025,-34.954285,-3.397636,-46.140633,-13.293537,-54.051979,-21.263077,0.0,-53.147839,-54.340233,-120.440714,-49.333837,-23.856994,-38.278062,-13.43132,-23.769833,-9.614934,71.742164,10.660283,-55.5798,17.213286
73,-11.394516,-4.782446,5.759331,-7.728675,0.0,-6.383697,2.379021,2.960678,19.363976,4.636002,34.127083,16.020447,47.409829,26.063668,0.0,-55.912874,-56.466578,-129.092318,-52.727146,-31.906024,-45.167605,-21.188376,-35.382894,-18.296406,0.0,-0.394776,-19.645409,-16.327023,-35.971207,-0.870724,-46.940174,-11.098332,-54.66362,-18.921982,0.0,-53.387042,-54.323116,-119.233871,-49.147715,-23.484503,-37.953669,-12.486817,-23.325613,-9.694587,60.536613,7.021436,-49.631504,10.62821
74,-5.513763,-0.005613,3.545448,-3.339877,0.0,-8.611542,1.934669,1.654861,19.309936,3.146805,34.284622,15.017143,47.690346,24.842537,0.0,-57.667166,-58.792253,-131.424582,-55.476966,-33.90189,-48.052695,-21.9036,-38.304108,-19.415725,0.0,-1.179474,-19.553524,-17.936943,-36.318031,-1.245689,-47.611816,-11.552742,-55.850384,-19.666237,0.0,-52.715536,-54.800841,-121.996608,-49.656896,-21.928602,-38.446751,-11.99201,-23.884108,-9.410058,55.062956,8.012718,-46.04595,8.285228
75,-2.838615,1.583021,1.322525,-0.468253,0.0,-7.985962,1.8097,2.257232,19.220718,3.407707,34.194671,15.477287,47.681144,25.010192,0.0,-59.104734,-60.567929,-134.82291,-57.303895,-33.853719,-49.948377,-21.276722,-40.276076,-19.126857,0.0,-2.239162,-19.278374,-19.289417,-36.725098,-1.84235,-48.41423,-11.878509,-57.081264,-20.118713,0.0,-51.961212,-55.333266,-125.125131,-50.034179,-20.637926,-38.697476,-11.70342,-24.206359,-8.63761,52.288508,10.512585,-44.659258,8.733821
76,-0.638581,2.039344,-0.382942,0.809066,0.0,-7.681549,1.916908,3.674355,19.362396,3.378021,34.307488,15.797791,47.856972,24.894448,0.0,-60.103275,-61.741229,-137.098882,-58.49275,-34.062885,-51.097089,-20.73803,-41.38097,-18.422543,0.0,-2.974937,-19.162491,-19.770287,-36.738052,-2.190559,-48.593605,-11.992699,-57.572903,-20.135548,0.0,-51.141104,-55.499708,-125.731069,-50.12723,-19.862316,-38.809522,-11.386035,-24.42887,-8.004699,51.687996,13.296037,-45.004131,10.286995
77,0.532723,1.370514,-0.631268,1.379004,0.0,-8.486664,2.346885,4.244133,19.692192,3.322425,34.448112,15.859108,47.800186,24.615966,0.0,-59.832,-61.976271,-137.790104,-58.692834,-34.488383,-51.372397,-20.612226,-41.681701,-18.242363,0.0,-3.370479,-19.363815,-20.147209,-36.989936,-2.531753,-48.898567,-12.376247,-57.906784,-20.252117,0.0,-50.324961,-55.923742,-125.667504,-50.422681,-19.597172,-39.009791,-11.254438,-24.595275,-7.531679,52.198946,15.054068,-45.657172,12.053516
78,0.734459,0.722597,-0.104644,0.594132,0.0,-8.582383,2.365882,4.57061,19.728492,3.489578,34.438636,16.024154,47.741569,24.718574,0.0,-60.00064,-62.117617,-138.105772,-58.878394,-34.68315,-51.692209,-20.79841,-42.081146,-18.312529,0.0,-4.568745,-19.456936,-21.006684,-37.544278,-3.093109,-49.66,-13.126397,-58.845292,-20.484936,0.0,-49.804128,-57.354474,-127.968812,-51.722022,-18.688225,-40.095191,-10.771853,-25.325987,-6.934263,52.813185,16.030172,-45.882036,12.901155
79,0.680008,-0.029455,-0.114327,-0.227118,0.0,-8.52665,2.546722,4.788414,19.920318,3.673072,34.597183,16.265579,47.869789,25.043632,0.0,-59.964084,-62.147257,-138.153623,-58.986649,-34.898406,-51.969696,-20.629436,-42.46842,-18.132867,0.0,-4.471344,-19.516891,-21.096508,-37.607895,-3.010471,-49.76057,-12.993919,-58.91946,-20.587761,0.0,-49.972725,-57.390586,-127.664265,-51.851759,-18.287706,-40.263856,-10.311183,-25.493441,-6.554578,53.370987,16.096273,-46.118569,12.769593
80,0.730911,-0.650757,-0.035522,-0.815167,0.0,-8.629303,2.787391,4.740715,20.094177,3.668701,34.677383,16.178558,47.869285,25.250908,0.0,-59.490056,-62.140989,-138.069778,-58.910831,-35.040722,-51.926897,-20.900946,-42.398351,-18.234619,0.0,-3.955857,-19.72197,-21.128655,-37.453572,-2.714527,-49.50095,-12.676003,-58.639344,-20.76709,0.0,-49.837325,-56.524129,-126.016555,-51.059637,-18.059723,-39.629155,-9.930263,-24.960622,-6.747517,54.007931,15.50031,-46.248058,12.00922
81,0.692917,-1.315154,-0.089058,-0.803577,0.0,-9.028427,3.363853,4.54216,20.516052,3.655723,35.015648,15.876571,47.97219,25.696083,0.0,-59.247316,-61.017978,-136.2103,-57.830619,-34.965899,-50.850865,-20.52546,-41.339999,-17.883981,0.0,-3.499375,-19.621502,-21.426453,-37.363037,-2.540325,-49.35426,-12.50029,-58.481861,-21.019146,0.0,-49.716677,-56.027044,-125.702257,-50.538816,-18.006556,-39.057827,-9.744135,-24.328464,-6.681234,54.618365,14.212206,-46.419599,11.232693
82,0.908088,-1.05227,-0.418831,-0.789467,0.0,-9.518989,3.590355,4.056107,20.496941,3.674149,34.972321,15.556618,47.901329,25.924736,0.0,-59.237726,-59.6945,-133.797823,-56.697993,-34.83166,-49.82926,-20.345773,-40.457975,-17.793653,0.0,-3.030384,-19.703304,-21.380207,-37.117252,-2.069859,-48.966019,-12.049004,-57.967346,-20.96497,0.0,-49.862216,-55.130527,-125.024144,-49.668289,-18.559932,-38.226919,-9.809386,-23.562771,-7.01547,55.464534,13.177155,-46.900349,10.460445
83,0.579277,-0.704146,-0.487324,-0.580231,0.0,-9.947364,3.7557,3.693421,20.625092,3.657532,35.169182,15.450394,48.078896,26.230545,0.0,-59.224191,-59.04538,-132.830836,-56.039592,-34.221683,-49.09012,-20.247448,-39.625456,-17.548115,0.0,-2.63348,-20.036796,-21.529461,-37.150463,-1.813637,-48.815563,-11.750072,-57.61544,-21.030716,0.0,-49.693249,-54.077053,-124.019997,-48.650723,-18.772119,-37.262848,-9.694475,-22.72543,-7.09632,56.002956,12.482315,-47.428528,9.88952
84,0.675476,-0.405435,-0.349548,0.12024,0.0,-10.619476,4.003579,3.328263,20.843102,3.593514,35.37687,15.172944,48.132363,26.054604,0.0,-58.773579,-58.177916,-131.698265,-55.332204,-33.066605,-48.348121,-19.756476,-38.762265,-17.350791,0.0,-3.076069,-20.359886,-21.767693,-37.364594,-2.369087,-49.013283,-12.238312,-57.848499,-21.346447,0.0,-49.687228,-54.101518,-123.974307,-48.55165,-18.914633,-37.129936,-9.714587,-22.560513,-7.211503,56.645513,12.082422,-47.810995,10.015302
85,0.430825,0.626168,-0.16285,0.589698,0.0,-11.192597,4.093849,3.012474,20.788696,3.925003,35.358284,15.034584,48.068596,26.221962,0.0,-58.66496,-57.145585,-130.406453,-54.560268,-32.294694,-47.636293,-19.07038,-38.095775,-17.031616,0.0,-3.480766,-20.481388,-21.923572,-37.644573,-2.788696,-49.333282,-12.575592,-58.122516,-21.209003,0.0,-49.944505,-54.413444,-124.807339,-48.789562,-18.888549,-37.226847,-9.690196,-22.496027,-7.090522,57.040861,12.705818,-48.009322,10.602228
86,0.300842,2.342804,0.009694,1.836877,0.0,-11.915726,3.76561,2.580391,20.253342,4.059654,34.744194,14.924057,47.490097,26.23455,0.0,-58.495023,-57.252425,-130.234984,-54.750169,-31.954097,-47.914318,-19.653013,-38.48156,-17.427096,0.0,-4.164036,-20.680298,-21.79263,-37.872197,-2.748768,-49.639412,-12.474209,-58.446625,-20.875786,0.0,-50.425485,-54.85688,-124.996246,-49.385552,-18.74556,-37.84264,-9.92699,-23.203032,-7.324241,57.32099,14.983756,-48.020341,12.374239
87,-0.312881,3.418398,-0.02892,2.830219,0.0,-11.878304,3.736198,2.589111,20.178222,4.210853,34.61824,15.162666,47.384765,26.122123,0.0,-57.849466,-57.715053,-131.121288,-55.004482,-31.391581,-48.048125,-19.611801,-38.45145,-17.621091,0.0,-3.292923,-20.420711,-21.218055,-37.870559,-3.104873,-49.674843,-12.314186,-58.355415,-20.342296,0.0,-50.771083,-55.367586,-125.268812,-50.155277,-18.545569,-38.6584,-9.713309,-23.974739,-7.088441,57.002593,18.233597,-48.054777,15.035901
88,-0.005723,5.68717,-0.158569,4.518692,0.0,-12.85128,3.511666,1.191308,19.6558,3.226113,33.814751,13.726136,46.308655,24.645287,0.0,-56.505752,-56.89586,-128.470893,-54.418384,-32.237186,-47.575988,-20.156026,-38.066851,-17.858343,0.0,-2.119572,-19.984497,-20.075707,-37.658833,-2.995846,-49.44556,-11.762672,-57.896473,-19.50856,0.0,-51.46251,-55.848197,-125.353682,-50.949413,-18.624264,-39.553282,-9.905396,-24.940473,-6.890457,56.84832,23.740369,-48.361896,19.374195
89,-1.087829,7.982525,-0.633476,6.567138,0.0,-13.571091,4.012802,-0.306633,19.954468,1.494072,33.678062,11.768989,45.566666,22.551109,0.0,-55.042255,-55.979391,-125.279878,-53.484483,-31.356785,-46.387675,-18.958321,-36.549643,-16.299157,0.0,-0.401619,-19.022965,-17.700577,-36.590206,-2.423127,-48.144265,-10.727761,-56.330132,-18.670739,0.0,-51.260784,-56.351278,-125.410802,-51.464436,-18.983399,-39.908118,-9.942039,-25.264465,-7.11032,55.503485,31.522468,-49.252378,25.740907
90,-1.410645,10.915855,-0.707474,8.589519,0.0,-15.736816,3.897721,-4.19165,19.538453,-1.706108,32.635804,8.751709,43.803795,18.924706,0.0,-51.977477,-54.736986,-118.525106,-52.126641,-29.562726,-44.382757,-17.329586,-33.709809,-13.723813,0.0,2.404587,-18.352238,-13.770596,-35.478069,-0.918114,-46.461617,-9.123676,-54.010883,-17.600235,0.0,-49.989811,-56.383134,-123.355105,-51.315451,-19.325965,-39.40266,-8.999746,-24.663201,-6.114359,53.601047,41.945678,-50.451645,33.837781
91,-0.506996,10.568787,-1.248573,9.207771,0.0,-19.913818,1.748772,-12.978973,17.310974,-8.346336,29.917328,3.714821,40.361824,14.48085,0.0,-44.946773,-51.056198,-98.01701,-47.337613,-24.209509,-37.933075,-11.244571,-25.867032,-5.521166,0.0,6.809578,-17.143902,-7.587342,-33.714283,0.86927,-43.870823,-7.07507,-50.295056,-16.431565,0.0,-46.569438,-54.967809,-116.190588,-49.262744,-17.609989,-36.382787,-5.942761,-20.958492,-2.377144,52.061228,51.716785,-52.733041,42.247872
92,-0.018379,13.67369,-3.357645,12.136453,0.0,-27.747728,-2.396404,-25.082422,12.382507,-17.039532,24.220207,-4.184612,33.825359,7.378441,0.0,-33.828,-44.079281,-71.208349,-38.987608,-13.186782,-28.140142,-0.392439,-14.96282,6.686211,0.0,13.041126,-13.700398,2.734142,-29.159186,6.45179,-38.180952,-1.882914,-43.46806,-11.559397,0.0,-41.65721,-52.741304,-103.019691,-45.623319,-15.109192,-31.468816,-2.33428,-15.174398,2.576885,50.901861,63.706934,-57.231674,52.700784
93,-0.039299,15.570965,-5.561348,14.122394,0.0,-37.510786,-8.382877,-39.131407,5.084427,-26.705326,16.128708,-13.164654,25.218487,-1.233307,0.0,-18.786859,-34.590768,-40.503889,-27.414166,4.515839,-15.161273,16.221824,-0.918756,22.708307,0.0,22.004505,-8.019253,17.591766,-21.771761,15.256656,-29.332873,6.444276,-33.377701,-2.897078,0.0,-35.056537,-49.475598,-83.796807,-40.176692,-11.689696,-24.445077,2.779827,-6.902264,9.097567,49.904818,77.088353,-63.750766,64.633632
94,2.312256,16.459461,-6.036061,12.737856,0.0,-46.018141,-17.216114,-56.545469,-5.260529,-41.477944,5.691215,-27.694599,15.263683,-13.346649,0.0,-6.906703,-23.232706,-6.480029,-14.278433,23.643146,-1.433699,33.381788,12.543556,39.659993,0.0,34.869347,-1.303722,32.023705,-13.554079,27.745057,-19.828371,19.407297,-22.721534,10.882193,0.0,-26.57826,-42.514047,-58.748931,-31.231447,-2.143878,-14.028301,13.388505,4.69271,21.975937,51.383497,90.971942,-70.620404,74.795616
95,-1.810387,21.153654,-5.030685,16.848804,0.0,-53.090578,-25.816028,-69.194795,-14.972832,-53.145939,-3.964256,-39.361873,6.337887,-23.356819,0.0,5.140295,-8.828867,24.564064,2.251411,42.971506,15.497454,52.39382,28.781963,58.052803,0.0,46.558937,7.236637,47.199818,-2.933264,41.19857,-8.265009,32.8165,-10.761646,22.67169,0.0,-18.382684,-34.076119,-32.872446,-20.548509,10.668294,-2.250855,27.18083,16.966957,35.038564,49.008133,109.567208,-76.216066,89.086032
96,-0.974144,24.686499,-2.614597,19.480921,0.0,-56.371073,-31.223453,-77.405325,-22.409523,-65.196888,-12.082855,-53.077137,-1.49136,-34.809334,0.0,10.219767,2.186023,34.380243,14.996418,57.253605,28.111668,67.016132,40.430622,71.61777,0.0,56.877605,12.445106,60.416198,2.744424,54.305431,-2.987292,45.629842,-6.0695,33.509027,0.0,-13.01272,-25.887347,-10.204481,-10.944097,22.370634,7.40544,37.507327,26.551436,45.453888,48.1623,131.820287,-78.702352,106.133533
97,-1.236374,24.05788,0.838113,19.026855,0.0,-56.898674,-34.492561,-83.170246,-26.889564,-75.264267,-16.956894,-63.348186,-6.373832,-43.770652,0.0,10.420067,11.949786,42.502902,25.848982,65.16324,38.659939,75.091249,49.787931,81.66521,0.0,63.586132,15.91277,66.779927,6.069844,61.431004,-1.290664,50.550946,-6.413452,33.734894,0.0,-8.709581,-16.525127,7.958819,-1.404791,34.541562,15.521429,47.087672,32.492462,53.684869,47.278289,154.29886,-77.511876,123.581081
98,-2.389068,29.195929,3.430847,20.885971,0.0,-55.751633,-36.85952,-84.616871,-31.034815,-81.883335,-22.18249,-71.178177,-12.229912,-51.158249,0.0,10.027427,16.931506,41.12717,28.375802,59.472476,37.83917,66.728032,44.900811,73.409458,0.0,67.284943,19.001084,69.344479,9.065455,64.835644,0.275294,52.763901,-6.878568,32.330939,0.0,-5.458952,-6.488301,23.52151,8.664985,49.439183,24.539701,60.009026,39.680951,64.800222,45.251393,182.278605,-73.718857,143.250868
99,-4.841744,35.404623,4.715035,25.530795,0.0,-57.20993,-38.417747,-81.473797,-35.431394,-81.304252,-29.008306,-72.948887,-20.821129,-55.361641,0.0,16.143916,18.070122,31.932707,24.1572,42.759851,27.626072,44.412224,28.555292,48.082601,0.0,66.420719,22.355461,72.09922,12.827574,64.070938,3.158232,50.538689,-5.729193,28.347479,0.0,-4.316898,1.701205,36.98975,17.315673,62.470483,32.624879,72.021234,46.573482,74.474597,40.747301,216.717248,-68.66617,167.815683
100,0.312493,27.216877,3.070404,21.722881,0.0,-59.605099,-37.823479,-83.29184,-37.033614,-83.328003,-32.871947,-74.455284,-26.789269,-58.915341,0.0,20.454737,16.136827,22.707294,17.19736,26.056957,15.338889,22.298586,11.170971,23.877662,0.0,67.036366,22.778,75.273376,11.945841,66.764237,1.006193,52.124725,-9.166345,28.28377,0.0,-3.761774,8.170456,45.741661,23.827613,68.641474,38.332482,75.972161,50.810351,79.252251,41.375176,243.118859,-65.280384,188.723298
101,-2.538964,15.906647,1.160179,20.193792,0.0,-61.874862,-34.993835,-79.75304,-34.578809,-82.506031,-31.335943,-75.920837,-26.513351,-61.466892,0.0,20.888583,18.210579,17.332142,20.018934,18.677832,18.275256,18.119244,13.537641,24.26906,0.0,68.261547,26.267178,78.157723,16.089564,69.992226,5.231432,54.768082,-5.509283,30.727656,0.0,-2.934145,14.35581,52.573196,30.497843,74.287722,44.426532,82.177103,55.234422,84.819644,38.986833,258.41414,-63.969584,208.305724
102,-2.91941,16.961393,0.567879,18.845942,0.0,-63.007416,-31.506432,-78.434407,-31.087264,-80.220772,-28.758917,-75.244412,-25.546074,-61.88419,0.0,26.519381,21.392677,16.108978,19.940313,11.423727,14.185687,6.900899,4.943775,8.126811,0.0,69.995212,29.01083,83.124298,19.459345,75.645538,9.547399,61.652344,-0.576273,39.634661,0.0,-2.372599,19.063649,57.899823,36.043376,79.072107,50.466364,88.501407,61.396483,91.568321,36.070542,274.883123,-63.398586,226.659256
103,-0.45179,8.28617,1.00779,14.941043,0.0,-60.827328,-28.107491,-73.270123,-27.389775,-74.063748,-25.684422,-70.064324,-23.65606,-58.824955,0.0,22.956235,25.60324,18.103715,24.401355,12.272895,17.90205,6.758707,7.566525,5.743344,0.0,71.368938,29.899829,86.846248,20.248706,81.674388,10.676731,68.149532,0.887031,46.381897,0.0,-2.325051,22.041748,59.494336,39.30494,79.956286,53.622872,90.018491,64.152195,93.516306,35.565949,282.802502,-62.443599,241.233508
104,1.67894,0.391955,1.638496,10.274923,0.0,-57.271122,-28.086136,-63.130429,-25.980195,-60.794987,-23.479432,-56.226712,-21.083085,-47.884976,0.0,18.055857,26.457989,27.033021,28.316528,26.323176,25.434921,24.123329,18.799901,23.259071,0.0,72.393116,28.936226,89.428585,18.650963,87.886906,8.829357,74.083706,-0.863537,51.077511,0.0,-2.205379,23.554979,57.035225,40.598191,76.850253,54.195669,86.813472,63.75346,91.039904,37.199147,282.979365,-60.850845,251.293339
105,0.685089,-2.27428,2.764275,8.099641,0.0,-52.714932,-29.019883,-47.560238,-26.669953,-45.344422,-23.778626,-43.5905,-20.850426,-38.843491,0.0,11.073689,27.828181,34.824589,34.188992,41.213052,36.147975,42.397623,33.983907,43.266439,0.0,72.110195,29.649353,89.743183,19.856769,89.244792,10.319389,75.827098,0.666126,54.055572,0.0,-1.882597,25.283126,56.366838,42.210087,76.533942,55.37341,87.201487,64.640726,91.678972,37.825127,280.61421,-58.145679,259.302105
106,-10.923832,3.270598,3.070415,5.663451,0.0,-34.497311,-23.084736,-22.708054,-22.992783,-17.780388,-23.002533,-17.533779,-22.737706,-24.938942,0.0,8.324042,27.470844,44.680795,33.582851,48.050305,34.953364,44.396126,32.775723,39.726374,0.0,71.233063,29.698036,90.072968,20.427647,90.306633,11.235249,77.111458,1.801094,55.890976,0.0,-1.309911,26.889983,56.271014,43.734544,75.316435,56.623325,85.954017,65.788766,90.677949,26.869429,283.821078,-55.10713,264.901826
107,-3.174912,0.007645,2.657867,4.01852,0.0,-27.065906,-25.91082,-2.991417,-28.649162,1.903027,-30.423935,-0.973789,-30.712703,-18.461014,0.0,2.105034,24.453472,45.982049,34.129057,53.954398,39.141375,52.90511,41.149968,50.697669,0.0,70.360749,30.138817,90.324006,21.035798,90.659615,11.786557,77.421044,2.474442,56.521431,0.0,-0.437626,28.079098,56.488202,45.022608,73.937201,57.653494,84.295635,66.439022,88.614583,23.69141,283.780947,-52.45237,268.87257
108,-8.65464,2.856697,1.957615,2.400757,0.0,-12.328709,-22.380226,17.316616,-26.946419,22.075481,-29.96426,16.107021,-30.863434,-8.09848,0.0,-3.872393,18.020463,44.079705,30.754892,56.816147,39.868623,59.644797,46.206339,59.43618,0.0,69.876583,30.533192,90.872555,21.76949,91.06223,12.536156,77.846775,3.431637,57.515957,0.0,0.552703,29.147664,56.387043,46.194878,72.466714,58.596707,82.527882,67.031776,86.876358,15.025829,286.590834,-50.505696,271.226517
109,-3.739792,-1.840915,1.10915,1.240813,0.0,-10.203541,-21.208946,24.065312,-27.920917,26.255047,-32.56501,17.666233,-34.581219,-13.90377,0.0,-6.371889,20.00291,41.974669,35.916756,56.179944,47.27698,61.530284,55.657252,65.166877,0.0,69.666275,30.949379,91.413277,22.563046,91.610184,13.450173,78.509148,4.570381,58.544792,0.0,1.512737,30.002277,56.782961,47.092939,71.278908,59.299192,80.886234,67.429115,85.114483,11.269214,284.700265,-49.413369,272.417676
110,-5.963493,1.879522,0.68446,0.996281,0.0,-2.271595,-17.85759,32.048824,-26.157807,32.932354,-31.817414,22.197315,-34.757721,-15.507706,0.0,-10.678585,19.389876,38.77979,36.720352,52.780498,48.718086,59.607685,57.516668,63.527934,0.0,69.640011,30.975826,91.503284,22.704918,91.513149,13.55825,78.373135,4.802811,58.686275,0.0,2.342922,30.424242,57.138928,47.474198,70.427703,59.549294,79.233472,67.457113,83.380309,5.308193,286.54216,-48.726437,273.37633
111,5.583515,1.872149,0.311817,0.568548,0.0,-10.985115,-23.225567,25.536461,-31.52385,27.672844,-36.367081,16.674316,-38.451702,-20.093525,0.0,-8.850292,19.26556,37.692402,36.058461,50.466216,47.842366,56.589893,56.469319,61.191472,0.0,69.583946,31.198013,91.532112,22.687603,91.048027,13.243,77.572975,4.333546,58.065605,0.0,3.486885,30.449635,57.425932,47.604541,70.367818,59.692333,78.863773,67.46876,82.617729,10.872522,288.388973,-48.433806,273.919542
112,-4.527626,3.015853,0.120724,0.245878,0.0,-0.783806,-17.702728,31.025894,-25.675003,32.081337,-30.267746,20.874916,-32.116905,-13.906025,0.0,-10.99886,16.189772,34.559223,33.09727,47.6059,45.242847,54.094275,54.32327,58.066086,0.0,69.513943,31.119186,91.461491,22.777199,91.188526,13.432136,78.048923,4.514133,58.674534,0.0,4.23803,30.290294,57.118983,47.507766,69.947544,59.695099,78.486564,67.605561,82.418127,6.319456,291.368433,-48.338522,274.129027
113,2.074928,-2.919621,0.15723,0.088711,0.0,-8.728271,-21.184513,27.617638,-29.443176,29.072708,-34.324676,18.104622,-36.476223,-19.709312,0.0,-3.999513,19.222372,37.506138,35.654194,49.362081,46.911602,54.86266,55.426712,60.046533,0.0,69.369713,30.678681,91.159996,22.391728,90.97712,13.147133,78.175232,4.250302,58.685944,0.0,5.100732,30.307373,57.203272,47.558351,69.908604,59.789083,78.522688,67.702423,82.264541,8.382419,288.419159,-48.193257,274.188085
114,-8.119034,2.92466,0.05024,0.308875,0.0,5.56897,-12.883987,36.854851,-20.502491,39.189583,-25.2873,27.963181,-27.814796,-6.056144,0.0,-7.444235,15.99763,34.019561,32.464562,46.359776,44.348701,52.663431,53.533297,57.09863,0.0,69.255112,30.112381,90.959656,21.646499,90.468269,12.34996,77.706848,3.448803,57.985931,0.0,5.343276,30.2846,57.120428,47.593303,69.932428,59.828468,78.586242,67.649972,81.910267,0.257154,291.309205,-48.149248,274.462346
115,0.422402,0.105889,-0.082226,0.295673,0.0,-1.586151,-14.653473,33.932854,-21.37666,37.316276,-25.863041,26.195022,-28.388363,-11.372864,0.0,0.093898,17.190648,34.544613,32.165037,45.667505,42.848586,50.875955,51.411195,56.80639,0.0,69.229054,29.681179,90.907825,21.07592,90.306095,11.728317,77.528263,2.807556,57.513096,0.0,5.453834,30.161569,56.977526,47.593105,70.10801,59.877597,78.653316,67.643724,81.629204,0.651432,291.347814,-48.259598,274.690739
116,-1.577912,2.253594,0.130852,0.088995,0.0,6.381409,-13.683391,36.616539,-20.159008,41.064377,-23.985534,29.144257,-25.57814,-7.550365,0.0,-1.872063,15.084539,32.011969,29.894227,44.07122,40.860359,50.092885,49.955935,55.173178,0.0,69.159816,29.1702,90.744884,20.44836,89.925098,11.074344,77.178875,2.13406,56.944393,0.0,5.480485,30.209006,56.863114,47.706257,70.207378,59.988475,78.677731,67.688011,81.332888,-0.957293,293.519746,-48.159559,274.698072
117,6.926903,-1.390521,0.201004,0.081461,0.0,-8.344036,-21.784515,28.549713,-28.678676,34.381302,-32.476936,21.820725,-33.968307,-22.637935,0.0,1.490371,16.460264,33.783379,30.792733,44.975493,41.279385,50.62573,50.061875,57.080476,0.0,69.055927,28.629146,90.592289,19.785312,89.499332,10.375133,76.720012,1.402771,56.314579,0.0,5.39727,30.094842,56.695536,47.591413,70.204587,59.872249,78.529172,67.565547,80.973575,5.937629,292.056564,-47.990536,274.706872
118,-0.786896,1.299118,0.1814,0.100777,0.0,-2.282123,-21.229373,29.013405,-28.305233,34.226166,-31.662368,21.89431,-32.531341,-20.5559,0.0,-2.160486,14.781208,32.428957,29.946887,44.08599,41.093726,50.615788,50.201418,55.617188,0.0,68.974159,28.510872,90.602623,19.519547,89.221024,9.94907,76.113556,0.842274,55.483749,0.0,5.240918,29.859412,56.481657,47.422773,70.257038,59.741399,78.408648,67.459386,80.663205,5.110645,293.294684,-47.849224,274.746651
119,2.609093,0.15056,0.213238,0.03295,0.0,-4.045498,-24.20906,26.8274,-31.507564,31.332184,-34.712002,18.641899,-35.008621,-29.571979,0.0,-3.707112,14.474,31.481669,29.836292,44.030612,40.915687,50.917796,49.751936,56.098372,0.0,68.900677,28.349235,90.660152,19.276016,89.119915,9.619297,75.860973,0.4464,55.026111,0.0,5.241066,29.62597,56.241361,47.190863,70.257124,59.544539,78.318085,67.327993,80.618522,7.679666,293.379193,-47.676058,274.71355
120,-1.920959,2.070528,0.096611,-0.043867,0.0,7.454075,-21.539212,30.191139,-29.691708,33.634391,-33.287579,21.598274,-33.631302,-25.582363,0.0,-12.700084,11.362397,28.574126,27.673373,42.506403,39.804044,50.740635,49.314361,55.079737,0.0,68.731533,28.280468,90.590481,19.112045,88.762035,9.353886,75.283573,0.079719,54.030292,0.0,5.326417,29.335286,56.004844,46.859917,70.274636,59.240665,78.345971,67.110878,80.72493,5.730017,295.402405,-47.608137,274.622367
121,1.614738,-1.955549,-0.164681,-0.110311,0.0,0.417126,-23.033626,28.086411,-31.849972,30.141609,-36.385185,17.621658,-37.908451,-34.53685,0.0,-12.754029,12.1077,30.755447,28.91116,43.775695,41.159675,51.840681,50.711476,57.501082,0.0,68.774769,28.289944,90.463314,19.165146,88.541874,9.412732,74.871014,0.125851,53.378025,0.0,5.697611,29.219776,56.118255,46.716903,70.497147,59.107247,78.483316,67.058341,81.002807,7.324894,293.417151,-47.792679,274.482351
122,-8.169205,1.690072,-0.136654,-0.150177,0.0,15.158867,-14.638446,37.755982,-23.429752,37.827118,-28.284404,24.960091,-30.026733,-23.287788,0.0,-16.736585,10.299882,29.005712,27.857068,43.032071,40.790074,51.588418,50.886131,55.659252,0.0,68.844315,28.420807,90.266579,19.303929,88.329163,9.506871,74.411179,0.162667,52.624787,0.0,6.116613,29.097522,56.324699,46.63764,70.859289,59.083288,78.698664,67.117881,81.3545,-0.855349,295.078682,-47.940371,274.303633
123,-3.24456,0.452408,-0.136756,-0.029035,0.0,19.188217,-10.448501,42.989571,-19.009151,42.890373,-24.236835,28.784088,-26.393177,-19.740738,0.0,-16.358573,9.328548,27.526395,26.877546,42.473946,40.273384,51.245383,50.812549,55.691573,0.0,68.930191,28.475177,90.007919,19.390331,88.069198,9.595504,74.004798,0.237808,52.068145,0.0,6.267679,28.961795,56.428625,46.496294,71.006131,59.02255,78.699146,67.204109,81.48283,-4.101328,295.501795,-48.078546,274.245303
124,0.434166,-3.113517,-0.29345,0.070889,0.0,13.603523,-10.266151,41.417771,-19.448845,40.430397,-25.996845,25.792259,-29.875809,-22.549553,0.0,-13.978614,11.39936,31.189318,29.286491,45.050432,42.706473,53.351071,53.368151,58.594224,0.0,69.04937,28.4595,89.695267,19.460175,87.992111,9.748638,73.803703,0.438458,51.636337,0.0,6.35986,28.592083,56.347078,46.262359,71.031622,58.933667,78.595566,67.255128,81.463317,-3.657635,292.369639,-48.362469,274.297553
125,-2.672745,-1.309122,-0.187259,0.030739,0.0,15.217186,-6.872806,43.086708,-16.615654,40.009163,-23.841144,24.643135,-28.313186,-19.02087,0.0,-11.372437,12.263768,31.790632,31.176746,46.075935,44.975827,53.525517,55.998213,58.904361,0.0,68.932949,28.426288,89.261524,19.563789,87.782558,9.96302,73.609394,0.753662,51.65205,0.0,6.577148,28.396372,56.489178,46.131955,71.019421,58.889121,78.515699,67.306789,81.41015,-6.314553,291.052579,-48.533901,274.320354
126,-3.787696,1.764284,-0.065312,0.180744,0.0,23.794143,-3.442612,46.936431,-12.742447,43.345573,-19.264046,28.346717,-22.714669,-12.78542,0.0,-10.982509,11.065044,30.981466,30.029756,45.590576,43.851017,52.98336,54.887249,56.624967,0.0,68.843376,28.524983,89.132172,19.610596,87.539497,9.95533,73.201424,0.737171,51.284912,0.0,6.419684,28.103576,56.420721,45.865242,70.75976,58.663311,78.198363,67.088747,81.077871,-10.085981,292.808984,-48.582945,274.493219
127,-0.180909,-0.349211,-0.097641,0.105754,0.0,24.320916,-2.921093,45.798317,-12.035511,43.054139,-18.517467,28.732796,-22.178146,-8.294368,0.0,-10.05524,11.114938,30.872501,29.799044,45.457751,43.531175,52.585984,54.413969,56.537244,0.0,68.76297,28.417328,89.029381,19.486942,87.491615,9.866535,73.186867,0.748444,51.355248,0.0,6.300938,27.831701,56.165025,45.701689,70.4588,58.577428,77.909939,67.027812,80.73912,-10.252407,292.452804,-48.666103,274.592004
128,3.037903,-2.124202,-0.122372,0.027059,0.0,15.925324,-5.709514,41.473618,-15.39545,38.015076,-22.712002,23.899544,-27.421829,-15.511768,0.0,-10.554739,12.847272,33.159416,31.578432,46.721943,44.956585,53.85766,55.602467,58.838781,0.0,68.588414,28.287541,88.926213,19.33572,87.446583,9.746773,73.206585,0.727295,51.367573,0.0,6.47432,27.593505,56.031904,45.591786,70.28732,58.501117,77.756439,66.902261,80.454797,-7.201212,290.325311,-48.775183,274.615772
129,-0.305626,2.328287,-0.03471,-0.092206,0.0,18.53064,-4.986271,40.636917,-15.224624,35.474144,-22.208919,22.317993,-26.000484,-12.987156,0.0,-10.857785,11.312651,30.346215,30.397986,44.412391,43.849153,51.189955,54.533617,55.80344,0.0,68.42537,28.377972,88.875824,19.331326,87.296128,9.635296,73.035782,0.580216,51.223229,0.0,6.652434,27.58029,56.128407,45.647745,70.313737,58.581047,77.777163,66.946783,80.245512,-7.499148,292.648883,-48.802203,274.518851
130,-0.855491,0.109681,-0.108112,-0.070173,0.0,20.01828,-4.710629,43.011703,-14.234825,39.09082,-20.908379,25.214767,-24.681485,-9.110504,0.0,-11.200549,11.336141,31.363405,29.902933,45.204352,43.260993,52.168341,53.88047,55.769452,0.0,68.503636,28.401604,88.912388,19.282356,87.328571,9.52636,73.049618,0.454857,51.144688,0.0,6.705181,27.545228,56.096075,45.684745,70.29468,58.664077,77.726417,67.041051,80.141611,-8.35144,292.751389,-48.907116,274.441503
131,2.398063,-2.160536,-0.261474,-0.14005,0.0,12.360283,-6.628887,40.275261,-16.634479,36.523522,-24.311039,22.794182,-29.455158,-13.287689,0.0,-12.034463,12.684041,32.149451,31.31272,45.869367,44.668136,53.063327,55.209525,58.305023,0.0,68.658245,28.257087,88.927516,19.184303,87.460796,9.482997,73.354602,0.454673,51.429622,0.0,6.852134,27.357248,55.972031,45.593614,70.278983,58.6683,77.736791,67.130799,80.090445,-5.947644,290.577947,-49.162857,274.288547
132,2.966835,-2.648339,-0.193394,0.000864,0.0,4.490548,-9.393917,37.688942,-19.924942,33.973114,-28.594883,19.648774,-34.890712,-22.398525,0.0,-12.291358,14.449559,34.174024,33.193045,47.605072,46.413808,55.262,56.856235,61.942863,0.0,68.855896,28.326897,88.907547,19.261539,87.417389,9.538513,73.323166,0.511654,51.434166,0.0,6.878527,27.235884,56.003585,45.490318,70.208823,58.589421,77.629506,67.068222,79.921138,-2.974377,287.910373,-49.349819,274.270176
133,-0.673301,-0.03868,-0.208248,-0.084215,0.0,4.649711,-8.195847,38.374832,-18.895672,34.203415,-27.846142,19.412246,-34.401513,-22.066178,0.0,-12.240414,14.212425,33.944275,32.949908,47.143401,46.229853,54.931351,56.670662,61.265868,0.0,69.062954,28.469948,89.123096,19.463871,87.534038,9.749611,73.487743,0.722809,51.748821,0.0,6.890432,27.309478,56.145932,45.466371,70.166734,58.528807,77.55091,66.985785,80.016789,-3.642242,287.847443,-49.552631,274.161711
134,-0.152298,-2.656022,-0.160618,-0.024688,0.0,1.433304,-8.235466,39.843567,-18.773495,36.578453,-28.398754,20.847725,-36.122658,-22.210659,0.0,-11.662936,15.755186,36.813163,34.06753,49.422017,47.240733,57.672749,57.534354,63.483351,0.0,69.143005,28.416195,89.294586,19.469272,87.534553,9.788795,73.575989,0.777695,51.989914,0.0,6.86814,27.229116,56.150996,45.256457,70.133241,58.271802,77.449602,66.74402,80.053555,-3.787794,285.165665,-49.706503,274.111267
135,2.446495,-2.875642,-0.025417,-0.058144,0.0,-6.200318,-10.463047,36.85453,-21.816296,33.628715,-32.641846,18.0615,-41.627049,-28.774555,0.0,-10.754378,16.881784,38.846282,35.362201,51.032393,48.534823,59.626729,58.865914,66.689482,0.0,69.058376,28.543247,89.511096,19.557231,87.378238,9.778495,73.373256,0.677398,51.979648,0.0,6.882886,27.27139,56.279585,45.18432,70.152667,58.125465,77.356396,66.550803,79.88515,-1.329351,282.256638,-49.719972,274.019738
136,-0.604569,2.22567,0.024272,-0.022415,0.0,-3.464584,-9.7821,37.501694,-21.439201,34.159882,-31.775242,18.438446,-39.87545,-25.22493,0.0,-10.512032,15.166667,36.788537,33.909201,49.4996,47.228148,57.744823,57.833398,64.100126,0.0,68.887322,28.753682,89.577599,19.733368,87.288895,9.835888,73.105271,0.612534,51.744164,0.0,6.813664,27.366794,56.388957,45.128868,70.215467,58.012486,77.250123,66.449569,79.706481,-1.925011,284.438431,-49.686791,273.953446
137,-3.154072,2.806803,-0.172027,-0.180781,0.0,3.756924,-6.952411,42.13258,-18.339752,38.870923,-27.998897,22.50626,-35.287651,-16.518539,0.0,-11.591528,12.672815,34.388051,31.292145,47.337817,44.977864,55.634083,55.866018,60.198254,0.0,68.745026,28.828228,89.879562,19.850944,87.411644,9.935577,73.199112,0.690159,52.00676,0.0,6.852061,27.456753,56.484312,45.10859,70.271981,57.960752,77.244739,66.434613,79.669999,-5.071747,287.195201,-49.851482,273.722632
138,-0.491752,-0.511688,-0.112209,-0.175976,0.0,4.937015,-6.946003,42.348827,-18.062199,39.772213,-27.599179,24.482723,-34.702789,-13.473198,0.0,-11.221532,12.672456,34.79979,31.29007,48.055282,44.941838,56.221601,55.912985,60.916423,0.0,68.644374,28.873546,89.863437,19.883365,87.311451,9.917118,73.085872,0.606662,51.904346,0.0,6.858705,27.389642,56.342496,45.04348,70.269462,57.949032,77.237773,66.530968,79.514807,-5.556827,286.616013,-49.957019,273.479156
139,-0.565224,-0.35945,-0.071412,-0.196194,0.0,6.127819,-6.522388,42.591419,-17.448212,40.724316,-27.047069,26.089062,-34.114483,-13.172424,0.0,-11.407264,12.434249,34.851241,31.141314,48.406235,44.805272,56.540468,55.938414,61.844952,0.0,68.595715,28.894375,89.784817,19.932747,87.345486,9.965996,73.080861,0.660233,52.000706,0.0,6.963619,27.502559,56.313647,45.134043,70.119261,58.030123,77.104924,66.636661,79.422306,-6.118458,286.18292,-50.024838,273.209319
140,-2.23542,-0.235775,-0.126571,-0.178866,0.0,9.144779,-3.840019,44.738171,-14.716416,42.603092,-24.464699,27.950786,-31.713375,-10.477089,0.0,-11.703296,12.439188,34.224672,31.251439,48.171225,44.946038,56.346917,56.011835,61.328681,0.0,68.600727,28.680164,89.649753,19.803531,87.393642,9.934582,73.203838,0.727409,52.16399,0.0,7.025172,27.546995,56.231988,45.146282,70.055596,58.040052,77.146334,66.681553,79.50189,-8.352842,285.872708,-50.150373,272.956016
141,-0.022293,-2.810891,-0.055058,-0.272393,0.0,7.15694,-4.121224,45.016514,-14.679646,43.348079,-25.067459,28.864826,-33.304962,-14.267315,0.0,-11.715696,13.885605,36.767961,32.431477,50.251016,45.981802,58.723123,56.863694,64.568861,0.0,68.589821,28.592102,89.612618,19.750649,87.260765,9.922302,73.35482,0.743855,52.502701,0.0,7.181375,27.495865,56.297653,45.055496,70.070551,57.954984,77.351493,66.6406,79.917025,-8.373081,282.9924,-50.203377,272.614206
142,1.469639,-3.483687,0.040386,-0.168529,0.0,1.749138,-5.448246,42.333046,-16.370282,40.467796,-27.635456,26.725044,-36.733292,-20.101159,0.0,-10.254112,16.061925,39.100781,34.895096,52.775509,48.205175,61.17543,58.897617,68.245839,0.0,68.632496,28.531815,89.456944,19.692227,87.17561,9.880291,73.404088,0.702897,52.580578,0.0,7.183215,27.383133,56.352919,44.936972,70.080567,57.860432,77.536559,66.57323,80.277499,-6.899311,279.449948,-50.15886,272.386912
143,-0.070885,-0.062491,0.064053,-0.143743,0.0,1.523094,-5.479111,42.651764,-16.287884,40.64003,-27.436009,26.88343,-36.370148,-20.844509,0.0,-10.640658,16.2132,38.904958,35.012978,53.029488,48.23384,61.300239,58.875152,68.425829,0.0,68.587189,28.467842,89.363159,19.678276,87.220642,9.908249,73.592079,0.738762,52.820274,0.0,7.146807,27.187755,56.447916,44.715943,70.043529,57.677701,77.666445,66.468551,80.597156,-6.964542,279.335834,-50.089153,272.191546
144,-1.101082,-0.203838,0.056053,-0.17216,0.0,2.725365,-4.161346,43.929794,-14.72097,41.657478,-25.822792,27.775406,-34.74115,-20.022068,0.0,-10.842137,16.345581,38.687436,35.089993,53.172983,48.273298,61.379811,58.927405,68.659554,0.0,68.637795,28.650353,89.181404,19.922505,87.185921,10.178192,73.647835,1.005261,52.915352,0.0,7.147351,26.969282,56.71989,44.497569,70.121545,57.525794,77.861168,66.382483,80.976118,-8.059816,279.084278,-50.027292,271.971668
145,-1.378326,-0.043262,-0.017887,-0.160761,0.0,4.681503,-1.726799,44.819526,-12.015919,41.410286,-23.075261,26.937538,-32.201283,-21.197651,0.0,-12.556292,15.743181,37.190655,34.843806,52.574683,48.379792,61.113542,59.224116,68.340848,0.0,68.789921,28.816704,89.149212,20.203938,87.440861,10.482971,74.054752,1.252384,53.319202,0.0,7.063469,26.750735,56.819456,44.27407,70.010159,57.328415,77.883843,66.207668,81.296974,-9.431814,279.003299,-50.038851,271.77319
146,-2.718785,-0.156068,0.078861,-0.028257,0.0,8.177136,2.171894,47.323597,-7.987266,42.857769,-19.283329,27.991368,-28.695602,-18.108295,0.0,-13.543867,15.221735,35.813855,34.686317,52.319814,48.607108,61.004084,59.683749,67.693679,0.0,68.844796,28.819405,89.096672,20.30753,87.714798,10.646725,74.328873,1.44175,53.638207,0.0,6.815306,26.645512,56.782122,44.134044,69.784721,57.141806,77.675151,65.950835,81.276732,-12.143813,278.816628,-49.953204,271.71433
147,-1.905235,-0.376406,0.101876,-0.056168,0.0,11.307255,5.248489,48.908123,-4.693245,43.41869,-16.218739,28.083355,-26.099235,-19.246742,0.0,-14.529045,14.946391,35.347035,34.713908,52.411465,48.898582,61.249418,60.144555,68.223263,0.0,68.934082,28.895954,89.108528,20.440715,87.845558,10.789318,74.476043,1.540878,53.802017,0.0,6.922826,26.647896,56.777404,44.077197,69.597024,57.021442,77.449379,65.750369,81.209547,-14.046112,278.411647,-49.848392,271.629587
148,-2.007122,-0.374344,0.042034,-0.050426,0.0,14.358055,8.328667,50.690277,-1.471573,44.247047,-13.27985,28.091835,-23.5872,-21.482597,0.0,-15.277397,14.863979,34.96648,34.914758,52.275293,49.294934,61.319728,60.573338,68.723244,0.0,69.072727,29.011333,89.184551,20.605797,88.03371,10.97699,74.560444,1.75098,53.991222,0.0,6.863966,26.702583,56.834215,44.11631,69.517391,57.004374,77.293436,65.642602,81.129667,-16.052914,278.019722,-49.806038,271.56158
149,-0.692802,-0.288609,0.092079,-0.050277,0.0,15.521827,9.848602,51.233596,-0.116261,44.004478,-12.151429,27.313018,-22.680245,-22.866108,0.0,-15.82994,14.900782,34.868531,35.196846,52.312899,49.685864,61.478624,60.858304,68.624122,0.0,69.167599,29.08374,89.446575,20.674141,88.281612,11.02351,74.748379,1.771122,54.244343,0.0,6.806884,26.883252,56.750111,44.272378,69.403684,57.065643,77.135774,65.579926,81.027693,-16.745075,277.719273,-49.713318,271.499463
150,-0.504696,-0.565275,0.198543,-0.084857,0.0,16.152797,9.861591,52.652424,-0.442383,46.221759,-12.7561,29.776531,-23.365071,-21.754532,0.0,-14.725238,15.252821,36.132796,35.389667,53.098364,49.81318,62.292037,60.899936,69.717549,0.0,69.164727,28.957398,89.496483,20.555432,88.395974,10.995152,74.86377,1.862916,54.331307,0.0,6.847453,26.888093,56.592363,44.385912,69.307476,57.232838,77.107356,65.742675,81.02889,-17.257129,277.142759,-49.522133,271.403367
