takenoko1/special-research/HandMotion_SimilarSearch_自分用/NewProject/handData/test_key/d4_feature_d3/94.csv
frame,vel_0x_L,vel_0y_L,vel_0x_R,vel_0y_R,posFromWrist_0x_L,posFromWrist_1x_L,posFromWrist_2x_L,posFromWrist_3x_L,posFromWrist_4x_L,posFromWrist_5x_L,posFromWrist_6x_L,posFromWrist_7x_L,posFromWrist_8x_L,posFromWrist_9x_L,posFromWrist_0y_L,posFromWrist_1y_L,posFromWrist_2y_L,posFromWrist_3y_L,posFromWrist_4y_L,posFromWrist_5y_L,posFromWrist_6y_L,posFromWrist_7y_L,posFromWrist_8y_L,posFromWrist_9y_L,posFromWrist_0x_R,posFromWrist_1x_R,posFromWrist_2x_R,posFromWrist_3x_R,posFromWrist_4x_R,posFromWrist_5x_R,posFromWrist_6x_R,posFromWrist_7x_R,posFromWrist_8x_R,posFromWrist_9x_R,posFromWrist_0y_R,posFromWrist_1y_R,posFromWrist_2y_R,posFromWrist_3y_R,posFromWrist_4y_R,posFromWrist_5y_R,posFromWrist_6y_R,posFromWrist_7y_R,posFromWrist_8y_R,posFromWrist_9y_R,posFromBody_0x_L,posFromBody_0y_L,posFromBody_0x_R,posFromBody_0y_R
6,-3.431214,3.382565,0.050193,0.203727,0.0,2.151592,-19.717552,31.521378,-27.967918,33.8088,-32.090149,22.309227,-33.038841,-16.170215,0.0,7.707871,17.211729,36.806555,34.779696,50.890317,47.733933,57.307049,57.746749,63.352958,0.0,68.873623,26.161137,90.128025,17.558533,88.34721,9.362126,74.552159,2.411442,55.885357,0.0,9.1719,33.126564,55.672615,50.741116,66.87887,62.191261,75.109397,68.494088,77.569682,-1.714548,295.339843,-48.543417,283.669348
7,2.382134,-4.943158,0.357399,-0.23186,0.0,-1.464054,-22.120514,29.578743,-30.571724,31.793678,-35.265187,19.611625,-36.948578,-23.858792,0.0,7.37705,20.14249,40.106831,38.557204,54.402903,51.738632,61.289235,61.758081,69.113704,0.0,68.58189,26.373551,89.972409,17.629761,87.971272,9.282486,74.109433,2.159249,55.5397,0.0,9.360769,33.242926,56.073375,50.908497,67.11798,62.36221,75.351113,68.571288,77.781646,0.812279,290.515555,-48.041325,283.556358
8,-6.410832,3.929821,0.090248,-0.044806,0.0,0.313111,-16.207821,36.357662,-23.512996,38.768406,-27.433124,27.151715,-28.463115,-13.656292,0.0,11.65791,18.206689,38.721275,35.095007,52.212357,47.306719,57.590805,56.942389,63.715038,0.0,68.549023,26.646664,90.060414,17.95506,88.042775,9.623234,74.323849,2.491414,55.829899,0.0,9.387198,33.438576,56.231086,51.109976,67.238875,62.529739,75.335045,68.680475,77.836838,-5.496804,294.486977,-47.849328,283.553153
9,3.420845,-4.056767,0.065243,-0.166702,0.0,-5.090011,-18.452865,33.215458,-26.371628,34.28143,-31.224758,21.995121,-33.323215,-22.296112,0.0,13.504741,21.070389,41.910782,38.361566,55.084158,50.496609,61.07727,59.806348,68.123573,0.0,68.640999,26.702145,90.250466,17.976128,88.183411,9.573612,74.399895,2.352917,55.817299,0.0,9.711636,33.246348,56.318167,51.012201,67.40407,62.489898,75.48316,68.625505,78.011926,-2.008593,290.450473,-47.716719,283.406714
10,-5.440979,2.700629,0.132889,-0.003013,0.0,2.784611,-13.885139,39.191746,-21.337246,40.469868,-25.514351,28.564923,-26.865452,-12.934662,0.0,12.551908,19.607843,41.040139,36.396804,54.063437,48.300876,58.937866,57.679244,64.403432,0.0,68.612961,26.948753,90.295029,18.284649,88.196159,9.848637,74.441414,2.537304,55.921989,0.0,9.77404,33.037656,56.281709,50.782674,67.433105,62.30062,75.36187,68.516565,77.988399,-7.417511,293.158608,-47.551769,283.411207
11,2.764183,-4.21186,0.257744,-0.129874,0.0,-2.574566,-16.216999,37.399601,-24.048649,37.428212,-28.874073,24.362034,-30.873584,-22.89394,0.0,13.580114,22.807293,44.258657,40.20184,57.050255,52.024475,62.719474,61.01431,69.089004,0.0,68.763382,26.918861,90.204002,18.225803,88.2136,9.733017,74.546448,2.33353,55.9449,0.0,9.95103,32.785159,56.241707,50.639784,67.457002,62.270363,75.494066,68.571511,78.363768,-4.626538,288.942404,-47.267235,283.276989
12,-3.308292,3.303499,0.129833,-0.114028,0.0,0.687035,-12.535492,41.702866,-19.984852,41.776268,-24.215389,29.112534,-25.609394,-10.554073,0.0,16.134506,21.369829,42.800322,38.112638,55.406854,49.607255,59.853563,58.534908,63.493651,0.0,68.947392,27.121525,90.25819,18.458416,88.304798,9.924191,74.699925,2.425884,56.008198,0.0,10.018226,32.786505,56.239299,50.583665,67.56856,62.210428,75.739214,68.540635,78.768331,-7.91411,292.245035,-47.116682,283.162093
13,6.885944,-3.935366,0.019535,-0.16375,0.0,-2.51897,-18.033909,34.165615,-26.299198,34.040898,-31.333248,20.588253,-33.635078,-26.283508,0.0,12.447327,23.612135,45.199523,41.50281,57.881613,53.565802,63.713001,62.571804,69.692207,0.0,69.093659,27.451916,90.329842,18.668129,88.380707,9.940395,74.734932,2.193764,55.851883,0.0,10.200748,32.525894,56.317339,50.404367,67.883883,62.139909,76.291115,68.595853,79.218085,-1.021769,288.31506,-47.09075,283.003734
14,-2.973838,3.885978,-0.016983,-0.089279,0.0,4.175113,-15.71069,38.226093,-23.74347,38.703586,-28.11596,25.491794,-29.52007,-21.271958,0.0,10.109457,21.436137,43.087622,38.782593,55.038377,50.706351,60.40676,59.986648,65.656719,0.0,69.483284,27.733017,90.350533,18.866181,88.397347,9.975609,74.765717,1.996342,55.583931,0.0,10.300019,32.527722,56.42665,50.379667,68.388755,62.084322,76.912535,68.551702,79.732972,-3.996912,292.20772,-47.109038,282.921137
15,5.548873,-3.0099,-0.093109,-0.118536,0.0,-3.945179,-20.625343,32.306065,-28.847419,32.65646,-33.722065,18.964177,-35.671302,-35.724929,0.0,10.567261,23.233926,44.970602,41.027221,56.392168,52.996081,62.772344,62.037391,70.578448,0.0,69.920998,27.941116,90.45948,19.031445,88.675415,10.034203,75.062965,1.904034,55.636826,0.0,10.514712,32.59598,56.507518,50.466167,68.734075,62.17838,77.413516,68.675128,80.207536,1.546491,289.210914,-47.207617,282.815695
16,-1.685852,4.268732,-0.197811,-0.097862,0.0,0.894848,-18.907825,34.778927,-27.184227,35.464314,-31.637489,21.738201,-32.928589,-35.46397,0.0,9.285273,20.68309,43.18578,37.920891,53.11574,49.749392,59.280531,59.09896,66.415433,0.0,70.284817,28.287128,90.726574,19.345058,88.898884,10.251789,75.22269,1.970913,55.583279,0.0,10.64235,32.723693,56.656312,50.5685,69.280937,62.21091,77.900343,68.681155,80.546546,-0.146679,293.493487,-47.412746,282.731674
17,6.678555,-2.460421,-0.178517,-0.03316,0.0,-7.556557,-24.952389,26.338852,-33.559628,27.416267,-38.472828,13.916199,-40.276291,-50.507034,0.0,7.398725,22.04118,45.339586,39.405285,54.738628,51.210185,61.362953,60.31243,71.144021,0.0,70.757515,28.479641,90.904816,19.483361,89.158791,10.309639,75.478775,1.938618,55.731904,0.0,10.675671,32.672403,56.739218,50.60035,69.608053,62.275637,78.22662,68.758911,80.745395,6.522989,291.04106,-47.60015,282.706508
18,-3.259461,3.053731,-0.01379,-0.017475,0.0,0.606217,-22.168006,30.395417,-30.885543,31.880494,-35.526248,18.297135,-36.797653,-44.877101,0.0,6.349301,19.730035,43.733927,37.145652,52.692318,49.249992,59.155166,58.806177,67.30832,0.0,71.081898,28.530773,90.959553,19.582707,89.121701,10.408367,75.481259,2.015557,55.743931,0.0,10.701297,32.898878,56.762127,50.744685,69.764813,62.299101,78.422739,68.702533,80.98222,3.257331,294.096072,-47.620137,282.690314
19,4.847558,-3.081432,-0.081745,0.071062,0.0,-8.012719,-25.760502,24.772499,-34.603066,25.873283,-39.714089,12.070175,-41.704937,-54.016789,0.0,4.991743,21.987667,45.706247,39.852234,54.997103,51.883363,61.58192,61.072146,71.182207,0.0,71.225395,28.593716,90.981629,19.71793,89.248352,10.621777,75.726196,2.307324,56.127274,0.0,10.739743,32.96321,56.689052,50.836854,69.60935,62.393382,78.352048,68.802964,80.859287,8.096564,291.011753,-47.710207,282.758489
20,-4.700638,2.494778,0.122841,0.027257,0.0,2.569404,-21.573681,30.006569,-30.731049,31.987793,-35.742417,18.233596,-37.595719,-40.580441,0.0,3.750511,19.834134,43.696346,37.931512,53.30513,50.499067,59.469822,60.144729,66.926023,0.0,71.331413,28.562691,90.956314,19.692444,89.090881,10.618069,75.67701,2.357151,56.099304,0.0,10.674991,33.124094,56.820827,50.942188,69.607337,62.403521,78.419429,68.72044,80.956976,3.381255,293.496089,-47.602037,282.775304
21,-1.147133,-0.340183,-0.117142,0.031233,0.0,5.168037,-20.045048,31.336258,-29.134598,34.079567,-34.08268,20.023727,-36.02544,-32.6819,0.0,4.113492,19.088794,42.983005,37.238685,54.07081,50.167764,60.040914,60.072592,66.433292,0.0,71.547455,28.538853,91.003899,19.701107,89.168908,10.700993,75.913903,2.539067,56.465424,0.0,10.730888,33.163183,56.816814,51.006829,69.38469,62.47041,78.330484,68.763456,80.891311,2.215639,293.139286,-47.737662,282.789917
22,-0.521279,-0.1709,0.008721,0.121451,0.0,6.221535,-19.405014,32.843628,-28.682498,35.004044,-33.778072,20.471146,-35.832435,-31.564991,0.0,3.437596,19.397299,42.443195,37.738628,53.89676,50.726407,60.167391,60.692195,66.151784,0.0,71.636398,28.569534,90.972015,19.774864,89.073532,10.8101,75.958694,2.686786,56.63134,0.0,10.683636,33.240531,56.740774,51.053561,69.13197,62.494146,78.185272,68.789749,80.832944,1.666008,292.948073,-47.757293,282.891055
23,-1.407257,-0.459608,-0.039768,0.166578,0.0,7.673539,-18.412353,34.00866,-27.553539,36.679848,-32.576397,22.925743,-34.759506,-23.547317,0.0,3.361334,19.824167,42.153276,38.090581,54.307956,51.127402,60.232068,61.086459,66.268986,0.0,71.692211,28.652229,91.006176,19.904685,89.128086,10.963668,76.033641,2.831428,56.776462,0.0,10.57009,33.097109,56.550521,50.918377,68.85019,62.398495,77.988337,68.762752,80.749112,0.222187,292.464423,-47.833625,283.033591
24,-5.038009,3.028339,-0.008561,-0.032542,0.0,18.390793,-13.567429,40.203689,-22.734398,44.240204,-27.331616,30.108444,-29.089142,-9.779938,0.0,5.105894,16.436094,38.873205,34.39514,52.564186,47.892705,58.194749,58.520939,61.821239,0.0,71.889302,28.716534,91.228581,19.983101,89.260929,11.039086,76.138539,2.88842,56.903881,0.0,10.586243,33.137247,56.614296,50.925503,68.836271,62.386614,78.041418,68.752982,81.043957,-4.857141,295.471615,-47.883505,282.979902
25,6.533249,-1.704546,-0.177051,0.026256,0.0,7.208862,-19.461171,33.981124,-28.69693,37.139991,-33.258969,22.801277,-34.882908,-25.88744,0.0,2.136638,18.376391,40.151315,36.032921,53.374289,48.893791,59.491915,59.112446,65.531957,0.0,72.010963,28.517818,91.415039,19.798485,89.516739,10.957798,76.47409,2.934791,57.324577,0.0,10.68744,32.968384,56.426143,50.833556,68.639584,62.371473,77.887104,68.777423,80.907625,1.623305,293.74219,-48.113359,282.981279
26,1.207832,-1.374243,0.168045,0.077719,0.0,4.956367,-21.461586,31.59874,-30.993839,34.86866,-35.7766,21.634392,-37.585167,-26.435715,0.0,3.014074,18.832183,40.441073,37.103463,53.665467,50.343085,59.806323,60.60772,66.637537,0.0,71.887276,28.284313,91.273109,19.576137,89.338051,10.823593,76.269333,2.948009,57.255226,0.0,10.654873,32.882045,56.273249,50.74802,68.462768,62.323307,77.767728,68.751958,80.789398,2.766403,292.341506,-48.010048,283.032557
27,-5.605888,2.792674,0.047275,0.036766,0.0,17.152999,-16.437355,38.573135,-25.823136,42.791359,-30.263901,29.464416,-31.797181,-11.175923,0.0,2.754291,16.174224,38.56543,34.113768,52.000232,47.775442,57.978537,58.494029,63.2672,0.0,71.785893,28.020195,91.270558,19.339085,89.332341,10.714405,76.26582,3.006478,57.304631,0.0,10.689009,32.918675,56.216365,50.806868,68.44428,62.384799,77.78177,68.762394,80.720929,-2.898914,295.107488,-48.022202,283.042631
28,5.790664,-2.136873,-0.000126,-0.046041,0.0,8.656952,-21.897732,33.589257,-31.697353,36.78804,-36.379417,22.635292,-37.899353,-26.430542,0.0,0.689271,17.774412,40.19774,35.848622,53.199326,49.17851,59.892157,59.556395,67.196762,0.0,71.455948,27.775406,91.301034,19.092087,89.296784,10.609635,76.296273,3.139779,57.522172,0.0,10.332202,33.239358,56.522746,51.198464,68.599348,62.773061,77.917016,69.058413,80.737317,2.837213,292.940867,-48.076865,282.966842
29,2.314751,-0.728889,-0.120861,0.07226,0.0,3.602577,-24.598034,31.373337,-34.509544,32.713165,-39.379932,18.830978,-40.883755,-34.91478,0.0,-0.526756,19.217457,41.53124,37.815742,53.465544,51.231229,60.2119,61.644411,69.073825,0.0,70.792546,27.391022,91.608639,18.759133,89.86163,10.464066,76.907055,3.262574,57.998738,0.0,9.539241,33.390288,57.546296,51.242406,69.676979,62.77111,78.842124,68.989351,81.389822,5.103029,292.181238,-48.246661,283.008362
30,-6.369003,2.392063,0.240029,0.365871,0.0,13.290733,-17.85933,39.440391,-27.58088,41.245559,-32.906365,26.670089,-35.052315,-17.393864,0.0,0.717848,17.331512,40.304469,35.729208,55.355255,49.622359,62.847445,60.195684,70.474497,0.0,69.365513,27.477356,91.667278,19.004047,90.392544,10.677749,77.383541,3.140899,56.721668,0.0,9.326968,33.454114,57.88617,51.14699,72.060385,62.687006,81.905858,69.180679,85.60388,-1.295328,294.549629,-48.035986,283.350561
31,-1.125481,-1.340664,-0.674401,-0.115065,0.0,13.95076,-15.537025,41.72953,-25.03545,41.598106,-30.950924,26.433495,-34.118603,-17.844498,0.0,-2.68718,17.932999,42.582245,36.158139,59.777215,49.750875,69.40177,60.040086,77.822229,0.0,67.163373,27.360386,92.059559,19.282231,91.605343,11.162659,78.479039,3.489052,54.482152,0.0,10.315875,33.390572,57.287475,51.171097,74.367651,62.879444,85.494594,69.631259,92.092391,-2.442781,293.193046,-48.732359,283.219577
32,6.761719,-1.855995,-1.457931,-0.802891,0.0,1.110191,-22.880127,30.603973,-32.821919,30.556228,-38.716873,16.068489,-41.53141,-35.687451,0.0,-2.369931,18.062786,46.328432,36.014076,63.799414,49.031136,73.406889,58.989341,81.770168,0.0,63.805058,26.727722,91.666615,19.058121,91.771763,11.211433,79.079555,3.658813,51.291298,0.0,12.666158,32.035496,54.012924,49.847723,74.909597,61.880841,87.584092,69.222113,98.273495,4.279444,291.329304,-50.229784,282.408939
33,-1.277298,1.932269,-2.037197,-1.739929,0.0,-3.905308,-24.070782,19.056598,-31.460644,18.475628,-35.178395,3.889652,-35.876107,-31.409901,0.0,2.691985,15.970645,44.994376,33.160651,63.011862,46.145182,73.458785,56.463639,80.006304,0.0,58.479858,25.069885,88.404602,18.295223,89.860931,11.002704,76.636047,3.655563,47.407837,0.0,15.655433,29.05941,48.355463,46.751879,73.471764,59.07216,87.569815,66.887984,100.5571,2.91037,293.310705,-52.358757,280.718142
34,-11.782654,-2.604274,-3.035488,-3.713071,0.0,-21.549854,-13.348137,18.489052,-14.154202,12.911842,-15.165253,2.237537,-15.443642,-19.346649,0.0,-6.294997,13.971438,35.367512,31.772131,60.497225,45.502977,75.013277,55.900734,83.887725,0.0,53.86718,25.499033,83.012014,19.499834,84.399874,12.535011,71.533601,5.086166,43.445246,0.0,18.407643,24.488367,39.815702,40.382151,65.428995,51.609067,79.425035,58.843369,93.215087,-8.993088,290.851211,-55.515049,277.149851
35,8.449676,-4.08411,-4.519455,-5.937055,0.0,-38.574646,-20.298728,-12.983963,-18.013069,-19.215877,-15.950569,-24.012668,-13.384655,-35.73064,0.0,-0.631682,16.661459,39.027458,34.588369,62.381167,48.07687,76.271219,58.284077,84.776449,0.0,50.568237,27.75258,76.294504,22.315859,76.175634,15.57835,64.447935,8.165508,41.235185,0.0,19.914254,18.413052,30.023161,30.671936,50.645588,39.269828,62.002156,44.523325,73.664462,-0.699498,287.003065,-60.19059,271.44876
36,8.722344,-1.468326,-6.819855,-8.908115,0.0,-56.885845,-26.918839,-42.755287,-21.57621,-48.89605,-16.289417,-48.165642,-10.473667,-47.997963,0.0,5.634231,19.229387,40.707637,36.66895,62.065796,49.730089,74.436676,59.452049,82.590694,0.0,47.13913,29.494108,64.548208,24.980238,62.715815,18.862965,53.425741,11.753426,38.263956,0.0,17.338015,10.452832,17.904001,15.818566,30.430887,18.96859,36.077765,20.00777,41.354115,7.757149,285.855378,-67.276142,262.861284
37,1.962913,-1.972345,-10.486278,-23.281153,0.0,-64.122699,-25.559326,-61.814781,-16.771579,-69.373706,-9.053718,-63.829719,-1.439918,-46.107845,0.0,9.492051,21.972241,40.434046,39.858063,61.834577,53.291791,74.930913,62.81941,83.813871,0.0,44.934402,29.663869,52.376432,28.154188,51.253446,24.660747,44.904905,19.654312,38.569536,0.0,8.480413,4.33533,8.554656,8.816774,17.62242,12.043356,22.220429,13.805361,25.423287,9.478649,284.279344,-78.003833,239.976442
38,3.543938,-3.411649,-10.566708,-27.220557,0.0,-68.348659,-23.879997,-73.382435,-14.254303,-80.804626,-6.047447,-69.709476,1.524445,-49.147476,0.0,10.61623,24.812267,43.556703,43.246209,65.351696,56.890902,77.886005,65.920294,87.237783,0.0,42.036667,27.062845,41.744814,27.900232,40.45249,26.84428,37.849485,24.152389,37.814581,0.0,-1.03519,-3.487632,-1.212024,-1.611735,3.137687,0.520235,5.707677,2.276324,7.187476,12.590916,281.347002,-89.002212,213.235192
39,17.22702,-1.039914,-13.585419,-33.051821,0.0,-64.571708,-37.742797,-99.425857,-31.530029,-102.03606,-23.469772,-89.3264,-14.260849,-66.077373,0.0,24.433576,29.336262,56.89841,46.611323,71.696835,59.061972,80.906847,67.210939,87.753301,0.0,41.731957,21.353234,32.24429,26.003094,33.374451,29.264912,35.495236,30.960137,40.48106,0.0,-13.897035,-8.903558,-11.099594,-6.374174,-7.518835,-3.413353,-4.451316,-0.788825,-2.720236,29.351394,280.890904,-103.054173,180.767187
40,-0.646408,-0.205271,-14.060715,-37.232572,0.0,-64.150531,-36.600197,-97.982116,-30.486808,-101.006344,-22.530212,-88.318508,-13.498031,-65.019355,0.0,24.289241,29.608174,56.445261,46.886508,70.773629,59.28105,80.4021,67.247199,87.488342,0.0,41.326287,13.656201,23.886532,22.515049,28.720162,30.60886,35.295914,37.363152,43.68995,0.0,-26.218243,-13.316692,-19.658392,-9.08824,-14.348585,-4.503772,-9.811924,-0.316279,-7.167271,28.211786,281.219169,-117.608088,144.068151
41,-0.689392,-0.435365,-7.194934,-38.928515,0.0,-63.231125,-36.175506,-97.415485,-30.057884,-100.207088,-22.105659,-87.678131,-13.129097,-64.40538,0.0,24.568859,29.685375,56.510359,47.082676,70.656588,59.587629,80.313376,67.617936,87.685425,0.0,37.853302,3.090694,17.741958,12.355751,23.818531,22.405723,31.739067,32.233497,40.460872,0.0,-36.433843,-15.64146,-25.36778,-7.221495,-15.63891,1.018202,-8.593509,8.316249,-4.450019,26.897037,281.235934,-125.428379,105.591766
42,-0.225197,-0.640166,-9.401471,-28.779583,0.0,-62.566108,-35.809021,-96.893177,-29.772194,-99.779663,-21.792114,-87.196987,-12.741829,-63.766891,0.0,25.012547,29.826461,56.674133,47.239843,70.818633,59.777375,80.610124,67.870915,88.117949,0.0,35.716382,-2.123874,14.355618,8.507538,22.187691,20.883362,32.215268,33.663872,44.762776,0.0,-41.886304,-18.810138,-30.680377,-11.751412,-22.51696,-5.167243,-17.173771,0.249805,-21.140803,25.698434,280.868986,-135.803256,77.085401
43,0.214783,-0.554037,-9.5587,-24.805393,0.0,-62.339333,-35.722847,-96.810505,-29.701012,-99.721619,-21.662315,-86.980144,-12.547623,-63.50425,0.0,25.170888,30.020284,56.973054,47.489426,71.010331,60.054918,80.868253,68.173591,88.364296,0.0,34.829533,-3.748947,13.587387,8.257656,23.173839,22.539905,34.996628,37.489002,50.243053,0.0,-48.460452,-21.064375,-36.277034,-13.630033,-29.632393,-7.182765,-24.613153,-2.355976,-35.419555,24.622204,280.427523,-146.652969,52.392582
44,0.406952,-0.468303,-6.255844,-18.891063,0.0,-62.282547,-35.45002,-96.918194,-29.441986,-99.691475,-21.377564,-87.004726,-12.289146,-63.530754,0.0,25.246248,30.098151,57.304333,47.68247,71.105846,60.297758,81.13746,68.411886,88.518697,0.0,29.959728,-4.429745,13.336796,7.82167,22.922756,22.39706,34.128662,37.680462,50.630996,0.0,-50.430438,-23.829737,-42.847222,-17.738775,-38.186585,-12.314576,-34.168269,-8.27994,-50.90134,23.318974,279.851438,-154.618995,33.393737
45,0.270332,-0.510207,-5.216812,-14.508963,0.0,-62.12669,-35.114044,-96.719902,-29.067283,-99.183048,-20.975486,-86.684669,-11.891372,-63.317665,0.0,25.12728,30.124124,57.452658,47.746963,71.14654,60.437784,81.256626,68.627272,88.628773,0.0,25.649173,-4.824795,12.416954,7.378807,22.348148,21.904792,33.112461,37.000499,49.900966,0.0,-52.961661,-25.639982,-45.902564,-20.152247,-42.261093,-15.15118,-39.333031,-11.539232,-62.057083,21.489818,279.209783,-161.935295,18.753326
46,0.479233,-0.281137,-9.842789,-9.58585,0.0,-61.935436,-34.756279,-96.388756,-28.677429,-98.665478,-20.578033,-86.408729,-11.498657,-63.125622,0.0,24.809191,30.004328,57.222378,47.693425,70.784411,60.428373,81.061445,68.62905,88.374127,0.0,24.850983,-1.763237,13.861954,13.81105,26.874012,30.676002,39.229042,47.181335,57.707474,0.0,-54.50549,-27.880287,-47.791293,-22.772237,-45.552359,-17.797463,-41.876437,-14.096539,-71.409399,20.005823,278.853554,-173.741312,9.092384
47,0.546272,-0.361277,-3.646248,-3.827735,0.0,-62.008472,-34.543052,-96.005596,-28.474891,-98.021015,-20.399185,-86.212841,-11.344184,-63.10136,0.0,24.328007,30.069141,56.834906,47.776084,70.198511,60.491951,80.606851,68.636361,88.26184,0.0,22.84536,-2.564587,14.050919,13.430878,27.192387,30.316532,39.22395,46.485443,55.217674,0.0,-56.376428,-29.861499,-50.599338,-25.597195,-49.181653,-21.062732,-45.580962,-17.528034,-77.614099,18.882774,278.629666,-179.056881,5.402038
48,0.541214,-0.388756,-3.220447,-1.210129,0.0,-61.964023,-34.20211,-95.458957,-28.164894,-97.479526,-20.124389,-86.07677,-11.077537,-62.894725,0.0,23.921369,29.898105,56.344546,47.555067,69.57787,60.204046,80.239967,68.237528,87.947691,0.0,22.530864,-3.396927,12.535526,13.062709,26.110473,30.228733,38.632278,46.48946,52.090187,0.0,-57.245195,-29.031672,-50.615689,-25.492942,-49.310329,-21.919766,-46.147176,-19.265555,-79.805992,18.352169,278.497455,-183.349147,4.448454
49,0.833748,-0.48174,-2.860623,2.859711,0.0,-61.969459,-34.166588,-94.816452,-28.239876,-96.882271,-20.254097,-85.890312,-11.155197,-62.9156,0.0,23.838401,29.791054,55.821051,47.327579,69.169539,59.920353,80.035957,67.949277,87.770122,0.0,23.105061,-4.214584,10.647869,12.446457,24.877773,29.834679,38.228222,46.227516,49.92421,0.0,-58.175236,-28.368436,-47.355175,-25.163608,-46.309123,-22.028595,-44.071066,-19.71025,-79.63511,18.610513,278.30245,-186.785174,7.5949
50,1.042031,-0.449481,1.670139,5.406026,0.0,-62.125431,-34.285332,-93.800995,-28.430146,-95.926289,-20.487282,-85.444737,-11.339264,-62.981301,0.0,23.801042,29.717868,55.874737,47.140388,69.339612,59.641537,80.297482,67.611922,87.543423,0.0,20.988339,-6.472663,7.666581,7.748898,19.654725,22.986283,31.066441,37.633473,39.165974,0.0,-58.860653,-24.566562,-44.987651,-21.36915,-42.93739,-19.018343,-41.176904,-17.788941,-72.36511,19.550738,277.793747,-185.216841,12.941704
51,0.876068,-0.604055,6.175953,7.872838,0.0,-62.354885,-34.434746,-91.941799,-28.68322,-94.313885,-20.777642,-84.567742,-11.535576,-63.184101,0.0,23.822062,29.954384,56.115131,47.200879,69.669137,59.578305,80.632046,67.501599,87.658069,0.0,15.38807,-6.965171,4.845623,0.403885,10.571171,9.367516,17.31712,18.826264,20.172066,0.0,-59.508687,-19.835381,-44.283475,-16.592966,-39.891952,-14.843848,-38.186165,-14.404957,-61.396169,20.494847,276.378662,-178.972847,20.003512
52,0.902641,-0.496572,4.753086,8.202066,0.0,-62.59441,-34.705353,-89.752018,-28.9972,-91.970444,-21.07489,-83.103882,-11.773567,-63.431534,0.0,23.851628,30.064485,55.790942,47.235496,69.366856,59.595953,80.588462,67.576848,87.630813,0.0,10.958817,-7.514225,1.172139,-5.081028,3.016583,-0.755928,6.540242,4.789227,6.087399,0.0,-58.102741,-13.685589,-40.925153,-9.907798,-35.960278,-8.313124,-35.120275,-8.513986,-51.1487,21.585686,274.643272,-174.031563,26.96676
53,0.804016,-0.419569,-0.367378,12.759148,0.0,-62.89349,-35.023544,-87.539211,-29.335304,-89.440544,-21.394981,-81.634941,-12.07196,-63.815231,0.0,23.920578,30.39916,55.634947,47.446139,69.211257,59.78602,80.72183,67.831654,87.962708,0.0,10.23095,-8.130672,-0.929764,-5.62849,1.075711,-1.29126,4.022312,4.238045,3.378193,0.0,-57.796681,-13.231995,-39.987628,-9.113546,-34.96283,-7.437361,-34.681717,-7.709668,-49.930315,22.886867,272.819199,-173.901776,38.321404
54,0.574654,-0.303046,-0.116661,11.156126,0.0,-63.067429,-35.202301,-84.890351,-29.441117,-86.483013,-21.473145,-79.907296,-12.219727,-64.171566,0.0,23.47306,30.911626,54.210612,47.930064,67.731186,60.225374,79.844307,68.184051,87.995498,0.0,10.295059,-8.716999,-2.294529,-5.946373,-0.424484,-1.258758,3.065987,4.389141,1.625565,0.0,-59.893867,-13.006384,-39.825008,-8.733713,-34.651855,-7.143948,-36.738068,-7.732436,-49.048525,24.221014,271.106369,-173.258944,48.067746
55,0.340553,-0.160539,-4.457096,9.794986,0.0,-63.275688,-35.199554,-82.578781,-29.401268,-84.003937,-21.452568,-78.491043,-12.344719,-64.66198,0.0,23.017219,31.233716,52.420468,48.244757,65.657583,60.543278,78.366954,68.471006,88.113441,0.0,10.956905,-7.494724,-1.465759,-1.828354,2.924046,5.458969,8.393063,13.098953,8.693871,0.0,-61.299282,-16.048987,-42.160902,-12.250127,-38.338713,-10.574245,-42.596786,-10.787093,-56.214932,25.448782,269.818154,-176.828825,56.735056
56,0.179695,-0.039854,-8.153881,6.548872,0.0,-63.408829,-35.384056,-80.757259,-29.479385,-81.986091,-21.475616,-77.333153,-12.487633,-65.090549,0.0,22.729326,31.65499,50.090798,48.695708,63.487723,60.967466,77.040543,68.777448,88.155926,0.0,15.241402,-8.432522,0.017624,4.091194,10.124187,17.90815,20.29287,31.014072,24.124615,0.0,-63.100183,-19.951527,-43.623233,-16.095016,-42.885315,-14.047978,-50.141532,-13.806509,-66.041738,26.473274,269.270517,-184.137909,62.776145
57,-0.066513,-0.076644,-5.776463,4.631287,0.0,-63.461346,-35.561073,-78.964531,-29.483276,-80.238956,-21.372826,-76.192806,-12.451218,-65.245022,0.0,22.629636,32.194454,48.528253,49.172557,62.328198,61.372437,76.603547,69.036281,88.57095,0.0,18.479256,-7.964847,1.58424,8.883866,15.098889,26.833065,27.755322,43.396489,32.94928,0.0,-66.337214,-24.648547,-48.941091,-21.572722,-48.466039,-19.966582,-56.716086,-19.776082,-73.551057,27.25383,268.970787,-189.067303,67.184346
58,-0.223778,0.067876,-0.434612,-2.175374,0.0,-63.511734,-35.683662,-76.738197,-29.477234,-78.325332,-21.331329,-74.896648,-12.555221,-65.553314,0.0,22.420685,32.547506,45.988977,49.518075,60.268513,61.691798,75.500438,69.239304,88.751854,0.0,18.053341,-7.897957,1.995884,8.606541,14.898148,26.409176,27.462685,42.86451,32.788502,0.0,-68.105869,-24.427259,-50.236196,-21.687189,-50.030511,-20.297743,-60.21689,-20.240427,-73.334437,27.669239,268.861263,-188.862728,64.831572
59,-0.286445,-0.066888,-0.560062,-2.329899,0.0,-63.709637,-35.91259,-74.870716,-29.542282,-76.762883,-21.279923,-73.653466,-12.498001,-65.664975,0.0,22.500997,32.81733,44.668815,49.742871,59.422816,61.906541,75.359177,69.438251,89.159468,0.0,16.04108,-7.331566,2.004753,9.017681,15.082672,26.483516,26.694694,42.737835,32.528652,0.0,-67.264507,-24.343988,-51.360676,-22.118892,-51.313635,-21.027478,-60.602187,-21.069438,-73.95015,27.854828,268.59959,-188.950756,62.306888
60,-0.208351,-0.043127,0.006477,-2.247276,0.0,-63.919156,-36.154747,-73.318486,-29.711083,-75.614354,-21.373444,-72.729962,-12.552613,-65.913941,0.0,22.58798,33.108224,43.077458,50.029776,58.529103,62.169043,75.213793,69.639311,89.39948,0.0,16.938412,-7.349693,2.233326,8.769928,15.211372,26.048058,26.807602,42.222199,31.962032,0.0,-67.528472,-23.792397,-50.959157,-21.484747,-50.716256,-20.371412,-59.841225,-20.468934,-72.402784,28.047982,268.418932,-188.542774,59.922081
61,-0.278527,0.121957,-0.236607,-0.946196,0.0,-63.992306,-36.263923,-72.601284,-29.797508,-74.918129,-21.400085,-72.060859,-12.512993,-65.642189,0.0,22.486166,33.025565,42.711908,49.947389,58.610033,62.121038,75.702535,69.603335,89.671466,0.0,18.717682,-7.165798,2.047417,9.126927,15.162575,26.487809,27.239045,42.630341,31.897706,0.0,-67.820199,-23.35747,-50.006632,-21.170326,-49.732077,-20.231664,-59.857922,-20.583746,-71.4366,28.260715,268.479139,-188.288121,58.914135
62,-0.238792,0.175038,-0.640457,0.00407,0.0,-64.065193,-36.353554,-72.782856,-29.892929,-75.077271,-21.468498,-72.155708,-12.520798,-65.578606,0.0,22.211228,32.923665,42.548108,49.91061,58.725506,62.1159,75.942521,69.583686,89.576457,0.0,19.279312,-7.663902,2.166722,9.261269,15.790524,27.255936,28.910557,43.811657,33.735592,0.0,-67.771392,-23.775731,-47.730241,-21.354744,-48.564384,-20.163282,-59.426454,-20.393024,-72.190579,28.501408,268.624104,-188.449093,58.888132
63,-0.130051,0.108149,-0.359195,0.375455,0.0,-64.144111,-36.464012,-73.753898,-29.965622,-75.763927,-21.470283,-72.678371,-12.408554,-65.401771,0.0,21.937217,32.892345,43.239195,49.918947,59.513294,62.121199,76.360683,69.599038,89.459675,0.0,21.329509,-7.606991,2.070259,9.821376,15.936218,28.218475,29.803836,44.898582,34.056827,0.0,-67.976774,-23.919368,-46.751892,-21.426202,-47.97292,-20.188063,-59.798717,-20.503533,-71.336404,28.773039,268.73577,-188.406606,59.267104
64,-0.31192,0.153463,-0.073414,-0.123742,0.0,-64.150749,-36.528282,-75.197067,-30.028313,-76.958244,-21.488594,-73.624695,-12.3116,-65.035309,0.0,21.770144,32.698955,44.58187,49.788171,60.866837,62.013888,77.119496,69.526221,89.446126,0.0,23.9263,-7.933571,2.043285,9.626117,15.970756,28.268841,30.277393,45.067772,34.271164,0.0,-69.108573,-23.801801,-45.380773,-20.859579,-46.722196,-19.359983,-58.910214,-19.629048,-70.583203,28.786205,268.908839,-188.154934,59.162968
65,-0.463005,0.098368,-0.239949,0.391899,0.0,-64.006176,-36.49807,-76.76239,-29.976814,-78.14542,-21.372734,-74.460709,-12.059303,-64.494289,0.0,21.750829,32.662967,46.422502,49.798348,62.513116,62.007615,78.120446,69.499076,89.471049,0.0,24.792367,-8.385383,1.847168,9.335656,15.753068,28.234417,30.342785,45.212025,34.74479,0.0,-69.111481,-24.272661,-45.242014,-21.255523,-47.036697,-19.665518,-59.597342,-19.894396,-71.824047,28.578793,269.006772,-188.13929,59.554432
66,-0.499924,0.075397,0.00895,0.105871,0.0,-64.151436,-36.450393,-78.249996,-29.899223,-79.395435,-21.284683,-75.520214,-11.940353,-64.621422,0.0,21.726031,32.631166,47.546484,49.803362,63.137252,61.975492,78.23135,69.406204,89.38902,0.0,24.838188,-8.447216,1.71326,9.200111,15.88829,28.080356,30.010975,45.066124,34.522671,0.0,-68.98472,-24.513005,-45.76457,-21.394943,-47.496305,-19.697041,-59.238628,-19.831546,-72.513614,28.253843,269.084815,-187.955366,59.662949
67,-0.611091,0.100184,0.175438,-0.05108,0.0,-64.221222,-36.451447,-79.619328,-29.921082,-80.558831,-21.333344,-76.452279,-11.97654,-64.747673,0.0,21.94827,32.380656,48.772501,49.61858,63.879887,61.813645,78.516822,69.264363,89.293566,0.0,26.035366,-8.674656,1.733219,8.881462,15.826652,27.772224,29.670799,44.862373,34.407543,0.0,-69.181543,-24.73543,-46.207259,-21.590358,-47.590135,-19.865997,-59.359541,-19.942771,-73.002035,27.769822,269.197268,-187.652858,59.624138
68,-0.689873,0.132183,-0.202858,0.155018,0.0,-64.0494,-36.294708,-81.334259,-29.753105,-81.953945,-21.120644,-77.271206,-11.623879,-64.167984,0.0,22.562958,32.019058,51.295055,49.226144,65.713319,61.398929,79.499296,68.839952,89.16368,0.0,25.09893,-8.483162,1.945747,8.994701,16.088184,27.819374,29.966423,44.914879,34.732212,0.0,-68.486375,-24.991398,-46.740758,-21.942743,-47.950034,-20.248022,-59.325306,-20.292352,-73.674688,27.17498,269.362917,-187.760685,59.812622
69,-0.562798,0.141174,-0.065243,0.058231,0.0,-63.972622,-36.110572,-82.748485,-29.66217,-83.088707,-21.079994,-77.927135,-11.581443,-64.00058,0.0,22.935251,31.659485,53.183765,48.792026,67.028405,60.96118,80.158395,68.435166,89.088394,0.0,23.756847,-8.478401,2.166756,8.920349,16.424171,27.676334,30.226444,44.793514,34.961895,0.0,-68.036351,-25.282897,-47.008156,-22.409132,-48.233574,-20.783145,-58.869607,-20.793556,-74.530722,26.695186,269.543457,-187.742924,59.910219
70,-0.479782,0.178199,-0.063103,0.13456,0.0,-63.926651,-36.029091,-84.121433,-29.598747,-84.367103,-21.010505,-78.707062,-11.501381,-63.903259,0.0,23.197654,31.221811,54.662033,48.332109,68.16055,60.534312,80.71778,68.071407,89.076476,0.0,21.507397,-8.243889,2.498726,9.100994,16.873535,27.711148,30.063217,44.77303,35.617012,0.0,-67.710315,-25.629817,-47.482707,-22.860984,-48.601001,-21.284718,-57.584797,-21.262834,-75.935327,26.309,269.806652,-187.712431,60.129775
71,-0.397407,0.034815,-0.126365,0.066857,0.0,-63.760369,-35.874985,-85.129315,-29.488976,-85.395916,-20.919594,-79.17334,-11.415985,-63.656147,0.0,23.603552,30.914887,56.049824,48.03714,69.506091,60.293251,81.621608,67.95308,89.169707,0.0,20.666473,-8.019631,2.635448,9.358474,16.944728,27.927635,30.286022,44.932285,36.056247,0.0,-67.278815,-25.72971,-47.664099,-23.107961,-49.201104,-21.61546,-58.400155,-21.638937,-76.22259,26.016381,269.935877,-187.734008,60.291042
72,-0.387154,0.022625,-0.332634,-0.107124,0.0,-63.518703,-35.529098,-85.893368,-29.173782,-86.180271,-20.59893,-79.418896,-11.072365,-63.196438,0.0,23.918825,30.693611,57.097099,47.788323,70.714362,60.070134,82.422968,67.830383,89.30042,0.0,19.619293,-7.731961,2.697864,9.732112,17.162372,28.28524,30.671791,45.231021,36.608677,0.0,-66.660978,-25.634541,-47.464664,-23.030144,-49.753375,-21.506619,-59.397308,-21.477201,-76.41511,25.775333,270.052067,-187.920536,60.277483
73,-0.252113,-0.081522,-0.05991,-0.270739,0.0,-63.592015,-35.341164,-86.23486,-29.042061,-86.593529,-20.473618,-79.607071,-10.970101,-63.417115,0.0,23.982834,30.829127,56.941104,48.049699,70.745248,60.383825,82.626089,68.18478,89.460884,0.0,18.719204,-7.501271,2.88755,9.843773,17.399082,28.245518,30.275345,45.123344,36.670269,0.0,-66.437694,-25.362184,-47.946379,-22.854574,-50.342128,-21.380598,-59.104666,-21.297587,-76.896824,25.682974,270.057106,-187.820692,60.093305
74,-0.310227,-0.087032,-0.057301,-0.138913,0.0,-63.559089,-35.262703,-86.885238,-28.900863,-87.098293,-20.270942,-79.909595,-10.723228,-63.473522,0.0,24.202827,31.050232,57.036979,48.389241,70.921003,60.767247,82.838993,68.590197,89.729252,0.0,18.005676,-7.125744,2.900585,10.077942,17.19302,28.304295,29.884712,45.08289,36.723656,0.0,-65.860742,-25.004644,-48.404049,-22.639424,-50.923639,-21.257987,-60.472414,-21.187258,-76.724257,25.572544,270.098447,-187.678196,60.082765
75,-0.336479,-0.092403,-0.102768,-0.4191,0.0,-63.540436,-35.130867,-87.257881,-28.722336,-87.310581,-20.070053,-80.062912,-10.510322,-63.520946,0.0,24.406678,31.330331,57.200111,48.707441,71.086939,61.06975,83.067531,68.867592,89.989999,0.0,17.256306,-6.748398,2.860703,10.35117,17.148869,28.429425,29.848286,45.061215,36.984753,0.0,-65.509876,-24.650901,-48.313955,-22.399098,-50.971983,-21.117598,-60.866622,-21.071921,-76.733742,25.460724,270.136856,-187.556305,59.794477
76,-0.246254,-0.101456,-0.013824,-0.562466,0.0,-63.653789,-35.077881,-87.667293,-28.564361,-87.503906,-19.862388,-80.249634,-10.295586,-63.623199,0.0,24.654556,31.59035,57.409235,48.964681,71.104389,61.309897,83.029592,69.066539,90.138435,0.0,15.638214,-6.35519,2.956615,10.652344,17.211387,28.53836,29.481537,45.043178,37.457817,0.0,-65.262671,-24.468731,-48.088041,-22.379455,-50.625069,-21.203814,-59.282545,-21.129664,-77.161271,25.486141,270.184843,-187.298458,59.381454
77,-0.10231,-0.055266,0.011135,-0.776821,0.0,-63.900742,-35.161079,-88.115124,-28.502152,-87.738476,-19.727051,-80.541905,-10.172722,-63.938152,0.0,24.763335,31.862903,57.732955,49.265997,71.118134,61.603026,82.91313,69.313207,90.318054,0.0,14.778625,-5.942276,3.20937,10.914905,17.295834,28.648098,29.643745,45.095856,38.041809,0.0,-65.493907,-24.46463,-47.598495,-22.371087,-50.15784,-21.157031,-58.444375,-20.986606,-77.269223,25.656681,270.305235,-187.014473,58.780291
78,-0.15683,-0.107903,0.351047,-0.615139,0.0,-64.064163,-35.186005,-88.451855,-28.45459,-87.92165,-19.695808,-80.838112,-10.231773,-64.109836,0.0,24.885354,31.900905,57.874598,49.268406,71.088606,61.605508,82.765189,69.319395,90.540455,0.0,13.549233,-5.40216,3.112313,11.38733,17.253102,28.887166,29.301728,45.064648,38.578595,0.0,-65.404301,-24.658644,-47.437833,-22.782147,-50.140748,-21.648638,-57.776174,-21.449956,-77.670001,25.820921,270.394291,-186.342356,58.362111
79,-0.0065,0.048845,0.294732,-1.214161,0.0,-64.256928,-35.148262,-88.412441,-28.437859,-87.979878,-19.75264,-80.973484,-10.395859,-64.287438,0.0,24.736103,31.822296,57.719369,49.178126,70.89624,61.512191,82.60134,69.231993,90.48084,0.0,13.143482,-5.166596,3.245246,11.741878,17.484729,29.280281,29.688354,45.408245,39.369747,0.0,-65.889227,-25.170697,-46.912226,-23.096494,-49.987854,-21.692395,-56.703755,-21.218152,-77.963965,26.185381,270.688529,-185.676664,57.393343
80,-0.109429,0.102061,0.828495,-1.235218,0.0,-64.188148,-35.153846,-88.390583,-28.475784,-88.026489,-19.830001,-81.092994,-10.534652,-64.361331,0.0,24.57365,31.761163,57.420065,49.058442,70.673433,61.382564,82.408716,69.130277,90.369146,0.0,12.043407,-5.155861,3.28046,11.89619,17.601482,29.464141,29.792129,45.583866,39.832935,0.0,-65.588423,-25.452236,-47.565311,-23.601631,-50.392023,-22.203528,-56.744312,-21.587018,-78.580592,26.526884,271.041025,-184.397237,56.40856
81,-0.218856,0.271195,0.729412,-2.07892,0.0,-64.080609,-35.007958,-88.348973,-28.365189,-88.032658,-19.769326,-81.062039,-10.55317,-64.175732,0.0,24.389412,31.718346,57.210299,49.001941,70.468792,61.277861,82.263874,68.967887,90.102323,0.0,11.071037,-4.714989,3.594429,12.490104,17.676315,30.083965,29.993271,46.073513,40.807926,0.0,-66.018051,-25.455898,-47.506439,-23.555022,-50.565357,-22.011546,-57.205743,-21.127083,-78.890116,26.763377,271.536726,-183.212476,54.554146
82,-0.074822,0.464684,0.980152,-2.392162,0.0,-64.044319,-34.977699,-88.654369,-28.410713,-88.36314,-19.918693,-81.256817,-10.865478,-64.200348,0.0,24.21083,31.361355,56.624276,48.659337,70.109479,60.975692,82.099161,68.721021,89.834549,0.0,9.794941,-4.07119,4.146904,13.26852,18.156326,30.79446,29.925556,46.582203,41.542534,0.0,-65.889073,-25.752991,-48.04873,-23.887708,-50.682799,-22.185392,-55.755497,-20.962987,-79.288017,27.135898,272.218809,-181.784981,52.379383
83,0.063629,0.665114,0.990417,-3.088756,0.0,-63.95343,-35.161079,-88.826774,-28.576744,-88.709037,-20.071838,-81.264988,-11.031875,-63.948829,0.0,24.005781,31.102781,56.356316,48.395996,70.23025,60.695715,82.333763,68.412997,89.397319,0.0,9.506115,-3.72948,4.954113,13.855809,18.65744,31.555802,31.015435,47.405091,43.214505,0.0,-65.970188,-25.948424,-47.677857,-23.717011,-50.495887,-21.612026,-56.430502,-19.938794,-79.158063,27.588072,273.094093,-180.406019,49.500797
84,0.067452,0.629842,1.294453,-2.685105,0.0,-63.837193,-35.165657,-89.176701,-28.534996,-89.101055,-20.050873,-81.314873,-11.147049,-63.768105,0.0,23.992604,30.910008,55.89793,48.217154,69.895513,60.458297,82.150377,68.048163,88.722695,0.0,9.058605,-2.929207,5.9347,14.753529,19.510506,32.381733,32.006206,48.109234,45.108158,0.0,-65.704285,-25.977565,-47.618225,-23.733734,-49.994881,-21.530208,-55.320212,-19.700592,-79.364273,27.99313,273.857591,-178.77396,46.949348
85,0.330505,0.486741,1.182861,-2.442439,0.0,-64.117859,-35.056434,-89.793697,-28.350265,-89.835377,-19.838928,-81.612373,-11.070717,-63.846119,0.0,24.127936,30.694006,55.609396,48.081514,69.595308,60.306058,82.117612,67.73919,88.225864,0.0,10.393742,-1.820011,7.319916,15.917759,20.723133,33.445233,33.690972,49.002835,47.673489,0.0,-65.795002,-26.319934,-46.626859,-23.637088,-49.042893,-20.96445,-53.780972,-18.741553,-78.775247,28.619968,274.459188,-177.294766,44.621765
86,0.83535,0.509404,1.713215,-1.266637,0.0,-64.515816,-35.096878,-90.843384,-28.465462,-91.129326,-20.045814,-82.541702,-11.446312,-64.26955,0.0,24.07015,30.39937,55.040958,47.856495,69.213345,60.132638,81.948972,67.571413,87.802318,0.0,12.480835,-1.05257,8.582462,16.756142,22.376209,34.181271,35.856148,49.679226,50.045128,0.0,-64.568132,-27.089918,-46.557371,-24.098567,-47.869926,-20.983839,-50.225827,-18.443736,-78.689291,29.693716,275.112059,-175.343153,43.498595
87,0.635514,0.192328,1.942715,-0.026781,0.0,-64.910889,-34.818604,-91.720791,-28.139374,-92.077927,-19.736573,-83.160851,-11.216698,-64.23927,0.0,24.131221,30.4957,55.14728,47.968609,69.245158,60.15183,82.061629,67.400019,87.545584,0.0,15.925072,-0.101223,10.196915,17.646458,24.028931,35.000324,38.448418,50.461338,53.712913,0.0,-64.183749,-27.384727,-46.334317,-24.064679,-46.479411,-20.74833,-47.370396,-18.12109,-78.863044,30.455458,275.534226,-173.27421,43.701653
88,0.520477,-0.079288,2.66597,1.376991,0.0,-65.229355,-34.279083,-92.96529,-27.584885,-93.294937,-19.306297,-84.101681,-11.029129,-64.56966,0.0,24.112524,30.646322,55.059891,48.178573,68.824379,60.307515,81.653521,67.426053,87.349713,0.0,20.752876,1.037533,11.70663,18.68462,25.609256,35.965072,40.396534,51.382621,57.63216,0.0,-63.983801,-27.793193,-46.273042,-23.97075,-44.675707,-20.29179,-42.279908,-17.580046,-78.914723,31.127752,275.659239,-170.456423,45.282945
89,0.623405,-0.203319,3.662018,2.338445,0.0,-65.617492,-33.902916,-94.192932,-27.272667,-94.589699,-19.168739,-85.139488,-11.102325,-64.877357,0.0,23.895372,30.639702,54.98989,48.235507,68.582638,60.385802,81.311609,67.531819,87.270338,0.0,25.576663,2.204784,13.232162,19.815238,26.986072,37.125743,42.163295,52.536701,62.360939,0.0,-63.136104,-27.748881,-45.757092,-23.22851,-42.855193,-19.012618,-38.898221,-15.970305,-77.429768,31.964189,275.67158,-166.581373,47.83705
90,0.565819,-0.212335,4.352737,3.840622,0.0,-65.987846,-33.699829,-95.530575,-27.218239,-96.060516,-19.386955,-86.269718,-11.513031,-65.241795,0.0,23.122195,30.475212,54.547177,48.144697,67.996577,60.350172,80.518598,67.611761,87.024522,0.0,31.621376,3.866489,15.012634,21.481647,28.456329,38.88279,43.980205,54.253681,67.472156,0.0,-61.514124,-27.418016,-44.786697,-21.963787,-40.644751,-16.939268,-34.961348,-13.235459,-73.997772,32.773573,275.751781,-161.985071,51.970208
91,0.062393,-0.558569,5.773922,5.617534,0.0,-66.006088,-33.395599,-96.52613,-26.971321,-97.263691,-19.302749,-87.121891,-11.520309,-65.59901,0.0,22.354032,30.334964,54.222728,48.141806,67.403131,60.410835,79.961287,67.697964,87.035538,0.0,35.848595,5.557136,16.872173,22.997497,29.813164,40.308964,45.02211,55.553959,72.928974,0.0,-60.180204,-26.253916,-43.439043,-19.763441,-38.137974,-13.918438,-31.61973,-9.533837,-69.051898,33.105325,275.511635,-155.94179,57.906165
92,0.101738,-0.794642,7.49303,6.449485,0.0,-66.030155,-33.414825,-97.492824,-27.198944,-98.646171,-19.729271,-88.075115,-12.016708,-66.353954,0.0,21.400211,30.179143,53.257878,48.147179,66.460536,60.565953,79.260779,67.983128,86.939825,0.0,36.688099,7.13126,18.046017,24.183094,30.474347,41.113667,44.888844,55.969414,78.036187,0.0,-56.292256,-23.459753,-40.572281,-16.008906,-34.74461,-9.272096,-28.320344,-4.060874,-60.896719,33.59658,274.966927,-148.059243,64.605584
93,-0.047928,-0.704807,9.341526,7.301826,0.0,-66.200626,-33.438766,-98.28099,-27.535286,-99.864292,-20.315414,-89.018074,-12.697654,-67.115764,0.0,20.145022,29.647682,51.88156,47.80854,65.275867,60.432646,78.461259,68.006927,86.781362,0.0,35.459324,8.671509,19.504887,24.474095,30.88416,39.922337,43.851105,53.332043,75.200158,0.0,-48.318809,-21.123075,-34.130589,-13.988865,-28.40745,-7.060864,-22.579057,-1.240721,-45.997104,33.883232,274.577758,-138.383137,72.223048
94,0.026757,-0.935284,11.414406,15.357395,0.0,-66.275929,-33.653801,-99.195603,-28.030861,-101.035172,-20.949852,-89.804856,-13.31115,-67.830815,0.0,18.94431,29.086803,50.458497,47.419463,64.208758,60.256447,77.952424,67.993502,86.682536,0.0,34.441487,11.769299,23.90466,23.985913,31.462624,36.064019,43.356686,46.627259,73.962067,0.0,-47.589178,-18.239849,-36.972676,-12.057472,-33.176718,-6.086738,-27.716611,-0.76376,-38.968993,34.100367,273.947922,-126.778353,87.885891
95,-0.429772,-1.140332,8.348683,14.0312,0.0,-66.012314,-33.711342,-99.520374,-28.320144,-101.631454,-21.313041,-89.918827,-13.59732,-67.906173,0.0,18.229598,28.682127,49.526411,47.184613,63.597996,60.201563,77.727281,68.034504,86.578857,0.0,35.557914,15.816433,32.558876,25.626766,38.879162,35.121437,49.800235,43.442379,78.193348,0.0,-45.884681,-14.781424,-40.81617,-6.734154,-36.671593,0.552234,-28.882619,6.891884,-25.572056,33.690994,272.999594,-118.409271,102.109095
96,-0.166008,-1.121005,10.68956,21.388071,0.0,-66.011913,-34.131019,-99.923069,-28.927185,-102.139034,-21.9356,-90.058056,-14.143135,-68.157165,0.0,18.027774,28.428618,48.707564,47.02305,63.162236,60.142271,77.5126,68.068035,86.273081,0.0,39.263082,19.717163,42.0844,25.951212,45.992368,31.693542,54.340198,36.491827,75.244743,0.0,-43.139264,-11.163678,-41.663738,-5.495719,-41.780663,-0.283953,-33.55297,4.684164,-19.095111,33.526159,272.006903,-107.718538,123.62548
97,-0.024101,-0.590359,12.670749,29.247403,0.0,-65.971607,-34.414627,-100.114346,-29.436974,-102.527687,-22.581986,-90.158924,-14.901833,-68.317566,0.0,17.806843,28.056263,48.024988,46.680632,62.575793,59.834235,76.928553,67.865963,85.596643,0.0,46.315218,23.396622,52.822174,25.18661,53.384623,26.175122,57.471588,26.354845,65.002865,0.0,-41.182276,-8.487569,-40.655638,-9.229433,-49.224594,-9.340602,-41.896241,-8.136,-21.237659,33.571295,271.388315,-94.978552,152.844654
98,-0.254379,-0.205406,6.399777,21.494318,0.0,-65.868656,-34.495812,-99.880383,-29.682724,-102.489636,-22.9338,-89.755612,-15.3498,-68.31284,0.0,17.61701,27.983162,47.546977,46.564751,62.40567,59.635547,76.612007,67.620702,84.869112,0.0,52.776506,29.701492,68.993797,29.278158,68.895601,27.883438,70.517875,25.650587,72.558117,0.0,-38.881116,-3.460629,-39.267754,-1.676017,-46.061707,-0.290017,-34.926873,1.655609,-11.811489,33.471794,271.041154,-88.423897,174.197217
99,0.051269,1.105246,4.438545,16.791617,0.0,-62.521339,-35.125305,-99.749553,-30.945076,-102.920814,-24.520729,-90.262676,-16.94577,-68.787632,0.0,14.95737,26.544711,46.1838,44.678078,61.207342,57.725409,74.858592,66.045165,83.115647,0.0,59.280561,32.420803,81.927338,31.278231,84.094545,28.8013,82.233559,25.26919,75.692791,0.0,-28.716906,1.355001,-25.764662,5.620794,-29.464253,9.068937,-15.453905,12.305183,5.913182,33.734499,271.935316,-83.773916,190.77775
100,0.4636,2.170749,14.979778,30.383611,0.0,-60.796348,-34.340446,-98.856479,-31.092224,-103.533382,-25.734466,-91.359867,-18.857208,-69.846073,0.0,8.639661,25.753343,43.128402,43.083806,58.713058,55.568047,72.013182,63.834155,80.743283,0.0,62.630568,35.307976,97.523381,30.575827,86.59952,24.193451,66.899277,17.131583,54.639759,0.0,-22.343671,5.804588,-15.757131,5.180958,-19.011093,3.896179,-4.988075,2.638416,6.823173,34.402994,273.893767,-68.589243,220.949063
101,-1.887954,1.938555,7.320339,14.658905,0.0,-57.658116,-34.018914,-93.577767,-30.807015,-96.032696,-25.557656,-86.717835,-18.49807,-68.566178,0.0,5.949048,25.144744,38.731551,41.508232,52.81908,53.38559,66.350966,61.373167,77.780362,0.0,63.174294,35.327443,100.679741,30.964783,89.398751,25.209492,69.143658,18.63406,54.513943,0.0,-11.565346,11.497729,-1.557308,16.120859,-0.28441,18.461385,15.136409,19.234389,24.564981,32.658589,275.613367,-61.125355,235.389013
102,-5.084999,9.828801,2.099648,6.779887,0.0,-56.432705,-32.47704,-84.120289,-29.951088,-85.423039,-25.890393,-78.461094,-20.344048,-63.42833,0.0,9.832123,23.037041,32.372481,31.524969,40.611739,36.290433,46.274351,38.107414,51.504475,0.0,63.139938,35.792542,105.393723,31.756725,94.853416,26.467518,74.703152,20.556473,60.810139,0.0,-1.516022,17.245964,11.676336,30.149626,23.206842,38.607098,41.106656,43.254434,49.414186,27.583569,285.316824,-59.015728,242.043556
103,-6.769272,6.537183,5.267578,14.510754,0.0,-51.193234,-32.642395,-58.24268,-31.165993,-55.560219,-27.589257,-52.672039,-21.958168,-54.750813,0.0,15.606466,20.769837,27.851893,24.391153,31.61505,25.228612,33.620617,24.366317,39.787766,0.0,64.619511,33.926239,103.939613,28.804859,93.029572,22.609188,71.925648,16.059849,56.577015,0.0,4.124384,20.495616,20.913913,33.568759,32.584087,41.817626,48.347065,46.183454,55.880257,20.721812,291.720296,-53.840635,256.420599
104,-5.996155,7.770869,4.89893,10.94631,0.0,-51.600414,-31.050453,-37.087738,-28.92881,-30.295498,-25.259571,-28.342632,-19.877747,-39.699577,0.0,22.465356,18.957241,24.385485,16.49235,24.082698,11.666049,20.942257,5.902796,21.715323,0.0,64.944019,33.794357,102.241527,28.191627,90.469745,21.429085,68.72406,14.381321,53.082,0.0,8.80919,23.46449,27.653699,37.075664,39.673578,45.510424,54.079171,49.980759,61.172107,14.707151,299.376464,-48.960211,267.252208
105,-11.355503,2.314122,-2.7621,-2.890673,0.0,-44.247711,-24.143257,-8.931473,-20.917912,0.09486,-17.520905,-1.062138,-13.636528,-24.257012,0.0,34.714439,19.219741,25.151128,14.453622,21.928473,7.353091,15.628881,-0.331131,14.460254,0.0,64.52148,31.744377,93.127155,27.031139,92.987949,21.464813,84.530673,15.438411,66.401538,0.0,15.954504,26.58685,39.953048,45.115037,52.538004,57.880687,65.442395,66.173174,75.620469,3.519802,301.542227,-51.554157,264.213176
106,-9.763836,6.771303,0.992912,3.890264,0.0,-39.244457,-17.086132,14.657444,-13.266872,25.40419,-10.321369,25.797695,-7.855328,-2.599617,0.0,42.193846,17.476639,26.414109,7.135964,20.356801,-5.155456,8.338479,-17.288708,-0.714267,0.0,64.893802,32.277683,95.245136,25.734352,94.997577,18.100811,84.354046,10.385708,64.658489,0.0,16.919107,27.634594,44.726157,45.011036,58.378345,56.958765,69.9749,64.700711,77.965638,-5.986959,308.159321,-50.30417,267.949231
107,-8.425221,-0.539674,1.842716,2.412934,0.0,-30.586669,-10.08736,34.570988,-5.133602,49.913601,-1.339622,51.265744,1.707036,18.85952,0.0,42.594829,16.645589,29.042096,7.101334,24.133333,-4.361012,14.295183,-15.584717,5.681668,0.0,64.289017,32.247906,94.404419,25.219116,94.306938,17.009525,82.949158,8.729977,62.92923,0.0,17.464005,27.711288,47.298531,44.945754,60.723874,56.888667,71.727402,64.575247,78.664073,-14.106589,307.478584,-48.155863,270.221102
108,-5.397434,-0.263724,1.943127,0.767731,0.0,-26.057602,-1.993824,38.110657,4.353379,53.332283,7.76104,55.921166,9.32452,30.863034,0.0,42.183374,17.100715,31.08349,7.229022,26.889217,-4.870983,16.39119,-16.938669,3.597715,0.0,63.03693,31.769714,93.893772,24.238815,93.147754,15.482437,80.97298,6.779766,60.723003,0.0,18.076396,28.312144,49.808154,45.717276,63.321935,57.752604,73.609961,65.282079,78.623947,-19.124977,307.123229,-45.83369,270.897202
109,-5.987434,-0.223425,0.570934,-0.070235,0.0,-22.534184,3.940407,45.530868,10.75201,60.951324,14.045723,63.317802,15.034756,38.76131,0.0,41.892455,17.373614,32.006436,7.2391,27.265203,-5.161976,16.931728,-17.567004,4.096226,0.0,62.892654,31.457428,93.962494,23.528149,92.926186,14.36039,80.000771,5.341564,59.015327,0.0,18.913311,28.811371,51.448541,46.427023,65.231456,58.440997,74.53644,65.686556,78.132055,-24.754188,306.838239,-44.904533,270.765402
110,0.745834,3.140651,-0.379898,-0.182682,0.0,-26.755874,2.098938,43.628929,9.203327,61.870583,13.224404,65.720261,15.121788,41.271149,0.0,40.267752,15.644355,30.72761,2.802937,24.958627,-11.859994,13.426713,-26.332871,-1.658394,0.0,62.990066,31.236946,93.918846,23.240913,93.065323,14.013851,79.927139,4.926533,58.327309,0.0,19.098031,28.912753,51.874261,46.67726,66.03978,58.736448,74.760544,65.843612,77.081174,-23.679657,309.976497,-44.955734,270.580327
111,2.332192,-2.125128,-0.679745,-0.565288,0.0,-28.721398,-0.068699,42.708046,6.126079,59.424637,9.381786,61.286842,10.651233,30.092857,0.0,39.624103,15.941906,31.101027,4.721288,26.456445,-8.380865,16.34379,-21.273919,4.38213,0.0,63.293118,31.228958,93.785671,23.200962,93.397351,13.981762,80.199314,4.894913,58.13007,0.0,19.782781,29.164756,52.2623,47.029262,66.428573,59.136208,74.928369,66.18829,76.731494,-21.003118,307.869576,-45.291132,270.033246
112,3.821537,-4.445635,-0.604934,-0.506625,0.0,-31.127861,-3.05214,41.97694,2.267543,55.033733,4.3568,54.190715,4.497951,13.411537,0.0,39.132521,17.312271,32.590089,9.708943,30.309288,-0.074372,22.75762,-9.710956,15.938757,0.0,63.476223,31.288753,93.931056,23.231575,93.847148,14.072513,80.500019,5.077365,58.17699,0.0,20.265867,29.55119,52.342884,47.497231,66.376345,59.585294,74.82448,66.502167,76.395337,-16.79108,303.457956,-45.505565,269.560636
113,2.896694,0.961664,-0.430241,-0.447123,0.0,-35.023155,-6.426647,39.887169,-1.622395,52.439049,0.485081,51.737823,0.823757,6.787639,0.0,37.275154,16.125527,31.893915,8.174655,29.504903,-1.797715,22.046997,-11.518675,15.687927,0.0,63.940498,31.213737,94.072037,23.102623,94.176384,13.964596,80.799385,5.039005,58.184395,0.0,20.702097,29.991521,52.600236,47.953085,66.389078,59.95634,74.893148,66.707278,76.399487,-13.475201,304.460641,-45.516621,269.154534
114,0.296436,-2.031342,-0.067932,-0.126959,0.0,-34.047867,-7.082348,40.824703,-2.747211,52.855786,-1.095566,51.272106,-1.236831,1.622177,0.0,37.612757,17.194267,33.327142,10.318679,31.692646,1.197674,24.858469,-7.622236,20.795983,0.0,64.07904,31.063808,93.842926,22.973179,94.14759,13.932632,81.084846,5.108928,58.411377,0.0,20.773358,30.139104,52.606201,48.177635,66.277224,60.179062,75.014166,66.835485,76.451419,-12.777289,302.467109,-45.183077,269.065385
115,-0.552337,-0.986759,-0.190876,-0.060812,0.0,-32.497834,-7.05304,42.620647,-3.109578,54.580524,-1.709462,52.521457,-2.099019,0.2994,0.0,37.57956,17.04551,33.989897,10.71403,32.393007,2.101293,25.762778,-6.056826,22.832437,0.0,64.488796,30.931766,93.820827,22.780861,94.231395,13.759723,81.143932,5.022892,58.117962,0.0,20.625898,30.107834,52.536201,48.306631,66.153167,60.371143,75.045387,66.97178,76.461411,-12.983001,301.502895,-45.027328,269.027118
116,-1.634984,0.290289,-0.216969,-0.0061,0.0,-31.287963,-6.149574,44.053574,-2.017765,57.087891,-0.261234,55.675232,-0.28466,5.152852,0.0,37.290814,16.360512,33.990687,9.639746,31.949614,0.703288,24.975226,-7.69462,21.547954,0.0,64.910843,30.988804,93.860825,22.776993,94.304238,13.69083,81.145432,4.909733,57.810951,0.0,20.452798,30.029966,52.449108,48.325427,66.12586,60.425062,75.017352,66.987958,76.494669,-14.318264,301.807948,-44.944576,269.035782
117,-0.896198,3.036169,-0.225551,-0.007596,0.0,-32.769481,-6.261703,43.80399,-1.474972,58.580212,1.324047,59.194622,2.433369,13.247051,0.0,37.74032,15.077647,32.736499,5.496873,29.049666,-5.94859,20.408215,-16.744427,14.071782,0.0,65.207553,31.07492,93.970058,22.767517,94.402576,13.556968,81.020679,4.671695,57.03622,0.0,20.30545,29.98374,52.415281,48.377113,66.134148,60.512835,74.956207,67.040644,76.599262,-14.967276,304.845899,-44.922941,269.029968
118,-0.214931,1.273367,-0.189354,0.022008,0.0,-33.375126,-6.585995,43.010238,-1.369755,58.974128,2.030033,60.713722,3.705368,17.789634,0.0,38.588994,14.469061,31.76629,3.681177,27.798455,-8.707647,18.459063,-20.436002,10.510069,0.0,65.365047,31.170856,94.151767,22.781192,94.328167,13.510803,80.834255,4.586322,56.359256,0.0,20.234807,29.883223,52.298499,48.349264,66.16217,60.516775,74.97635,67.000729,76.785958,-14.998129,306.111004,-44.928217,269.043714
119,0.197605,2.339106,-0.164589,0.013462,0.0,-33.617466,-7.110352,42.26627,-1.807297,59.273014,1.981178,62.078029,4.135792,23.396931,0.0,38.805651,12.700244,30.078317,0.454594,25.365735,-12.987038,15.400899,-25.75559,5.000338,0.0,65.449894,31.282722,94.316128,22.814197,94.230137,13.448696,80.533687,4.43256,55.783024,0.0,20.367595,29.804775,52.160116,48.318005,66.147547,60.511933,75.018451,66.98534,76.890575,-14.663097,308.446547,-44.955379,269.053613
120,-0.092686,3.12073,0.119888,0.016178,0.0,-33.142227,-8.049373,41.226769,-2.788479,59.92923,1.468907,64.032211,4.322914,31.183937,0.0,38.56827,10.780387,28.181628,-3.743767,22.472519,-19.049224,11.702296,-33.603969,-1.904086,0.0,65.313252,31.325913,94.238995,22.767723,93.888233,13.27351,80.109158,4.129452,55.247417,0.0,20.550735,29.755029,52.050966,48.246042,66.26764,60.386901,75.049673,66.799916,77.074518,-14.646521,311.569867,-44.726229,269.072381
121,2.13184,3.162819,-0.004234,-0.166751,0.0,-36.276661,-10.687386,37.793346,-5.351109,58.162022,-0.472149,63.564548,3.14225,35.168758,0.0,37.706271,9.56793,25.49446,-7.170174,19.424901,-24.415471,7.612875,-40.886232,-9.053549,0.0,65.099453,31.402908,94.346637,22.824623,93.757129,13.357258,80.115223,4.219219,55.513607,0.0,20.955608,29.641149,51.89023,48.147044,66.371887,60.328338,75.310828,66.797545,77.400029,-12.432197,314.737104,-44.647979,268.910048
122,0.259964,1.424706,0.156475,-0.05392,0.0,-36.391537,-11.224674,35.98328,-5.962418,58.169643,-0.891598,64.208668,2.914123,38.932377,0.0,36.956732,8.751552,24.335244,-8.907683,18.111716,-26.994909,5.697735,-44.270946,-12.82955,0.0,64.766258,31.467602,94.265968,22.942188,93.513016,13.516273,80.113128,4.387939,56.241073,0.0,21.111675,29.375696,51.841435,47.862707,66.386435,60.106381,75.385273,66.696114,77.406056,-12.113016,316.173182,-44.432287,268.8675
123,0.705185,0.987018,0.098247,-0.051981,0.0,-36.986641,-12.363236,34.955005,-7.165226,58.121074,-1.878983,64.485523,2.197815,41.103847,0.0,35.938159,7.966026,23.029804,-10.310861,16.922268,-28.979159,4.180034,-46.79035,-15.327551,0.0,64.407978,31.650708,94.167584,23.212773,93.496479,13.800179,80.243489,4.617771,57.020657,0.0,21.196557,29.037958,51.776436,47.447361,66.365551,59.747031,75.374751,66.491497,77.336574,-11.36364,317.175662,-44.289849,268.830981
124,2.485405,0.681663,0.226044,-0.058849,0.0,-39.995922,-14.908299,31.241443,-9.750904,55.453708,-4.187519,62.130054,0.278595,39.071583,0.0,34.831678,7.675206,21.681335,-10.860959,16.107224,-29.794327,3.429161,-47.837723,-16.179868,0.0,63.881619,31.834099,94.05463,23.455547,93.334133,14.012604,80.109844,4.751255,57.468212,0.0,21.114739,28.852349,51.765581,47.179896,66.406356,59.514306,75.327797,66.391956,77.35405,-8.834541,317.867992,-44.020111,268.782799
125,-0.024594,-0.520605,0.197468,-0.000321,0.0,-40.362945,-14.21466,31.051026,-8.941577,55.395562,-3.485195,61.897889,0.721722,37.373497,0.0,34.841249,8.497745,21.813308,-9.782797,16.372775,-28.594319,3.327112,-46.628292,-16.150351,0.0,63.540138,31.932735,93.978584,23.638584,93.281593,14.222408,80.197975,4.923134,58.048439,0.0,21.033512,28.535631,51.735582,46.814433,66.409641,59.224314,75.270183,66.268208,77.25536,-8.821221,317.356949,-43.784729,268.79204
126,-0.812873,-0.519186,0.347648,0.222265,0.0,-39.727696,-13.423302,31.504829,-7.809861,55.746643,-2.245434,62.558075,1.977653,37.769622,0.0,35.207862,8.696299,22.333099,-9.307985,17.051784,-27.875025,4.034735,-45.678212,-15.234901,0.0,63.122246,32.000565,93.816399,23.75623,93.010209,14.265713,79.845063,4.852272,57.880967,0.0,20.657748,28.239451,51.78082,46.449203,66.340641,58.885081,74.999765,66.038348,76.994489,-9.595836,316.844809,-43.398823,269.021351
127,-2.069046,-0.994996,0.260685,0.170233,0.0,-37.180252,-11.048813,34.7406,-5.41317,58.139396,-0.230324,64.530876,3.48619,38.390991,0.0,35.957907,9.061885,23.233456,-8.34279,18.013669,-26.358028,5.115935,-43.628321,-13.320404,0.0,63.003811,32.046101,93.636692,23.805268,92.803814,14.225327,79.455357,4.678093,57.240864,0.0,20.507905,28.060573,51.569091,46.205672,66.326538,58.621914,74.857406,65.820641,76.895096,-11.628885,315.847627,-43.102141,269.189398
128,0.063652,-1.41243,0.280152,0.044189,0.0,-36.617798,-10.318577,35.609413,-4.805203,57.859932,-0.141735,63.172142,2.96886,33.136642,0.0,36.881866,9.97736,24.608564,-6.407433,19.410995,-23.49781,6.981773,-39.934732,-9.866864,0.0,62.888042,31.867504,93.512615,23.604549,92.622013,14.005554,79.195896,4.433338,56.779163,0.0,20.530431,28.094548,51.467103,46.248453,66.359067,58.650319,74.802498,65.844229,76.860626,-11.53224,314.438612,-42.788996,269.237002
129,-1.734295,-3.80737,0.217529,-0.004286,0.0,-32.825432,-7.386029,39.852276,-2.223519,59.589672,1.21463,62.495807,2.813129,26.566589,0.0,38.256221,11.854597,27.047644,-1.891081,22.79945,-16.68275,11.658762,-30.871748,-1.880448,0.0,63.012074,31.788059,93.47366,23.506107,92.638424,13.868157,79.219997,4.245815,56.522564,0.0,20.482637,28.024906,51.529855,46.180738,66.527931,58.583975,74.86767,65.777972,76.872755,-13.255336,310.636238,-42.560268,269.237712
130,2.218609,-4.182948,0.032604,-0.037914,0.0,-33.263329,-8.575253,39.428718,-3.932568,56.500007,-1.434002,56.949508,-0.829365,14.239746,0.0,39.117725,13.419773,28.733331,3.180554,26.357299,-8.435662,17.65122,-19.560048,8.674747,0.0,63.018311,31.977791,93.556618,23.712136,92.812615,14.030022,79.324127,4.331921,56.39811,0.0,20.447364,28.126448,51.487543,46.273721,66.607217,58.661928,74.953267,65.858691,76.977816,-11.034685,306.455985,-42.525622,269.202493
131,-1.214516,-6.928668,0.051934,-0.098233,0.0,-27.480389,-5.750931,43.722702,-2.237572,57.08931,-1.640305,53.10363,-3.094517,1.921978,0.0,39.024198,15.859939,31.538134,11.235796,32.30085,4.533962,26.981435,-1.983275,23.824198,0.0,63.075508,31.980239,93.509742,23.710968,92.974845,14.005004,79.371757,4.255851,56.074264,0.0,20.492418,28.285777,51.441329,46.419958,66.766806,58.772227,75.083092,65.918182,77.106566,-12.252937,299.53096,-42.477424,269.107903
132,0.816467,-5.358034,0.02528,-0.177384,0.0,-25.381153,-5.568008,44.763222,-2.784633,55.327469,-3.407284,47.800736,-6.206486,-10.272274,0.0,39.051134,17.880277,33.283238,17.779809,36.960919,15.068126,34.491249,12.325852,35.988869,0.0,63.053272,32.037483,93.589565,23.767101,93.159221,14.060245,79.557254,4.297977,56.165622,0.0,20.589761,28.481673,51.59752,46.605209,66.94041,58.927208,75.279297,66.034841,77.29204,-11.445213,294.179876,-42.460887,268.937469
133,-2.312073,-6.992036,0.01165,0.033851,0.0,-16.384677,-1.80344,49.856163,-0.422802,56.671784,-2.906467,45.354905,-7.49794,-17.546882,0.0,35.565879,20.113381,35.858341,25.626767,43.193302,27.587244,44.192399,29.105217,50.309839,0.0,62.974147,32.156067,93.617695,23.938373,93.321338,14.281551,79.703281,4.567371,56.406269,0.0,20.497037,28.497494,51.443058,46.64394,66.896988,58.992244,75.216757,66.134124,77.36025,-13.768622,287.182903,-42.460573,268.966383
134,-1.071075,-4.662811,-0.027924,0.009436,0.0,-10.595879,0.083942,52.394234,0.427952,56.289162,-3.249332,41.893021,-8.805542,-23.826084,0.0,31.558512,21.165374,36.878186,30.78825,47.375275,36.177541,50.95775,40.68421,59.921526,0.0,62.754604,32.114639,93.598652,23.937023,93.392796,14.374592,79.695889,4.765778,56.360973,0.0,20.568469,28.587847,51.208011,46.770873,66.7909,59.119239,75.146793,66.233183,77.372772,-14.850946,282.50651,-42.499746,268.962237
135,-2.222202,-2.871505,-0.048168,0.059391,0.0,-4.18911,2.5914,55.972057,2.207176,58.484653,-2.16948,42.646305,-8.358754,-24.06728,0.0,28.627652,22.004414,38.038291,33.903199,50.17321,41.044437,55.055828,47.056321,65.155021,0.0,62.720879,32.047886,93.681427,23.89484,93.405876,14.408192,79.751564,4.906963,56.502914,0.0,20.588144,28.558837,51.055006,46.794858,66.657359,59.177581,75.04351,66.288141,77.349036,-17.084369,279.614677,-42.559135,269.0013
136,-0.147663,-0.418408,0.028393,0.051895,0.0,-2.229184,2.788135,56.436538,2.047496,58.702835,-2.456063,42.796371,-8.644272,-23.87043,0.0,26.688639,22.176277,38.396727,34.328709,50.602437,41.520779,55.705207,47.474532,65.718024,0.0,62.599353,31.866749,93.677341,23.747051,93.418178,14.3768,79.775631,5.033077,56.704593,0.0,20.585142,28.565408,50.812624,46.86597,66.483384,59.263674,74.890468,66.358982,77.32068,-17.243591,279.171952,-42.542301,269.028878
137,0.863994,-0.62778,-0.04826,0.048623,0.0,-0.060345,2.084164,56.056378,0.742035,57.726872,-3.978584,41.813038,-10.116176,-25.01857,0.0,23.832448,22.300841,38.794647,34.897949,51.114645,42.321769,56.733587,48.367604,66.853528,0.0,62.62928,31.838573,93.789505,23.733936,93.484863,14.440521,79.95266,5.215588,57.065163,0.0,20.619907,28.487132,50.613651,46.858287,66.282237,59.318582,74.767077,66.44947,77.321025,-16.393856,278.515933,-42.60482,269.049262
138,-0.158718,0.817378,0.066261,-0.039953,0.0,-1.523872,1.637581,55.53344,0.719124,57.847755,-3.549843,42.755699,-9.372826,-22.783218,0.0,25.229205,22.963743,38.978305,34.417482,50.345766,40.811329,55.306139,45.98631,64.753434,0.0,62.595795,31.742272,93.772225,23.62658,93.451561,14.336769,79.900933,5.128784,56.949578,0.0,20.604248,28.525998,50.634054,46.907342,66.307457,59.347926,74.790864,66.44679,77.371352,-16.57275,279.308197,-42.558735,268.984195
139,-0.73661,0.285275,-0.120025,0.005385,0.0,-1.598385,1.739261,56.006836,1.137439,59.063141,-2.765923,45.164772,-8.283944,-19.270043,0.0,27.101156,23.581815,39.649766,34.20937,49.946697,39.817789,54.388639,44.293718,63.38781,0.0,62.826324,31.887668,93.971557,23.759616,93.567329,14.44226,80.155815,5.217418,57.31707,0.0,20.591132,28.415144,50.679786,46.806812,66.210866,59.28126,74.773475,66.419002,77.387493,-17.330726,279.57374,-42.700126,268.969848
140,-1.255852,-0.769312,0.098613,0.000358,0.0,-0.067246,2.861687,57.358589,2.249199,59.744934,-1.83799,45.807243,-7.389874,-17.70734,0.0,27.301377,24.349176,39.985652,35.253409,50.460535,40.986355,55.025546,45.540077,64.22201,0.0,62.696537,31.777302,93.830899,23.669861,93.518383,14.384697,80.057774,5.194474,57.27245,0.0,20.479129,28.484489,50.627409,46.866821,66.224637,59.309159,74.744391,66.427561,77.407698,-18.609123,278.787959,-42.624058,268.953737
141,-1.398285,0.220462,-0.103374,-0.046436,0.0,0.400131,3.980896,58.343513,3.660244,60.963615,-0.283024,47.965988,-5.647854,-12.92728,0.0,29.336941,25.021427,40.52004,35.257534,50.287399,40.356599,54.116727,44.363768,62.565739,0.0,62.924194,31.935882,93.982155,23.808861,93.603493,14.485119,80.264809,5.266537,57.525787,0.0,20.507213,28.427778,50.768978,46.820903,66.228317,59.294005,74.814934,66.441381,77.453826,-20.031664,278.99274,-42.751688,268.89162
142,-1.820297,0.315878,0.073551,-0.008016,0.0,0.19963,5.467128,59.657661,5.603554,62.662628,1.880699,50.612983,-3.280403,-7.663651,0.0,31.720433,25.766285,40.919787,35.258102,50.109002,39.631266,53.130993,43.010434,60.770482,0.0,62.755657,31.872231,93.836918,23.758541,93.555553,14.441654,80.116001,5.216629,57.301655,0.0,20.438732,28.496741,50.754838,46.892979,66.303814,59.342418,74.824963,66.472763,77.487875,-21.87735,279.293396,-42.703526,268.868382
143,-0.756443,0.477219,-0.063057,-0.030615,0.0,-0.27871,6.144504,59.864856,6.523796,63.455463,2.941349,52.257763,-2.07248,-4.186215,0.0,33.502217,25.844746,41.117574,34.818415,49.780935,38.724141,52.178592,41.694768,59.232552,0.0,62.875294,31.950497,93.905537,23.811459,93.585446,14.466694,80.181301,5.217293,57.356518,0.0,20.509757,28.467038,50.862579,46.860844,66.341221,59.320064,74.896729,66.450557,77.500768,-22.65822,279.754755,-42.79101,268.821907
144,0.079353,1.371909,0.092537,-0.003619,0.0,-1.983627,5.929802,58.952511,6.630901,63.747402,3.395565,53.600063,-1.359959,-1.348034,0.0,34.985585,25.748798,41.213942,33.483939,48.797695,36.306908,50.202085,38.368915,56.256898,0.0,62.730709,31.878365,93.74667,23.751022,93.497578,14.413181,80.018658,5.154659,57.127476,0.0,20.458084,28.523738,50.847006,46.915567,66.440455,59.361918,74.916378,66.487669,77.543512,-22.601698,281.110686,-42.721304,268.80231
145,-0.798672,0.132998,-0.189136,-0.066196,0.0,-1.412578,7.073204,59.535988,7.831833,64.979988,4.503823,55.429001,-0.471016,1.485443,0.0,35.552257,25.431512,41.389696,33.218721,48.996334,36.128092,50.11719,38.279513,55.864227,0.0,62.816276,32.030662,93.875953,23.924629,93.706604,14.595245,80.270622,5.340122,57.3078,0.0,20.551154,28.561121,50.871557,46.975996,66.460535,59.456903,74.969396,66.62163,77.562864,-23.419871,281.228505,-42.929941,268.720935
146,-1.017574,-0.064628,-0.067566,-0.013388,0.0,-0.399937,8.437523,60.657085,9.086346,66.49062,5.516087,56.882412,0.220425,3.824192,0.0,35.610043,24.843883,41.292069,32.958122,49.286388,36.23303,50.511306,38.752892,56.181464,0.0,62.704628,31.979805,93.826332,23.922763,93.812027,14.647991,80.304336,5.428688,57.191528,0.0,20.554637,28.697701,50.77235,47.116911,66.494091,59.576538,74.974559,66.727718,77.533385,-24.452122,281.150836,-43.012184,268.694506
147,-1.042076,-0.199762,-0.244366,-0.061775,0.0,0.731712,9.855343,62.06345,10.367798,68.027882,6.558735,58.229015,0.955479,5.97036,0.0,35.76532,24.158033,41.313434,32.798793,49.707908,36.622144,51.134059,39.655509,56.861236,0.0,62.92979,32.043754,94.04591,23.997391,94.023136,14.767525,80.592144,5.614208,57.43594,0.0,20.699529,28.851163,50.790467,47.269483,66.532277,59.715995,75.052476,66.846439,77.569694,-25.503347,280.940379,-43.265699,268.622036
148,-1.387825,0.300613,-0.138142,-0.011967,0.0,1.617851,11.403248,63.617626,12.001144,70.075642,8.119114,60.312435,2.328564,9.456196,0.0,36.425185,23.439098,41.431488,32.129493,49.849984,36.05903,51.069666,39.222614,56.353908,0.0,62.935936,32.067707,94.178421,24.050057,94.177803,14.867455,80.755669,5.76162,57.552429,0.0,20.725797,28.997413,50.695013,47.418499,66.504761,59.84903,75.044534,66.964456,77.54718,-26.897283,281.231988,-43.409952,268.601065
149,-0.825188,-1.039877,-0.196357,-0.026528,0.0,3.605244,12.806511,65.147633,13.041481,70.973019,8.707878,60.478764,2.49551,9.830647,0.0,35.250606,22.854495,41.1041,32.992566,50.804509,38.262951,52.93969,42.560298,58.905842,0.0,63.036529,32.111377,94.35704,24.109439,94.373886,14.969364,80.98352,5.914421,57.71688,0.0,20.819843,29.119049,50.609131,47.547224,66.471218,59.964738,75.064035,67.061404,77.526802,-27.725064,280.183692,-43.608902,268.566118
150,0.998142,4.731378,-0.042904,0.025206,0.0,-1.870182,10.800957,62.316193,12.364907,70.75335,9.487015,62.4944,4.529206,15.972828,0.0,37.447933,21.261902,39.955827,27.413589,46.727933,29.354874,46.431469,30.736688,49.257884,0.0,63.127796,32.009365,94.377422,24.000183,94.357738,14.918564,81.076435,5.940891,57.935863,0.0,20.882718,29.113381,50.616183,47.513447,66.374481,59.914375,75.082783,66.991565,77.512452,-26.731637,284.903013,-43.656521,268.579267
151,1.823891,4.642014,-0.006409,0.038681,0.0,-7.478863,8.068737,58.653305,11.027149,69.18322,9.691132,63.287384,6.06221,19.941582,0.0,38.760449,19.667827,38.505161,22.061273,42.658024,20.859412,40.115031,19.388777,40.01255,0.0,63.245739,32.057304,94.357098,24.016331,94.314365,14.930843,81.160229,5.985283,58.204044,0.0,20.821918,29.04317,50.765372,47.449745,66.292204,59.885043,75.097949,66.990218,77.499941,-24.917387,289.530463,-43.672571,268.603384
152,1.565987,3.971885,0.074604,0.057922,0.0,-12.007874,5.73975,55.424812,9.875038,67.885734,9.818928,64.092407,7.309971,23.524143,0.0,39.759695,18.660863,37.198954,17.613305,39.15275,13.497504,34.549639,9.369143,31.736167,0.0,63.147263,32.040356,94.237793,23.981049,94.231659,14.882584,81.08567,5.924698,58.171463,0.0,20.750411,28.942381,50.798766,47.318785,66.162466,59.768582,75.040434,66.902656,77.429755,-23.366277,293.48599,-43.612844,268.644948
153,2.325325,3.756191,0.028473,0.023082,0.0,-16.49421,2.957382,51.577492,7.962147,65.754867,8.978554,63.80587,7.450367,25.296203,0.0,40.251549,17.343999,35.493717,13.305287,35.572263,6.701439,29.361827,0.285855,24.328156,0.0,63.212654,32.063324,94.166061,23.960609,94.145393,14.834404,81.060379,5.880237,58.267158,0.0,20.707605,28.873381,50.947696,47.25165,66.113906,59.723183,75.051624,66.878006,77.402165,-21.059023,297.224067,-43.602442,268.649916
154,1.959228,3.934366,0.009155,0.026219,0.0,-21.323238,0.513108,47.976288,6.504559,64.388054,8.603463,64.321129,7.949604,27.883484,0.0,42.394535,16.338171,34.565287,8.914981,32.161813,-0.536895,23.820135,-9.430326,16.404701,0.0,63.219361,32.086601,94.110535,23.956833,94.108177,14.814079,81.067909,5.856754,58.375511,0.0,20.665504,28.791735,51.0298,47.14912,66.015995,59.639536,75.034877,66.823591,77.379713,-19.120812,301.13938,-43.614304,268.657082
155,0.932865,-1.943508,0.027043,0.011572,0.0,-20.834758,0.288884,47.75092,5.680459,63.045834,7.15955,61.734478,5.898365,22.492104,0.0,41.528338,17.152437,35.033516,11.561332,33.773165,3.674063,26.66757,-3.767306,20.953693,0.0,63.246631,32.148616,94.097042,23.969226,94.048725,14.756355,80.944873,5.747085,58.219333,0.0,20.566629,28.78535,51.157524,47.155196,66.070693,59.654257,75.040052,66.840388,77.369722,-18.207579,299.180351,-43.606893,268.653133
156,0.125599,1.816623,-0.003399,-0.155821,0.0,-21.698696,-0.009224,46.827095,5.397538,62.767136,7.14473,62.073258,6.33165,23.85719,0.0,40.46996,16.057268,33.9711,9.287521,31.879095,0.357547,24.226576,-8.097554,17.136789,0.0,63.195785,31.97541,94.170433,23.785915,94.077575,14.622711,80.944015,5.643139,58.128158,0.0,20.729527,28.573311,51.06091,46.8758,66.092639,59.359831,75.097443,66.609157,77.450492,-18.114178,300.978866,-43.64249,268.479204
157,0.952584,-1.577674,0.123436,-0.16244,0.0,-20.363983,-1.027371,46.791343,3.519664,62.007476,4.665378,60.091919,3.314506,16.608009,0.0,38.596256,15.992653,34.664471,10.771495,33.341172,3.088151,26.533448,-4.06041,21.178712,0.0,62.898491,31.737316,93.99044,23.566829,93.799255,14.46698,80.729965,5.553703,58.109665,0.0,20.934933,28.481673,51.209308,46.69718,66.042041,59.143445,75.123365,66.37138,77.235427,-17.194902,299.379329,-43.552362,268.294901
158,-0.594841,-1.016325,0.158729,-0.064937,0.0,-19.283764,-0.980633,47.520012,3.35345,62.462494,4.252624,60.038337,2.655613,14.199669,0.0,37.783583,16.487792,35.624776,11.984693,34.751699,4.775456,27.936109,-1.877287,23.232642,0.0,62.542511,31.433407,93.893852,23.3363,93.761833,14.321675,80.803551,5.455216,58.176316,0.0,21.004859,28.447377,51.098355,46.503012,65.78842,58.860233,75.011498,66.036508,76.991155,-17.829237,298.334985,-43.433127,268.201945
159,-1.106667,1.719453,0.149037,-0.070741,0.0,-19.180321,-1.196113,47.853562,3.47699,63.630524,4.88839,62.140091,3.859989,16.719383,0.0,36.881705,15.593214,35.091956,9.781327,33.595719,1.335834,25.77246,-6.461983,19.624157,0.0,62.231792,31.16827,93.80421,23.149189,93.61877,14.217796,80.837482,5.41349,58.29768,0.0,21.047973,28.341401,51.0925,46.284972,65.629066,58.581208,74.959949,65.720556,76.775398,-18.983093,300.019157,-43.331279,268.095923
