takenoko1/special-research/HandMotion_SimilarSearch_自分用/NewProject/handData/test_key/d4_feature_d3/95.csv
frame,vel_0x_L,vel_0y_L,vel_0x_R,vel_0y_R,posFromWrist_0x_L,posFromWrist_1x_L,posFromWrist_2x_L,posFromWrist_3x_L,posFromWrist_4x_L,posFromWrist_5x_L,posFromWrist_6x_L,posFromWrist_7x_L,posFromWrist_8x_L,posFromWrist_9x_L,posFromWrist_0y_L,posFromWrist_1y_L,posFromWrist_2y_L,posFromWrist_3y_L,posFromWrist_4y_L,posFromWrist_5y_L,posFromWrist_6y_L,posFromWrist_7y_L,posFromWrist_8y_L,posFromWrist_9y_L,posFromWrist_0x_R,posFromWrist_1x_R,posFromWrist_2x_R,posFromWrist_3x_R,posFromWrist_4x_R,posFromWrist_5x_R,posFromWrist_6x_R,posFromWrist_7x_R,posFromWrist_8x_R,posFromWrist_9x_R,posFromWrist_0y_R,posFromWrist_1y_R,posFromWrist_2y_R,posFromWrist_3y_R,posFromWrist_4y_R,posFromWrist_5y_R,posFromWrist_6y_R,posFromWrist_7y_R,posFromWrist_8y_R,posFromWrist_9y_R,posFromBody_0x_L,posFromBody_0y_L,posFromBody_0x_R,posFromBody_0y_R
6,3.692493,0.941064,0.456219,0.136925,0.0,4.925263,-7.228523,42.329109,-15.328468,43.871407,-23.645073,35.381035,-31.485821,14.6857,0.0,-7.224761,14.287786,36.058573,31.983416,52.460964,45.474288,59.437291,56.625647,63.134276,0.0,67.322113,26.544582,89.692565,17.994701,90.226547,9.47969,76.6417,1.835231,56.419853,0.0,9.877806,29.848569,55.342041,47.420056,68.814919,59.180681,75.129763,66.240421,75.184869,1.179273,274.264069,-44.817255,266.148274
7,0.75483,0.212459,0.303211,0.059627,0.0,4.038025,-7.945427,42.038246,-15.765324,43.870445,-23.682518,35.381881,-31.25734,15.316131,0.0,-7.051601,14.419474,35.522443,31.973017,52.018152,45.399088,58.883501,56.490265,62.627712,0.0,67.428303,26.32196,89.496815,17.712993,90.042148,9.171272,76.498157,1.555984,56.262165,0.0,10.076123,30.049985,55.546409,47.594661,68.934516,59.285249,75.262797,66.211434,75.359597,1.528696,274.528994,-44.919451,266.260367
8,0.645218,0.005718,0.10738,0.061244,0.0,4.088905,-8.482155,41.863975,-15.831505,43.578346,-23.253205,35.31697,-30.483605,15.445014,0.0,-7.031754,14.509025,34.988388,32.067347,51.574574,45.533877,58.470922,56.6171,62.355615,0.0,67.629387,26.241863,89.591148,17.512253,90.003433,8.913059,76.350334,1.321712,55.815834,0.0,10.277306,30.094717,55.542297,47.728437,69.173565,59.434178,75.393634,66.280138,75.419236,1.827902,274.584291,-45.158083,266.37119
9,2.142517,0.103568,0.18005,0.022267,0.0,1.76033,-10.903679,39.223663,-17.893856,41.349197,-24.769123,33.283264,-31.412545,13.22715,0.0,-7.057257,14.972511,34.550899,32.56135,51.127562,45.982148,58.053785,56.87329,62.029746,0.0,67.840702,26.331287,89.824321,17.514862,90.119533,8.826095,76.308185,1.13665,55.412487,0.0,10.317617,30.277252,55.342621,47.924408,69.274947,59.561668,75.465499,66.283188,75.376566,3.68101,274.736976,-45.267442,266.442574
10,-2.071221,4.054668,0.144207,0.018698,0.0,4.698258,-8.842163,39.697472,-15.46154,43.967491,-21.531509,35.640839,-27.277839,15.894814,0.0,-9.412122,11.157891,28.888238,28.624428,46.78289,42.472168,54.04585,53.938318,57.985242,0.0,68.038902,26.445282,89.957611,17.472908,90.036186,8.644146,76.085426,0.828621,54.87458,0.0,10.51612,30.405767,55.277882,48.062964,69.393643,59.632422,75.526781,66.227724,75.321386,1.385135,278.835091,-45.347889,266.504719
11,1.923317,-0.005039,0.00159,0.047301,0.0,2.574532,-10.501991,37.271485,-16.902489,41.75425,-22.576721,33.977028,-27.908043,14.399506,0.0,-10.338551,11.108405,28.053002,28.788758,46.423181,42.70325,53.659231,54.077972,57.607552,0.0,68.465847,26.665375,90.19122,17.705201,90.149906,8.884713,76.078549,1.027394,54.689747,0.0,10.623788,30.47631,55.168868,48.157182,69.395471,59.708091,75.484506,66.239444,75.216843,3.148126,278.862406,-45.506625,266.584374
12,0.053307,3.78635,-0.147331,-0.063332,0.0,2.564346,-10.940827,35.344459,-16.979233,41.784347,-21.700482,33.826812,-25.71666,12.873985,0.0,-14.305731,8.271961,23.299863,25.608167,42.965801,39.586114,50.552901,50.835434,53.96198,0.0,68.907955,26.963814,90.591213,17.981884,90.48357,9.137993,76.339634,1.223511,54.839733,0.0,10.744609,30.586363,55.258876,48.277275,69.503621,59.780636,75.608304,66.226848,75.232392,3.050772,282.678341,-45.804617,266.550627
13,6.173332,0.485432,-0.195042,-0.073495,0.0,-4.737145,-17.211273,27.896942,-23.335796,34.931602,-27.27681,27.656067,-30.097412,7.221039,0.0,-14.54915,7.591571,22.755113,25.088501,42.390077,39.175943,50.131022,50.417902,53.469497,0.0,68.934449,27.388665,91.048073,18.429348,90.767121,9.555325,76.543557,1.542252,54.939721,0.0,10.730295,30.720744,55.357503,48.319562,69.659738,59.697903,75.854935,66.043535,75.202628,9.073122,283.189183,-46.150641,266.502542
14,0.456367,3.028302,-0.385173,0.026701,0.0,-5.631431,-17.773773,27.150856,-23.895561,34.706566,-27.095169,27.609604,-28.861702,3.341172,0.0,-16.75616,6.103349,21.351279,23.051194,40.343187,36.754253,47.865548,47.632922,50.689641,0.0,69.050319,27.708217,91.534275,18.863674,91.223156,10.09925,76.901035,2.167431,55.243183,0.0,10.784104,30.795029,55.402074,48.377076,69.753673,59.65895,76.010533,65.900484,75.140433,9.378341,286.235745,-46.686962,266.547503
15,1.014016,0.132875,-0.268856,-0.051944,0.0,-7.754425,-18.628212,27.778358,-25.073204,33.59983,-28.629742,26.785423,-30.499615,-1.163796,0.0,-17.849871,7.568587,23.988577,24.02727,41.638129,37.058867,48.633154,47.109994,51.768494,0.0,69.075851,27.844677,91.915512,19.131042,91.71714,10.5279,77.300972,2.724907,55.619087,0.0,10.816745,31.068978,55.520734,48.64606,69.949508,59.849215,76.245802,65.986971,75.157303,10.246903,286.379889,-47.101272,266.506828
16,1.276703,0.168072,-0.26809,-0.115881,0.0,-8.897622,-19.972207,26.093627,-26.483025,32.147163,-29.906617,25.248847,-31.480145,-2.669701,0.0,-17.733817,7.045228,24.112572,23.614407,41.58563,36.761342,48.637131,46.921754,51.804458,0.0,69.055847,28.124943,92.290512,19.457817,92.051537,10.906643,77.556267,3.145695,55.842408,0.0,10.91173,31.27767,55.726412,48.880947,70.255765,60.051201,76.490828,66.121081,75.163762,11.387707,286.545436,-47.505261,266.388422
17,1.700019,0.025157,-0.068103,-0.029529,0.0,-11.33377,-21.753902,25.366791,-28.383716,30.958672,-31.778583,24.49926,-33.25526,-5.120704,0.0,-17.749193,7.773945,25.837743,24.400762,42.215768,37.383897,48.686445,47.398789,51.92376,0.0,68.800678,28.439071,92.447879,19.803005,92.239162,11.224273,77.511966,3.398826,55.770023,0.0,10.930008,31.417127,55.719768,48.999223,70.407041,60.12971,76.611809,66.176792,75.042966,12.962236,286.552809,-47.698854,266.341109
18,-8.17123,2.177208,-0.071309,-0.07047,0.0,-1.699757,-13.736893,34.914402,-19.901482,40.060925,-23.376125,33.244137,-25.166508,0.770702,0.0,-18.295683,7.385522,25.141421,23.428489,41.220105,35.845151,47.248723,45.220259,50.459115,0.0,69.007164,28.669785,92.637314,20.008404,92.413857,11.387707,77.567253,3.519413,55.843644,0.0,11.204439,31.572294,55.872736,49.194726,70.465087,60.318161,76.658987,66.324142,75.073372,4.697411,288.708484,-47.863758,266.249106
19,4.083275,-2.745028,0.059807,-0.054019,0.0,-5.558865,-17.705155,30.404949,-24.328388,35.102703,-28.124004,28.18539,-30.098259,-0.348621,0.0,-16.006299,8.289956,26.6404,25.066431,43.388581,37.965339,49.681739,47.726486,53.385788,0.0,69.106682,28.928581,92.601448,20.190434,92.346977,11.424065,77.347939,3.388996,55.591736,0.0,11.289494,31.705292,56.100965,49.295428,70.559652,60.396621,76.739015,66.397822,75.117128,8.70912,285.933702,-47.875517,266.165333
20,1.977859,-0.678933,-0.073746,-0.006015,0.0,-6.341869,-20.094268,27.867772,-26.682804,32.988568,-30.070427,26.180661,-31.515758,-2.22916,0.0,-15.673996,8.831,27.433744,25.727642,43.948879,38.633293,50.386916,48.264011,53.124509,0.0,69.229958,29.226643,92.698082,20.460572,92.385796,11.595131,77.273598,3.467137,55.660035,0.0,11.316307,31.728424,56.219514,49.294885,70.527814,60.385617,76.717564,66.387485,75.072607,10.624214,285.22055,-48.012028,266.125099
21,-5.459724,3.244428,-0.031116,0.028455,0.0,0.721561,-14.627014,34.270168,-21.117622,38.840115,-24.596031,31.874737,-25.966827,-1.374744,0.0,-17.268033,7.756259,25.905706,23.835375,42.008484,36.090868,48.087096,45.184987,51.344998,0.0,69.299892,29.359714,92.757854,20.588356,92.442249,11.670742,77.249622,3.510406,55.79932,0.0,11.274526,31.813812,56.260702,49.342667,70.425554,60.40282,76.656183,66.404121,75.045856,5.099997,288.435933,-48.107637,266.124509
22,2.26886,-3.383009,-0.136265,0.051389,0.0,-0.799153,-15.835362,31.758671,-22.422672,35.281849,-26.381321,28.180057,-28.531975,-2.311672,0.0,-14.387216,9.568005,27.913224,26.219794,44.180173,38.699935,50.562819,47.948294,54.28375,0.0,69.560234,29.516682,92.944084,20.720879,92.54361,11.750828,77.322006,3.570122,55.909035,0.0,11.15678,31.754939,56.363306,49.280447,70.358431,60.367721,76.561606,66.403725,75.015598,7.318915,285.02375,-48.293844,266.146724
23,1.584446,1.592161,-0.048981,0.04236,0.0,-2.216606,-17.36776,29.248695,-24.121102,34.210487,-27.978516,26.648872,-29.874195,-2.731407,0.0,-16.981611,7.408345,24.55331,24.026023,41.948141,36.948235,48.829953,46.810641,52.142418,0.0,69.677399,29.584237,93.003228,20.776017,92.573319,11.756745,77.306946,3.554581,55.961335,0.0,11.038405,31.735291,56.464417,49.243842,70.306167,60.345418,76.476614,66.409395,74.921553,8.867781,286.582004,-48.378405,266.155177
24,-3.486763,-0.163021,-0.004325,0.048055,0.0,1.870971,-13.107994,33.232704,-19.49635,38.069137,-23.687783,30.409309,-26.410343,1.27391,0.0,-17.508749,7.277446,23.719864,23.965359,41.474627,37.01889,48.493833,47.043674,51.871828,0.0,69.903328,29.462276,93.144928,20.625778,92.632507,11.632061,77.400055,3.536464,56.205528,0.0,10.955523,31.59771,56.427958,49.18135,70.209144,60.371698,76.35352,66.479431,74.870781,5.354296,286.393551,-48.409452,266.1778
25,-2.636467,0.614145,0.010379,-0.104457,0.0,4.048324,-10.701393,35.322006,-16.952236,41.067444,-21.298577,33.070473,-24.295338,4.86676,0.0,-18.328387,5.924198,20.664479,22.822668,40.189292,36.243762,47.622695,46.630774,51.045632,0.0,69.957837,29.655819,93.217907,20.736706,92.582646,11.618306,77.361798,3.429932,56.129712,0.0,11.090386,31.588201,56.478359,49.194169,70.155223,60.431139,76.403945,66.548209,75.119573,2.688692,286.986729,-48.42821,266.052376
26,6.760208,-2.999663,0.022866,-0.015747,0.0,-3.872543,-17.295067,27.363258,-23.634796,33.329292,-27.70776,25.454842,-30.425949,2.467438,0.0,-16.752405,7.833608,22.47925,25.334787,42.176088,39.161148,49.669389,49.755444,52.654503,0.0,70.004619,29.798114,93.262928,20.849144,92.675525,11.653015,77.479625,3.402546,56.321468,0.0,11.155558,31.585916,56.395157,49.199789,70.000947,60.46157,76.395906,66.575491,75.283719,9.428387,283.969498,-48.425857,266.019061
27,-1.509888,3.259928,0.036861,-0.152622,0.0,-2.771347,-16.781273,29.080994,-23.010658,35.711518,-26.441986,27.511597,-28.140232,-0.165642,0.0,-19.120731,6.264407,20.977517,23.067002,40.025567,36.530062,47.279549,46.783088,49.467243,0.0,69.908959,29.899796,93.228241,20.868485,92.610169,11.57127,77.543587,3.236092,56.437088,0.0,11.314911,31.694066,56.298258,49.338085,69.944321,60.618268,76.52957,66.718727,75.608921,7.900291,287.216619,-48.407204,265.853632
28,0.179466,0.083005,-0.027489,-0.106371,0.0,-3.153785,-16.928054,29.426903,-23.295261,34.856575,-26.884861,26.957108,-28.653865,-2.711311,0.0,-19.361669,7.033854,22.589845,23.539603,40.330145,36.560147,47.4092,46.476324,50.589309,0.0,69.986573,30.036759,93.287522,20.958378,92.728112,11.580964,77.725022,3.169281,56.663567,0.0,11.441425,31.749678,56.148266,49.431736,69.924301,60.734877,76.625493,66.828049,75.915734,8.070562,287.287614,-48.443888,265.735251
29,2.436013,0.115757,-0.094024,-0.12917,0.0,-6.318672,-19.199936,26.593048,-25.759243,31.640075,-29.174217,23.855369,-30.514057,-5.264374,0.0,-19.155854,7.436417,23.143783,23.884343,40.426007,36.790118,47.31224,46.470977,50.544516,0.0,70.016258,30.173172,93.381798,21.014248,92.749969,11.537636,77.817283,3.032295,56.623741,0.0,11.584205,31.855099,56.079699,49.594621,69.883892,60.91609,76.699816,66.97835,76.064133,10.508972,287.382706,-48.535515,265.585416
30,2.177398,-0.391374,-0.026299,-0.063343,0.0,-8.744476,-21.237991,24.646431,-27.751247,29.012925,-30.919075,21.340989,-32.008884,-8.799545,0.0,-18.935257,8.515185,25.473651,24.850009,41.12659,37.46773,47.586066,46.897425,50.679144,0.0,70.127518,30.166546,93.359139,20.962521,92.711334,11.444058,77.803368,2.877812,56.435669,0.0,11.563308,31.879798,56.006487,49.675526,69.950916,61.036058,76.679747,67.130688,75.939026,12.704309,286.956992,-48.543875,265.487733
31,-5.557159,2.316653,0.004669,-0.152487,0.0,-2.576958,-16.402702,31.937668,-22.916965,35.523834,-26.140205,27.115562,-27.078838,-10.565002,0.0,-19.918398,6.796782,23.999829,22.689831,39.194568,35.038963,45.517896,44.357952,49.321055,0.0,70.110672,30.273274,93.235817,21.004521,92.364808,11.388794,77.497078,2.67072,55.828881,0.0,11.392247,31.8704,56.003264,49.654951,69.98746,61.023079,76.711228,67.181274,75.929085,7.178793,289.232668,-48.507563,265.294269
32,3.158226,-3.464296,0.056591,-0.10978,0.0,-4.833,-18.184227,28.611214,-25.234337,31.043198,-29.317818,22.838127,-31.274483,-10.177048,0.0,-18.01036,7.562387,25.572846,24.315188,41.490842,37.341733,48.209374,47.311696,52.906085,0.0,70.121968,30.28901,93.159359,21.082444,92.202542,11.49535,77.262211,2.7575,55.562497,0.0,10.989523,31.61237,55.93445,49.377396,69.932169,60.795726,76.543452,67.080436,75.769682,10.373714,285.718564,-48.414277,265.134681
33,3.255821,-2.126364,0.103032,-0.403267,0.0,-9.405075,-22.286133,25.172974,-29.411213,27.68898,-32.960758,18.9413,-34.34016,-13.054664,0.0,-16.219227,8.946363,27.212987,26.106,43.038148,39.265309,49.489127,49.195689,53.691873,0.0,69.849792,30.189582,93.103431,20.941806,92.087997,11.3386,77.147987,2.528034,55.062927,0.0,10.690688,31.221305,55.590747,49.011537,69.610387,60.488938,76.244753,66.88854,75.658593,13.687317,283.5271,-48.253463,264.666314
34,0.761719,-1.257633,0.044391,-1.114644,0.0,-10.077164,-23.287537,25.162834,-30.416084,27.694702,-34.184155,18.577698,-35.566509,-18.245522,0.0,-15.363861,9.178124,28.544412,26.06286,43.727616,38.878269,50.079819,48.671736,54.985383,0.0,69.210148,29.93684,93.104176,20.621292,92.367382,10.980229,77.321652,2.128624,54.551434,0.0,10.214209,30.581632,55.412769,48.483064,69.805172,60.11552,76.285483,66.682874,75.946424,14.521952,282.196573,-48.136156,263.478776
35,1.764976,-3.896624,-0.339454,-2.550218,0.0,-12.02655,-25.6524,24.779297,-33.082168,25.665093,-36.786403,15.980828,-37.786365,-28.524662,0.0,-11.59359,11.644152,33.533969,28.039145,47.05973,40.181845,53.18479,49.581925,60.344787,0.0,68.083934,30.099346,92.98447,21.069374,92.387226,11.490955,77.606266,2.452285,54.702426,0.0,9.200021,29.386687,55.956309,47.149823,70.886546,59.091118,77.675188,66.350163,77.387901,16.373674,278.22295,-48.388864,260.851559
36,2.270875,-0.871076,-0.435814,-4.627428,0.0,-21.06197,-30.347775,18.013572,-37.834923,21.04113,-41.757718,12.006248,-43.090394,-29.617711,0.0,0.293771,11.115593,35.669669,23.447619,46.641828,32.110399,50.549641,38.851778,54.599838,0.0,66.537426,29.924869,91.666431,21.124786,91.31908,11.406692,75.887088,1.853496,50.922626,0.0,9.165737,27.781943,56.511334,45.436188,72.448362,57.817775,79.830624,65.837054,78.763886,18.72737,277.262725,-48.741857,256.134982
37,3.211257,-1.16444,-1.752251,-6.624288,0.0,-30.023574,-34.060764,2.16845,-39.591167,9.318009,-41.592819,2.800599,-40.731239,-36.489177,0.0,12.405114,13.747618,36.571484,20.527356,40.343891,24.164221,40.168384,26.30864,42.505526,0.0,63.896313,29.619907,89.143604,21.83741,86.589191,12.768528,69.243107,3.267174,45.523819,0.0,5.877009,24.508294,54.872207,42.449827,73.061371,55.658462,82.099643,65.009895,81.2166,22.051677,275.98057,-50.381058,249.392979
38,5.482544,-9.256078,-0.478157,-12.44624,0.0,-39.905937,-35.946659,-17.335773,-38.758483,-9.384899,-38.516052,-12.367504,-35.389103,-42.43642,0.0,25.383236,18.064182,40.893445,22.062064,42.944102,23.360897,41.28887,22.993668,41.937459,0.0,61.225353,37.055775,92.437099,28.907982,81.084789,18.225506,61.769337,6.474987,40.31583,0.0,6.112031,21.794536,54.969846,38.558649,76.486259,51.953104,85.201082,62.237401,84.116201,27.689186,266.622653,-50.70425,236.8449
39,1.276497,-9.290473,7.83379,-1.442045,0.0,-41.449539,-36.359287,-29.469211,-36.39228,-19.49319,-32.7621,-17.869892,-26.075443,-36.594669,0.0,31.490475,18.750574,39.559438,20.548746,40.027655,20.394766,37.04485,18.853068,35.621046,0.0,48.554374,30.156418,71.863518,22.326004,60.316967,12.180061,42.631965,1.101082,23.527473,0.0,8.653913,14.377262,42.59804,22.741985,56.761843,29.992657,59.900357,36.565235,51.047744,29.123554,257.332026,-42.712589,235.402701
40,12.879158,-27.394014,-10.847729,-24.796495,0.0,-51.390289,-40.191055,-52.685337,-37.593567,-40.718731,-31.604164,-33.939846,-22.527614,-34.016372,0.0,32.092986,18.559519,42.361931,21.102055,43.970653,22.241523,41.007559,21.800625,37.95105,0.0,47.290615,31.610687,68.143135,23.951546,54.176514,13.752388,36.272873,2.587063,18.841496,0.0,0.488168,8.236405,34.175506,16.224612,47.517312,24.195787,51.294659,32.375518,43.952634,42.108879,230.126008,-53.454151,210.794202
41,15.943451,-36.678368,-12.723667,-30.326332,0.0,-55.980366,-42.925552,-70.065754,-38.203033,-58.419948,-29.663406,-46.352932,-17.784714,-35.348442,0.0,22.711011,18.020197,40.121497,24.881162,44.294491,30.401327,43.507173,33.580597,43.769402,0.0,45.760872,34.24443,65.335968,27.659946,50.049065,18.076755,32.163402,7.435387,18.256164,0.0,-8.177249,0.192476,20.663146,7.587434,34.274283,16.291433,39.260492,26.354545,35.221324,58.133858,193.963561,-66.09629,180.983791
42,10.672302,-40.867664,-10.900681,-24.296891,0.0,-54.49102,-44.254829,-72.799312,-39.00563,-63.221569,-29.323516,-49.234005,-15.943107,-33.039436,0.0,6.892581,15.232339,32.142912,25.875232,41.532716,34.919803,44.641627,41.288499,47.727308,0.0,47.389344,37.174988,64.801815,29.572712,50.297036,18.814762,35.468834,7.196949,21.477047,0.0,-7.491084,-7.855085,-4.326209,-4.993422,3.070521,0.338825,6.283037,8.096152,4.416068,68.84832,153.931312,-76.954811,157.522315
43,9.566483,-41.545037,-10.24102,-32.231159,0.0,-52.860634,-46.952171,-75.526287,-42.374535,-65.725426,-33.124,-50.727241,-19.950134,-34.167397,0.0,-9.939148,7.73855,17.609512,19.423827,27.021608,29.759008,31.759458,37.934874,37.857342,0.0,44.773201,33.121731,54.823174,27.327679,48.803456,18.911751,38.199337,9.725407,25.093014,0.0,-18.080891,-16.295668,-28.115901,-15.780818,-27.717561,-13.129273,-24.797242,-7.668227,-25.412159,78.388006,113.341474,-87.222628,126.246355
44,8.750679,-45.484363,-15.028947,-48.179352,0.0,-54.936607,-47.840492,-82.598362,-43.94339,-73.968018,-35.842003,-59.731247,-24.040901,-43.407234,0.0,-22.735193,-0.114485,2.876896,11.211924,11.851244,21.722801,17.714372,30.351587,26.515429,0.0,51.10096,42.129153,66.747214,37.539384,60.534151,29.493746,50.76597,19.993801,38.954801,0.0,-29.011146,-18.964192,-36.984273,-14.177311,-33.752905,-8.396563,-26.344433,-0.998453,-18.66589,87.17728,68.72455,-102.21298,78.934442
45,-1.008613,-35.207819,7.375673,-28.924215,0.0,-51.011307,-45.974877,-83.314156,-42.739197,-75.847413,-35.824791,-62.662514,-25.69883,-47.623627,0.0,-30.349994,-9.90807,-20.679021,-1.612704,-14.269711,6.704249,-8.631182,13.916746,1.976254,0.0,45.147823,40.875706,60.252625,37.329338,56.341193,30.351569,49.045503,21.751797,38.849022,0.0,-27.009878,-21.623095,-48.028127,-20.793834,-49.186466,-19.290192,-44.567593,-16.15937,-38.186816,86.496518,34.177182,-94.509456,50.670678
46,-0.220253,-27.926012,12.766671,-26.9053,0.0,-49.552872,-44.851548,-87.299401,-41.915452,-83.272225,-35.750954,-72.245407,-26.751275,-56.194199,0.0,-37.840443,-16.328273,-39.848084,-11.321747,-37.008399,-5.765284,-32.043499,-0.465981,-21.187771,0.0,38.544388,37.235704,52.244733,33.892405,49.714704,27.690744,45.644781,19.988525,37.240477,0.0,-23.574337,-21.174282,-51.409742,-24.522965,-58.979843,-27.806387,-58.713529,-29.678854,-55.221299,86.792342,6.62992,-81.226708,24.144128
47,0.764015,-19.233055,15.677368,-36.524489,0.0,-48.890576,-41.96143,-89.756583,-39.239172,-89.605524,-34.016888,-79.717077,-26.562487,-63.31729,0.0,-39.958195,-24.052537,-53.460326,-21.000542,-52.987694,-16.523252,-49.080464,-11.450665,-38.169821,0.0,28.54597,32.036884,41.263455,30.142928,40.536215,25.782492,38.067757,20.036144,31.641246,0.0,-24.26714,-18.028297,-38.468725,-22.515259,-47.77479,-27.332602,-50.507611,-31.02028,-50.334313,88.436276,-12.389979,-64.669421,-12.167205
48,4.254127,-11.030758,17.143225,-28.093601,0.0,-49.122349,-40.352665,-91.114927,-37.733072,-94.111097,-33.03648,-85.076677,-26.422888,-68.138681,0.0,-41.542718,-28.741169,-63.392834,-26.981178,-64.739533,-23.344198,-61.631229,-18.579658,-50.739237,0.0,21.560554,24.735472,31.976263,22.964188,32.04532,19.39731,30.174375,14.787368,24.196603,0.0,-15.611863,-14.157219,-25.611738,-21.020579,-37.545221,-27.811857,-43.500162,-33.244618,-46.017594,93.801555,-22.030525,-46.415044,-38.870594
49,7.74424,-2.828461,17.143225,-28.093602,0.0,-50.248192,-40.025253,-91.374436,-37.397152,-96.788944,-32.809731,-88.324207,-26.332478,-70.658375,0.0,-42.594011,-30.394167,-69.645607,-29.263654,-72.263917,-26.228121,-69.695795,-21.852959,-58.896018,0.0,14.575138,17.43406,22.689072,15.785448,23.554425,13.012128,22.280992,9.538593,16.751959,0.0,-6.956585,-10.286141,-12.75475,-19.525899,-27.315652,-28.29111,-36.492711,-35.468955,-41.700873,102.751625,-22.395114,-28.065989,-64.500324
50,11.234352,5.373835,17.143225,-28.093601,0.0,-52.268104,-40.979195,-90.535107,-38.231411,-97.639065,-33.336639,-89.459667,-26.291256,-70.876369,0.0,-43.112074,-29.011532,-72.218645,-27.847969,-75.560845,-25.17502,-73.27416,-21.270567,-62.640163,0.0,7.589721,10.132647,13.401881,8.606709,15.063531,6.626946,14.38761,4.289817,9.307316,0.0,1.698692,-6.415063,0.102237,-18.031219,-17.086083,-28.770364,-29.485261,-37.693294,-37.384154,115.069921,-13.765143,-9.83882,-89.337789
51,10.217438,6.717365,11.284244,-23.15425,0.0,-52.166805,-41.198101,-88.116846,-38.182268,-94.281264,-32.969456,-86.483774,-25.426741,-68.548708,0.0,-44.132673,-28.095766,-72.333715,-26.677946,-75.64945,-23.966269,-73.108305,-20.244564,-62.30135,0.0,1.432754,5.024031,8.091482,5.319642,12.124109,5.562502,13.509786,5.576431,10.471863,0.0,8.872556,-3.636487,10.879931,-17.250945,-7.456162,-29.235463,-22.118414,-39.0888,-32.231026,126.189789,-3.566685,2.347854,-109.010946
52,10.217438,6.717364,0.791707,-10.736322,0.0,-52.065506,-41.417008,-85.698586,-38.133126,-90.923462,-32.602272,-83.507882,-24.562226,-66.221047,0.0,-45.15327,-27.18,-72.448784,-25.507922,-75.738054,-22.757518,-72.942448,-19.21856,-61.962535,0.0,-0.719601,3.060852,8.327363,4.619476,14.212649,6.331726,16.881664,7.875424,14.841161,0.0,10.955152,-3.74044,13.500014,-17.947059,-4.961685,-29.894862,-20.079697,-39.452853,-30.493736,136.916975,6.439185,3.649309,-116.458762
53,10.217437,6.717364,-9.700829,1.681606,0.0,-51.964206,-41.635914,-83.280325,-38.083982,-87.56566,-32.235088,-80.531988,-23.69771,-63.893385,0.0,-46.173868,-26.264233,-72.563853,-24.337898,-75.826658,-21.548766,-72.776591,-18.192557,-61.623721,0.0,1.132654,4.243108,14.10952,6.506211,21.329148,8.934619,24.503244,11.186795,22.415209,0.0,7.946482,-6.726924,7.962487,-20.119563,-9.602653,-30.748562,-23.369109,-38.785454,-32.172283,147.271782,14.593314,-5.91415,-113.340391
54,10.217438,6.717364,-20.193365,14.099533,0.0,-51.862907,-41.85482,-80.862064,-38.03484,-84.207859,-31.867905,-77.556095,-22.833195,-61.565723,0.0,-47.194466,-25.348467,-72.678923,-23.167875,-75.915262,-20.340014,-72.610735,-17.166553,-61.284906,0.0,6.989519,8.570801,25.437956,10.979845,33.473608,13.371179,36.374525,15.510544,33.194006,0.0,-0.153455,-12.595937,-5.732651,-23.768455,-21.379063,-31.796563,-31.986649,-37.0866,-37.266665,156.974024,21.342606,-26.622711,-99.20893
55,10.217438,6.717364,-30.685902,26.517461,0.0,-51.761608,-42.073727,-78.443804,-37.985697,-80.850058,-31.500721,-74.580202,-21.96868,-59.238062,0.0,-48.215064,-24.4327,-72.793992,-21.997851,-76.003866,-19.131263,-72.444878,-16.140549,-60.946092,0.0,16.850996,16.04393,42.31267,18.040381,50.646029,19.641409,52.495509,20.846672,47.177554,0.0,-13.344658,-21.347481,-27.585399,-28.893736,-40.290917,-33.038864,-45.932319,-34.356293,-45.776885,166.274458,26.34929,-58.225617,-74.402149
56,10.217438,6.717364,-33.067737,32.058909,0.0,-51.660309,-42.292634,-76.025544,-37.936554,-77.492257,-31.133538,-71.60431,-21.104165,-56.910401,0.0,-49.235661,-23.516934,-72.909061,-20.827827,-76.09247,-17.922511,-72.279021,-15.114545,-60.607278,0.0,26.558241,21.775594,54.625683,21.649767,61.057674,20.956993,60.332949,19.944025,51.727043,0.0,-27.430829,-29.560603,-48.811964,-33.224459,-58.81269,-33.836932,-59.532755,-31.712443,-54.168034,175.335637,29.782529,-92.449613,-45.627365
57,10.217437,6.717365,-30.816018,30.12178,0.0,-51.559009,-42.511539,-73.607282,-37.887411,-74.134454,-30.766353,-68.628416,-20.239649,-54.582739,0.0,-50.25626,-22.601168,-73.024131,-19.657804,-76.181074,-16.71376,-72.113166,-14.088542,-60.268464,0.0,32.935092,24.813154,60.807509,23.112776,65.232058,20.805001,62.652703,18.325613,52.246917,0.0,-38.802113,-35.445277,-63.334028,-35.99864,-70.408587,-33.982312,-67.100429,-29.357671,-58.187869,184.130344,32.706473,-124.688361,-19.299006
58,10.217438,6.717364,-26.328656,25.259622,0.0,-51.45771,-42.730446,-71.189022,-37.838268,-70.776653,-30.39917,-65.652523,-19.375133,-52.255077,0.0,-51.276858,-21.685402,-73.1392,-18.48778,-76.269678,-15.505009,-71.947309,-13.062538,-59.92965,0.0,37.148698,26.29473,62.437744,23.132038,64.348312,19.199985,60.171001,15.026751,48.405576,0.0,-46.697081,-37.360579,-71.37874,-35.236755,-75.75519,-31.079175,-69.302171,-24.545872,-57.390173,192.904276,35.482238,-152.460523,2.019017
59,10.93898,9.334137,-21.841292,20.397464,0.0,-51.642814,-43.33406,-72.141071,-38.456234,-70.366733,-31.257934,-64.577259,-20.898182,-52.364948,0.0,-53.151887,-24.952326,-76.970305,-22.733918,-78.560656,-20.279574,-73.52855,-18.046781,-61.096815,0.0,39.199059,26.22032,59.516384,21.707548,58.406433,16.141943,52.88784,10.047438,40.20302,0.0,-51.115732,-35.306509,-72.946102,-30.938806,-74.852497,-25.127521,-66.13798,-17.277046,-51.774945,202.62022,40.827104,-175.524851,18.42721
60,10.698486,7.061554,-15.465843,15.246331,0.0,-51.290782,-39.694759,-68.347784,-33.750623,-65.613321,-25.53107,-58.622091,-14.435022,-44.823057,0.0,-53.363892,-22.978839,-72.501981,-19.82971,-71.898503,-16.342683,-65.731099,-13.057513,-51.431695,0.0,39.09082,23.831239,52.17778,18.179655,48.355362,11.085611,41.910278,2.917437,27.999407,0.0,-53.668605,-29.711267,-68.973259,-24.510977,-68.841311,-18.340978,-59.349109,-10.408412,-43.293353,212.18431,44.633661,-192.12509,30.418544
61,9.203766,7.464532,-11.770031,11.52007,0.0,-50.825367,-36.127765,-65.073374,-29.355089,-60.738531,-20.11758,-52.30105,-7.910093,-36.999948,0.0,-52.969642,-20.705649,-68.506568,-17.511263,-67.77884,-13.92356,-60.823704,-10.441937,-44.347248,0.0,40.032612,23.156662,48.028421,16.274088,42.528791,7.438866,35.120807,-3.229591,19.377994,0.0,-55.362557,-24.185506,-66.827722,-18.719199,-65.122342,-12.617165,-55.149234,-5.137063,-37.867171,220.482534,50.072288,-204.800663,39.912709
62,7.785652,7.138465,-7.749848,6.051683,0.0,-48.090316,-32.337844,-62.067169,-24.863296,-56.603347,-14.785217,-46.318061,-1.741973,-29.092872,0.0,-51.451629,-19.312182,-66.097814,-16.394635,-65.055244,-13.012448,-57.549414,-9.6502,-39.164748,0.0,41.919514,23.696675,47.075713,15.690577,40.725066,5.138466,32.278679,-8.095527,13.732327,0.0,-56.074176,-18.798394,-65.065619,-13.043725,-62.788869,-6.814208,-52.46663,0.27557,-33.94431,227.582485,55.726838,-213.236212,44.480477
63,5.256089,5.612514,-4.718748,4.403508,0.0,-44.611565,-28.025826,-58.863854,-19.784592,-52.287323,-8.908402,-40.204376,4.910797,-21.364678,0.0,-49.696269,-18.490618,-64.023914,-16.088799,-62.874671,-13.025496,-55.05923,-9.757393,-35.00466,0.0,42.755848,23.905507,47.083352,15.220002,40.692124,3.528042,31.261277,-11.44535,10.608456,0.0,-56.610333,-15.274539,-64.189967,-9.955914,-61.898409,-4.224834,-51.843083,2.035195,-32.769487,232.126711,60.565508,-218.666823,48.110141
64,1.72364,1.335223,-2.298591,3.023757,0.0,-39.871788,-23.273231,-52.044296,-13.962593,-45.062187,-1.848541,-32.322304,13.760468,-11.765304,0.0,-46.612805,-14.519801,-58.364051,-11.847965,-59.048196,-8.704283,-51.662217,-5.456835,-30.282526,0.0,42.475742,24.214233,48.527733,15.489063,43.281132,3.440906,33.238861,-12.306942,10.812389,0.0,-55.45463,-14.267118,-64.858459,-10.027699,-63.133516,-5.234008,-53.658725,-0.092373,-34.65117,233.291782,61.510404,-221.523983,50.743571
65,-0.651787,1.553813,-0.980267,1.234446,0.0,-35.210357,-22.364479,-50.17353,-13.038459,-42.228859,-0.884353,-29.111755,15.123276,-9.319175,0.0,-45.505262,-15.151538,-60.733759,-13.989031,-63.698354,-12.359864,-57.194566,-10.501973,-35.84575,0.0,41.856549,24.944996,50.411476,16.420384,46.147362,4.478508,35.710751,-11.267475,12.84866,0.0,-52.823562,-14.598229,-65.251882,-11.008758,-64.219446,-6.77184,-54.966968,-2.391525,-36.684493,232.163337,62.913256,-222.980908,51.827056
66,-1.815261,-0.4474,0.054131,-0.158291,0.0,-31.048027,-21.202721,-47.969513,-11.712456,-39.744439,0.43634,-26.349381,16.373336,-7.039238,0.0,-44.932564,-16.655433,-62.595417,-15.995759,-65.71075,-14.656028,-59.655721,-12.912376,-38.337441,0.0,40.705787,25.15979,51.937031,16.965111,48.188965,5.342045,37.351192,-10.021877,14.292412,0.0,-49.967766,-14.993846,-64.73563,-11.60071,-64.477267,-7.39794,-55.290176,-3.117043,-37.059398,229.805592,62.368991,-223.469261,51.5719
67,-2.908082,-1.426095,1.4473,0.380969,0.0,-28.99356,-20.104545,-45.734573,-10.413848,-37.071876,1.809906,-23.789932,17.774254,-5.254669,0.0,-45.047475,-17.514047,-62.949278,-17.110743,-66.390888,-15.737093,-60.504647,-13.730828,-38.973544,0.0,39.168205,24.764362,52.330868,16.765056,48.727432,5.361397,37.537262,-9.709763,14.715397,0.0,-47.854537,-15.250474,-64.907976,-12.245464,-65.020337,-8.314859,-56.113618,-4.182293,-37.699015,226.430414,60.874899,-222.489057,51.884872
68,-2.831497,-1.397165,0.901897,-0.046102,0.0,-27.816284,-19.457519,-44.224617,-9.709739,-35.144714,2.575722,-21.894973,18.522469,-3.679275,0.0,-45.395729,-17.897746,-62.887342,-17.522087,-66.307117,-16.004546,-60.303618,-13.755744,-38.584788,0.0,38.180878,24.794701,52.645489,17.001377,49.342861,5.874561,38.188763,-8.886772,15.572354,0.0,-45.925492,-15.246653,-64.617009,-12.391042,-64.958884,-8.490886,-55.917629,-4.405022,-37.62423,223.292244,59.383985,-221.893833,51.745021
69,-2.52761,-1.096718,1.965626,-0.084691,0.0,-27.670739,-18.722672,-43.268693,-8.976815,-33.792412,3.436409,-20.468903,19.40792,-2.061997,0.0,-46.10003,-17.386175,-62.605118,-16.589329,-65.513878,-14.742306,-59.11157,-12.277507,-37.249393,0.0,37.566399,24.12038,51.709534,16.161529,48.112862,5.022251,36.969337,-9.634827,14.677769,0.0,-45.630078,-15.02398,-64.309615,-12.241359,-64.663049,-8.38985,-55.428084,-4.339547,-37.17594,220.523501,58.174301,-220.16934,51.547364
70,-1.929886,0.123661,1.370922,0.060478,0.0,-26.506165,-18.883004,-43.028504,-9.611801,-34.246422,2.359199,-21.462479,17.857383,-3.688523,0.0,-44.800585,-17.796734,-62.20224,-17.51033,-65.636007,-16.104952,-59.915826,-14.076797,-39.570677,0.0,36.975369,23.586205,51.032707,15.622982,47.480518,4.601326,36.457981,-9.900764,14.444847,0.0,-45.542361,-14.734087,-64.080391,-12.01831,-64.386247,-8.219109,-55.023081,-4.233102,-36.851491,218.430834,58.21232,-218.961199,51.5222
71,-2.081246,-0.326326,1.745499,0.642217,0.0,-25.798736,-18.951599,-42.646866,-9.859566,-34.565964,1.894181,-22.223167,17.15316,-4.685142,0.0,-43.860126,-17.860405,-61.523652,-17.925916,-64.882276,-16.85727,-59.535412,-15.219884,-40.557387,0.0,36.449009,22.616649,49.96083,14.644912,46.305507,3.713459,35.336574,-10.687535,13.39167,0.0,-44.974517,-14.950504,-64.329344,-12.459399,-64.672108,-8.841572,-55.396079,-4.948332,-37.210379,216.270847,57.821292,-217.294441,52.099715
72,-2.001938,-0.388657,1.462555,0.676179,0.0,-25.670219,-18.904129,-42.543045,-9.805915,-34.943962,1.880562,-22.718925,16.9319,-5.220543,0.0,-43.536486,-17.826875,-60.756879,-18.128754,-64.052227,-17.295624,-58.75824,-15.894964,-40.419937,0.0,36.004898,21.845855,49.061016,13.848747,45.340255,3.00785,34.29079,-11.209191,12.511139,0.0,-43.964249,-15.353097,-64.661252,-13.127798,-65.22005,-9.678123,-55.894867,-5.811572,-37.686486,214.177528,57.373327,-215.923267,52.716586
73,-1.281211,0.156105,1.150772,0.947375,0.0,-24.945374,-19.296227,-42.937981,-10.339715,-36.264176,1.039512,-24.129273,15.564102,-6.568566,0.0,-42.185103,-18.129038,-59.988549,-19.084817,-63.686325,-18.752977,-58.567537,-17.643334,-39.97345,0.0,35.493393,21.295623,48.826618,13.301113,45.070175,2.51073,33.89241,-11.573719,12.117176,0.0,-42.8454,-15.891901,-65.517533,-13.928985,-65.95853,-10.693566,-56.6022,-6.841699,-38.309844,212.791981,57.443491,-214.876831,53.57802
74,-1.609086,0.163064,0.521541,0.181744,0.0,-24.578315,-19.490341,-43.145942,-10.63227,-37.209091,0.553872,-25.126464,14.775902,-7.468734,0.0,-41.117185,-18.488851,-59.469716,-19.925079,-63.315211,-19.90485,-58.487569,-18.941704,-40.079833,0.0,35.067902,21.12822,49.174393,13.33049,45.607716,2.760899,34.389702,-11.048824,12.738991,0.0,-42.347321,-15.957505,-65.388314,-14.091617,-65.427019,-10.883665,-55.868401,-6.968905,-38.068697,211.098558,57.531769,-214.439627,53.684978
75,-1.652504,-0.136845,1.098416,0.712772,0.0,-24.30162,-19.26519,-43.165924,-10.347633,-37.482582,0.841988,-25.131271,14.896729,-6.906326,0.0,-40.773093,-18.646636,-59.036858,-20.119723,-62.563492,-19.967292,-57.182221,-18.644215,-37.303652,0.0,34.739799,20.715477,49.246948,12.885486,45.721618,2.35746,34.279209,-11.319386,12.732261,0.0,-41.369583,-16.332261,-65.526042,-14.732561,-65.398935,-11.746583,-55.975501,-7.89411,-38.419735,209.367336,57.304404,-213.419929,54.30723
76,-1.851287,0.542545,0.840236,0.177514,0.0,-24.810357,-18.720841,-43.154801,-9.791428,-37.507874,1.442321,-24.765129,15.34655,-6.11657,0.0,-41.063375,-18.962217,-58.694884,-20.264639,-62.381075,-19.771006,-56.351641,-17.96191,-35.237551,0.0,34.641838,20.567482,49.370774,12.771572,45.896382,2.303685,34.240952,-11.223404,12.983849,0.0,-41.362155,-16.058991,-65.052126,-14.526154,-64.75594,-11.620248,-55.207974,-7.817176,-38.142513,207.405568,57.760298,-212.690174,54.398093
77,1.154548,0.185573,0.792813,0.175254,0.0,-28.490982,-21.394134,-46.912834,-12.312286,-41.212097,-0.738899,-28.982528,13.687111,-9.29956,0.0,-42.331458,-19.591362,-60.189072,-19.825995,-62.576497,-18.275047,-55.75291,-15.339655,-34.456631,0.0,34.776352,20.625126,49.864986,12.934307,46.397392,2.509872,34.586815,-10.956757,13.491325,0.0,-41.247805,-15.63931,-64.505122,-13.995842,-63.750681,-11.068434,-54.103895,-7.325883,-37.498283,208.466984,57.880326,-211.990493,54.507802
78,0.908295,-1.19387,1.94252,0.555581,0.0,-33.988266,-24.133003,-50.33448,-14.989769,-43.944832,-3.0,-32.582588,12.262825,-12.706467,0.0,-43.511249,-17.03416,-58.438238,-15.695387,-59.839762,-13.302114,-52.866992,-10.173523,-31.919381,0.0,35.155037,19.780208,49.550628,12.109829,46.045418,1.838459,33.97261,-11.354851,12.894218,0.0,-41.347452,-15.752975,-64.283605,-14.061711,-63.296198,-11.147042,-53.847946,-7.421368,-37.542731,209.376846,56.705151,-210.046406,55.082078
79,0.816925,0.817433,2.177788,0.248947,0.0,-38.465492,-26.559196,-54.019432,-17.69204,-47.422646,-5.742828,-35.968254,9.82251,-15.781517,0.0,-43.003864,-15.420004,-55.896059,-13.297513,-57.321648,-10.637033,-50.756579,-7.547302,-30.183972,0.0,35.668064,18.941162,49.484344,11.40168,45.966064,1.255394,33.633911,-11.672894,12.466552,0.0,-42.088414,-15.373568,-63.541372,-13.482227,-62.212614,-10.444755,-52.938888,-6.468788,-36.363984,210.2488,57.586668,-207.813589,55.395109
80,-1.090576,1.882202,2.764915,0.979936,0.0,-43.879807,-28.055329,-57.564972,-19.148415,-50.764824,-7.057251,-38.824379,8.901192,-17.668808,0.0,-43.451764,-14.227029,-53.369646,-11.242175,-54.584499,-7.947883,-48.001417,-4.530146,-28.057504,0.0,35.651001,17.734978,48.977921,10.367477,45.623898,0.554775,33.112816,-11.797588,11.904682,0.0,-42.387941,-15.540967,-62.813674,-13.420903,-61.23642,-10.167088,-52.151743,-5.928188,-35.825311,209.285082,59.496831,-204.921816,56.403006
81,-0.758972,3.3472,4.085873,1.794213,0.0,-48.117691,-29.338852,-62.399483,-20.954247,-56.471466,-9.582047,-44.680436,5.641616,-23.202462,0.0,-41.363854,-14.100942,-50.911721,-10.731592,-51.421847,-7.09311,-45.149463,-3.406684,-27.581125,0.0,34.750248,15.001465,47.598713,8.007557,44.612022,-0.896313,32.841591,-11.783135,12.27428,0.0,-42.067338,-18.019943,-61.577887,-15.696071,-59.844905,-11.949797,-51.322916,-6.701815,-35.499218,208.802176,62.930722,-200.559877,58.28391
82,-2.999451,3.580332,5.258079,-0.28131,0.0,-49.93737,-27.227051,-66.162781,-20.316238,-62.28653,-10.835129,-50.958572,2.015602,-29.433197,0.0,-36.777965,-14.473099,-45.078005,-10.487629,-43.993186,-5.854044,-37.4439,-1.090006,-20.178584,0.0,35.449402,12.244091,46.949902,4.847775,44.269982,-3.114383,33.741715,-11.708702,15.366852,0.0,-44.595474,-21.219578,-56.322544,-16.905941,-52.575474,-10.82962,-43.724262,-2.893321,-29.135172,206.175762,66.910416,-194.928761,58.401962
83,-4.07737,6.212147,5.687474,1.03545,0.0,-50.592979,-25.68441,-71.308845,-19.876465,-70.943458,-12.125084,-59.811424,-1.805122,-37.606979,0.0,-33.214472,-18.057507,-42.233318,-13.261568,-37.229577,-6.894279,-28.568909,0.136536,-12.331088,0.0,35.714321,8.093113,48.503597,0.78804,46.706382,-6.02068,36.979728,-12.164429,19.262924,0.0,-49.946611,-24.688945,-50.790535,-18.225313,-45.840054,-9.249638,-36.333683,1.75457,-21.839324,202.583507,73.916318,-188.756172,60.231167
84,-6.289306,5.567645,5.485942,3.396896,0.0,-53.574921,-24.985405,-77.683915,-20.044991,-80.307175,-13.816132,-70.639252,-5.887482,-49.16082,0.0,-30.897417,-20.231238,-37.727649,-13.345641,-27.65365,-4.36563,-16.728791,5.479306,-1.067535,0.0,36.264553,4.704815,51.283425,-2.192802,51.151234,-7.455825,42.411873,-10.784763,24.99511,0.0,-53.433743,-28.508325,-45.796884,-20.101192,-40.593819,-8.720393,-30.377825,4.824906,-15.801597,196.918574,80.699977,-182.645857,64.844077
85,-10.62687,5.785508,4.725151,3.86694,0.0,-57.439659,-25.86898,-84.469619,-21.302764,-88.686126,-15.994651,-80.310035,-9.875244,-58.886924,0.0,-28.87424,-20.997042,-27.515935,-11.91733,-12.935137,-0.420879,-1.03482,12.201257,12.409443,0.0,38.281334,3.551274,56.995755,-2.871448,58.623791,-7.022232,50.997757,-8.161788,33.643651,0.0,-56.596957,-31.2119,-38.866116,-20.583295,-32.70718,-6.610974,-21.950548,9.665928,-7.322048,187.011686,88.306835,-177.200724,70.532367
86,-11.815246,6.285765,5.21497,5.109378,0.0,-61.51387,-27.114624,-91.638725,-22.518654,-97.054825,-17.558602,-89.102852,-12.31382,-67.483658,0.0,-27.887832,-19.931884,-16.828413,-8.129009,1.734545,6.167848,14.982225,21.472823,28.146048,0.0,42.062897,4.049755,64.367306,-2.074848,67.706932,-5.694363,60.074101,-5.65131,42.395222,0.0,-59.077274,-31.429848,-30.745567,-18.428416,-23.571942,-2.257064,-12.427653,15.8878,2.34775,176.011128,96.759057,-171.171066,77.808202
87,-16.814186,9.442565,5.384216,9.350507,0.0,-64.270867,-30.349869,-95.897576,-25.538132,-101.389778,-20.095505,-93.544808,-14.315254,-72.422264,0.0,-26.0905,-16.945882,-6.129142,-3.634691,13.394683,11.690149,26.695833,27.617353,37.34555,0.0,44.424969,5.143914,71.801777,-0.258773,76.415554,-3.70467,68.242596,-3.638786,48.140866,0.0,-58.313786,-30.158519,-25.721202,-16.707748,-19.068676,-0.139896,-8.347396,18.428564,7.236444,160.057492,108.12327,-164.9263,89.080357
88,-16.464455,10.156473,5.527497,9.477014,0.0,-68.056251,-31.579719,-99.688316,-26.948021,-104.730904,-21.489418,-96.72155,-15.602714,-76.069359,0.0,-24.37923,-12.96445,4.191828,1.946045,23.086861,18.310658,35.222157,34.938945,45.101926,0.0,47.683868,8.633217,77.946693,3.777248,83.393303,0.308887,75.280449,-0.094345,54.155273,0.0,-53.049038,-26.915244,-18.927125,-13.022773,-11.762181,3.425135,-1.918529,21.992385,13.673474,144.280575,119.745019,-158.711265,100.022647
89,-18.022064,11.440968,6.904918,10.652311,0.0,-69.820564,-33.865471,-101.690254,-29.060486,-105.571518,-22.956184,-97.231728,-16.066933,-75.766754,0.0,-20.139304,-8.695286,14.297943,7.261206,31.803333,23.982026,43.66471,40.267166,51.999818,0.0,51.356919,11.87716,82.94925,7.118443,88.499932,3.227326,79.90099,1.858727,58.197785,0.0,-47.58162,-23.574233,-12.229422,-9.113379,-3.444407,7.539645,5.872699,26.163649,20.967883,126.740559,132.208796,-151.324299,111.697767
90,-12.590172,12.320911,7.639916,11.532321,0.0,-71.602341,-34.593567,-103.406467,-30.265366,-107.802933,-24.227051,-99.307228,-17.099304,-78.141357,0.0,-16.019545,-4.887069,18.986591,12.229774,35.824595,29.44411,47.997305,45.559769,56.922043,0.0,55.090725,14.934448,86.390613,10.541199,92.546791,6.634804,83.592842,4.494026,61.323669,0.0,-41.536698,-19.617155,-6.840383,-4.74994,3.741452,11.95953,13.311351,30.464264,27.686631,114.395119,144.93672,-143.439651,123.637101
91,-12.60331,12.783688,7.794548,12.037934,0.0,-72.459182,-35.304313,-103.216175,-31.631423,-108.345394,-25.979461,-100.215122,-18.916694,-79.185218,0.0,-11.618291,-1.097725,24.228256,16.646602,39.945922,33.689024,51.755737,49.097185,61.115148,0.0,57.505817,18.496754,89.641205,14.169102,95.684589,9.958362,86.43211,6.901073,63.884514,0.0,-36.237111,-14.295547,-0.90678,0.838182,11.087275,17.426084,21.011023,35.333913,34.77464,101.837739,157.643856,-135.599173,135.598483
92,-9.731643,12.033315,8.456634,12.577701,0.0,-72.811592,-34.240242,-100.965477,-30.589669,-107.603668,-25.339874,-99.95921,-18.851097,-79.145828,0.0,-7.114574,2.566347,26.671127,20.971836,43.328436,38.036019,56.070473,52.824724,65.763571,0.0,59.69521,21.364083,91.986157,17.190297,97.752217,12.981858,88.052639,9.363247,66.003079,0.0,-30.232057,-9.121536,5.979323,6.231358,18.299549,22.42565,28.070045,39.105387,40.696053,92.005434,169.423274,-127.243201,147.922287
93,-10.801712,12.185913,12.561024,13.412881,0.0,-69.771881,-34.486359,-93.490196,-30.445153,-103.32985,-24.943337,-97.57013,-18.24305,-76.733437,0.0,-0.196329,6.259207,28.414106,24.493573,46.301422,41.037644,61.400448,54.671209,69.910124,0.0,59.677437,25.773033,92.078533,22.264572,97.578438,18.108273,88.665482,13.770092,69.094322,0.0,-22.286446,-3.97044,13.487612,12.784287,27.809891,29.528109,39.012861,45.720672,50.106656,81.099959,181.322453,-114.78594,161.048434
94,-7.164368,13.368408,11.195149,13.121926,0.0,-67.288101,-32.720764,-88.31765,-28.496178,-96.481293,-23.315506,-90.330803,-17.228165,-71.175751,0.0,3.803517,11.891376,29.490318,27.683328,45.324642,41.806128,58.60061,53.118619,67.039706,0.0,60.230175,27.456768,93.342086,23.402595,97.852707,18.716114,89.245834,13.579708,69.973514,0.0,-15.273742,1.499386,20.581091,18.81314,35.787513,35.565829,47.992247,50.87115,58.181201,73.829161,194.340288,-103.697221,173.819787
95,-8.602272,23.074252,10.377662,13.45355,0.0,-67.144741,-36.969955,-81.707336,-34.02063,-86.804203,-29.810417,-82.612095,-24.287224,-69.554707,0.0,10.943075,11.494197,24.331836,20.477635,34.835248,28.157249,42.251707,33.280805,45.907504,0.0,60.369152,27.835018,93.650231,23.243225,96.480801,18.190361,87.74905,12.623497,69.924786,0.0,-9.569524,6.549125,27.876544,24.251177,43.730085,40.806586,56.956937,55.128495,66.809178,65.184374,217.022024,-93.362074,186.880821
96,-7.338821,21.789041,11.315941,13.407212,0.0,-67.773594,-38.658944,-76.408848,-36.403611,-78.426339,-32.545578,-76.41354,-27.250489,-68.215245,0.0,17.711376,11.294286,17.160192,13.649409,21.450339,14.902967,23.687495,13.980713,22.88012,0.0,60.142925,30.353554,95.181301,24.872543,96.020096,18.80793,86.456383,11.996555,69.197468,0.0,-2.476167,12.636184,36.09545,31.589955,51.894404,48.402295,65.231913,62.051322,75.222549,57.749091,238.460041,-82.142595,199.937009
97,-5.05037,22.586868,8.710579,13.052049,0.0,-68.924068,-40.952041,-69.25724,-39.321533,-66.703434,-35.604446,-67.082782,-30.21936,-66.399307,0.0,22.657745,8.94614,12.887125,4.238214,10.100354,-1.325448,5.099472,-8.555199,-1.391929,0.0,62.916412,31.744583,96.410454,25.76873,96.34465,19.106678,86.494949,11.531273,68.428677,0.0,4.128323,17.491446,41.923034,37.474657,58.762976,54.471323,72.604924,67.783303,82.824456,52.593006,260.783037,-73.537731,212.725186
98,-4.691757,17.25945,3.452717,11.843914,0.0,-71.429729,-42.294411,-65.069412,-40.064598,-55.471996,-35.619758,-55.575691,-29.425072,-62.003059,0.0,26.953857,8.126601,11.927462,-1.088413,3.184543,-11.063253,-7.708057,-22.318044,-15.231764,0.0,66.961052,31.64328,99.032421,24.334762,98.334675,16.676937,86.453373,8.520412,65.97361,0.0,6.667093,21.025892,45.761773,40.347546,62.53032,56.301123,75.44017,68.445947,85.436783,47.788101,277.82148,-70.198162,224.348093
99,-2.910049,16.083895,3.527241,10.677906,0.0,-73.241673,-46.144203,-55.149216,-44.69664,-43.830494,-40.180596,-45.59301,-33.480286,-63.511254,0.0,31.37389,3.118593,10.694517,-8.641242,-0.289708,-20.900464,-13.116232,-33.97236,-23.521053,0.0,69.592792,34.249958,99.995636,26.755268,99.259346,18.5919,86.401199,9.926822,65.846786,0.0,8.754121,23.873722,49.956861,43.073123,67.122969,58.27647,79.059756,69.598852,87.660922,44.744316,293.722677,-66.804657,234.843301
100,-1.071717,5.257566,4.148025,8.800483,0.0,-72.762188,-45.374199,-45.091632,-43.221038,-32.561302,-37.859184,-33.423374,-30.524047,-65.085456,0.0,32.726298,2.957425,15.324908,-6.700426,5.432233,-16.958788,-4.82603,-27.715401,-13.431542,0.0,71.519875,36.446011,100.89489,28.555596,100.315636,19.691151,86.883545,10.360851,65.26973,0.0,10.368426,26.233527,53.516069,45.457998,70.502595,60.188917,81.263641,70.991164,88.733428,43.522499,298.874869,-62.806732,243.53841
101,-0.912941,1.492161,1.705685,7.699857,0.0,-70.623287,-47.053413,-33.327575,-44.72969,-19.551269,-38.852668,-19.879806,-30.950431,-65.003357,0.0,32.26075,3.559998,22.305126,-1.824588,16.956021,-7.987909,9.852563,-14.6367,4.895178,0.0,73.668857,35.68927,99.875644,28.007572,100.364399,19.438339,87.371647,10.600879,65.041088,0.0,10.144592,25.724308,53.368176,44.087065,70.9161,58.057552,81.786482,68.473611,87.774061,42.445192,300.310692,-61.265413,251.181929
102,-1.180114,-2.522331,2.577095,6.211363,0.0,-66.408383,-48.877579,-24.146691,-47.458546,-11.217659,-41.902142,-10.282173,-33.840409,-59.412518,0.0,26.551467,5.487475,28.5578,6.329417,28.298892,6.054233,26.533411,5.01438,26.691233,0.0,72.498379,36.232178,98.912304,28.57505,99.798603,19.838756,86.650944,10.864128,64.627041,0.0,9.30102,25.90263,53.783695,43.584712,71.377535,56.917614,82.20736,66.842314,86.9975,41.0957,297.742039,-58.857696,257.34697
103,-0.19352,0.63183,2.77541,5.080675,0.0,-61.444347,-49.731491,-13.87278,-50.98566,-2.841499,-47.119251,-2.886978,-40.312385,-55.485363,0.0,17.184979,5.488846,31.154886,10.592419,34.662433,14.177092,35.984423,16.66446,37.460184,0.0,71.702339,36.18021,98.111343,28.551166,98.674507,19.84996,85.973327,10.871223,64.309364,0.0,9.638215,26.475317,54.556514,43.891427,70.979555,56.834363,81.829485,66.280163,85.47786,40.725037,298.345074,-56.259429,262.39885
104,-10.220398,-4.768379,3.014122,4.510436,0.0,-46.79607,-40.598122,0.427483,-42.979866,7.988182,-41.637955,4.643051,-37.667129,-52.946834,0.0,10.295844,9.634373,34.330438,19.854709,42.670708,27.280468,46.209303,33.063357,51.977977,0.0,71.056503,35.31586,97.130813,27.576255,97.375923,18.874488,84.593788,9.910125,62.633606,0.0,10.353432,27.303488,55.277425,44.60357,70.423084,57.205013,80.911737,66.150672,83.853502,30.362457,293.543718,-53.387489,266.876309
105,-10.788277,-5.747667,2.12844,3.779532,0.0,-29.548347,-29.645324,14.998765,-33.687526,19.537812,-35.403865,11.847771,-34.682052,-44.973838,0.0,4.581325,14.082824,37.521786,29.064697,51.026861,39.988369,57.048156,48.502677,66.509331,0.0,70.043724,34.825047,96.124695,26.969834,96.071732,18.108879,83.019036,9.030281,60.948601,0.0,11.259212,28.320382,55.719151,45.606706,70.086026,57.903609,80.191765,66.279645,82.407704,19.435621,287.771712,-51.397608,270.631502
106,-11.524715,-2.916138,1.423897,2.812485,0.0,-11.982754,-17.971767,30.098888,-23.823658,31.945782,-28.765194,20.574795,-31.484013,-35.649879,0.0,0.456558,16.898383,39.159851,34.33707,55.445757,46.726981,62.484649,56.137645,72.973043,0.0,69.518852,34.426323,95.448143,26.285008,94.873123,17.08952,81.314507,7.746941,58.962593,0.0,12.195422,29.314316,56.175313,46.539285,70.14028,58.545269,79.701541,66.419101,81.306409,7.802301,284.838722,-50.082316,273.427135
107,-9.738808,-2.013743,1.119003,1.78303,0.0,1.524113,-7.799549,41.148091,-14.412666,42.190808,-21.734127,27.858662,-27.477642,-36.464183,0.0,1.249483,19.317604,40.126159,37.589823,57.668574,50.186808,64.575617,59.78318,76.857194,0.0,69.096978,33.643868,94.830781,25.273339,94.11866,15.89161,80.432511,6.492497,58.109849,0.0,13.355306,30.124482,56.505913,47.437433,70.262287,59.318595,79.328606,66.865458,80.495713,-2.057551,282.809739,-49.084357,275.194925
108,-9.336616,-2.379169,0.849759,1.364475,0.0,13.81406,0.836986,49.892956,-6.119682,51.010586,-15.461907,34.281086,-23.657753,-39.412491,0.0,4.432469,21.545089,42.322584,40.52703,60.809929,53.220815,67.034148,63.069882,80.612779,0.0,68.712673,32.99612,94.191387,24.440677,93.652828,14.903755,79.705913,5.434044,57.41518,0.0,13.774676,30.561106,56.110932,47.921975,70.008677,59.7259,78.810519,67.059984,80.028138,-11.539942,280.41993,-48.380373,276.54876
109,-2.230202,0.456521,0.343368,0.628829,0.0,18.454365,3.646534,53.377499,-4.40522,55.517246,-14.771049,37.767597,-23.902634,-35.926998,0.0,4.642038,20.635493,42.979299,39.785877,61.156595,52.687329,67.413233,62.680003,80.290578,0.0,68.206158,32.666176,93.765553,24.112507,93.529942,14.47609,79.592663,4.964379,57.863949,0.0,14.075352,30.684348,55.629328,48.052219,69.783202,59.84414,78.430532,67.148546,79.882605,-13.96023,280.866831,-48.227091,277.167969
110,-0.882465,-0.127959,0.470558,0.284595,0.0,20.16291,4.31575,54.946884,-4.243378,57.187225,-14.807614,39.196563,-24.030316,-32.81361,0.0,5.255799,20.17502,43.58596,39.606294,61.228645,52.737803,67.319422,62.818064,79.497159,0.0,67.789547,32.198376,93.543011,23.637291,93.367459,14.009583,79.436657,4.596371,58.106587,0.0,14.427972,30.423168,55.439335,47.795227,69.578339,59.575649,78.047272,66.850737,79.599999,-15.024032,280.713322,-47.93787,277.427014
111,1.194523,0.053253,0.780293,0.095886,0.0,19.702457,2.857669,53.716495,-5.897038,56.725948,-16.331852,38.543048,-25.353814,-34.485249,0.0,5.470185,19.489171,44.199401,39.003154,61.110381,52.270612,67.248422,62.532308,79.446005,0.0,67.306389,31.778549,93.000709,23.286289,92.981094,13.704929,79.172745,4.346306,58.040634,0.0,14.661796,30.208944,55.344906,47.609296,69.512612,59.414629,77.84956,66.720727,79.37167,-13.992616,280.731992,-47.320684,277.488317
112,-1.576928,-0.047622,0.571873,0.271183,0.0,21.906773,4.259205,55.723401,-4.916473,58.798222,-15.654373,39.748158,-24.878471,-31.897762,0.0,5.858237,19.029748,44.726701,38.761796,61.47666,52.173924,67.658581,62.48807,79.28627,0.0,66.963192,31.683345,92.591228,23.223484,92.567127,13.611373,78.802951,4.21495,57.771205,0.0,14.613136,29.819768,55.266829,47.214526,69.220125,59.051178,77.525506,66.423622,79.111331,-15.70257,280.642723,-46.881837,277.717853
113,-2.332225,-0.013511,0.498115,0.201492,0.0,25.160522,6.194847,58.839454,-3.37294,62.079048,-14.499619,42.372551,-23.990891,-27.736897,0.0,5.295975,18.23996,44.974591,38.180045,61.808556,51.780141,68.029367,62.229966,79.028746,0.0,66.610806,31.536095,92.019138,23.110142,91.905865,13.457382,78.172382,4.016167,57.334522,0.0,14.502677,29.470248,55.399876,46.886977,69.102613,58.769275,77.369339,66.210805,79.00901,-18.121559,280.562475,-46.470486,277.852608
114,1.005844,0.050105,0.264496,0.023094,0.0,22.694687,4.95124,57.500221,-4.639996,60.864303,-15.576828,41.260322,-24.946324,-28.663605,0.0,6.549384,18.369043,45.09351,37.878246,61.735814,51.146507,67.990587,61.309057,79.080368,0.0,66.418751,31.477707,91.773983,23.035389,91.458698,13.33548,77.730823,3.830589,56.896213,0.0,14.466813,29.133548,55.413536,46.580201,69.076901,58.5366,77.425557,66.063765,79.164189,-17.152118,280.550644,-46.242393,277.813766
115,0.116535,0.018685,0.056854,0.119982,0.0,22.790279,4.629993,57.270206,-5.29113,60.819591,-16.41354,40.863544,-25.955555,-30.036232,0.0,7.027654,18.078705,45.359173,37.406448,61.606694,50.65679,68.272886,60.899504,79.694477,0.0,66.398632,31.453606,91.73782,23.05283,91.223339,13.387882,77.4539,3.906658,56.749684,0.0,14.257429,28.816509,55.168633,46.351242,68.888981,58.426696,77.311849,66.08928,79.141131,-17.053974,280.524566,-46.20393,277.888985
116,0.194138,-0.284978,-0.081344,0.106544,0.0,21.066478,4.137691,56.581043,-6.118481,59.93217,-17.352059,39.511631,-26.986542,-30.174317,0.0,8.180781,18.27023,45.56222,37.77332,61.753722,51.250249,68.92991,61.530074,80.014023,0.0,66.384006,31.410656,91.791355,23.067134,91.231601,13.422981,77.445156,3.960422,57.138279,0.0,14.136139,28.413254,55.016282,45.962252,68.674597,58.174606,77.132316,66.031975,79.448895,-16.864986,280.183386,-46.290424,277.939327
117,0.331295,0.242988,-0.237832,0.111447,0.0,20.2145,3.89241,56.440544,-6.51447,59.214569,-17.73935,38.658165,-27.353508,-29.213356,0.0,6.61074,18.212407,44.78561,37.82866,60.912237,51.497756,68.729987,61.807519,79.56049,0.0,66.383366,31.43842,91.938366,23.13715,91.276532,13.485157,77.40215,4.02475,57.364346,0.0,13.852173,28.104255,54.898981,45.676817,68.539783,58.043917,77.038702,66.101778,79.93597,-16.530532,280.351696,-46.525097,277.976096
118,-0.431569,0.136221,-0.320674,0.188302,0.0,20.227879,4.672451,56.616841,-5.806686,58.335514,-17.069927,37.710263,-26.716461,-27.763023,0.0,5.998707,18.38316,44.16229,38.243648,60.198847,52.109839,68.51927,62.432507,79.090348,0.0,66.302398,31.421287,92.274147,23.155117,91.471527,13.498146,77.494812,4.04314,57.456527,0.0,13.636788,27.834183,54.646237,45.411191,68.349888,57.908387,76.858934,66.169073,80.315549,-16.945267,280.414243,-46.828937,278.090724
119,-1.724613,-0.097639,-0.234044,0.093984,0.0,23.503533,5.772309,58.837555,-4.733562,60.375893,-15.991436,39.80539,-25.518287,-24.448997,0.0,4.260062,18.007198,43.695122,38.565355,59.882931,53.055805,68.745869,63.806552,78.97296,0.0,66.165677,31.367363,92.406201,23.155919,91.500538,13.533772,77.507,4.10027,57.576497,0.0,13.493527,27.692528,54.550351,45.301942,68.302242,57.949069,76.827491,66.413902,80.667255,-18.638312,280.211452,-47.031413,278.079556
120,-0.52145,0.336626,-0.349983,0.024687,0.0,24.132488,6.68018,59.034222,-3.435139,60.426029,-14.607262,39.97665,-24.122566,-23.724975,0.0,2.386678,18.35158,42.948375,39.093951,59.638918,53.652944,68.37155,64.441347,78.568396,0.0,66.195042,31.377217,92.536366,23.184632,91.616741,13.50396,77.652912,3.969738,57.682858,0.0,13.518611,27.667322,54.558922,45.225434,68.293807,57.929705,76.902939,66.517161,81.102226,-19.105213,280.406926,-47.326847,277.963091
