takenoko1/special-research/HandMotion_SimilarSearch_自分用/NewProject/handData/test_key/d4_feature_d3/97.csv
frame,vel_0x_L,vel_0y_L,vel_0x_R,vel_0y_R,posFromWrist_0x_L,posFromWrist_1x_L,posFromWrist_2x_L,posFromWrist_3x_L,posFromWrist_4x_L,posFromWrist_5x_L,posFromWrist_6x_L,posFromWrist_7x_L,posFromWrist_8x_L,posFromWrist_9x_L,posFromWrist_0y_L,posFromWrist_1y_L,posFromWrist_2y_L,posFromWrist_3y_L,posFromWrist_4y_L,posFromWrist_5y_L,posFromWrist_6y_L,posFromWrist_7y_L,posFromWrist_8y_L,posFromWrist_9y_L,posFromWrist_0x_R,posFromWrist_1x_R,posFromWrist_2x_R,posFromWrist_3x_R,posFromWrist_4x_R,posFromWrist_5x_R,posFromWrist_6x_R,posFromWrist_7x_R,posFromWrist_8x_R,posFromWrist_9x_R,posFromWrist_0y_R,posFromWrist_1y_R,posFromWrist_2y_R,posFromWrist_3y_R,posFromWrist_4y_R,posFromWrist_5y_R,posFromWrist_6y_R,posFromWrist_7y_R,posFromWrist_8y_R,posFromWrist_9y_R,posFromBody_0x_L,posFromBody_0y_L,posFromBody_0x_R,posFromBody_0y_R
6,-2.749626,-1.26555,-0.170105,0.01955,0.0,23.341438,1.49398,48.499329,-6.147526,51.452339,-15.114075,36.426659,-22.707813,-10.801048,0.0,-4.36384,19.112839,39.133262,39.421846,55.469975,54.203561,64.700242,65.151205,72.065917,0.0,61.584229,29.736019,91.881432,22.20789,91.987061,13.282803,78.107369,4.357796,56.58577,0.0,19.208515,28.295533,52.156757,45.870429,66.644354,58.263378,75.252559,66.081277,80.410843,-12.075897,271.012079,-45.78685,269.129013
7,0.398323,-0.421199,-0.038921,-0.021304,0.0,23.548393,1.077484,47.640244,-6.359859,50.710419,-15.176445,36.004784,-22.68457,-10.780483,0.0,-4.740123,19.20292,39.390822,39.664772,55.581163,54.493071,64.843774,65.41762,72.499293,0.0,61.575519,29.862533,91.844639,22.299373,91.972721,13.302189,78.188907,4.285,56.523548,0.0,19.136798,28.248825,52.004579,45.841048,66.53886,58.265354,75.199627,66.10494,80.476644,-12.054886,270.427893,-46.203083,268.944722
8,-0.389923,-0.374825,-0.028404,0.148448,0.0,24.851738,1.660652,47.972992,-5.777962,50.939873,-14.595543,36.575935,-22.156597,-8.052452,0.0,-4.685869,19.101884,39.497057,39.731931,55.779616,54.710679,65.045228,65.701746,72.726856,0.0,61.587032,29.792839,91.83752,22.288112,92.060749,13.374126,78.325229,4.410884,56.657856,0.0,18.928094,28.179368,51.779721,45.794957,66.219771,58.273407,74.98765,66.172742,80.341386,-12.692842,269.924377,-46.47952,268.964479
9,0.219509,-0.128972,-0.027935,0.061824,0.0,24.800571,1.477398,47.684773,-5.880867,50.684109,-14.621578,36.593205,-22.178856,-6.894756,0.0,-4.624007,19.124102,39.421833,39.716111,55.695166,54.685053,65.049217,65.645344,72.740034,0.0,61.550811,29.727687,91.937873,22.270763,92.184791,13.423553,78.44371,4.49802,56.754592,0.0,18.775213,28.135402,51.627396,45.819176,66.090416,58.37206,74.855146,66.331824,80.265495,-12.636629,269.697827,-46.670751,268.928725
10,0.05983,0.021291,0.021858,0.081042,0.0,24.431751,1.521869,47.699077,-5.956135,50.751629,-14.743355,36.986538,-22.423039,-2.727986,0.0,-4.295889,18.783932,39.245351,39.368321,55.674011,54.51046,65.105287,65.617853,72.292245,0.0,61.493019,29.811458,92.146774,22.360016,92.266754,13.469616,78.474746,4.478645,56.707603,0.0,18.615242,28.150049,51.529891,45.793698,66.095788,58.328179,74.767584,66.313841,80.261765,-12.709619,269.640392,-46.781713,268.931041
11,0.602829,0.117499,-0.085888,0.122414,0.0,23.267063,1.094387,47.041362,-6.390232,50.328769,-15.122727,36.836689,-22.809666,-1.107125,0.0,-4.149751,18.640868,39.018875,39.206213,55.571579,54.377561,64.943291,65.470393,72.009774,0.0,61.494289,29.81084,92.302036,22.425877,92.430187,13.583462,78.536693,4.605835,56.739429,0.0,18.433831,28.136686,51.400548,45.756968,66.08098,58.285337,74.606477,66.328315,80.05516,-12.209661,269.69318,-46.970472,268.988744
12,0.510475,-0.006027,-0.045788,0.062343,0.0,22.218029,0.808353,46.573757,-6.782719,50.04594,-15.453175,36.995075,-23.168987,3.206371,0.0,-3.526998,18.422976,38.838885,38.892571,55.691659,54.176316,65.051861,65.407667,71.593909,0.0,61.444428,29.737312,92.520287,22.370064,92.521591,13.585625,78.480835,4.683861,56.811836,0.0,18.426422,28.24307,51.370896,45.862562,66.062604,58.367971,74.568599,66.408233,79.909998,-11.785257,269.648099,-47.102331,269.012033
13,1.007687,-0.097566,-0.009773,0.065431,0.0,20.124137,-0.260102,46.019462,-7.772255,49.809425,-16.404591,36.032455,-24.107747,-2.236657,0.0,-3.805505,18.758899,39.263555,38.99856,55.788954,53.963426,65.199914,64.925606,72.127631,0.0,61.488807,29.679634,92.847381,22.224689,92.583458,13.419285,78.279693,4.573597,56.872467,0.0,18.455938,28.275933,51.481145,45.970094,66.201122,58.492682,74.578405,66.548344,79.693525,-10.850349,269.51477,-47.184883,269.041701
14,1.530647,0.064801,0.054703,0.02549,0.0,17.64283,-2.014527,45.14669,-9.636086,49.308517,-18.240887,34.388305,-25.806439,-7.226887,0.0,-4.362815,18.781845,39.942908,38.99788,56.097002,53.732998,65.460142,64.414794,72.355342,0.0,61.5634,29.392971,93.140441,21.855091,92.642166,13.090026,78.238632,4.356479,57.016594,0.0,18.616971,28.43956,51.623999,46.16178,66.231899,58.657173,74.638168,66.680491,79.444276,-9.377409,269.546572,-47.187887,269.034192
15,-1.366905,-0.068851,0.051567,0.081881,0.0,19.339828,-1.025666,47.292572,-8.781327,51.63874,-17.480462,35.773429,-25.056382,-8.299233,0.0,-5.03508,18.428793,40.539466,38.781568,56.548717,53.507151,65.756247,64.180006,72.529168,0.0,61.672279,29.132572,93.462684,21.520191,92.651069,12.81879,78.251335,4.216198,57.172783,0.0,18.726307,28.453997,51.700137,46.248144,66.167975,58.785935,74.614307,66.828297,79.130905,-10.7786,269.446568,-47.170606,269.08492
16,-1.613938,0.039347,0.049747,-0.004853,0.0,21.820976,0.577652,49.740051,-7.52885,53.84594,-16.602894,37.124405,-24.470489,-8.008312,0.0,-5.168892,17.867506,41.043375,38.270658,57.07656,53.018224,66.115808,63.796203,72.547694,0.0,61.890713,29.155506,93.833943,21.404869,92.643002,12.662762,78.20628,4.112503,57.332852,0.0,18.741867,28.458331,51.896837,46.331519,66.224044,58.916982,74.64654,66.958083,78.965821,-12.427569,269.459387,-47.15589,269.053539
17,-1.870788,-0.147361,0.056843,0.082498,0.0,24.161178,2.106788,52.39492,-6.227337,56.638069,-15.586728,39.007209,-23.646263,-9.780121,0.0,-5.462726,17.698989,41.768448,38.199348,57.672217,52.853252,66.516531,63.583572,72.993482,0.0,62.022011,29.004307,93.999504,21.230427,92.731201,12.546696,78.200409,4.096229,57.464973,0.0,18.647624,28.349725,51.860157,46.266175,66.192836,58.899457,74.538046,67.000296,78.685512,-14.325227,269.28869,-47.125917,269.112701
18,-1.992165,-0.153709,0.041199,-0.088501,0.0,27.010345,4.313118,54.512581,-4.342175,58.845749,-14.092335,41.212807,-22.555389,-5.164856,0.0,-5.515325,17.246581,41.839633,37.878209,58.375196,52.758897,67.138555,63.809331,73.118403,0.0,62.162956,28.920993,94.003578,21.148304,92.68602,12.52716,78.315857,4.148792,57.576416,0.0,18.668052,28.21942,51.838977,46.157853,66.237802,58.832273,74.5902,66.963395,78.682437,-16.342346,269.122551,-47.109672,269.01177
19,-3.120495,-0.202789,0.004955,-0.035728,0.0,31.94553,8.399517,58.208965,-0.670761,61.813305,-11.142757,44.241451,-20.401909,-1.026054,0.0,-4.72913,16.917193,41.69252,37.575422,58.996233,52.604979,67.518518,63.969611,73.303877,0.0,62.207027,28.969952,93.890202,21.25716,92.585873,12.691006,78.258144,4.360542,57.58707,0.0,18.546032,27.948063,51.705929,45.915741,66.175347,58.660495,74.533389,66.879018,78.699652,-19.483292,268.908607,-47.125168,268.964887
20,-0.359871,-0.065467,0.02409,-0.026837,0.0,32.679852,9.325665,58.788082,0.021607,62.186245,-10.806461,44.965016,-20.387249,-0.281788,0.0,-3.851127,16.959466,41.638302,37.531245,59.317865,52.522689,67.565719,63.971067,73.363132,0.0,62.256614,29.217121,93.692184,21.591099,92.517402,13.020675,78.131218,4.667038,57.648216,0.0,18.416542,27.794132,51.550133,45.719918,66.059183,58.481357,74.392944,66.78885,78.557256,-19.861857,268.834566,-47.119772,268.929476
21,0.677387,0.007743,0.130749,0.050722,0.0,31.476655,9.02044,57.828942,-0.144264,61.495469,-10.932449,44.408959,-20.527175,-2.309783,0.0,-3.228633,17.327511,41.557015,37.823696,59.271145,52.672459,67.375726,63.995496,73.476544,0.0,62.120166,29.11148,93.373569,21.643135,92.41595,13.166736,78.037639,4.850349,57.648342,0.0,18.279283,27.599791,51.198193,45.472398,65.779787,58.264156,74.159157,66.692421,78.343291,-19.194964,268.836692,-46.999517,268.974581
22,-0.752174,-0.180533,0.170631,-0.123674,0.0,32.576363,10.527718,58.794365,1.386097,61.825058,-9.614342,44.892746,-19.420051,-2.168758,0.0,-2.629222,17.680847,41.407294,38.237942,59.562224,53.074244,67.573327,64.372569,73.668747,0.0,62.071804,29.390327,93.263363,21.887764,92.244495,13.296707,77.8988,4.869713,57.630215,0.0,18.250569,27.598704,51.34753,45.449365,65.77092,58.275605,74.175323,66.774919,78.40992,-19.958319,268.651229,-46.840067,268.845977
23,-0.404777,-0.158501,0.133186,-0.147386,0.0,33.319587,11.357666,59.558212,2.179138,62.088272,-8.943444,45.431717,-18.812531,-0.568177,0.0,-1.30922,17.914671,41.435489,38.452895,59.786823,53.280355,67.677414,64.511779,73.498403,0.0,62.065029,29.560662,93.229054,22.051461,92.248158,13.398869,77.779072,4.867275,57.559124,0.0,18.343886,27.501151,51.356817,45.403411,65.801079,58.333157,74.184092,66.962653,78.50278,-20.373247,268.489551,-46.717032,268.695414
24,0.021755,-0.188179,0.198841,-0.167035,0.0,32.926288,11.680332,59.595371,2.488907,62.023578,-8.68919,45.692653,-18.539761,-0.240486,0.0,-0.712204,18.093303,41.494845,38.598503,59.964912,53.420171,67.736732,64.585991,73.460378,0.0,62.009812,29.673523,93.259392,22.131558,92.29818,13.409043,77.67849,4.806519,57.47152,0.0,18.312295,27.523184,51.314383,45.458146,65.801029,58.430624,74.119279,67.087117,78.454961,-20.361156,268.297883,-46.527855,268.52489
25,0.046463,-0.190438,0.21642,-0.531733,0.0,32.596447,12.007747,59.700085,2.812923,62.095653,-8.34652,45.254711,-18.130669,-2.426514,0.0,-0.414086,18.134145,41.52304,38.526687,59.752687,53.317949,67.72327,64.474581,73.881984,0.0,62.028911,29.726898,93.401195,22.126682,92.355136,13.351261,77.879551,4.70446,57.685833,0.0,18.370439,27.660134,51.28184,45.639038,65.725694,58.646503,74.263541,67.302515,78.686488,-20.328094,268.106759,-46.324836,267.992471
26,1.509899,3.636951,0.047344,-1.365067,0.0,24.926365,9.20953,56.891396,0.703503,60.69072,-9.483616,46.219025,-18.336216,2.950218,0.0,3.661935,17.101925,41.22439,33.486174,56.031324,44.759193,61.562333,53.316269,65.328317,0.0,61.969688,30.12997,94.100212,22.504257,92.987709,13.6707,78.814773,4.945244,58.304947,0.0,18.488889,27.77951,51.768804,45.890202,66.152587,58.978819,75.032766,67.643365,79.498741,-18.817509,271.73928,-46.276806,266.622974
27,7.180046,7.095493,0.834011,-3.550722,0.0,9.568256,-0.420822,47.129059,-7.728607,53.195274,-15.574058,42.46994,-22.094204,4.807137,0.0,11.887757,14.985392,39.558302,23.849219,49.085575,28.42784,49.773043,31.086763,47.895818,0.0,61.706325,29.656151,93.217838,22.128914,92.001171,13.345608,78.270687,4.460049,57.16325,0.0,19.458147,27.127697,53.009209,45.175181,68.833209,58.337738,77.622095,67.337885,81.347918,-11.622671,278.830472,-45.428003,263.067951
28,15.559021,3.447328,1.533703,-6.038647,0.0,-11.078167,-11.69062,21.196999,-16.868442,28.213303,-22.10297,21.634598,-25.935619,-6.611858,0.0,19.751104,17.284731,33.592557,18.926859,35.545439,16.377209,30.846208,12.495048,25.609439,0.0,60.974991,28.37939,88.082107,20.615272,85.659073,11.48228,71.764297,2.187092,51.233642,0.0,22.349771,26.15866,55.39233,43.53798,73.463563,56.403258,81.539961,65.578641,82.884107,3.95949,282.280041,-43.87116,257.031545
29,19.04892,-17.070963,-4.661745,-16.807128,0.0,-26.307232,-23.352928,-4.52417,-25.021111,0.419243,-25.42685,-1.587822,-24.168537,-16.436417,0.0,29.918717,19.762231,39.173387,20.301534,42.623345,17.468759,39.309892,13.239683,33.749786,0.0,60.783645,28.906574,81.842565,20.90768,78.339981,11.310808,65.068926,1.329397,45.685398,0.0,23.922906,23.761249,53.911153,40.983044,73.765522,54.317823,82.767078,64.354679,83.904465,23.030348,265.295504,-48.510967,240.310843
30,19.471985,-19.884584,-10.808293,-27.315036,0.0,-40.749104,-34.558365,-28.492241,-32.758358,-21.362412,-28.332402,-16.737282,-22.137383,-17.499939,0.0,37.710495,21.935303,40.036374,20.314947,41.805906,15.978191,37.035711,10.436808,30.024878,0.0,60.962128,30.967713,74.404215,22.760765,70.07563,12.644938,57.922148,1.768896,40.126957,0.0,23.993339,19.911779,48.498471,37.516364,69.818289,52.066428,81.134657,63.574674,84.193321,42.557917,245.713188,-59.263676,213.298075
31,29.182571,-42.035358,-21.174419,-36.468608,0.0,-49.357796,-40.072758,-48.825188,-35.88073,-43.203255,-28.828892,-34.862091,-19.872597,-27.04866,0.0,38.424015,18.514768,37.471669,20.108429,42.796123,19.793706,40.78411,17.976916,36.67935,0.0,62.130054,27.665382,70.114671,20.201122,65.505489,11.626539,52.297972,2.626665,35.713772,0.0,20.829742,10.596513,37.830983,28.228812,60.51189,44.48462,72.863436,58.516611,77.248216,71.882572,204.357804,-80.296011,177.509441
32,29.270531,-49.773734,-22.920559,-39.954671,0.0,-51.51986,-31.855751,-56.966492,-25.438614,-52.611145,-17.894348,-43.534516,-9.221237,-31.096802,0.0,27.821759,5.507463,22.436277,12.88502,33.017988,19.755062,37.703233,25.507273,40.709867,0.0,59.413753,20.586365,55.940157,12.782604,49.806106,4.978289,38.296995,-2.66046,24.92379,0.0,10.641973,-3.1237,19.496995,12.424102,39.797986,28.314008,52.632852,43.096687,58.922601,101.271773,155.332223,-103.0979,138.302923
33,26.397606,-55.507248,-28.837177,-43.081941,0.0,-44.385498,-20.022698,-43.958931,-12.031838,-40.210579,-3.80729,-31.886376,4.276268,-19.436119,0.0,12.92165,-11.36244,10.007828,0.77104,26.422643,14.166817,38.079238,27.263128,46.092113,0.0,54.728965,11.967579,41.74835,4.28223,34.515941,-2.411013,24.854925,-8.216841,13.434711,0.0,-7.751103,-19.424426,-4.810302,-5.129675,12.29794,10.529081,27.229326,25.492756,36.014884,127.35101,100.712529,-132.253446,96.108536
34,23.085846,-38.472495,-26.335871,-40.44121,0.0,-37.818993,-8.859902,-24.569825,-0.112107,-18.433869,7.571067,-12.787674,14.157371,-5.980248,0.0,-8.136704,-24.449483,-18.393509,-14.477063,-7.657669,-2.404462,6.46118,10.440605,15.489078,0.0,45.174007,0.523979,27.692436,-7.669212,20.488037,-13.707825,11.758186,-18.022637,2.429054,0.0,-25.215589,-31.724144,-23.971022,-19.066057,-9.852562,-3.897865,4.43912,11.684827,14.830029,149.99968,63.771914,-159.026493,57.199206
35,29.034919,-43.144068,-23.036556,-33.233343,0.0,-26.670364,6.071961,-9.483856,14.603737,-5.403465,20.560112,-2.462013,24.427574,1.408287,0.0,-26.091587,-38.874206,-38.969018,-29.030771,-28.299559,-16.294779,-12.147368,-1.895386,-1.858076,0.0,33.824707,-12.676175,13.726925,-21.176937,6.94479,-26.425564,-1.521721,-29.120373,-9.678166,0.0,-42.196742,-41.314335,-40.00819,-31.285914,-29.621623,-18.053721,-17.513553,-3.228781,-8.428017,178.405117,22.543708,-182.692531,25.881725
36,18.176674,-28.061919,-14.487877,-27.104855,0.0,-11.971435,19.517922,7.643967,28.086479,10.751839,33.435608,10.885712,35.871826,12.458084,0.0,-41.958602,-45.657094,-56.053436,-37.729384,-47.308392,-26.514682,-30.540216,-13.158167,-20.704154,0.0,20.367073,-21.752369,-4.367558,-31.142395,-11.598416,-37.455517,-16.952317,-41.12106,-23.306305,0.0,-55.831468,-45.507133,-51.612421,-37.466624,-44.186032,-26.205992,-33.762804,-12.815773,-26.048541,195.630283,-3.48046,-198.131916,0.814621
37,12.903855,-24.621038,-12.507157,-22.759084,0.0,1.715835,24.379669,17.841224,32.779975,19.714508,38.508338,18.524002,41.228645,19.863395,0.0,-49.796891,-42.339299,-60.097088,-35.363565,-53.432989,-25.656413,-37.891139,-13.88006,-29.257431,0.0,9.132374,-27.107574,-12.466358,-36.034595,-18.326294,-42.388298,-23.121036,-45.979866,-28.902855,0.0,-62.520125,-43.832196,-57.005381,-35.391384,-50.071192,-24.208403,-39.849393,-11.149667,-33.522613,207.398186,-25.698539,-211.775025,-19.541504
38,4.81565,-15.314429,-4.320625,-17.570005,0.0,12.111283,26.87716,21.650712,34.937783,23.283532,40.68512,22.068032,43.638245,22.490159,0.0,-51.247754,-39.510205,-61.236247,-32.686235,-55.718132,-23.590325,-41.737023,-12.966123,-34.637474,0.0,-0.965572,-30.480583,-16.251411,-39.036369,-19.93333,-45.109783,-23.006985,-48.225025,-27.413509,0.0,-61.967928,-39.348721,-56.237342,-30.883617,-50.272202,-19.488541,-41.559164,-6.037486,-35.320328,211.305067,-38.744231,-217.004419,-34.842772
39,0.992363,-11.679992,2.429524,-9.175031,0.0,16.097901,29.632302,16.038872,36.549866,16.921051,40.690247,16.652573,41.81646,17.722664,0.0,-50.843085,-41.490855,-58.326024,-33.84269,-51.197921,-24.098969,-40.5691,-12.751417,-33.780557,0.0,-5.47379,-30.811455,-14.931942,-37.921257,-17.469017,-42.519471,-19.261094,-44.487248,-23.950505,0.0,-58.634221,-37.699997,-57.369757,-29.813852,-51.353186,-18.99928,-42.130318,-6.372142,-35.237706,211.412698,-48.879289,-215.459627,-42.472869
40,-10.64883,0.3167,16.700168,-1.616564,0.0,7.460461,24.230541,9.001671,31.576458,9.843567,36.099209,10.327046,37.700558,12.390827,0.0,-46.857257,-41.299896,-62.892496,-34.029251,-56.125456,-24.391188,-44.881361,-13.029115,-36.149942,0.0,4.228958,-26.697029,-9.148166,-34.056782,-14.695747,-38.499492,-17.422748,-39.648491,-23.719288,0.0,-52.460563,-38.720126,-66.313786,-30.519011,-58.792326,-19.204384,-48.19984,-6.072029,-35.744343,200.478573,-47.539283,-199.044754,-43.066127
41,-16.428497,7.888899,19.291466,4.555408,0.0,-10.121739,13.445995,-4.392586,21.826938,-1.543694,27.778461,1.240299,30.99361,6.349697,0.0,-38.152443,-41.990932,-71.469492,-35.041896,-65.180586,-25.231456,-52.488332,-13.310592,-39.926017,0.0,16.300987,-17.663475,1.952545,-26.099716,-7.0994,-31.723286,-11.829163,-33.895866,-18.05492,0.0,-43.485541,-36.908814,-72.055456,-29.191988,-55.06236,-17.79277,-43.413046,-4.639648,-27.842822,184.063895,-39.27449,-179.739469,-38.134825
42,-14.873291,8.61811,18.092674,5.144847,0.0,-27.261692,2.652156,-18.63897,11.388302,-12.962403,18.488147,-7.940151,23.426502,-0.682743,0.0,-29.250004,-41.991957,-77.920193,-35.442094,-73.116033,-25.596729,-59.257184,-13.474095,-43.137045,0.0,31.143952,-9.72242,11.716015,-19.297108,0.158673,-25.635017,-6.380836,-28.166359,-12.549488,0.0,-35.692121,-37.189352,-78.619748,-29.636802,-57.299208,-17.474953,-43.704435,-3.300584,-23.096439,169.517561,-31.188228,-161.319838,-33.521826
43,-12.172692,7.742056,11.484318,1.516164,0.0,-42.429622,-5.027172,-25.054985,4.853817,-16.29071,13.391339,-8.841762,19.925297,0.878621,0.0,-24.159639,-40.727852,-85.95255,-34.711012,-81.591295,-24.516763,-64.502831,-11.287913,-39.351484,0.0,44.371845,-3.231216,17.381195,-14.110714,2.75116,-21.445862,-4.945038,-24.875691,-11.945778,0.0,-30.428917,-38.344591,-87.467263,-30.613644,-63.566955,-17.769002,-45.346545,-2.348523,-18.223806,157.893036,-24.399465,-149.287353,-32.958955
44,0.055069,3.584871,1.748932,-1.531768,0.0,-56.542682,-11.038067,-26.27639,0.56844,-13.435707,10.82864,-3.228435,19.051999,8.348202,0.0,-19.680054,-40.554327,-96.067638,-34.2208,-88.499622,-22.95641,-67.216015,-8.502896,-33.584589,0.0,56.28257,0.017681,17.106949,-12.333241,-1.786194,-20.758804,-10.83878,-24.288094,-18.008068,0.0,-29.320393,-39.654923,-96.378907,-31.323601,-71.240277,-17.856281,-51.480004,-1.702169,-18.976804,158.338565,-21.761487,-147.147961,-35.437616
45,10.210316,-2.382226,-13.138161,-6.78492,0.0,-61.189522,-10.41822,-20.951157,1.252167,-5.113197,11.461235,5.773979,19.662666,17.5895,0.0,-21.465981,-42.23236,-102.976302,-35.646963,-94.212483,-23.765813,-71.676044,-8.563362,-34.102097,0.0,53.612309,-0.442417,9.464607,-12.470718,-8.187721,-20.808037,-15.989731,-24.277096,-21.255558,0.0,-30.609722,-37.978942,-95.499605,-29.805657,-69.370542,-16.093361,-48.883886,0.101358,-17.660926,168.489344,-24.703638,-160.345659,-42.782461
46,17.10363,-9.237429,-20.877411,-8.237023,0.0,-54.776047,-2.72541,-6.151955,8.232926,9.354241,17.236359,19.263359,23.401154,28.934738,0.0,-28.134087,-43.231371,-102.867372,-35.99765,-94.852079,-23.645135,-72.358401,-8.156674,-33.877234,0.0,49.582123,-8.046192,-0.982967,-18.897594,-15.606388,-25.342712,-21.457992,-26.568249,-26.421798,0.0,-37.340857,-42.443349,-98.643739,-33.641637,-81.253785,-19.5836,-60.001069,-2.654063,-27.365109,185.70524,-34.225091,-181.110804,-51.303508
47,19.56649,-9.986561,-23.421661,-7.607453,0.0,-45.569984,5.698929,11.891533,16.253174,25.374504,23.830628,33.489006,27.638077,41.116722,0.0,-37.581498,-42.640154,-100.865936,-34.628662,-93.002024,-22.16883,-70.373508,-7.044709,-32.358426,0.0,43.271175,-14.636833,-9.730477,-24.594933,-21.822338,-30.154987,-25.923363,-30.411541,-30.132694,0.0,-45.63721,-44.81814,-99.147443,-35.932873,-85.021984,-22.325435,-64.714577,-5.730938,-33.541181,205.289388,-43.950053,-204.514807,-58.649362
48,21.677239,-9.335329,-21.08503,-3.262836,0.0,-36.51313,13.205887,22.630645,22.47187,33.675155,28.288261,38.491974,30.488159,44.566955,0.0,-46.102666,-42.22256,-96.752425,-33.480066,-88.80018,-21.230458,-68.29518,-7.119414,-37.846487,0.0,37.095223,-20.253959,-15.272907,-29.164524,-24.232647,-33.793876,-27.623234,-33.177257,-31.037876,0.0,-53.539769,-44.965329,-96.824686,-36.49253,-84.3452,-23.636792,-67.592912,-7.805505,-40.983026,227.002236,-52.583172,-225.564228,-61.209988
49,12.960502,-5.42833,-14.525367,-0.825628,0.0,-22.445778,21.583306,30.304573,29.054741,37.522705,33.329705,40.13237,33.960961,44.31054,0.0,-51.97568,-39.021796,-86.562675,-30.734539,-82.299473,-19.671903,-66.518306,-6.939808,-43.834759,0.0,28.031169,-25.708523,-18.759018,-33.449776,-22.857399,-37.389439,-24.853638,-36.717144,-27.885281,0.0,-59.184849,-43.008001,-89.541617,-34.645254,-78.303774,-22.100367,-63.629424,-6.690317,-44.367004,240.254053,-57.248087,-239.79828,-61.272201
50,5.540245,-3.926814,-8.203686,0.608594,0.0,-5.93898,28.659348,35.372818,35.306946,39.066285,38.73832,39.895272,38.355721,42.291092,0.0,-52.455672,-33.71323,-71.621175,-25.268114,-68.487694,-14.58507,-54.839352,-2.558091,-37.950444,0.0,17.636787,-32.066151,-18.464401,-39.121605,-20.205826,-42.495907,-20.915898,-41.618077,-23.478287,0.0,-63.544923,-42.229304,-81.016948,-33.522471,-71.094191,-21.234936,-59.311354,-6.285402,-45.319449,246.207092,-60.87255,-247.589172,-60.361256
51,0.099953,-0.697174,2.575516,0.700398,0.0,6.564652,32.971207,33.962586,39.052139,36.527252,41.843971,36.115517,41.323769,38.166321,0.0,-50.159514,-30.300773,-59.385304,-21.334175,-55.080083,-10.664278,-42.741128,0.979361,-30.008539,0.0,6.73352,-34.260922,-19.140645,-41.123086,-20.449471,-44.585598,-20.020947,-44.150128,-21.587712,0.0,-62.654729,-39.125154,-69.852431,-30.114454,-60.332206,-17.902297,-49.912877,-3.534576,-38.677686,246.401356,-61.374574,-244.919345,-59.465708
52,-9.167641,4.885083,12.247942,4.662128,0.0,10.203469,33.510231,26.595414,39.912652,29.383797,42.957032,29.346764,42.94674,31.584122,0.0,-45.384813,-30.027268,-54.995392,-20.925662,-47.901431,-9.729259,-35.247619,2.743427,-23.439804,0.0,4.589956,-32.089383,-15.134869,-39.382697,-18.074656,-43.127301,-18.031632,-43.141491,-20.995005,0.0,-57.601868,-39.144719,-65.36818,-30.481529,-57.364975,-18.815795,-47.372854,-5.319443,-36.759638,237.174062,-56.236654,-232.731056,-54.550743
53,-17.685348,9.682944,20.633915,8.220987,0.0,5.026565,29.468651,16.571938,36.790306,19.954605,40.499016,22.18325,40.748245,24.759727,0.0,-38.766248,-32.106268,-57.007208,-22.928409,-46.324294,-10.906981,-31.448213,2.831325,-17.106828,0.0,12.52466,-25.544484,-6.75626,-33.983592,-12.652491,-38.550774,-14.548085,-39.242112,-20.156268,0.0,-49.241567,-42.621181,-67.967793,-34.875126,-61.656351,-24.275329,-51.267934,-12.205775,-38.952451,219.326815,-46.432438,-212.25904,-46.208484
54,-24.114647,14.074673,23.20158,8.934006,0.0,-10.246628,20.482864,4.237839,29.561966,10.15757,34.630875,14.47728,36.019226,18.563873,0.0,-31.388488,-36.282375,-66.944579,-27.067929,-51.630119,-14.057154,-32.015539,1.070147,-13.251305,0.0,23.37454,-16.123524,4.603145,-26.154402,-5.680361,-32.686192,-9.460591,-35.257714,-17.1818,0.0,-38.516588,-41.518417,-67.923067,-33.947332,-50.639373,-22.164681,-38.024755,-9.133192,-22.832166,195.106642,-32.314593,-189.162986,-37.231306
55,-22.869461,16.267281,17.29161,9.081293,0.0,-30.944229,7.510712,-12.332703,17.488678,-5.229561,24.154472,2.091408,27.432838,9.371612,0.0,-26.123771,-39.635508,-79.266774,-31.106998,-64.751006,-18.306057,-43.363164,-3.255555,-20.691013,0.0,36.928854,-3.9738,21.786873,-14.338766,14.340334,-21.322426,7.494953,-24.574356,-5.756132,0.0,-26.038675,-39.442572,-72.451304,-31.224034,-44.985394,-18.327145,-27.904412,-4.264258,-7.934168,172.435724,-16.01618,-171.672833,-28.118881
56,-21.005013,15.492043,15.89328,10.496638,0.0,-51.073196,-4.443718,-27.421783,6.147378,-18.747482,14.446129,-8.35659,20.047692,1.79242,0.0,-21.458905,-40.693602,-90.50112,-33.597331,-77.872611,-21.648812,-56.521826,-6.955567,-30.120715,0.0,53.02442,5.801342,35.255528,-5.289556,27.2717,-13.00621,20.881394,-16.946674,1.810827,0.0,-19.190321,-38.280281,-82.266465,-30.697544,-45.840742,-17.691666,-25.00925,-3.182619,0.413796,151.903564,-0.582717,-155.3067,-17.680823
57,-14.576583,10.691513,6.899512,5.35603,0.0,-65.129868,-14.022499,-39.191239,-3.477616,-29.622498,5.953987,-17.525864,13.38948,-5.426316,0.0,-16.864838,-39.687132,-96.541199,-33.815379,-87.692847,-23.30166,-67.843298,-10.067464,-40.004693,0.0,60.491249,13.480865,46.225021,2.630607,42.144504,-5.115441,35.898273,-9.384236,11.580837,0.0,-14.529038,-33.915296,-85.327596,-25.780062,-37.27676,-11.769641,-14.073919,3.781478,13.062713,138.043913,9.840386,-147.690256,-12.593203
58,-8.308968,6.082393,0.291606,1.864949,0.0,-72.927063,-20.237457,-46.778297,-9.997147,-36.377266,0.437645,-23.276711,9.583809,-9.269852,0.0,-13.103456,-37.137537,-98.012637,-32.196022,-94.022252,-23.124658,-75.809103,-11.444611,-46.937315,0.0,60.456791,16.886868,52.789593,6.704373,52.811898,-0.65031,48.93631,-4.968338,21.083794,0.0,-12.400631,-27.849022,-83.966061,-18.503881,-23.772136,-2.651958,0.738875,14.916071,30.42176,130.556854,15.729843,-146.576741,-10.92119
59,-1.299637,1.397523,-2.819366,1.592197,0.0,-74.766563,-23.946304,-51.516266,-14.765556,-41.072571,-3.98822,-28.011223,6.370926,-13.10598,0.0,-10.138923,-32.704105,-94.181432,-28.598283,-97.039815,-21.496331,-82.291668,-12.331119,-55.018271,0.0,60.37833,18.798981,56.744648,9.328285,60.722179,3.070347,59.940788,-0.240372,28.741974,0.0,-11.031834,-28.01271,-88.348123,-18.36971,-33.599813,-3.155637,-3.332577,14.188207,28.322407,130.098215,16.971671,-148.555109,-9.484688
60,-0.553322,-1.260709,0.939182,2.122912,0.0,-74.590507,-22.784729,-50.521522,-13.522751,-38.743354,-2.581878,-26.166618,8.024689,-12.019157,0.0,-7.920577,-28.695046,-89.524135,-25.032709,-95.447895,-19.164067,-82.016329,-11.659712,-54.787559,0.0,62.330715,17.346817,54.192078,7.299214,53.641239,0.816742,57.563324,-2.59584,27.112999,0.0,-13.199855,-30.084042,-91.494703,-21.456157,-41.727174,-6.914472,-7.796515,10.458037,25.423774,129.969011,15.647782,-147.191809,-7.424956
61,0.331398,-1.689923,-0.245945,0.500147,0.0,-73.580726,-22.274208,-47.801742,-12.868034,-36.920036,-1.887016,-25.110443,8.478173,-12.055183,0.0,-7.132549,-25.816384,-86.904214,-22.414937,-94.147605,-17.628057,-81.323706,-11.824105,-55.427497,0.0,63.619641,16.968693,53.46809,6.368706,52.091984,-0.622295,56.076268,-4.435203,26.919045,0.0,-13.223073,-30.940396,-91.595738,-22.50051,-44.889709,-8.113837,-7.344267,9.380085,24.038738,130.525154,14.005738,-147.213009,-6.87693
62,-0.693878,-1.593797,1.052239,1.562075,0.0,-72.088646,-20.230156,-43.680221,-10.165901,-33.280472,1.252556,-21.791405,11.790321,-8.615478,0.0,-6.698999,-23.270377,-84.015029,-20.085328,-91.875721,-15.846922,-79.16338,-10.781233,-53.2751,0.0,66.162506,15.317528,52.185562,4.167652,47.525036,-3.239594,53.057773,-7.256424,25.471802,0.0,-12.809709,-32.344452,-92.574859,-24.27747,-50.619116,-10.054547,-9.070159,7.679047,23.519318,129.942587,12.628577,-146.049459,-5.098219
63,-1.246422,-1.378108,1.108337,1.607148,0.0,-70.277389,-18.403129,-40.252006,-8.05133,-30.259941,3.623131,-18.736335,14.416672,-5.015945,0.0,-6.693387,-22.088882,-81.565786,-18.796974,-89.158796,-14.470981,-77.038073,-9.25869,-50.682726,0.0,68.087208,14.149533,51.252972,2.51508,43.793472,-5.472381,49.522019,-9.983242,24.232361,0.0,-12.564894,-33.017143,-92.692229,-25.2096,-55.137808,-11.282949,-10.519047,6.374013,22.745467,128.763513,11.517295,-144.873774,-3.224245
64,-2.386505,-1.316068,1.839832,1.697895,0.0,-68.200516,-15.466003,-36.638374,-4.7379,-26.769974,7.115547,-14.780205,17.970017,-0.027511,0.0,-6.736168,-22.234706,-80.543033,-18.59074,-86.647413,-13.53721,-74.277922,-7.223261,-46.016889,0.0,70.241192,12.915516,49.688462,0.851681,39.943314,-7.575141,45.408246,-12.529403,22.298974,0.0,-14.353692,-33.760111,-93.617243,-26.370538,-55.866456,-12.630627,-13.152226,5.081089,21.606735,126.366228,10.416872,-143.044722,-1.310705
65,-3.313316,-0.626823,1.478543,0.920909,0.0,-65.542076,-13.096069,-33.017304,-2.158425,-23.396736,9.703102,-10.531128,20.521477,5.730949,0.0,-6.990745,-24.619901,-82.082519,-20.523941,-84.982146,-14.180068,-71.267626,-5.790589,-40.065865,0.0,70.269871,12.493229,48.720154,0.10429,38.576031,-8.907063,42.604477,-14.466706,20.905632,0.0,-15.388061,-33.938996,-93.389594,-26.627074,-54.585339,-13.046621,-13.834297,4.535895,21.46238,123.023043,9.9017,-141.596048,-0.278145
66,-3.832466,-0.778703,0.002712,-0.003903,0.0,-61.949913,-9.800308,-30.201691,1.524032,-19.275994,13.184715,-5.041397,23.548073,12.820701,0.0,-6.585138,-27.275423,-82.409747,-22.447794,-82.852615,-14.184718,-66.405356,-3.150049,-30.737429,0.0,69.498001,12.608082,49.232517,0.350166,39.669708,-8.623009,42.827099,-14.212326,21.52137,0.0,-15.791902,-32.972201,-91.778575,-25.4989,-52.38611,-11.926549,-13.479899,5.463257,22.63814,119.135788,9.13451,-141.648125,-0.270535
67,-3.230164,-0.058367,1.55547,0.881197,0.0,-58.905716,-7.429504,-29.319443,3.663803,-17.870041,14.731247,-1.961883,24.353211,17.063416,0.0,-7.014643,-30.733242,-83.536636,-25.50108,-82.04282,-15.577109,-63.641104,-2.14921,-24.488947,0.0,69.026687,11.783649,48.536418,-0.775086,37.889968,-10.182816,39.939502,-16.216359,20.519405,0.0,-16.76691,-32.550976,-91.130511,-25.287498,-52.072912,-11.916842,-14.788563,5.284279,22.194741,115.855436,8.883843,-140.142843,0.418362
68,-2.741844,0.519173,0.941974,0.70146,0.0,-56.171425,-5.531662,-29.49147,5.614471,-17.595062,16.098633,-0.552063,24.731735,18.321739,0.0,-7.765855,-32.706686,-83.881673,-27.531952,-81.383579,-16.823912,-60.944069,-2.481107,-19.831552,0.0,68.726097,11.211857,48.737835,-1.326278,38.210015,-10.813453,39.257595,-16.846275,20.395729,0.0,-17.644112,-32.25295,-89.627142,-25.125242,-51.850574,-11.84489,-14.086195,5.183206,20.953428,113.052629,9.09067,-139.261832,0.807476
69,-2.126518,1.666736,1.688748,0.886415,0.0,-54.382416,-4.634629,-30.475731,6.537071,-18.01973,16.718445,-0.133072,24.773666,18.375984,0.0,-9.802124,-34.307911,-83.016494,-29.188012,-78.33459,-17.909182,-56.541678,-2.976487,-15.570428,0.0,67.715904,9.49253,48.333698,-3.059773,37.324894,-12.534245,37.83934,-18.27768,20.41793,0.0,-18.943452,-31.969955,-87.919527,-25.019594,-52.615797,-11.883089,-14.806514,5.049578,18.809595,110.872381,10.414497,-137.626814,1.350982
70,-1.224953,2.418653,1.601326,1.669268,0.0,-53.514564,-4.790039,-33.977692,6.227463,-21.898201,16.272217,-3.689964,24.101509,15.1829,0.0,-12.904212,-34.944373,-80.032258,-30.047183,-74.796187,-18.784544,-52.654657,-3.98334,-14.197427,0.0,66.862953,6.867759,48.188152,-5.124161,37.445617,-13.885151,38.129242,-18.663792,20.489364,0.0,-21.28693,-32.497772,-85.850017,-25.355294,-54.855052,-11.97874,-16.342111,5.204596,14.946489,109.586288,12.288169,-136.086628,2.475269
71,-0.569595,3.694706,2.022606,2.617532,0.0,-53.695038,-4.671387,-38.876564,5.615707,-27.584702,15.100479,-9.350899,22.539436,8.305069,0.0,-16.846068,-35.526488,-75.058503,-30.481702,-69.052497,-19.061068,-46.577762,-4.160576,-12.251875,0.0,64.894363,3.625259,47.286472,-7.683701,38.204692,-15.396664,38.400409,-18.802552,20.952152,0.0,-23.577617,-33.350626,-82.26083,-25.753979,-56.226937,-11.976196,-18.682556,5.629309,9.970184,109.190644,15.014909,-133.890071,4.124835
72,1.951126,1.181644,0.495082,2.281295,0.0,-55.287255,-5.912682,-47.979767,3.180313,-38.652855,11.30104,-22.365967,17.366386,-4.806679,0.0,-18.947151,-31.943692,-63.473045,-25.377154,-55.211896,-13.150844,-33.463691,1.937567,-2.624776,0.0,62.550064,1.167424,48.935166,-8.893444,42.286446,-14.796924,42.266064,-16.104572,24.91626,0.0,-25.346266,-32.86394,-73.674627,-23.976222,-53.98431,-9.356003,-17.708401,8.71499,7.97065,111.75713,14.952823,-132.779629,5.1624
73,2.393692,2.570743,0.48515,3.183357,0.0,-55.995621,-9.819603,-59.767616,-1.880242,-53.734154,5.52285,-38.658898,10.87429,-20.034828,0.0,-19.877451,-27.912668,-49.68674,-19.479303,-38.862381,-6.48672,-19.219575,8.503501,6.79793,0.0,60.051338,-0.120083,50.950046,-9.052494,45.960743,-13.410118,46.599369,-12.939194,29.305504,0.0,-26.465665,-30.50529,-61.883466,-20.029203,-47.240862,-4.587586,-15.17165,13.627235,9.321583,114.560847,16.254301,-131.884454,7.076492
74,0.866764,6.424862,0.047722,3.733566,0.0,-58.114632,-14.967098,-72.1348,-8.229744,-69.593559,-1.561352,-56.062306,3.330345,-36.0737,0.0,-17.87328,-23.356096,-33.819308,-13.034681,-22.127797,0.831864,-4.30447,16.045443,17.698363,0.0,57.547783,0.182075,55.327388,-7.703007,53.651069,-11.245491,52.279174,-10.134854,34.219928,0.0,-26.18039,-26.362956,-46.657531,-14.025742,-33.6622,2.10722,-7.139033,19.885849,15.56537,115.917217,21.301626,-131.347126,9.432521
75,-0.631897,10.097619,0.072355,8.549675,0.0,-62.024941,-21.070553,-84.280369,-15.684059,-84.374519,-9.886997,-72.698948,-5.284744,-52.6203,0.0,-13.075014,-18.310705,-16.919221,-5.749232,-3.196696,9.327294,12.742775,25.063547,30.572058,0.0,56.950859,2.207027,60.852814,-5.172564,61.871847,-8.294312,58.230932,-6.889652,40.527981,0.0,-25.11699,-22.767668,-31.971054,-8.608863,-19.657667,8.335067,1.41719,26.025671,22.653435,116.00425,30.212183,-130.555841,16.795134
76,-0.016113,12.803065,0.257137,13.382012,0.0,-64.967743,-28.884739,-97.496601,-24.344948,-99.963158,-18.96111,-90.207745,-14.343224,-68.397515,0.0,-6.444854,-12.082552,-1.874264,2.424522,14.226523,18.472642,28.069931,34.445732,43.453348,0.0,58.837086,5.508797,67.786045,-1.626566,69.765753,-4.661774,64.835192,-3.382244,47.090206,0.0,-24.495367,-20.407894,-19.369301,-4.518571,-7.562366,13.496296,10.00779,31.652659,29.949406,116.735968,42.247477,-129.550873,29.409375
77,-2.181313,19.80298,2.794396,16.588593,0.0,-65.409187,-36.512936,-106.08205,-32.898491,-110.330566,-27.524288,-101.110416,-21.884102,-79.212112,0.0,-2.058437,-9.233573,6.607693,6.002798,24.583098,22.35715,37.787427,38.344196,51.190514,0.0,59.067604,8.355915,72.486454,0.853094,75.17645,-3.337464,68.800375,-3.441079,50.125373,0.0,-24.469314,-17.284558,-9.7413,-0.920677,4.37108,16.952782,17.713915,34.702333,36.014773,115.113493,61.606046,-126.197639,45.553557
78,-8.391266,27.401554,4.611339,18.189158,0.0,-67.311607,-41.259487,-107.074653,-38.407585,-110.950058,-33.264278,-102.641704,-26.774025,-81.830223,0.0,4.806368,-5.940843,14.528473,6.897191,30.239368,20.872504,40.455304,34.812178,49.737675,0.0,59.202072,10.063442,75.178986,2.168055,77.947924,-3.518852,68.610689,-5.732414,48.372105,0.0,-23.950493,-13.618905,-1.343744,2.493849,14.703771,19.103728,25.660927,35.321597,40.919862,107.587566,88.663403,-120.720961,63.398518
79,-6.706386,22.77056,2.681591,25.239586,0.0,-68.666863,-44.760865,-108.776253,-42.340256,-113.236966,-37.180642,-105.509652,-30.045823,-85.428109,0.0,7.456702,-1.327523,21.813389,12.137309,38.008354,26.325553,48.055029,40.064884,56.544093,0.0,62.968826,15.672821,79.318749,8.189421,82.119112,2.392388,72.595053,-0.727444,51.669251,0.0,-25.485473,-12.679175,2.838981,3.775022,18.611126,21.002393,29.227483,38.316498,42.099906,101.702265,111.217518,-117.218285,88.421659
80,-11.574807,23.921813,3.883227,23.023996,0.0,-66.903659,-44.793182,-108.726665,-41.448806,-113.875316,-35.408935,-104.110817,-27.474907,-82.290195,0.0,16.986495,3.129394,22.634299,16.917032,38.439428,30.949356,49.263652,43.667274,60.505326,0.0,64.507141,20.021679,82.794353,12.009613,84.846302,5.067009,75.068939,0.05191,53.135261,0.0,-25.19297,-8.650455,8.488008,7.618902,24.336541,24.489361,35.192319,41.694959,46.60889,90.905576,134.911157,-112.55694,111.217481
81,-10.810546,23.692825,7.555229,22.524945,0.0,-65.683606,-43.489037,-108.809418,-39.814202,-113.853997,-33.15802,-102.109097,-24.491684,-80.181038,0.0,21.147311,6.457394,21.883672,20.490447,37.367168,34.386328,50.818594,46.471575,63.668744,0.0,62.509586,26.653164,87.432792,18.921043,87.325149,10.781971,77.852005,3.350944,56.261936,0.0,-22.481751,-0.147929,18.941624,16.305029,36.515556,32.100748,46.773473,47.599385,55.157561,80.742749,158.323747,-104.353992,133.462191
82,-12.012291,25.367186,5.109283,22.375879,0.0,-67.297245,-41.803299,-106.453297,-36.712372,-108.830212,-28.861657,-94.981556,-19.510483,-72.445244,0.0,30.381302,9.11777,20.905059,21.482302,33.676761,33.629176,47.453524,43.656516,60.135948,0.0,64.620564,31.242302,92.454209,23.446038,91.168556,14.959603,81.729435,6.622147,60.473683,0.0,-19.309792,6.30029,28.985353,23.652927,46.924243,39.53246,57.365571,54.325956,62.900334,69.203957,183.386654,-98.77121,155.533791
83,-7.520348,16.856504,3.625546,24.307043,0.0,-66.566666,-39.443459,-108.598858,-33.562569,-110.403912,-25.204697,-95.201111,-15.703331,-71.081543,0.0,32.915477,12.841085,18.667989,27.689107,34.984091,41.78843,54.192458,52.93811,71.169042,0.0,68.103138,35.062591,98.4711,27.340473,96.875759,19.226017,87.702118,10.829693,66.394111,0.0,-17.861257,10.833159,35.169034,28.606113,53.014619,44.819536,65.377619,59.720985,70.102143,62.100237,199.86519,-94.729036,179.462866
84,-9.00396,29.310549,5.734005,19.980593,0.0,-67.151607,-38.688011,-105.83908,-33.854576,-105.847423,-26.944336,-92.031521,-19.198333,-70.500251,0.0,40.276633,16.021972,8.547431,25.34747,17.6982,32.91486,31.35518,37.334571,45.255889,0.0,68.981003,34.889351,98.829551,26.451805,95.936668,17.831978,86.126301,8.903377,65.015774,0.0,-14.180339,17.885303,42.899296,34.961836,61.679869,49.378483,74.184611,61.561481,77.532669,53.509712,228.777116,-88.581596,199.044836
85,-3.141037,23.555523,7.276222,20.397001,0.0,-69.480892,-37.918213,-103.799652,-34.305565,-102.284637,-29.00299,-91.458732,-23.318985,-74.074974,0.0,39.270322,20.109799,7.768979,24.427771,10.253939,26.082645,18.506326,24.50712,27.555145,0.0,69.279373,35.654697,98.686729,27.700413,94.067848,19.639126,83.672607,11.32299,64.245369,0.0,-10.536435,23.926321,48.509469,42.227847,66.265738,56.368358,78.473782,66.881513,81.661833,50.66597,251.933963,-81.008079,219.043161
86,-4.92089,18.50214,2.865417,17.063183,0.0,-71.078385,-36.743432,-95.581765,-33.45884,-93.202355,-28.991341,-86.616234,-24.634507,-72.946908,0.0,38.948837,26.446231,9.650391,27.772198,7.760804,25.253448,10.610363,18.825996,19.162832,0.0,72.488583,33.406735,97.22493,24.919568,93.328904,17.000428,80.979218,9.272919,60.931836,0.0,-8.307468,26.690455,51.889168,44.820981,68.57282,58.430438,80.558352,67.967579,84.727851,45.939131,270.103623,-77.948611,235.773864
87,-2.623078,15.77639,4.647721,15.898384,0.0,-68.791958,-38.73436,-83.742382,-36.385712,-79.111507,-32.752968,-74.769722,-29.046684,-66.61393,0.0,35.999181,27.915089,16.721258,27.180852,13.012726,22.146711,11.438943,13.102906,15.882824,0.0,73.150703,33.462032,95.507973,24.736793,92.36673,16.520439,78.39331,8.409588,57.209186,0.0,-6.997013,29.09903,54.030376,46.658266,70.424839,59.337898,82.506653,67.763062,87.251789,43.435135,285.612316,-73.181808,251.404551
88,-0.288185,15.955269,5.715431,12.356036,0.0,-69.971065,-42.662235,-67.464203,-41.83358,-60.302387,-39.647907,-59.397938,-37.323132,-68.916927,0.0,35.917646,25.794395,22.321749,22.087122,14.156344,14.370581,7.318807,3.414662,8.080721,0.0,73.228638,34.19244,93.909988,25.248917,91.564362,16.572613,76.932312,8.067467,56.145927,0.0,-4.146516,31.164531,56.653063,48.921949,72.878206,61.428186,84.129329,69.376266,88.487303,43.234732,301.31911,-67.378595,263.512112
89,0.167748,0.642513,6.030293,9.768038,0.0,-66.140728,-43.312787,-51.282601,-42.410397,-43.23198,-39.869763,-43.166634,-36.842297,-58.961758,0.0,27.741891,24.190131,35.404994,24.869583,32.263565,22.260011,29.504742,16.841882,32.273297,0.0,72.943141,33.954116,94.477031,24.994812,93.285289,16.143997,78.497028,7.521583,57.173915,0.0,-1.901332,31.534811,57.726026,49.792667,72.61841,62.582622,83.74865,70.787708,88.73985,43.434924,301.750878,-61.315858,273.069405
90,0.451355,-0.279013,3.357341,6.375471,0.0,-61.479046,-46.548993,-33.648457,-46.378727,-24.364781,-43.723755,-25.316998,-39.65878,-47.319489,0.0,18.796653,22.844009,44.14947,27.607881,46.464802,29.622019,46.725067,29.214639,50.883538,0.0,73.314492,33.301953,94.923317,24.042275,95.601082,14.745323,80.279663,5.721108,57.696797,0.0,-0.67965,31.23116,59.856008,48.421227,75.195477,60.445514,85.377564,68.252298,89.341965,43.858675,301.29621,-57.986121,279.269221
91,0.75634,1.816574,3.851658,4.224395,0.0,-55.48629,-49.728344,-19.659646,-50.867501,-9.114464,-48.593812,-10.375649,-44.022618,-36.074215,0.0,14.890543,18.156016,49.986687,24.605785,54.964918,29.142687,56.137213,31.979192,56.803994,0.0,72.480183,32.87534,94.528416,23.680561,95.92281,14.234596,80.629315,5.128246,58.130711,0.0,0.500882,30.938105,59.221115,47.952418,74.108114,59.811486,84.006359,67.587073,87.909949,44.559809,302.985041,-54.189669,283.365873
92,-10.488877,-2.892056,2.857098,1.9359,0.0,-42.180118,-38.901455,-1.052078,-42.371681,6.366554,-42.98505,2.074356,-41.373401,-27.771435,0.0,7.37521,18.210308,48.574801,29.083357,56.801376,37.28317,60.47103,43.540425,63.102314,0.0,71.588928,32.460869,94.193962,23.57365,95.519966,14.218494,80.629669,5.132675,58.683494,0.0,2.87295,31.033645,58.80451,48.131198,72.816678,59.91351,82.46812,67.554592,86.660306,34.009134,299.999165,-51.394369,285.207953
93,-6.458816,-3.967501,1.766144,0.881351,0.0,-33.440003,-32.271939,8.621338,-37.414856,12.528946,-39.585434,6.547004,-39.240727,-17.903984,0.0,1.155535,20.620611,47.945823,35.328991,59.109087,46.076885,63.974217,54.129868,67.554382,0.0,70.822036,31.957889,93.808433,23.230602,94.842887,13.895702,80.065086,4.868076,58.524284,0.0,4.66412,30.980108,58.805486,48.258071,72.226147,60.054672,81.270891,67.601152,85.826231,27.489218,296.008029,-49.689325,286.065669
94,-8.402321,2.182877,0.956176,0.002445,0.0,-17.991863,-24.819065,19.515861,-31.123604,21.94487,-34.234657,13.285377,-34.686939,-14.799626,0.0,-1.256547,18.786328,44.240885,34.546614,56.454289,45.98442,62.074342,54.650127,65.240965,0.0,69.991402,31.67133,93.613793,22.890313,94.139763,13.422432,79.192383,4.401409,58.018479,0.0,6.111994,31.142549,59.164392,48.708874,72.600306,60.533028,81.170756,67.920588,85.370204,19.035444,298.180343,-48.784602,286.057551
95,-10.460827,-0.959107,0.711148,-0.372873,0.0,-5.773304,-14.226299,30.854908,-21.977772,31.462795,-27.69183,20.749958,-31.108795,-11.844338,0.0,-2.14337,18.481737,41.291104,35.594295,54.97318,47.668477,61.17034,56.802178,64.716494,0.0,69.397647,31.228237,93.552074,22.550262,93.993793,13.13451,79.284404,4.160133,58.230274,0.0,7.12396,31.182871,58.947523,48.918985,72.695462,60.784277,81.315264,68.138158,85.055956,8.531376,297.213527,-48.116695,285.676969
96,-10.308003,-1.27548,0.806476,-0.013943,0.0,4.157158,-3.685775,41.318505,-12.802127,39.294594,-21.208499,26.656357,-27.708332,-12.22332,0.0,-5.076316,18.850437,39.389266,37.709161,54.178675,50.603944,60.660097,60.228536,65.843501,0.0,68.994278,30.632801,93.177796,21.936184,93.494545,12.52636,78.960068,3.562454,57.773964,0.0,7.633783,30.871105,58.391189,48.682555,72.432529,60.607201,80.96793,67.928503,84.645192,-1.823908,295.934187,-47.3575,285.659166
97,1.621193,-0.768756,0.359024,-0.113152,0.0,2.774964,-5.332351,39.684906,-14.588001,37.233078,-23.32006,23.131668,-30.064945,-23.907474,0.0,-5.013948,20.306895,40.59214,38.919359,55.116257,51.256906,61.889721,60.430349,68.653565,0.0,69.081574,30.151509,92.95015,21.47366,93.346619,12.110997,78.821183,3.236527,57.725968,0.0,7.851096,30.77853,57.993529,48.598179,72.387612,60.52269,80.850741,67.811104,84.634658,-0.274292,295.156836,-47.070053,285.537419
98,-2.297996,-0.818563,0.294262,-0.009547,0.0,6.274589,-2.645519,41.562195,-12.036701,39.991608,-21.70007,24.808548,-29.604881,-29.037781,0.0,-4.807356,20.204204,41.964604,38.724548,56.469023,50.986871,63.497183,60.35652,71.601023,0.0,69.259564,29.678444,92.687908,20.963379,93.020245,11.620239,78.486752,2.835537,57.425068,0.0,7.663646,30.554709,57.707094,48.351808,72.35817,60.308664,80.622561,67.612651,84.499486,-2.66617,294.332521,-46.869673,285.52212
99,-0.474381,-4.249293,0.342774,-0.168529,0.0,1.58313,-1.757354,40.910271,-11.515926,39.245179,-22.636779,24.175827,-32.304782,-35.03992,0.0,-3.488355,22.950393,44.61124,41.724247,59.384445,53.730763,66.219178,62.647275,76.475662,0.0,69.421154,29.42617,92.256649,20.682998,92.711185,11.319591,78.057895,2.556095,57.075611,0.0,7.438072,30.267199,57.511506,48.040993,72.374781,60.072678,80.425009,67.463017,84.518258,-3.264267,290.077216,-46.650615,285.347579
100,0.199528,-0.381494,0.155388,-0.196366,0.0,2.016163,-1.523163,40.731457,-11.392136,39.238255,-22.800281,23.533894,-32.848114,-40.437092,0.0,-3.174934,22.578161,45.484341,41.195404,60.144753,53.116926,66.983587,62.121087,78.468546,0.0,69.813709,29.406967,91.927425,20.630939,92.437992,11.206329,77.573604,2.430347,56.759731,0.0,7.509912,29.876158,57.430415,47.67364,72.493403,59.829394,80.257875,67.3727,84.651108,-3.224419,289.666239,-46.654907,285.12173
101,-0.270355,-0.482629,0.019844,-0.176705,0.0,2.945629,-1.166542,41.570194,-11.04372,40.732143,-22.72451,24.767521,-33.080658,-43.480866,0.0,-3.267622,22.147317,46.48187,40.640404,61.128586,52.642511,68.106666,61.932045,80.509681,0.0,70.184108,29.194439,91.646862,20.445087,92.219501,11.076416,77.396289,2.419155,56.769847,0.0,7.553755,29.957323,57.774118,47.676097,72.770921,59.785501,80.413399,67.316347,84.669929,-3.663603,289.129338,-46.803892,284.890753
102,-1.654244,-0.317891,0.226776,0.08855,0.0,5.102589,0.364632,43.486782,-9.350223,42.661023,-21.074592,27.016377,-31.536083,-42.104541,0.0,-4.379265,21.5113,46.866006,40.17567,61.470707,52.518985,68.414875,62.134747,81.260319,0.0,70.306102,29.115898,91.476436,20.316318,91.894993,10.901161,77.026554,2.239471,56.469783,0.0,7.334652,29.8542,57.899866,47.509705,72.874786,59.642055,80.3928,67.219263,84.531683,-5.515841,288.727426,-46.77511,284.895282
103,-2.239414,-0.113979,0.23378,0.018476,0.0,7.201332,2.23803,46.318062,-7.235676,45.275299,-18.887237,29.728935,-29.418812,-38.587017,0.0,-5.058272,21.032512,47.08774,39.857792,61.648635,52.457,68.446133,62.210156,81.224813,0.0,70.266368,29.20602,91.331714,20.425083,91.717151,10.950153,76.83086,2.219238,56.462436,0.0,7.488719,29.873268,58.131467,47.501665,73.015045,59.677883,80.45329,67.323559,84.43492,-7.997927,288.494084,-46.784002,284.794395
104,-0.867599,0.262662,0.08583,-0.0361,0.0,7.753578,3.628086,47.738022,-5.88311,46.532318,-17.717823,30.78994,-28.524788,-35.783226,0.0,-5.122382,20.383119,46.95447,39.16589,61.517143,51.99649,68.150434,62.010122,80.338014,0.0,70.134808,29.226998,91.466526,20.502056,91.808728,11.028969,76.930126,2.270474,56.592488,0.0,7.654631,29.909838,58.303739,47.510545,73.269631,59.686541,80.661303,67.365056,84.463918,-9.130239,288.575329,-46.962885,284.576878
105,0.080612,0.276963,0.052986,0.073162,0.0,7.105545,3.61227,48.212837,-6.091953,47.00576,-18.005642,30.923378,-28.846127,-33.907791,0.0,-4.878888,20.095436,46.755362,38.845492,61.380749,51.831085,67.998059,62.001995,79.578633,0.0,69.905423,29.152737,91.571011,20.49321,91.81992,11.050393,76.942852,2.276173,56.530964,0.0,7.670056,29.818249,58.280385,47.332025,73.309546,59.491273,80.710543,67.198342,84.411788,-9.315925,288.628953,-47.176197,284.426701
106,1.635784,0.319607,0.047356,0.049685,0.0,5.304279,1.394611,47.30975,-8.677814,46.588841,-20.399105,30.122921,-30.931869,-32.631374,0.0,-3.983766,19.91662,47.007625,38.518685,61.468794,51.501091,68.014066,61.684562,78.840815,0.0,69.854405,29.239861,91.595203,20.600865,91.886936,11.103436,76.982746,2.253044,56.461269,0.0,7.735696,29.602394,58.487656,47.089357,73.455276,59.313061,80.769946,67.116609,84.380159,-7.960951,288.696492,-47.409651,284.224318
107,2.92527,0.612194,0.200615,-0.017846,0.0,2.186337,-2.446461,44.818897,-13.06794,44.847714,-24.528477,27.957401,-34.56205,-34.18523,0.0,-2.55764,19.206688,47.265655,37.648386,61.279874,50.634893,67.796296,60.954116,77.952448,0.0,69.676266,29.034199,91.29855,20.412941,91.712963,10.933754,76.891583,2.079517,56.244885,0.0,7.853343,29.369076,58.65826,46.91679,73.608208,59.236935,80.911923,67.159674,84.374972,-5.319752,289.051662,-47.493107,283.949448
108,1.528805,4.374733,0.164989,0.034963,0.0,-6.701958,-5.503281,42.007164,-14.992172,43.550972,-24.277016,28.468368,-31.940518,-27.460556,0.0,4.749644,18.283704,44.216469,35.006086,57.072509,46.723363,62.692044,56.31335,70.457948,0.0,69.417939,28.823159,91.137269,20.212189,91.61023,10.765309,76.848382,1.930607,55.998757,0.0,7.98996,29.159063,58.582295,46.745939,73.610221,59.105654,80.934017,67.071247,84.375368,-4.034643,293.196681,-47.571814,283.754697
109,0.983757,-0.132233,0.175976,0.052735,0.0,-6.935829,-7.369,41.343223,-16.891663,43.687134,-25.804722,29.059158,-33.0802,-26.440281,0.0,6.11623,18.22761,44.648055,34.916944,57.631475,46.631195,63.202128,56.260751,70.850855,0.0,69.304447,28.791344,91.108601,20.237961,91.455998,10.784203,76.771923,1.825665,55.815983,0.0,8.157439,28.77505,58.383853,46.323652,73.429835,58.798668,80.903722,66.968099,84.361461,-3.288271,292.897048,-47.633223,283.640032
110,5.856903,0.049524,0.314621,-0.015919,0.0,-13.123604,-14.992012,35.043823,-24.884537,38.109261,-32.790482,24.13607,-38.68301,-31.65667,0.0,8.871534,17.938791,45.747015,34.554777,58.379741,46.195088,63.464122,55.856101,70.825858,0.0,69.3093,28.565209,90.713688,20.044407,91.072735,10.582615,76.510403,1.549965,55.391979,0.0,8.312581,28.683165,58.544787,46.186492,73.451337,58.718824,80.978761,66.977016,84.461287,2.351389,292.850149,-47.535845,283.52769
111,-0.020874,2.184606,0.319222,-0.030431,0.0,-10.183296,-17.045906,34.740761,-26.624634,38.227249,-33.282188,25.421631,-37.528965,-28.587124,0.0,7.93951,16.964049,45.495715,33.619518,57.336888,45.250665,61.706631,54.825968,66.87908,0.0,69.060207,28.302555,90.603161,19.803257,90.720852,10.344303,76.189144,1.236122,54.983104,0.0,8.58821,28.577609,58.489508,45.987989,73.437036,58.539082,81.035745,66.87782,84.512787,2.138655,294.996933,-47.408483,283.459437
112,-1.695717,3.819535,0.217655,0.137703,0.0,-4.519386,-15.450703,37.659874,-24.474266,41.124046,-30.276981,28.187439,-33.763481,-18.851223,0.0,6.037832,15.05023,42.948918,31.178586,54.389504,42.876991,58.665547,52.498224,61.740273,0.0,68.940262,28.234737,90.588684,19.824348,90.503517,10.362408,75.911659,1.155521,54.693008,0.0,8.591483,28.605125,58.267788,45.879099,73.304791,58.39839,80.829795,66.779452,84.416383,0.266064,298.827049,-47.367702,283.607721
113,-2.036362,0.597373,0.143303,0.089724,0.0,9.876664,-12.111545,42.939743,-22.009735,45.378365,-28.931579,30.797471,-33.518657,-15.862094,0.0,-3.135253,12.600641,41.86142,29.837281,54.05993,43.052845,59.9422,53.857981,63.705356,0.0,68.847313,28.246719,90.6744,19.897041,90.317734,10.401249,75.63137,1.063053,54.329018,0.0,8.612095,28.51697,58.225525,45.627342,73.25954,58.101975,80.762338,66.516815,84.390002,-1.984475,299.460098,-47.438576,283.733121
114,4.390114,0.19423,0.180347,0.101653,0.0,4.91169,-17.309578,38.078522,-27.51828,40.48629,-33.761787,26.549172,-37.380752,-20.086555,0.0,-2.282505,12.604334,42.558483,29.804306,54.463209,42.901926,59.836742,53.646943,63.282242,0.0,68.757168,28.088906,90.432667,19.754299,90.032147,10.234749,75.283963,0.852883,53.824139,0.0,8.463623,28.53778,58.250732,45.577881,73.297566,57.986922,80.680174,66.319004,84.378974,2.213064,299.71439,-47.450804,283.894836
115,-5.175407,2.432361,0.181938,-0.031455,0.0,14.07399,-12.680878,43.567085,-22.329357,45.790764,-28.200096,32.257118,-31.391201,-9.967621,0.0,-6.235667,11.417787,40.929013,28.748213,52.497162,42.093008,57.741983,52.910162,59.083671,0.0,68.593792,28.099411,90.403164,19.719864,89.887105,10.12476,74.982777,0.669995,53.496403,0.0,8.469241,28.496308,58.17384,45.532938,73.387734,57.929444,80.704132,66.234702,84.374058,-3.17209,302.220138,-47.478613,283.936768
116,-0.294228,1.54465,0.040135,-0.16233,0.0,16.263657,-11.123989,45.268227,-20.445076,47.154785,-26.394928,32.311981,-29.899143,-8.097381,0.0,-7.999062,10.870209,39.457883,27.713856,50.617479,40.934385,56.652742,51.688775,58.855762,0.0,68.554985,28.183628,90.435196,19.786732,89.899315,10.140678,74.95681,0.650494,53.41349,0.0,8.583703,28.524528,58.296427,45.620426,73.493537,57.992467,80.802143,66.199443,84.396141,-3.692826,303.840667,-47.664986,283.850317
117,0.215492,-1.341614,0.121559,-0.239913,0.0,15.459298,-11.152645,43.822587,-20.60971,46.529618,-26.418262,32.889817,-29.507205,-7.824188,0.0,-6.731586,11.184345,38.865845,28.357246,51.431868,41.622371,57.716344,52.54629,60.18147,0.0,68.530838,28.267124,90.413498,19.805489,89.779724,10.08775,74.849648,0.560761,53.27552,0.0,8.875227,28.477154,58.457176,45.649412,73.627536,58.041942,80.932474,66.214238,84.476244,-3.70851,302.565818,-47.774603,283.677169
118,0.93583,-0.880524,0.091267,-0.246347,0.0,14.813987,-11.881062,42.779892,-21.288861,45.502006,-27.131996,31.271164,-30.222416,-10.700009,0.0,-6.766586,11.950001,40.190058,29.105427,52.634902,42.158216,58.680799,52.85014,60.675485,0.0,68.499424,28.242714,90.306713,19.758567,89.71883,10.027576,74.76836,0.510315,53.198078,0.0,9.068135,28.548673,58.368676,45.772049,73.656954,58.15823,80.954395,66.300874,84.484271,-2.98546,301.742113,-47.896116,283.487641
119,-0.63192,-0.080276,-0.020188,-0.269219,0.0,15.762337,-11.072205,43.381599,-20.589329,45.632469,-26.670628,30.890671,-29.993054,-10.759541,0.0,-7.978906,11.788191,39.780863,29.056533,52.304168,42.239098,58.611836,52.997365,60.846818,0.0,68.457585,28.465657,90.270985,19.959675,89.650257,10.155155,74.618855,0.560578,53.032803,0.0,9.32425,28.661948,58.453496,45.905046,73.743268,58.268578,81.006981,66.401033,84.542365,-3.854919,301.694599,-48.153843,283.251184
120,-0.458267,0.076682,0.007897,-0.238295,0.0,12.101989,-11.078682,43.445503,-20.275338,45.773872,-26.042519,31.28936,-29.013394,-8.958516,0.0,-5.359738,11.5753,40.031458,28.36415,52.027859,41.361686,58.121353,52.077049,60.434227,0.0,68.319088,28.510013,90.153019,20.00132,89.615352,10.143882,74.583469,0.462089,52.889522,0.0,9.524779,28.686932,58.467204,45.910468,73.723101,58.285572,80.966165,66.473405,84.5931,-4.530269,301.783566,-48.363029,283.025174
