takenoko1/special-research/HandMotion_SimilarSearch_自分用/NewProject/handData/test_key/d4_feature_d3/99.csv
frame,vel_0x_L,vel_0y_L,vel_0x_R,vel_0y_R,posFromWrist_0x_L,posFromWrist_1x_L,posFromWrist_2x_L,posFromWrist_3x_L,posFromWrist_4x_L,posFromWrist_5x_L,posFromWrist_6x_L,posFromWrist_7x_L,posFromWrist_8x_L,posFromWrist_9x_L,posFromWrist_0y_L,posFromWrist_1y_L,posFromWrist_2y_L,posFromWrist_3y_L,posFromWrist_4y_L,posFromWrist_5y_L,posFromWrist_6y_L,posFromWrist_7y_L,posFromWrist_8y_L,posFromWrist_9y_L,posFromWrist_0x_R,posFromWrist_1x_R,posFromWrist_2x_R,posFromWrist_3x_R,posFromWrist_4x_R,posFromWrist_5x_R,posFromWrist_6x_R,posFromWrist_7x_R,posFromWrist_8x_R,posFromWrist_9x_R,posFromWrist_0y_R,posFromWrist_1y_R,posFromWrist_2y_R,posFromWrist_3y_R,posFromWrist_4y_R,posFromWrist_5y_R,posFromWrist_6y_R,posFromWrist_7y_R,posFromWrist_8y_R,posFromWrist_9y_R,posFromBody_0x_L,posFromBody_0y_L,posFromBody_0x_R,posFromBody_0y_R
6,4.352166,-4.196472,0.281331,0.18377,0.0,-17.982319,-25.02744,26.68872,-31.946892,30.244102,-35.541996,17.396873,-36.541844,-49.142682,0.0,3.282207,18.500399,37.395457,34.614045,46.509991,45.813841,54.332632,54.471521,68.621726,0.0,66.709545,21.815402,85.263851,12.280586,83.056652,3.687938,70.300289,-3.681817,48.063869,0.0,6.579333,27.15604,50.998788,44.826945,63.684274,57.133358,75.06217,64.066781,77.360768,4.962199,280.388317,-44.808694,268.023872
7,-1.717507,2.252705,0.040454,0.028182,0.0,-10.317638,-24.53746,30.063378,-31.428039,33.426613,-34.308494,21.51194,-34.103508,-49.085106,0.0,0.070235,16.406948,37.407819,32.444642,45.190186,43.856661,52.869628,52.940073,66.591286,0.0,66.890442,22.403756,85.610962,12.958306,83.227959,4.264058,70.446877,-3.30796,48.206887,0.0,6.503554,27.163192,50.940361,44.752105,63.444844,57.055788,74.832583,64.080095,77.197019,3.413297,282.62594,-44.599635,268.036972
8,-0.723015,-0.173618,0.237133,-0.049412,0.0,-4.340229,-22.460689,32.042359,-29.827514,34.406594,-33.603103,21.945557,-34.412326,-54.579265,0.0,-4.579682,15.639811,37.587464,32.774772,47.021988,45.033044,53.899848,54.535716,68.161179,0.0,67.078183,22.530407,85.534642,13.080689,83.219571,4.376553,70.487858,-3.160904,48.416348,0.0,6.508938,27.083335,50.83678,44.816559,63.321145,57.212189,74.736709,64.290614,77.081335,2.797863,282.436334,-44.254921,267.971572
9,-5.161605,2.874173,0.021229,-0.087204,0.0,5.839084,-18.118115,38.037117,-25.413666,39.869728,-28.928456,28.469398,-28.922036,-49.802765,0.0,-8.893615,12.533345,35.406464,29.577052,45.585019,42.044238,52.316518,51.768507,64.555449,0.0,67.241089,22.767918,85.568367,13.280136,83.262657,4.544895,70.481896,-2.97678,48.458611,0.0,6.59319,27.17627,50.933642,44.963945,63.275869,57.370418,74.7539,64.439988,77.140862,-2.29961,285.296981,-44.16956,267.870842
10,1.448226,-2.63016,0.113457,-0.053291,0.0,4.503514,-18.346916,36.02163,-26.069721,37.2808,-30.354057,24.731186,-31.196548,-51.312538,0.0,-8.634325,14.527402,36.792056,32.120267,47.896127,44.569237,54.931573,54.021669,67.871187,0.0,67.479515,22.938412,85.642273,13.402656,83.337089,4.627098,70.473518,-2.90712,48.331856,0.0,6.543136,27.147593,51.038161,44.911223,63.398271,57.293144,74.817133,64.328418,77.129501,-0.796257,282.655036,-44.000976,267.805766
11,-5.889541,2.887289,0.069294,-0.188314,0.0,10.756336,-14.122994,43.127518,-21.10215,45.195007,-24.569138,33.683098,-24.300751,-36.866707,0.0,-5.870501,12.441028,35.200032,28.770616,45.835527,40.76903,52.525407,50.047708,62.624439,0.0,67.799229,23.231254,85.850063,13.646175,83.469028,4.777805,70.504177,-2.851845,48.288448,0.0,6.575369,27.234612,51.152189,45.02004,63.552968,57.40285,74.961505,64.428219,77.289224,-6.643101,285.532426,-43.888985,267.607553
12,2.765762,-2.530643,0.084068,-0.125687,0.0,3.94447,-15.879513,39.730705,-23.211605,41.944771,-27.332668,29.675537,-27.922737,-38.541046,0.0,-3.829526,14.548236,36.028488,31.012835,47.647235,42.765766,54.444671,51.687342,65.27846,0.0,67.973316,23.355972,86.077572,13.655892,83.707432,4.694733,70.622212,-2.968941,48.291836,0.0,6.508729,27.30087,51.280346,45.148234,63.618078,57.529858,75.096788,64.486314,77.427916,-3.842468,282.993889,-43.770046,267.473972
13,0.779194,-0.622877,0.016869,-0.071099,0.0,-2.005577,-18.009293,38.764172,-25.289532,40.878239,-28.871761,28.587513,-28.710709,-38.103905,0.0,2.717562,15.607923,37.619339,31.002993,47.010305,41.975707,54.816434,50.684985,65.680431,0.0,68.341633,23.481972,86.43639,13.789409,84.191677,4.852833,71.080044,-2.794579,48.865803,0.0,6.409643,27.342996,51.414517,45.207156,63.608432,57.612258,75.008719,64.591524,77.462261,-3.039522,282.36286,-43.729425,267.394721
14,1.931763,-3.695046,0.18243,0.041336,0.0,-7.130081,-18.824295,36.970859,-26.264935,39.100948,-30.649121,25.11375,-31.812916,-38.743378,0.0,6.014293,18.583676,40.039363,34.353249,49.164925,45.314194,57.447582,53.982779,70.108998,0.0,68.738571,23.260529,86.558098,13.589493,84.489235,4.744915,71.376228,-2.792484,49.348618,0.0,6.048984,27.14122,51.353779,45.122285,63.606283,57.648406,74.845908,64.743553,77.379132,-1.089987,278.671516,-43.529223,267.439759
15,-2.522072,3.946086,0.149414,0.069864,0.0,-6.702084,-17.651962,40.434162,-24.320629,43.212215,-27.443848,30.332783,-27.015701,-28.163899,0.0,9.509354,16.690383,37.491936,30.629143,45.258816,40.515718,52.985485,48.631908,63.625921,0.0,68.964249,23.301933,86.643952,13.632477,84.674927,4.789833,71.491974,-2.747291,49.617645,0.0,5.763018,27.089832,51.317421,45.193089,63.565022,57.793335,74.66104,64.970832,77.270551,-3.604809,282.626352,-43.372559,267.518373
16,5.498428,-3.176836,0.025498,0.043966,0.0,-11.902405,-21.326969,33.868893,-28.502346,35.963162,-32.311821,22.204548,-32.807476,-41.841705,0.0,5.733711,19.0502,39.465269,34.186683,47.64442,44.425408,55.692289,52.71524,69.295448,0.0,69.19606,23.413147,86.794281,13.80019,84.959541,5.027561,71.8423,-2.420254,50.386459,0.0,5.593538,27.138603,51.351952,45.332979,63.609791,57.959234,74.504515,65.143511,77.202354,1.894701,279.457516,-43.345979,267.570339
17,-2.709938,2.333845,0.096427,0.00457,0.0,-6.842422,-19.382217,37.483738,-26.012752,39.73708,-28.913807,26.702992,-28.258312,-38.904327,0.0,6.41336,17.103839,38.885753,31.968966,45.779149,42.452716,53.669901,51.106839,67.265724,0.0,69.49125,23.487488,86.849717,13.956334,85.112893,5.284527,72.079514,-2.056308,51.111924,0.0,5.48072,27.125709,51.412973,45.388961,63.635516,58.069618,74.323203,65.329206,77.07227,-0.823225,281.802825,-43.25754,267.586373
18,5.094555,-2.963563,0.215218,-0.060725,0.0,-11.170818,-22.780884,31.128937,-29.481502,33.398438,-32.744923,20.16552,-32.778786,-47.520046,0.0,2.214752,19.642361,39.70155,35.597815,47.900832,46.300632,55.634392,54.935118,71.557155,0.0,69.464996,23.535393,86.604744,13.979851,84.766434,5.249313,71.758301,-2.128097,50.964363,0.0,5.441644,27.145654,51.583009,45.449007,63.960162,58.117635,74.50097,65.342248,77.135613,4.246548,278.855697,-43.067104,267.542083
19,-1.790565,2.012507,0.216385,-0.026924,0.0,-4.837658,-21.40004,34.20536,-28.102375,36.124969,-30.822991,23.042701,-29.910702,-46.393261,0.0,2.19834,17.864481,39.647161,33.863296,46.465592,44.979692,54.018619,54.104427,69.090721,0.0,69.531738,23.827354,86.789703,14.229092,84.808044,5.39542,71.764069,-2.076428,51.029205,0.0,5.536419,27.213012,51.677994,45.481068,63.864277,58.077066,74.331664,65.23027,76.922847,2.397978,280.875154,-42.908724,267.522109
20,-0.271225,-0.584504,0.226376,-0.065183,0.0,2.143684,-19.500939,36.486992,-26.781418,37.26963,-30.488114,23.568992,-30.660702,-53.791237,0.0,-4.919507,16.94293,40.722247,34.589851,48.601649,47.049837,55.514979,56.926815,71.84138,0.0,69.652301,23.825546,86.782894,14.187927,84.767131,5.364143,71.79404,-2.015362,51.203899,0.0,5.531355,27.22735,51.854365,45.57867,63.946269,58.174976,74.290426,65.270593,76.838717,2.016558,280.299622,-42.792543,267.465898
21,-5.530953,3.498012,0.319416,-0.02312,0.0,11.717171,-13.898826,44.475678,-21.17712,45.021561,-24.910766,31.174095,-25.020023,-46.615024,0.0,-6.36953,13.555821,38.956495,31.205781,46.798242,44.251593,53.092214,54.468396,67.711859,0.0,69.666,23.882297,86.811813,14.178234,84.747802,5.276046,71.721244,-2.176312,50.995536,0.0,5.499603,27.080224,51.906248,45.456887,63.748347,58.086933,74.08218,65.216858,76.682428,-3.679854,283.817805,-42.638586,267.462949
22,3.821938,-1.904172,0.31953,0.073002,0.0,6.097297,-16.14505,39.95597,-23.643002,39.755493,-27.939102,25.262649,-28.936753,-51.289273,0.0,-9.109174,15.818047,38.72803,33.524693,47.613186,46.160124,54.134943,56.000534,69.861155,0.0,69.614628,23.716702,86.771702,13.957718,84.644863,5.034405,71.585117,-2.398693,50.653187,0.0,5.319847,26.767778,51.890995,45.225693,63.815506,57.959072,74.022466,65.187514,76.567201,-0.055664,281.935091,-42.516804,267.557409
23,-4.099594,1.916016,0.179352,0.1503,0.0,12.373375,-12.715565,45.88433,-20.22131,46.023697,-24.269062,31.901321,-24.760369,-42.439236,0.0,-6.938832,13.559612,38.082331,31.090097,46.443806,44.10081,53.057831,54.285837,67.028183,0.0,69.774914,23.826382,87.064693,14.070328,84.96365,5.148834,71.893558,-2.277523,50.712444,0.0,5.063546,26.575364,51.748871,45.041035,63.522649,57.795693,73.694115,65.045525,76.273751,-4.371402,283.873248,-42.553596,267.72985
24,3.66838,-1.673152,0.204094,0.050747,0.0,4.449532,-15.502899,40.837967,-23.019619,40.885048,-27.288608,26.473389,-28.346546,-46.084007,0.0,-8.174804,15.915588,37.69481,33.22744,47.244129,45.659811,54.145293,55.296382,69.399547,0.0,69.760769,23.688114,86.87788,13.927997,84.851452,5.012764,71.786785,-2.411614,50.425312,0.0,4.88831,26.447059,51.773348,44.914199,63.812665,57.686259,73.80902,64.943427,76.34858,-0.910567,282.231743,-42.557047,267.812244
25,0.969132,-0.7301,0.316028,0.097368,0.0,-0.569023,-17.237389,38.867706,-24.722099,39.507522,-28.520004,25.336853,-28.966896,-43.29942,0.0,-3.103501,16.863457,38.488921,33.4779,46.935846,45.404745,54.768009,55.007625,69.958573,0.0,69.570488,23.665856,86.889313,14.002316,84.934296,5.123589,71.806069,-2.373321,50.253983,0.0,4.827128,26.536054,51.471648,44.888041,63.61415,57.617024,73.623979,64.907451,76.218052,-0.158563,281.539938,-42.458147,267.947907
26,6.365295,-3.114345,0.259221,0.115559,0.0,-10.187164,-23.006756,30.855675,-30.905067,31.713845,-34.803989,17.261215,-35.478344,-51.678074,0.0,-1.200243,19.603014,40.192034,36.168513,48.340396,47.560217,56.753309,56.873229,73.462032,0.0,69.4071,23.560581,86.967578,14.034645,85.079303,5.270267,72.014133,-2.207291,50.289058,0.0,4.729131,26.669793,51.21021,44.919337,63.467803,57.593264,73.564007,64.878466,76.246062,5.974468,278.469732,-42.43119,268.107605
27,-3.197433,2.975098,0.142089,-0.156092,0.0,-4.642914,-20.776406,35.128235,-28.675026,35.95523,-32.213459,21.8218,-32.296486,-48.052655,0.0,-2.503485,16.449667,39.226418,33.096862,46.587648,44.9594,54.826067,54.713952,69.71456,0.0,68.983738,23.61945,86.850117,14.222638,85.115582,5.490235,72.128666,-2.080089,50.043423,0.0,4.706246,27.036677,51.500041,45.232633,64.057457,57.825926,73.921356,65.043302,76.538055,2.528784,281.499819,-42.537352,268.006502
28,-1.401661,-3.152927,-0.081779,-0.557557,0.0,-2.605694,-18.899998,36.009533,-27.39188,36.86681,-32.30642,21.163456,-34.205967,-51.30566,0.0,-3.114616,18.354261,42.760827,35.246308,51.394621,46.969204,59.44175,56.410941,73.775329,0.0,68.38036,23.569382,86.454403,14.350651,85.128879,5.660225,72.039997,-2.031876,50.237652,0.0,4.697922,26.760665,52.423432,44.660417,66.2359,57.146005,75.910819,64.578321,78.64798,0.871977,278.401093,-42.874277,267.503146
29,-4.728184,-2.487837,-0.328766,-2.825341,0.0,4.75058,-15.444122,38.25721,-25.246742,38.760315,-31.661224,22.505699,-34.833721,-47.95705,0.0,-4.634011,16.510788,46.324208,33.918044,56.065249,46.145008,63.998201,55.846245,75.559261,0.0,67.319241,23.014938,84.243633,13.815353,82.812412,4.8097,69.700665,-3.503906,47.560787,0.0,3.378155,25.986871,54.561948,43.119671,69.227164,55.544977,79.082715,63.503173,82.098309,-4.16498,275.977489,-43.511816,264.742038
30,4.060204,-2.817066,0.368237,-4.354244,0.0,-2.729096,-19.561455,13.49358,-26.991715,12.63977,-31.474102,0.703411,-33.295246,-53.489262,0.0,-13.53306,19.095055,45.610237,36.762416,58.579775,48.805673,67.527669,57.753777,79.248576,0.0,60.99678,23.613716,72.48373,14.873199,67.110958,5.625652,53.377578,-3.548195,33.780384,0.0,1.877608,25.643563,55.794375,41.935174,73.431231,53.891993,81.942822,61.722946,84.174976,-0.471376,273.256584,-43.510179,260.483955
31,0.402351,-2.079668,-7.918328,-19.229411,0.0,-10.012115,-19.460815,-7.597469,-23.999302,-9.584164,-25.894592,-15.878609,-25.374252,-49.977951,0.0,-8.232096,20.297348,47.437902,37.902662,62.181578,50.170271,71.737405,58.887836,80.615237,0.0,59.593609,27.34972,64.926419,19.210533,57.293347,9.822727,44.043183,0.309963,26.585209,0.0,3.856128,20.005219,48.661103,36.861871,68.067232,50.557791,77.737692,61.037491,82.570106,-0.549442,271.373828,-51.908924,241.451456
32,5.206467,-4.502185,-8.495441,-30.172956,0.0,-24.056797,-22.830174,-34.466984,-24.592827,-36.533501,-24.217015,-37.252442,-21.907894,-51.974922,0.0,-0.824257,24.276705,50.592495,41.696434,67.268527,53.665183,77.763738,61.658292,85.172652,0.0,53.03508,28.257385,55.159321,20.615261,46.990253,11.206615,34.383247,1.330307,19.677257,0.0,-5.136165,14.550954,36.035484,29.514869,54.636011,42.170579,64.461132,52.736531,70.281923,3.671511,267.305462,-61.389879,211.712319
33,7.435421,-0.325623,-8.928555,-36.811854,0.0,-40.166096,-28.295941,-63.30732,-26.864422,-66.309208,-22.912514,-60.407387,-17.172112,-55.457016,0.0,3.496197,25.241235,49.390203,42.560496,66.362106,54.6751,78.131599,62.500285,84.242691,0.0,50.762524,25.667004,43.265454,17.89872,32.782025,8.772606,22.098175,-0.399639,9.497921,0.0,-9.147224,0.429555,8.213009,11.62467,21.328457,21.992138,29.73312,31.522203,37.447568,9.978098,267.573038,-71.447268,175.493664
34,7.037281,0.662817,-12.167244,-44.261182,0.0,-55.9571,-32.596997,-88.00185,-27.103535,-90.875382,-19.071785,-78.818127,-9.82283,-57.652199,0.0,10.693418,27.628851,47.725819,44.550674,64.56465,56.56045,77.261115,64.035251,83.111831,0.0,49.679879,22.764473,32.61406,14.751412,20.616761,5.740631,10.64732,-3.015392,-0.443287,0.0,-12.515962,-15.605632,-26.745974,-7.165641,-16.703332,1.833993,-7.857264,11.413131,3.766399,15.642975,269.083521,-84.986916,132.080148
35,2.79245,-1.229303,-13.605446,-48.782338,0.0,-61.131523,-32.266377,-91.66848,-26.561829,-94.014988,-18.332245,-81.087719,-8.962532,-59.811962,0.0,22.071339,27.884881,50.788652,45.128054,66.307445,57.608788,78.967662,65.485929,83.211916,0.0,53.84198,18.959542,30.562901,9.692608,21.006363,0.100159,11.975453,-8.359371,-0.146747,0.0,-16.702689,-29.425294,-59.244277,-23.54185,-55.532645,-15.470244,-44.659738,-5.555141,-28.762743,17.021256,268.517628,-100.006531,83.96122
36,1.313232,-0.007731,-5.864273,-41.068358,0.0,-61.666374,-32.529167,-92.422027,-26.800644,-94.368381,-18.613953,-81.340038,-9.337921,-60.542152,0.0,21.960139,27.928118,50.700015,45.295162,65.818332,57.831608,78.852658,65.686532,83.088848,0.0,53.501416,12.995488,26.378437,2.745049,17.657376,-7.183319,8.44051,-16.078342,-4.863819,0.0,-22.767668,-42.160545,-87.042578,-40.722347,-88.95706,-36.23957,-79.820633,-28.699591,-63.359931,16.879921,269.039317,-107.325371,43.422282
37,0.746796,-0.339121,-5.230362,-33.598684,0.0,-62.075318,-32.559288,-92.612664,-26.877983,-94.529938,-18.739243,-81.678246,-9.555748,-61.233811,0.0,21.568271,27.952115,50.599301,45.463568,65.571676,58.118587,78.676423,66.03084,83.041287,0.0,59.351521,10.490937,24.748822,-0.548492,16.079533,-10.921623,7.400483,-20.245342,-7.294773,0.0,-18.035276,-54.315427,-109.691144,-55.117361,-115.299971,-51.680346,-105.891496,-44.496136,-87.973845,16.41972,269.107236,-113.76273,10.230638
38,0.462867,-0.172679,-3.727432,-28.621087,0.0,-62.170246,-32.544273,-92.785102,-26.889747,-94.692111,-18.836608,-81.868526,-9.733497,-61.390731,0.0,21.300435,27.925747,50.361129,45.514821,65.469343,58.189476,78.528135,66.064642,82.930853,0.0,61.198666,11.88541,26.501461,0.621998,19.178662,-10.547149,9.832672,-21.366737,-6.373752,0.0,-17.849957,-57.183969,-117.450584,-58.254382,-123.254208,-54.753491,-112.376228,-47.259499,-94.234843,15.546506,269.392977,-118.826243,-17.932029
39,0.187844,-0.059231,0.546856,-19.108486,0.0,-62.183705,-32.581902,-92.803906,-27.01783,-94.932575,-19.088516,-82.088711,-10.050247,-61.389805,0.0,20.914692,27.859403,50.101691,45.525504,65.272174,58.201369,78.329904,66.039942,82.7334,0.0,61.975914,14.119515,29.703552,2.921185,22.998139,-8.49107,14.035423,-19.961552,-2.618648,0.0,-17.119771,-58.196071,-119.358526,-60.090851,-127.750836,-57.480816,-117.74605,-50.913264,-101.344341,14.443382,269.600758,-119.570355,-36.773503
40,0.111419,-0.030652,1.700077,-12.659341,0.0,-62.382751,-32.76844,-93.087867,-27.347717,-95.414382,-19.556098,-82.636665,-10.590751,-61.932895,0.0,20.372473,27.703519,49.784231,45.444907,64.907216,58.164824,78.026264,66.051056,82.507047,0.0,62.804592,16.121624,34.086514,5.590119,27.96381,-5.460583,19.721878,-17.298569,2.178864,0.0,-14.713999,-61.750418,-122.313076,-64.573752,-132.137289,-62.927875,-123.558449,-57.042295,-107.911608,13.14656,269.942868,-119.278519,-49.060082
41,0.276215,0.009707,2.470356,-4.515153,0.0,-62.819939,-33.00737,-93.824158,-27.709007,-96.147606,-20.040459,-83.577759,-11.203285,-62.965061,0.0,19.883978,27.566125,49.233517,45.400706,64.299148,58.168554,77.447589,66.109114,82.097654,0.0,62.806812,16.802857,35.763783,6.473202,30.25724,-4.538418,22.567108,-16.42503,5.121369,0.0,-13.475447,-61.023739,-121.616297,-64.104004,-131.760809,-62.724988,-123.548199,-57.317337,-108.119494,11.875814,270.201997,-118.355124,-53.325813
42,0.246254,-0.278396,1.660893,1.034912,0.0,-63.304756,-33.111763,-94.516937,-27.946655,-96.990509,-20.445923,-84.520145,-11.787163,-63.754463,0.0,19.483379,27.561321,48.911649,45.513376,63.82861,58.314397,77.044841,66.24026,81.923951,0.0,62.213905,16.387745,37.408779,6.177715,30.914096,-4.742695,22.543064,-16.48106,4.97723,0.0,-12.12126,-60.868122,-121.055007,-63.991958,-130.795205,-62.518253,-123.526848,-56.792156,-106.800499,10.510294,269.889923,-118.306005,-52.324579
43,0.368912,-0.42341,-0.271557,5.198786,0.0,-63.837433,-33.438996,-95.107166,-28.416893,-97.809151,-21.025383,-85.40371,-12.462021,-64.579251,0.0,19.20954,27.462211,48.579111,45.506163,63.381734,58.392857,76.623591,66.428265,81.787766,0.0,61.075527,15.349903,37.477318,5.254314,29.985706,-5.595154,21.200157,-17.208184,3.510006,0.0,-10.879391,-60.546964,-120.691952,-63.341516,-129.277072,-61.254846,-122.345921,-54.557656,-103.792933,9.204786,268.800633,-120.251982,-47.791673
44,0.526199,-0.448716,-3.347454,7.391611,0.0,-64.372661,-33.713264,-95.976082,-28.765549,-98.39114,-21.454262,-86.063438,-13.024338,-65.346462,0.0,18.862615,27.34869,48.324169,45.570088,63.225679,58.596658,76.483851,66.697707,81.74653,0.0,60.068687,14.393074,37.5027,4.250988,28.936969,-6.575993,19.780803,-17.898869,2.552478,0.0,-10.242825,-59.078781,-118.905942,-61.180444,-125.706564,-58.14236,-118.735844,-50.237542,-98.502461,8.145979,267.446582,-125.184442,-41.305397
45,0.541168,-0.515319,-7.10281,7.978172,0.0,-64.689285,-34.04274,-96.580295,-29.042038,-98.752819,-21.707176,-86.349186,-13.327743,-65.639167,0.0,18.516367,27.338784,47.99836,45.669962,63.165188,58.78181,76.358855,66.913389,81.661388,0.0,58.188663,13.091903,37.890152,3.239525,28.976269,-6.823883,20.157005,-16.522465,4.113155,0.0,-9.950666,-54.780853,-112.266844,-56.694246,-117.767839,-53.524986,-112.058365,-45.496611,-91.884187,7.153244,266.031498,-133.821155,-34.22699
46,0.247124,-0.61927,-9.011845,7.508275,0.0,-64.823776,-34.217949,-96.663563,-29.222923,-98.885364,-21.934112,-86.514576,-13.599724,-65.770775,0.0,18.532719,27.349825,48.146462,45.674964,63.378844,58.826616,76.572697,67.025206,81.74107,0.0,53.040974,13.579456,38.006184,3.515099,25.931557,-6.689483,15.482666,-15.715679,0.825382,0.0,-10.33587,-49.69846,-99.505361,-51.341781,-99.352955,-47.713679,-91.957018,-39.59261,-74.237256,5.82272,264.737537,-144.410648,-27.393406
47,0.117737,-0.385879,-13.390812,12.74381,0.0,-64.819588,-34.268669,-96.616356,-29.239609,-98.879013,-21.925484,-86.591297,-13.588257,-65.81036,0.0,18.575241,27.251186,48.329936,45.492208,63.609063,58.646602,76.703275,66.90714,81.808502,0.0,45.809452,10.00486,32.996876,-0.859211,20.108643,-11.314029,9.957012,-20.108379,-2.120441,0.0,-19.54161,-48.719155,-83.57165,-49.516958,-81.028539,-44.995315,-73.629679,-36.173682,-58.724222,4.29891,263.983622,-159.443007,-15.017632
48,-0.205078,-0.336774,-14.234081,12.876794,0.0,-64.580258,-34.137337,-96.309426,-29.038971,-98.52182,-21.715645,-86.231873,-13.429161,-65.491951,0.0,18.582156,27.274305,48.456339,45.45412,63.749174,58.595028,76.820983,66.847871,81.974129,0.0,36.526382,5.52737,28.988686,-6.054474,15.730499,-16.515427,5.823761,-24.739735,-3.452717,0.0,-27.395817,-48.220402,-69.717351,-47.88164,-64.395577,-42.312197,-56.763751,-32.634339,-44.595517,2.259745,263.797596,-175.511175,-1.99009
49,-0.084938,-0.128564,-12.947228,12.047216,0.0,-64.562039,-33.968903,-95.848778,-28.845932,-98.256214,-21.501526,-85.946068,-13.211037,-65.105221,0.0,18.958685,27.320889,48.56145,45.298706,63.874218,58.3048,76.964194,66.497709,81.986059,0.0,24.636235,1.36385,25.993618,-10.780071,13.12793,-21.344879,2.518879,-29.36658,-5.031703,0.0,-33.197164,-48.574523,-57.690236,-47.789515,-50.54162,-41.610213,-42.206524,-31.440717,-33.172939,0.259627,264.004995,-190.373583,10.393089
50,-0.059212,0.044003,-9.239627,10.566088,0.0,-64.491623,-33.723106,-95.417564,-28.595352,-97.918064,-21.245499,-85.659164,-12.928162,-64.68877,0.0,19.507227,27.395101,48.856444,45.254876,64.154121,58.155464,77.21069,66.255426,82.095221,0.0,14.444332,-3.696053,22.097705,-16.775036,9.010242,-28.020298,-2.90807,-36.702805,-9.499466,0.0,-40.219976,-51.872347,-50.686325,-49.961876,-40.659497,-42.003958,-30.198712,-29.825591,-22.668712,-1.672199,264.41598,-201.485824,21.326159
51,0.067978,0.243087,-7.19022,9.870501,0.0,-64.190163,-33.463715,-94.93087,-28.274437,-97.513355,-20.843422,-85.116119,-12.469116,-63.868149,0.0,19.681832,27.305019,48.767301,45.084556,64.225874,57.931124,77.224213,65.945438,82.13321,0.0,8.671623,-10.097878,18.733669,-23.673855,8.181862,-34.780014,-3.14209,-43.337815,-9.14027,0.0,-47.378868,-55.998324,-49.527517,-53.216851,-41.449934,-44.10509,-31.487795,-30.247328,-23.83033,-3.114801,264.97866,-210.186624,31.516253
52,0.444076,0.506637,-1.986042,3.182869,0.0,-63.826835,-33.395233,-94.701919,-28.21582,-97.306537,-20.738411,-84.712921,-12.267219,-63.182327,0.0,19.655033,27.031725,48.384931,44.704816,64.076599,57.518311,77.119015,65.509493,81.96541,0.0,5.712147,-11.816311,21.201633,-25.043415,11.462459,-35.762615,-0.926594,-43.791138,-7.275513,0.0,-45.725069,-56.341082,-51.836729,-53.344717,-43.035387,-43.75591,-31.985818,-29.178181,-24.526887,-3.767733,265.67655,-213.269674,34.890375
53,0.76664,0.398722,0.53825,0.994348,0.0,-63.782936,-33.227302,-94.666603,-28.066292,-97.270168,-20.574371,-84.648525,-12.060425,-62.996612,0.0,19.910902,26.863319,48.314461,44.451603,64.100695,57.224614,77.239169,65.187477,81.943662,0.0,4.833194,-12.276776,22.741848,-25.430363,13.751438,-36.186562,0.324428,-44.245606,-6.669045,0.0,-46.059478,-56.121287,-51.906982,-53.428957,-43.195185,-43.875477,-32.024109,-29.250108,-24.955762,-3.544304,266.181011,-213.274635,35.990462
54,0.57827,0.306937,1.217926,0.255937,0.0,-63.50227,-33.175461,-94.422672,-28.087875,-97.240803,-20.608978,-84.636291,-11.987617,-62.912922,0.0,19.712411,26.792145,48.246252,44.318184,63.956199,57.07966,77.128661,65.057344,82.043079,0.0,6.105926,-12.440323,23.055645,-25.528439,14.551277,-36.245098,1.220718,-44.268414,-6.089985,0.0,-46.846882,-55.583398,-51.38621,-52.806426,-42.482597,-43.20848,-32.108331,-28.524127,-24.77437,-3.220762,266.569094,-212.311437,36.327545
55,0.540985,0.231453,0.728622,0.811592,0.0,-63.304333,-33.037994,-94.26963,-28.044594,-97.179554,-20.648781,-84.611378,-12.04422,-62.954315,0.0,19.450812,26.752613,48.154367,44.186545,63.651275,56.926593,77.017991,64.913799,82.12254,0.0,7.500057,-11.719082,23.415093,-24.745594,15.18195,-35.52602,1.969036,-43.765903,-5.565067,0.0,-47.302032,-55.255448,-51.048189,-52.530976,-42.403755,-43.166817,-32.569785,-28.782991,-25.016432,-2.732924,266.876494,-211.635962,37.215084
56,0.414459,0.036556,0.42889,0.9927,0.0,-63.095283,-32.858207,-94.394451,-27.938804,-97.397541,-20.633995,-84.823803,-12.093406,-63.272518,0.0,19.447095,26.878324,48.349449,44.312108,63.636739,57.04692,77.124882,65.033682,82.347287,0.0,8.470162,-11.468273,23.890858,-24.363098,15.883519,-35.116458,3.086026,-43.36219,-4.716888,0.0,-47.344251,-54.763057,-51.207437,-52.112748,-42.484228,-42.936704,-33.387299,-28.786264,-25.43418,-2.312314,266.931853,-211.200921,38.226587
57,0.065896,-0.114226,0.537232,0.478189,0.0,-62.984173,-32.728867,-94.407944,-27.798661,-97.475384,-20.532029,-84.925393,-12.049439,-63.378525,0.0,19.535175,27.105961,48.610122,44.622207,63.829153,57.371258,77.413058,65.313127,82.71937,0.0,7.819267,-11.348866,23.339561,-24.45829,15.624058,-35.540611,3.293712,-44.148628,-4.816487,0.0,-47.624956,-54.175446,-50.616547,-51.518499,-41.970878,-42.441694,-33.463888,-28.384639,-24.858709,-2.199228,266.804483,-210.616499,38.691632
58,-0.055115,0.084203,-0.145786,0.585295,0.0,-62.830021,-32.75148,-94.480408,-27.801842,-97.605801,-20.545784,-85.136135,-12.106407,-63.538296,0.0,19.451466,27.297745,48.761164,44.886016,63.923607,57.626868,77.508969,65.521856,82.846181,0.0,7.61325,-11.501839,23.315952,-24.60022,15.855743,-35.67825,3.735248,-44.230969,-4.517842,0.0,-47.343726,-54.108552,-50.36886,-51.414795,-41.832712,-42.349075,-33.416402,-28.250332,-24.44332,-2.163316,266.853859,-210.671258,39.2421
59,-0.146942,0.04262,0.044826,0.173463,0.0,-62.758828,-32.613282,-94.483864,-27.522766,-97.496876,-20.183899,-85.002743,-11.769699,-63.428719,0.0,19.503189,27.451652,48.846342,45.100772,64.090494,57.834214,77.685921,65.687075,82.859926,0.0,8.161606,-12.142227,22.86557,-25.239841,15.543835,-36.302536,3.623131,-44.723144,-4.278271,0.0,-48.150378,-54.098258,-50.252232,-51.36382,-41.530906,-42.310932,-32.988293,-28.263942,-24.077529,-2.181638,266.863239,-210.497812,39.382323
60,-0.169327,-0.024231,-0.409115,0.372287,0.0,-62.656323,-32.613831,-94.577385,-27.379372,-97.650364,-19.932884,-85.142761,-11.462059,-63.442578,0.0,19.572917,27.693899,49.005807,45.442919,64.454179,58.178238,77.955647,66.005683,83.010524,0.0,7.841618,-12.056671,22.918877,-25.193126,15.7603,-36.359161,3.920964,-44.896683,-3.817074,0.0,-48.031953,-53.99574,-50.430987,-51.370804,-41.800731,-42.369724,-33.035254,-28.337363,-23.99784,-2.177513,266.810198,-210.733475,39.7258
61,-0.066124,0.099382,-0.269737,0.165615,0.0,-62.879906,-32.657639,-94.711098,-27.351471,-97.726273,-19.822014,-85.270146,-11.296829,-63.57066,0.0,19.347527,27.733419,48.900398,45.600678,64.472666,58.357782,78.039355,66.181843,82.87025,0.0,6.636692,-12.523727,22.616215,-25.632992,15.676598,-36.712212,3.947124,-45.137936,-3.777523,0.0,-47.856502,-54.143713,-50.190161,-51.300254,-41.744866,-42.089112,-32.638576,-27.890482,-23.556591,-1.998316,266.901274,-210.757891,39.883109
62,-0.056488,0.12581,-0.772064,0.277568,0.0,-63.110745,-32.682198,-94.698876,-27.293976,-97.713673,-19.644402,-85.278774,-11.009445,-63.649635,0.0,19.185581,27.610894,48.779577,45.466705,64.333716,58.226773,77.865343,66.111028,82.624496,0.0,7.136913,-12.873253,22.657173,-25.872288,15.651352,-36.66972,3.95779,-44.802887,-3.917462,0.0,-47.582212,-54.3352,-50.002736,-51.264853,-41.678157,-41.843697,-32.263998,-27.527,-23.528118,-1.740457,267.028983,-211.215608,40.162576
63,-0.11467,0.112633,-0.952721,0.177273,0.0,-63.458805,-32.722801,-94.771831,-27.265617,-97.635738,-19.520966,-85.006176,-10.801941,-63.391582,0.0,19.216518,27.455381,48.862285,45.322826,64.423809,58.107187,77.839309,65.996234,82.441851,0.0,7.661053,-13.080219,22.925732,-25.995575,15.620957,-36.589027,3.898029,-44.512859,-3.88726,0.0,-47.099695,-54.178805,-49.964809,-50.884526,-41.580758,-41.25277,-31.966496,-26.776615,-23.497279,-1.43177,267.156745,-211.744972,40.354978
64,0.018471,0.192809,-0.775589,0.176822,0.0,-63.953728,-33.018631,-95.04974,-27.562386,-97.651325,-19.800774,-85.059517,-11.049797,-63.418545,0.0,19.171169,27.360014,48.823976,45.211639,64.219181,58.006522,77.695406,65.91302,82.284005,0.0,7.28286,-13.72839,22.955097,-26.630195,15.624596,-37.056141,3.977955,-44.763817,-4.234691,0.0,-46.619437,-53.740661,-50.175359,-50.247823,-41.474732,-40.399935,-31.731616,-25.778129,-23.37597,-0.760402,267.360135,-211.867664,40.542381
65,0.057701,0.294488,-0.318443,0.050691,0.0,-64.638039,-33.380745,-95.297447,-27.962334,-97.58773,-20.21759,-84.912712,-11.494377,-63.355511,0.0,18.886746,27.171836,48.559733,45.081246,63.728747,57.938337,77.46436,65.874265,82.200629,0.0,7.56966,-14.804547,22.556408,-27.612168,15.360409,-37.760994,3.794781,-45.128208,-4.474697,0.0,-47.079323,-53.521645,-49.785732,-49.646831,-40.96597,-39.50377,-31.078118,-24.693854,-23.119762,0.296757,267.672799,-211.186649,40.611248
66,0.163193,0.261994,-0.608551,0.677186,0.0,-65.354851,-33.829216,-95.540612,-28.402954,-97.506237,-20.645806,-84.738636,-11.896317,-63.050434,0.0,18.301019,27.102812,48.233679,45.009814,63.112071,57.939325,77.093093,65.919454,82.283659,0.0,8.374294,-14.691101,22.892097,-27.49268,15.591362,-37.657677,4.022198,-45.099941,-4.258553,0.0,-47.317785,-53.410797,-49.462024,-49.500532,-40.80051,-39.325867,-30.933282,-24.455114,-23.121948,1.863276,267.9497,-210.391874,41.303341
67,0.370903,0.312285,-0.212609,0.925324,0.0,-66.174191,-34.183113,-96.032467,-28.824578,-97.675106,-21.216866,-84.912403,-12.615647,-63.161499,0.0,17.431931,27.047384,47.954221,45.10029,62.58687,58.165948,76.879892,66.192353,82.774624,0.0,7.514386,-14.695358,23.341908,-27.395061,16.223729,-37.46862,4.580887,-44.77066,-3.574665,0.0,-46.535704,-53.19375,-49.81867,-49.336548,-41.164418,-39.159827,-31.3597,-24.258446,-23.241404,3.778977,268.275508,-209.059685,42.242188
68,0.694999,0.368415,0.205857,1.154998,0.0,-66.935039,-34.325409,-96.501789,-29.073349,-98.163574,-21.660507,-85.513549,-13.210968,-63.579517,0.0,15.954034,27.00674,47.163828,45.13345,61.580598,58.304356,76.357188,66.419916,83.586803,0.0,7.48637,-15.025681,23.396919,-27.63113,16.7192,-37.583954,5.318744,-44.687771,-3.210858,0.0,-46.833779,-52.867041,-50.029116,-48.834937,-41.38165,-38.494552,-31.515311,-23.471319,-23.433386,6.164371,268.666638,-207.163433,43.419901
69,1.017426,0.395079,0.378582,2.044161,0.0,-67.634182,-34.434746,-97.248264,-29.343613,-99.014752,-22.146309,-86.539009,-13.844124,-64.369938,0.0,14.046453,26.837322,46.212847,45.075689,60.518701,58.396772,75.936915,66.626891,84.624951,0.0,9.108799,-15.03075,23.955036,-27.325745,17.319053,-37.004711,6.121376,-43.885082,-2.382523,0.0,-47.028089,-52.810447,-50.388552,-48.729609,-41.904342,-38.335798,-31.72052,-23.264845,-24.057436,8.909815,269.076901,-205.056833,45.479246
70,0.954185,0.125526,1.149811,2.729325,0.0,-68.014766,-34.352165,-97.916278,-29.466522,-99.879455,-22.49572,-87.645046,-14.331504,-65.343326,0.0,12.280465,26.73867,45.368559,44.995945,59.736645,58.427129,75.586432,66.800398,85.579501,0.0,9.691005,-15.080956,24.710289,-27.175644,18.143154,-36.660851,7.462909,-43.234726,-0.673405,0.0,-47.014553,-52.867473,-51.568041,-48.858797,-42.559292,-38.523445,-32.185673,-23.562938,-25.154611,11.54639,269.201662,-202.224632,48.207806
71,0.844689,0.081943,2.334171,3.054206,0.0,-68.401589,-34.344292,-98.460869,-29.620972,-100.686745,-22.865112,-88.781365,-14.855026,-66.492439,0.0,10.963588,26.65217,44.67567,44.954041,59.250051,58.46219,75.439145,66.953477,86.476389,0.0,11.120647,-15.565098,25.83704,-27.442097,20.065281,-36.573864,9.26881,-42.670841,0.66061,0.0,-47.01383,-52.502182,-53.028518,-48.422055,-43.630334,-38.000308,-32.704031,-23.152502,-26.08882,14.023848,269.325962,-198.257692,51.304369
72,0.66584,0.025367,3.751499,4.220406,0.0,-68.554367,-34.513161,-98.852566,-29.90712,-101.354084,-23.246452,-89.629921,-15.259438,-67.377777,0.0,9.770471,26.701521,43.952042,44.95577,58.757444,58.455534,75.277383,67.023934,87.01095,0.0,16.461742,-16.440742,26.904121,-28.339828,21.813503,-37.172974,10.975422,-42.766514,2.093067,0.0,-47.746629,-52.306082,-54.667356,-48.055548,-45.359407,-37.298095,-33.691265,-22.244672,-27.44179,16.509047,269.426974,-192.686834,55.60042
73,0.284409,0.038508,4.934292,5.969548,0.0,-68.821267,-34.876442,-99.422139,-30.275895,-101.891087,-23.605523,-90.257252,-15.638169,-68.158734,0.0,9.054697,26.622097,43.612537,44.942678,58.645638,58.494399,75.330426,67.107062,87.103167,0.0,22.189659,-16.449658,28.397655,-28.497391,22.037189,-37.186592,11.86805,-42.287716,4.146343,0.0,-47.740805,-52.771642,-56.294145,-48.602625,-46.245729,-37.545442,-34.236145,-22.185984,-27.959456,18.955988,269.56351,-185.59001,61.667996
74,-0.287362,0.034382,7.025997,6.381343,0.0,-68.845493,-35.202369,-99.489532,-30.579208,-102.117839,-23.846466,-90.28609,-15.847755,-68.253582,0.0,8.756468,26.628507,43.517047,44.929316,58.693088,58.454151,75.172679,67.060182,86.816387,0.0,26.530518,-17.018715,29.437271,-29.378231,22.571571,-37.978123,12.750721,-42.572994,5.079769,0.0,-47.415078,-52.412662,-56.273656,-47.512279,-46.059842,-35.478483,-33.988038,-19.261015,-26.237583,21.217746,269.574332,-176.014893,68.025779
75,-0.29544,0.14872,6.649693,6.630624,0.0,-69.132958,-35.481995,-99.425663,-30.745812,-102.032227,-23.912842,-90.141758,-15.846566,-68.040528,0.0,8.978856,26.754589,43.725887,45.000489,59.102505,58.423139,75.212508,66.904818,86.622935,0.0,32.017822,-17.018464,32.447559,-29.318642,23.621418,-37.324288,13.622017,-41.184323,5.486492,0.0,-45.187964,-50.119475,-52.181408,-43.925476,-41.557052,-30.472396,-29.298274,-13.097053,-20.467403,23.474562,269.716796,-166.812944,74.650147
76,-0.651467,0.160983,5.427646,6.97264,0.0,-69.054256,-35.611335,-99.231205,-30.698684,-101.705063,-23.730995,-89.635494,-15.611366,-67.61436,0.0,9.403267,26.902555,44.135613,45.149777,59.598386,58.495338,75.288906,66.857159,86.385307,0.0,37.941204,-15.24543,35.932251,-27.308304,27.245968,-34.740841,18.376751,-38.082218,9.094094,0.0,-41.392962,-46.715113,-43.633409,-39.28048,-32.706507,-24.737777,-21.148892,-6.598328,-11.783164,25.468826,270.025514,-158.739567,81.770522
77,-0.648811,0.207259,4.685543,7.621687,0.0,-69.040295,-35.673431,-99.004841,-30.633865,-101.312187,-23.566612,-89.104774,-15.428558,-67.035404,0.0,9.874546,26.938124,44.370351,45.156471,59.896974,58.434996,75.18687,66.69641,86.017176,0.0,41.335356,-8.033334,39.934262,-19.129841,31.571377,-26.435617,23.88806,-30.416193,13.901047,0.0,-36.563651,-39.992494,-32.940835,-30.994542,-21.224361,-15.87131,-10.089777,2.101793,-0.084799,27.356398,270.336119,-151.517641,89.495555
78,-0.537483,0.036483,4.104985,7.620408,0.0,-68.886154,-35.661392,-98.558144,-30.578041,-100.719349,-23.463959,-88.43525,-15.253212,-66.273216,0.0,10.484528,27.105886,44.747065,45.213997,60.341971,58.366934,75.272653,66.53408,85.889068,0.0,44.059999,3.701849,44.245124,-5.755211,38.119205,-13.256499,30.669393,-18.970099,19.633735,0.0,-30.779144,-29.606241,-20.448022,-18.634635,-8.917337,-3.369013,2.572424,13.526008,13.346324,28.867493,270.310755,-145.364078,97.054116
79,-0.381821,-0.057021,3.725189,10.350364,0.0,-68.863266,-35.699959,-98.321216,-30.576095,-100.063099,-23.447754,-87.945511,-15.203407,-65.978222,0.0,11.292335,27.334746,45.24533,45.3796,60.652095,58.424362,75.429586,66.496253,85.965453,0.0,47.596281,11.589517,52.596496,2.804477,47.755417,-5.045878,39.364592,-11.970789,24.448494,0.0,-25.804457,-20.313083,-7.63241,-8.44554,4.086386,6.021353,15.537008,21.162983,25.789315,30.068922,270.211457,-140.055639,107.362203
80,-0.699371,-0.059737,4.859058,15.540059,0.0,-68.471752,-35.781258,-97.92936,-30.626175,-99.435425,-23.461991,-87.29409,-15.201233,-65.423081,0.0,11.978975,27.336623,45.475609,45.39978,60.372476,58.460091,75.207506,66.56645,85.802123,0.0,51.082655,27.737154,57.304127,21.588421,55.218922,13.763918,47.929682,5.095854,34.227184,0.0,-22.654482,-11.649753,3.453833,1.349379,14.480413,15.328129,25.582121,29.268442,34.998593,30.841902,270.116532,-133.72423,122.867074
81,-0.48214,-0.253411,7.242977,17.831808,0.0,-68.018692,-35.79467,-97.440262,-30.70269,-98.917923,-23.51271,-86.88121,-15.174431,-64.912536,0.0,12.793796,27.522035,45.447315,45.457232,59.981238,58.427906,75.000358,66.465105,85.59269,0.0,53.340849,32.898737,63.329132,27.394799,62.735733,19.673807,55.304678,10.844359,41.413731,0.0,-18.726297,-4.004446,10.617561,9.900206,21.687897,23.769089,33.025708,36.996488,41.793028,31.340275,269.667471,-125.50074,140.503232
82,-0.383697,-0.377752,9.364924,22.388785,0.0,-67.545353,-35.816208,-96.992855,-30.723839,-98.39946,-23.505478,-86.521614,-15.139481,-64.694825,0.0,13.924001,27.875247,45.766725,45.771937,59.95634,58.627372,75.041447,66.483185,85.56552,0.0,54.5686,37.635383,63.736822,33.258442,63.151966,25.962782,56.394407,17.13933,44.134701,0.0,-12.288078,0.910819,21.496677,14.353933,31.597458,27.589912,41.883699,40.002831,49.337925,31.691752,269.075247,-115.400642,162.677545
83,-0.681977,-0.390065,11.48687,26.945762,0.0,-64.533783,-35.771118,-96.062278,-31.071121,-97.697708,-24.04422,-86.294254,-15.729606,-64.703968,0.0,11.214405,27.550304,45.689796,45.183616,59.661099,58.086587,74.706167,66.229786,85.184965,0.0,54.765907,41.947094,58.527196,39.179351,56.46762,32.630842,51.198869,23.980768,42.390094,0.0,-3.339827,3.096042,36.091183,14.71056,44.209096,26.790596,52.156096,38.287472,57.633284,31.665613,268.549458,-103.257934,189.487583
84,-0.526611,0.007261,8.734108,21.77485,0.0,-63.146896,-35.591904,-95.696915,-31.179886,-97.103405,-24.392921,-85.867985,-16.182907,-64.344086,0.0,8.670561,27.44197,43.956537,44.535176,59.490224,57.138978,74.478284,65.204274,84.216447,0.0,57.122028,40.844387,60.431093,39.282577,59.336849,34.665247,54.99904,28.142423,49.397884,0.0,3.404899,6.841897,40.416861,20.498463,49.289031,33.906676,58.729057,45.947055,64.188596,31.542006,268.55201,-94.120822,211.257724
85,-0.217255,0.177298,7.18436,17.056526,0.0,-62.091648,-33.958374,-94.988674,-30.089584,-97.586357,-23.811676,-87.178196,-15.94606,-64.930927,0.0,8.261761,26.394053,37.629293,42.555803,53.716054,54.755474,69.984966,62.685647,81.575246,0.0,59.379616,31.229931,65.589563,28.090805,65.434879,24.045427,60.551886,19.485552,51.738213,0.0,10.528316,11.372512,43.517448,25.899043,53.602606,39.047385,63.948573,49.626071,69.446323,31.522401,268.686568,-86.738812,228.27151
86,0.351723,-0.220819,5.759892,15.664202,0.0,-59.862545,-31.595695,-94.303585,-28.062469,-97.950977,-22.554634,-88.272846,-15.398712,-66.003548,0.0,7.302764,25.979448,34.330784,41.751219,50.68254,53.839641,67.860986,61.960758,81.33868,0.0,62.021679,32.440258,69.074438,29.348098,68.09135,25.201738,62.529092,20.567098,53.021164,0.0,15.424086,16.08707,47.323497,31.354285,58.072953,43.956297,68.800167,53.00614,74.025598,32.042639,268.372052,-80.810405,243.842015
87,-0.35099,0.019019,3.933569,10.345695,0.0,-56.886692,-28.322045,-91.038437,-25.0803,-95.156056,-20.445305,-86.565022,-14.303147,-65.272419,0.0,6.643294,26.267168,32.767127,41.495635,48.47968,53.096141,65.176633,60.945396,79.074552,0.0,64.71849,29.330967,78.278034,25.298652,77.790081,21.156623,70.758441,17.210609,57.784973,0.0,17.043139,21.263854,46.322603,38.084863,58.592422,50.612898,70.733764,58.47196,75.933148,31.846304,268.264902,-76.722181,254.061541
88,0.15953,0.596768,2.078132,4.715929,0.0,-55.817848,-26.983978,-79.817665,-23.596641,-80.901283,-19.375236,-73.256744,-13.908645,-58.501087,0.0,9.042632,25.629002,31.86572,40.882811,47.763561,52.421271,62.835737,60.396287,76.172628,0.0,68.160771,22.050877,92.691136,16.02372,94.116818,11.859753,84.665783,9.266796,66.118035,0.0,13.975909,26.268514,40.865459,45.451353,55.413177,58.553766,69.49111,65.970892,75.092564,32.15954,268.758093,-74.490343,258.673893
89,-3.297729,0.809054,4.368759,6.411347,0.0,-47.810761,-22.919724,-60.981022,-20.4354,-60.824421,-17.757843,-56.248089,-14.217974,-48.67971,0.0,10.280079,24.399335,32.319005,40.380503,46.784014,52.453338,60.218434,60.903635,73.372321,0.0,68.889222,24.879547,95.973118,17.952484,97.055203,12.335369,86.81638,8.192505,66.775818,0.0,13.881518,29.906799,44.71277,48.081255,58.979091,59.717675,71.442535,65.556905,75.482358,29.098091,269.412851,-69.885304,264.930944
90,-6.687859,1.302909,5.326744,5.335063,0.0,-34.386554,-17.585106,-35.627014,-16.722421,-33.942649,-16.522957,-33.808216,-15.972776,-34.992439,0.0,8.250281,23.863898,37.096177,41.32316,51.134183,54.197898,61.638273,63.112077,71.814457,0.0,69.132397,27.565167,97.814862,20.257668,97.802388,13.723561,86.592282,8.522496,66.729412,0.0,13.637616,31.76256,48.030706,49.384077,61.34985,60.481997,72.579248,65.940548,75.616615,22.635515,270.542257,-64.333277,270.092504
91,-6.854438,2.102021,4.926499,3.482143,0.0,-20.942849,-13.40252,-9.484475,-15.157202,-6.333138,-17.80877,-10.990323,-20.335791,-21.002484,0.0,6.199748,21.79763,38.94354,40.135428,53.137774,53.670142,60.872013,63.03006,68.195957,0.0,68.679691,28.917389,98.303158,21.317882,97.818935,14.189564,85.827015,8.209511,66.057529,0.0,12.882087,33.091502,49.943659,50.518926,62.406103,61.132945,72.721027,66.072052,75.134233,16.040348,272.404705,-59.147507,273.335074
92,-0.532746,2.727689,4.03545,1.839261,0.0,-16.163509,-17.129333,7.461754,-21.159181,12.33347,-25.282425,4.218716,-28.777593,-13.47187,0.0,4.386632,18.965114,39.440791,37.668128,54.028263,51.71931,60.016411,61.713466,65.761583,0.0,68.348282,29.946338,97.968063,21.883701,96.905617,14.024483,84.05104,7.227894,64.423256,0.0,12.278871,33.608291,51.587813,50.975496,63.54,61.380156,72.753162,66.171185,74.582542,15.754337,274.857775,-54.865322,274.899716
93,-5.167557,5.652805,3.097664,0.84372,0.0,-5.296497,-14.076976,20.295319,-20.123045,23.653348,-25.585235,12.675122,-30.1014,-5.715156,0.0,0.537482,15.804074,35.182619,34.19778,49.638452,47.943347,55.322157,57.764244,60.365919,0.0,67.79338,30.554809,97.402908,22.069828,95.818908,13.583873,82.289177,6.109028,62.270141,0.0,13.045318,33.715676,52.272774,51.219497,64.012688,61.620242,72.411843,66.31315,73.551855,10.789684,280.188625,-51.564754,275.421481
94,4.030793,1.319372,1.656532,0.052624,0.0,-7.367409,-19.440342,20.052726,-26.519635,23.020225,-32.156582,10.739982,-36.225094,-9.406746,0.0,0.82648,15.465131,35.626629,33.296254,49.738141,46.609767,54.832612,56.086615,59.620307,0.0,67.592812,30.6889,96.859726,22.070309,95.106354,13.375843,81.314598,5.702808,61.052261,0.0,13.686374,33.96879,52.538498,51.540685,63.810714,61.911,71.744642,66.447803,72.525859,14.954682,281.123095,-49.774017,275.089203
95,3.421394,2.401461,0.669308,-0.382606,0.0,-9.109749,-23.29327,17.119515,-30.543789,20.908997,-35.19215,9.550049,-37.727348,-10.671867,0.0,0.60019,13.398753,33.594571,30.696538,48.480088,43.753218,53.177603,53.429458,57.556102,0.0,67.42828,30.796634,96.145305,22.010158,94.720127,13.082931,80.666233,5.132778,59.919834,0.0,14.433616,33.979869,52.749685,51.607981,64.018752,62.018804,71.900562,66.574639,72.657919,18.481087,283.11541,-48.999698,274.297451
96,1.307694,3.937565,0.365513,-0.51627,0.0,-9.119385,-26.021576,14.027915,-32.447606,19.101905,-35.231427,9.688476,-35.462162,-8.521889,0.0,-0.235418,11.289753,29.45013,27.215987,44.434954,39.322526,48.695288,48.54705,52.60483,0.0,67.583908,30.694942,95.828361,21.817874,94.350448,12.847881,80.424499,4.899627,59.738365,0.0,15.323118,33.991243,53.467977,51.696976,64.598254,62.201029,72.508705,66.827852,73.181204,19.869067,286.697067,-48.553899,273.425273
97,0.795661,0.161008,0.435333,-0.15818,0.0,-9.828231,-27.455921,12.409653,-33.30447,17.841958,-35.347,9.551812,-34.935493,-7.747329,0.0,0.222042,10.916003,29.395443,26.578229,44.412415,38.4391,48.278201,47.477656,52.007926,0.0,67.824074,30.379349,95.46064,21.472606,94.118156,12.559627,80.390922,4.70636,59.841751,0.0,15.732523,33.939916,53.812903,51.755923,64.608295,62.407992,72.59019,67.153968,73.295368,20.728237,286.588695,-48.055057,272.997713
98,3.071228,-2.386086,0.336147,-0.151153,0.0,-12.477584,-30.598834,9.340004,-36.283996,14.457825,-37.863201,7.113419,-36.823699,-10.397232,0.0,3.386393,12.190507,31.446632,27.950324,46.340609,39.908279,50.061195,48.814454,54.211638,0.0,67.694103,29.938065,95.117809,20.999725,93.792172,12.203659,80.2607,4.52401,59.925121,0.0,15.760472,33.902644,54.005071,51.768495,64.529354,62.51408,72.629316,67.35509,73.503763,23.855152,283.993664,-47.663223,272.637615
99,-1.583129,1.212544,0.365627,0.106532,0.0,-10.994431,-30.148201,10.306938,-35.583653,15.939651,-36.997433,9.507202,-35.899006,-7.302681,0.0,4.81216,10.879496,30.804613,25.860171,45.401928,37.151493,48.533292,45.602803,52.131031,0.0,67.553513,29.503384,94.689858,20.522541,93.335839,11.795231,79.94204,4.247029,59.685952,0.0,15.785579,33.817342,53.971182,51.743252,64.364023,62.580696,72.444423,67.492052,73.316808,22.319733,285.078338,-47.249886,272.616277
100,-1.064896,1.095736,0.184822,0.034914,0.0,-11.806274,-29.809113,11.119217,-34.855156,17.343819,-36.589829,11.255814,-36.010563,-5.633194,0.0,7.132,11.737951,32.406345,24.115438,44.664715,32.896594,46.131708,39.156455,48.343039,0.0,67.5057,28.982129,94.574547,19.982884,93.136918,11.38107,79.983994,4.04488,59.796067,0.0,15.380187,33.674043,53.871133,51.629297,64.133076,62.525985,72.330382,67.467673,73.424574,21.284729,286.091999,-47.035172,272.569116
101,3.014832,0.482839,0.219475,0.044102,0.0,-20.936417,-33.771229,7.555572,-38.315918,14.785194,-39.785592,9.01181,-38.956341,-9.396058,0.0,12.140329,13.156234,36.107714,23.003412,45.566086,29.080986,45.102044,32.848206,45.451922,0.0,67.33889,28.54802,94.392403,19.558926,93.108788,11.035515,80.056114,3.834606,59.89373,0.0,15.149624,33.622939,53.545227,51.532473,64.011502,62.444437,72.226542,67.411455,73.562043,24.306805,286.504495,-46.808453,272.542875
102,-1.58519,4.813247,-0.077007,-0.021082,0.0,-23.351292,-33.400738,7.780472,-37.161587,16.495582,-37.917435,11.744156,-36.259964,-6.764923,0.0,15.622126,12.311735,34.643451,18.150397,41.606156,20.493517,38.960632,21.080961,36.408265,0.0,67.235149,28.299087,94.438213,19.380592,93.160046,10.983295,80.33083,3.973331,60.306187,0.0,14.938722,33.464488,53.203241,51.361857,63.894214,62.315206,72.11496,67.313137,73.722274,22.70002,291.232097,-46.907055,272.436148
103,0.111076,-0.271764,0.001007,0.006879,0.0,-23.820911,-33.329315,7.987953,-37.151585,16.301262,-37.985218,11.559883,-36.429726,-6.177498,0.0,15.712195,12.473645,35.012447,18.157413,42.103951,20.496963,39.587905,21.078961,36.829193,0.0,67.319653,28.096149,94.51688,19.200806,93.203922,10.860317,80.559071,3.971649,60.581944,0.0,14.818654,33.373752,52.947311,51.288015,63.878714,62.27024,72.046355,67.24983,73.832844,22.763838,290.870029,-46.953306,272.352723
104,-2.539741,4.745816,-0.138863,-0.019735,0.0,-26.790768,-33.46494,9.427848,-36.306553,19.907753,-35.990834,16.218109,-33.34298,-1.229897,0.0,17.922032,11.949298,33.930975,13.693364,38.324343,12.23635,33.24678,9.475737,27.147099,0.0,67.335675,28.119359,94.844387,19.327401,93.508244,11.093571,81.118298,4.344704,61.258496,0.0,14.379757,33.168727,52.697505,51.115546,63.735922,62.170191,71.947937,67.200207,74.078845,20.153973,295.527728,-47.162293,272.244871
105,0.861923,2.508598,0.059155,-0.077274,0.0,-32.221962,-37.937897,6.697838,-40.102009,19.287277,-38.354622,16.772369,-34.041172,-0.840523,0.0,20.444932,11.610918,33.883563,11.258656,36.828613,7.851985,30.151714,3.372659,22.246426,0.0,67.206551,28.127449,94.745819,19.382881,93.496948,11.164066,81.11705,4.429699,61.305794,0.0,14.455166,33.196058,52.577091,51.226585,63.835735,62.321084,72.009736,67.359658,74.091256,20.931376,297.960055,-47.187658,272.091326
106,-1.792557,1.504722,0.037239,0.027861,0.0,-33.375114,-39.019421,7.829018,-40.643749,22.016006,-38.141624,20.189529,-33.12727,2.499756,0.0,21.760277,11.350133,33.728507,9.753539,35.803556,5.203781,28.045876,-0.233874,18.959081,0.0,67.16613,28.000179,94.790772,19.325718,93.549042,11.212555,81.430023,4.624878,61.683975,0.0,14.249278,33.175594,52.40261,51.295956,63.642754,62.451872,71.890275,67.510627,74.185797,19.040085,299.39523,-47.249153,272.04964
107,-1.473953,0.671363,0.156372,-0.043633,0.0,-33.898545,-39.347775,9.478065,-40.95559,24.454719,-38.267178,22.651817,-33.119431,4.504898,0.0,22.70575,11.497432,33.599634,9.382073,35.119274,4.26373,26.711215,-1.709647,17.128576,0.0,66.972977,27.866695,94.6474,19.248242,93.480492,11.203388,81.52446,4.719269,61.793518,0.0,14.117614,33.183412,52.343626,51.356867,63.586129,62.567864,71.846037,67.655098,74.247078,17.468279,300.006708,-47.190634,271.946122
108,-2.262886,0.786564,0.06118,0.02349,0.0,-30.517617,-37.462303,10.536644,-38.871643,26.363228,-36.398083,23.728775,-31.652813,4.31147,0.0,22.761461,11.211615,32.740525,8.941917,34.581676,3.814274,26.307602,-2.009655,16.782972,0.0,66.865563,27.66013,94.514511,19.152077,93.55481,11.260243,81.821961,4.972172,62.165131,0.0,13.921013,33.152759,52.245085,51.426077,63.400927,62.733676,71.662947,67.885995,74.200098,15.119322,300.739475,-47.215525,271.915815
109,-2.36023,-5.653991,0.071217,0.07173,0.0,-22.220924,-33.193634,14.601013,-35.443107,29.022835,-34.525165,25.222458,-31.715778,5.793205,0.0,18.410144,13.04717,34.097775,15.153761,38.903636,14.059828,33.313483,11.686549,27.273687,0.0,66.943577,27.122486,94.242565,18.733154,93.604214,11.079288,81.967129,5.090526,62.398853,0.0,14.16179,33.141359,51.962341,51.467103,63.216403,62.827326,71.480165,68.022561,74.066741,12.676306,295.031236,-47.227094,271.933297
110,-3.073768,-4.969105,-0.091713,0.177878,0.0,-13.036297,-27.179123,20.210311,-30.401173,32.828888,-31.369549,27.355064,-30.826825,7.647308,0.0,13.791868,14.401011,34.727542,20.428036,42.133405,23.034904,39.271903,23.845119,36.509869,0.0,67.124599,26.768463,94.275638,18.55117,93.983929,11.160713,82.481884,5.489994,63.015575,0.0,14.016281,33.160144,51.668607,51.449789,62.950642,62.795414,71.188234,67.982288,74.024418,9.499014,290.00579,-47.422331,272.054834
111,-1.922631,-5.41582,-0.184124,0.021724,0.0,-4.068546,-21.932132,24.542244,-26.261947,35.018006,-29.175396,27.759613,-30.944423,7.794869,0.0,8.344568,15.937374,35.328115,26.333018,45.946542,33.019489,46.058088,37.323493,46.620709,0.0,67.200004,26.472416,94.318657,18.405693,94.331062,11.240867,82.959732,5.847153,63.612694,0.0,13.969215,33.031258,51.481812,51.323916,62.721326,62.718263,71.00828,67.967851,74.056182,7.47611,284.539149,-47.706728,272.025737
112,-4.313003,-4.134425,-0.160011,0.171246,0.0,8.451988,-15.578991,28.969276,-20.732826,39.528854,-24.58421,28.861084,-27.384796,9.287658,0.0,4.868106,15.473455,32.932248,31.194752,48.41341,43.118275,52.057611,51.902778,56.159629,0.0,67.38787,26.083179,94.388832,18.20224,94.778823,11.30809,83.545784,6.218559,64.378349,0.0,13.87775,32.957257,51.242826,51.255448,62.514598,62.661527,70.693613,67.931912,73.925135,3.048443,280.363037,-47.981403,272.155296
113,-1.423897,-1.387297,-0.083806,-0.028924,0.0,8.369591,-14.948971,31.810455,-20.422405,43.006439,-25.18816,32.058105,-29.08873,12.011604,0.0,3.949272,16.525028,35.141789,32.093974,49.75206,43.555468,52.746214,51.92586,56.532317,0.0,67.488728,25.82499,94.373257,18.076951,95.03999,11.374764,83.945538,6.481453,64.933674,0.0,13.998485,32.804832,51.160056,51.069172,62.320825,62.509201,70.535618,67.854761,74.012426,1.509041,278.940125,-48.180714,272.090757
114,-1.102776,2.79018,0.01775,0.006805,0.0,10.8051,-13.284004,30.007645,-18.617191,43.14354,-22.639961,30.341813,-25.62228,10.39824,0.0,4.652881,13.627686,29.174649,29.908059,46.575434,42.395746,50.346556,51.760443,54.099227,0.0,67.467179,25.639023,94.305634,17.979092,95.067559,11.387226,84.100823,6.60339,65.2649,0.0,13.952555,32.748825,51.173307,50.98219,62.178614,62.405374,70.337474,67.756936,74.0362,0.300327,281.702227,-48.268902,272.069484
115,0.038453,0.163849,0.176651,-0.06753,0.0,11.313125,-13.748555,29.838661,-18.859383,43.055557,-22.627156,30.529861,-25.377011,10.663169,0.0,3.539928,13.42281,28.653537,29.739307,46.321552,42.30496,50.242296,51.781474,53.940627,0.0,67.183708,25.388203,93.97506,17.761551,94.834992,11.215473,84.021813,6.465798,65.335327,0.0,14.179154,32.601562,51.335599,50.821676,62.140477,62.273685,70.256111,67.696915,74.054045,0.269852,281.844899,-48.161179,271.980777
116,-1.781434,1.613575,0.218743,-0.043584,0.0,14.072113,-12.419517,30.890191,-17.201843,45.086014,-19.996181,30.791932,-21.457042,11.516304,0.0,4.981788,12.061733,27.241293,28.967032,44.583266,42.048239,49.250585,51.832357,52.591381,0.0,66.909256,25.117595,93.501777,17.513019,94.474662,11.002246,83.706916,6.272541,65.07035,0.0,14.321045,32.618655,51.361943,50.815946,62.150876,62.255284,70.16498,67.681107,73.959728,-1.564413,283.436302,-47.995267,271.915021
117,5.480164,0.10568,0.169063,-0.044114,0.0,4.198883,-18.921341,25.823112,-23.481182,38.90831,-25.939419,27.569687,-26.937916,8.15023,0.0,5.526538,14.675294,31.464576,28.836232,45.490503,38.898301,48.067101,46.132028,49.810747,0.0,66.750836,24.909439,93.188084,17.30278,94.223568,10.799252,83.51762,6.06728,64.899754,0.0,14.435641,32.484137,51.349036,50.635239,61.974776,62.088433,70.038614,67.5653,73.990825,3.889315,283.518761,-47.85264,271.847686
118,1.730072,1.727208,0.105343,0.067505,0.0,2.601036,-20.834244,23.620583,-25.164356,36.083382,-26.356052,25.431519,-25.724716,6.948669,0.0,4.732193,13.754139,29.13114,28.262546,43.589245,38.759091,47.209635,46.316106,48.787654,0.0,66.660439,24.559055,93.009018,16.982231,94.115662,10.57457,83.418869,5.961113,64.895371,0.0,14.519054,32.38572,51.282532,50.513616,61.864836,61.955152,69.816412,67.431129,73.800536,5.600235,285.216526,-47.766449,271.885748
119,2.775833,-3.123262,-0.024982,-0.001988,0.0,-1.796516,-25.090862,23.844406,-29.812569,34.415314,-31.556087,25.469628,-31.426391,6.610703,0.0,3.384404,16.877623,35.253076,30.989778,47.023297,40.704044,49.902669,47.559637,51.674647,0.0,66.505016,24.486145,92.940776,16.923225,94.150966,10.539253,83.440601,5.948204,64.908519,0.0,14.531428,32.207422,51.444552,50.318126,61.898699,61.787709,69.750758,67.324288,73.783097,8.365454,282.055297,-47.802045,271.845793
120,2.023247,-0.12933,-0.036255,0.059638,0.0,-6.203682,-28.162457,21.144104,-33.154999,31.85717,-34.690888,23.309235,-34.095772,4.473724,0.0,4.801601,17.026738,36.374401,31.106079,47.734415,40.650716,50.194317,47.397258,51.927021,0.0,66.364368,24.136539,92.809559,16.661545,94.127231,10.440983,83.470241,6.039036,65.03136,0.0,14.367555,32.099532,51.22156,50.201912,61.711102,61.691293,69.5589,67.236393,73.595833,10.385565,281.884326,-47.841436,271.86379
