takenoko1/special-research/HandMotion_SimilarSearch_自分用/NewProject/handData/tgt/d4_feature_d3/1.csv
,vel_0x_L,vel_0y_L,vel_0x_R,vel_0y_R,posFromWrist_1x_L,posFromWrist_2x_L,posFromWrist_3x_L,posFromWrist_4x_L,posFromWrist_5x_L,posFromWrist_6x_L,posFromWrist_7x_L,posFromWrist_8x_L,posFromWrist_9x_L,posFromWrist_10x_L,posFromWrist_11x_L,posFromWrist_12x_L,posFromWrist_13x_L,posFromWrist_14x_L,posFromWrist_15x_L,posFromWrist_16x_L,posFromWrist_17x_L,posFromWrist_18x_L,posFromWrist_19x_L,posFromWrist_20x_L,posFromWrist_1y_L,posFromWrist_2y_L,posFromWrist_3y_L,posFromWrist_4y_L,posFromWrist_5y_L,posFromWrist_6y_L,posFromWrist_7y_L,posFromWrist_8y_L,posFromWrist_9y_L,posFromWrist_10y_L,posFromWrist_11y_L,posFromWrist_12y_L,posFromWrist_13y_L,posFromWrist_14y_L,posFromWrist_15y_L,posFromWrist_16y_L,posFromWrist_17y_L,posFromWrist_18y_L,posFromWrist_19y_L,posFromWrist_20y_L,posFromWrist_1x_R,posFromWrist_2x_R,posFromWrist_3x_R,posFromWrist_4x_R,posFromWrist_5x_R,posFromWrist_6x_R,posFromWrist_7x_R,posFromWrist_8x_R,posFromWrist_9x_R,posFromWrist_10x_R,posFromWrist_11x_R,posFromWrist_12x_R,posFromWrist_13x_R,posFromWrist_14x_R,posFromWrist_15x_R,posFromWrist_16x_R,posFromWrist_17x_R,posFromWrist_18x_R,posFromWrist_19x_R,posFromWrist_20x_R,posFromWrist_1y_R,posFromWrist_2y_R,posFromWrist_3y_R,posFromWrist_4y_R,posFromWrist_5y_R,posFromWrist_6y_R,posFromWrist_7y_R,posFromWrist_8y_R,posFromWrist_9y_R,posFromWrist_10y_R,posFromWrist_11y_R,posFromWrist_12y_R,posFromWrist_13y_R,posFromWrist_14y_R,posFromWrist_15y_R,posFromWrist_16y_R,posFromWrist_17y_R,posFromWrist_18y_R,posFromWrist_19y_R,posFromWrist_20y_R,posFromBody_0x_L,posFromBody_0y_L,posFromBody_0x_R,posFromBody_0y_R
6,0.347076,-0.180855,0.85635,0.943868,39.009258,64.538509,84.965984,96.934582,52.53645,82.782566,78.842136,68.695759,30.429417,51.25256,42.731632,30.795628,10.498203,15.798271,1.124222,-12.644176,-6.66124,-14.28352,-25.084831,-35.743034,-4.857954,8.367391,25.20427,36.53205,49.160417,74.603649,78.13287,79.294309,65.934657,94.756266,103.795823,110.006667,75.542972,108.564535,124.581925,138.664292,78.942196,106.965299,123.219415,138.964103,38.959454,71.928189,99.798146,118.41766,76.261814,115.79266,120.125805,112.724453,64.334461,106.610195,114.377804,110.955471,49.523438,88.647137,99.585308,100.360348,33.686291,62.053471,76.776844,85.29102,-10.655911,-7.394279,5.005859,18.453283,20.29221,44.410303,46.376424,42.386767,39.897398,65.480433,67.32272,63.6564,55.087629,79.020755,82.463402,80.127322,66.165727,88.981121,95.266102,95.354307,-28.454916,366.696118,-48.928877,374.234028
7,0.650688,0.244779,0.92696,1.047608,37.848942,63.401768,84.266156,95.596836,50.754673,81.946759,78.460156,68.423504,29.162682,50.949726,42.458096,30.530857,10.033745,16.399555,1.474858,-12.657108,-6.216385,-12.983688,-23.599502,-34.293491,-5.93382,6.729708,23.824297,35.618638,47.460996,73.0723,76.699038,77.792181,65.023542,93.489358,102.502843,108.575267,75.318002,108.190093,124.184783,138.286824,79.394085,107.402133,123.663042,139.493205,38.348843,71.19825,99.195603,118.145989,75.640526,114.578041,119.209465,112.129418,63.677834,105.302994,113.229264,109.971703,48.7664,87.265595,98.355309,99.390473,32.849362,60.97815,75.676804,84.207321,-11.316121,-8.255882,4.085259,17.259919,19.48743,43.553121,45.991176,42.168097,39.145871,64.502455,66.615665,63.006316,54.37288,78.052755,81.766339,79.662601,65.380509,87.893005,93.992315,93.988635,-27.901383,366.45393,-48.099072,374.794669
8,0.744049,-0.184511,0.695011,0.630682,37.159069,62.686421,83.644581,93.835339,48.773587,80.716656,77.950207,68.270337,27.434418,49.520245,41.14159,29.294918,8.925831,15.869007,0.980851,-13.191776,-6.506504,-12.411838,-22.689319,-33.105034,-6.524968,5.925965,23.637268,36.382837,46.024781,71.609224,75.138606,75.849402,64.418228,92.463647,101.58627,107.43023,75.498771,108.032852,124.292662,138.532369,80.284169,108.265775,125.002421,141.268641,37.7417,70.663021,98.744351,118.076306,74.837757,112.991398,118.509259,112.415715,62.805737,103.743748,112.331715,109.716946,47.880787,85.79353,97.329426,98.966824,32.045849,59.978337,74.680859,83.310505,-11.758366,-8.934038,3.214751,16.020909,19.250246,43.867319,46.900895,43.30649,38.801402,64.197667,66.700806,63.305275,53.903021,77.486837,81.442482,79.712223,64.737168,87.071971,93.089771,93.260251,-27.329659,365.902415,-47.576386,375.058347
9,0.078049,-0.38794,0.735672,0.461979,37.828571,63.563313,84.384968,94.317684,49.038403,80.540165,78.205914,68.897381,26.974468,48.164326,40.071613,28.420887,7.833424,13.691849,-0.908432,-14.807774,-7.950931,-14.234024,-24.225185,-34.287094,-6.20215,5.669725,23.278003,35.955548,47.014478,72.958148,76.138011,76.143074,64.888518,93.47513,103.087533,108.988056,75.530683,108.263946,124.843055,139.096335,80.017801,108.22455,125.4078,141.802201,37.081765,69.814007,97.70596,117.2291,73.868374,111.631588,117.886174,112.557759,61.84647,102.467205,111.446835,109.169094,47.0033,84.655827,96.382107,98.32449,31.281922,59.259053,73.869679,82.35838,-12.201202,-9.502623,2.471733,14.905549,18.721428,43.542389,47.637874,44.724144,38.220665,63.614879,66.754863,63.697106,53.397249,77.04652,81.261467,79.810641,64.261616,86.681153,92.556853,92.680255,-27.478661,365.21266,-47.067765,375.218511
10,0.178871,1.299599,0.642998,0.334243,35.186222,60.259953,81.585125,91.913761,45.140087,77.57658,75.697186,66.619961,25.283089,47.392605,39.39941,27.774388,8.587452,16.038803,1.104664,-13.353367,-4.701496,-9.925335,-20.253204,-30.756855,-7.828594,3.877728,21.445115,33.854132,43.530372,69.110456,72.680272,73.196036,62.618264,90.835362,100.005496,105.763611,74.7467,107.39103,123.756754,137.722697,80.987876,109.262562,126.108692,142.25188,36.588925,69.014546,96.670887,116.317463,73.087292,110.464588,117.334866,112.738094,61.038677,101.427166,110.730297,108.868847,46.249386,83.753025,95.678204,97.965878,30.598778,58.609509,73.211826,81.750698,-12.47015,-9.896689,1.77562,13.729685,18.078804,42.920377,47.958642,45.696391,37.550857,62.787609,66.42535,63.680248,52.851906,76.441971,80.797734,79.522328,63.814012,86.277391,92.066381,92.181521,-27.535641,366.239903,-46.660618,375.280398
11,1.875687,1.092476,0.687916,0.250114,25.259754,45.64143,63.26952,70.53899,36.173607,67.683231,65.584911,56.6796,21.824856,44.470241,36.04977,24.098453,10.013901,19.215843,3.640262,-11.689659,1.180527,-2.839211,-13.83062,-25.071224,-7.619371,4.510262,22.626215,34.748192,41.379506,67.127909,72.334025,74.892431,60.7134,88.770441,97.933238,104.607989,73.508925,106.396787,122.834203,137.123026,80.794757,109.603795,126.201589,142.001655,36.095455,68.179253,95.55764,115.301811,72.264358,109.361755,116.763176,112.782463,60.24971,100.372902,110.073303,108.641716,45.577995,82.899925,95.09285,97.753166,30.077934,58.051803,72.642425,81.230575,-12.678175,-10.193363,1.299648,12.782261,17.545156,42.089303,47.722348,45.989595,37.009936,61.919274,65.872548,63.351229,52.375316,75.815822,80.218774,79.073786,63.36973,85.861885,91.60203,91.809759,-25.855648,367.090117,-46.168396,375.28825
12,-3.192787,0.22161,0.73843,0.2481,25.612255,46.76485,64.675747,74.076976,40.18103,72.721882,72.983699,66.437862,26.93193,52.79385,48.342556,39.240749,14.781269,26.484741,13.4813,-0.523877,4.686149,0.345543,-10.055718,-20.870877,-7.942536,3.493109,21.361283,33.523039,40.330231,65.193985,69.20728,70.290765,59.628643,86.104663,93.152818,97.93887,72.035844,104.262977,120.502137,133.686196,78.331533,107.519483,124.26927,139.760275,35.405582,67.085735,94.171497,113.913837,71.464954,108.290897,116.073452,112.652378,59.491344,99.166775,109.168407,108.239193,44.888557,81.891117,94.357876,97.437824,29.47055,57.389591,71.974033,80.708393,-12.996806,-10.681314,0.590359,11.511315,17.1318,41.586297,47.680433,46.382834,36.523838,61.194634,65.472208,63.22248,51.890354,75.229687,79.794253,78.942456,62.869379,85.393311,91.174842,91.605736,-29.223735,367.091472,-45.605266,375.316095
13,2.200058,0.510848,0.825416,0.339084,14.345764,29.522758,42.823517,49.614246,30.618015,59.138694,57.939479,51.314438,23.68436,50.388118,46.385273,37.863453,17.280922,31.907203,19.583542,5.773933,12.081241,9.851051,-0.891976,-12.368821,-4.569567,8.23879,25.890133,36.373142,41.743526,67.758653,74.46933,78.505596,58.822368,85.977964,92.962022,98.303458,69.434275,101.980695,117.075817,129.435422,74.857123,104.238401,120.174515,134.672968,34.839856,65.989323,92.649891,112.269482,70.714589,107.385853,115.143803,111.872258,58.796139,98.066746,108.140294,107.450009,44.260403,80.902348,93.484143,96.827511,28.903714,56.709904,71.206913,79.986615,-13.362295,-11.051471,0.206778,10.79995,16.720295,40.925642,47.107315,46.069723,35.994562,60.493668,64.934906,62.890004,51.36093,74.695015,79.37829,78.795341,62.327038,84.955785,90.803956,91.462389,-27.187986,367.427962,-44.944159,375.480821
14,-1.38509,1.691356,0.631863,0.212743,13.669452,28.701061,42.086506,51.128219,31.345321,60.563312,62.168175,59.061641,25.750843,55.262695,55.116028,49.901665,19.803474,36.565944,26.682358,14.519737,14.551586,12.360283,2.468937,-8.075867,-5.499874,6.592833,23.879231,34.632694,39.279672,64.115231,70.808222,74.884528,56.250884,81.362677,86.915014,91.15523,66.684196,97.946651,112.892832,124.908265,71.605778,100.558817,116.309112,130.714199,34.440754,65.128853,91.382858,110.925247,70.192726,106.633621,114.426544,111.373924,58.215523,97.059769,107.344734,107.03215,43.641197,79.946045,92.786179,96.483856,28.285767,55.912171,70.485489,79.565209,-13.686238,-11.255952,0.188425,10.558851,16.458609,40.549779,46.52749,45.49343,35.695221,60.014558,64.451696,62.495974,51.0122,74.230627,78.975121,78.614363,61.851929,84.392015,90.45577,91.502563,-28.693462,368.975906,-44.432682,375.550152
15,1.607242,-1.308787,0.620339,0.113658,5.603268,16.261288,25.535889,31.580029,25.543614,51.725762,53.066815,50.729073,23.590702,52.886319,53.360791,48.902928,20.666703,38.719677,29.444573,17.65971,17.87122,16.641667,6.894081,-3.608333,-1.711326,11.766319,29.417612,39.42518,42.838175,68.355038,76.008335,81.195925,57.804029,83.525781,88.823386,93.275282,66.404528,98.042574,112.541484,124.492745,69.93964,99.292859,114.777232,128.841975,34.043026,64.263908,90.13726,109.632019,69.701294,105.859291,113.593139,110.668693,57.700172,96.109863,106.516868,106.48439,43.087921,78.986457,92.019561,96.061386,27.692802,54.970687,69.571815,78.974372,-13.97302,-11.489344,0.113991,10.310157,16.461807,40.386288,46.007897,44.895303,35.629901,59.778573,64.167619,62.249738,50.851291,73.973276,78.743372,78.580622,61.522565,84.027626,90.352733,91.830136,-27.167496,367.568707,-43.893619,375.565398
16,-4.244247,-0.597584,0.449661,0.163774,15.236858,30.85857,44.092895,54.766834,36.390037,64.717346,69.279133,70.077759,30.36113,62.549938,67.573002,66.554226,22.842281,42.112369,36.320457,27.042023,15.213455,13.270019,5.224823,-3.638168,-2.58334,9.40691,26.262204,37.08936,43.341923,67.638685,73.205262,75.907954,58.108398,82.20557,85.900369,88.073168,65.976042,96.389911,110.761492,121.848173,68.079879,97.18086,113.187839,127.565619,33.7668,63.595138,89.091682,108.490448,69.389236,105.223938,112.815491,109.965683,57.363762,95.405823,105.836632,105.980758,42.692505,78.252456,91.386383,95.664299,27.212437,54.167061,68.754524,78.39656,-14.218699,-11.666518,0.046473,10.104837,16.433563,40.332059,45.722574,44.526481,35.53751,59.612736,63.97297,62.040318,50.712402,73.807205,78.596134,78.545672,61.279627,83.811809,90.380731,92.163848,-31.481089,366.889878,-43.513304,375.647927
17,2.506817,-0.059403,0.340988,0.11556,10.010101,23.278953,35.909443,44.357345,28.917709,56.840412,59.177696,57.892559,24.880588,55.726822,57.007484,53.203125,20.520733,39.833793,31.436359,20.516865,16.717884,15.817154,6.801567,-2.81218,-2.722724,10.264857,27.359125,37.676631,43.043952,68.033417,75.289597,80.320181,58.289289,83.614775,88.705022,92.639363,67.178606,98.274064,112.615745,124.55352,71.103919,99.906596,115.491548,129.80743,33.645699,63.131172,88.228294,107.552628,69.150696,104.751549,112.204079,109.308128,57.157745,94.99221,105.518051,105.756134,42.459229,77.835709,91.048508,95.461258,26.915611,53.496162,68.050598,77.785606,-14.355613,-11.712769,0.178656,10.245369,16.354041,39.959432,44.955226,43.579365,35.496075,59.412097,63.639073,61.640088,50.693976,73.730609,78.332731,78.161905,61.200327,83.790134,90.488671,92.351816,-29.017839,366.764257,-43.215883,375.697269
18,-2.639225,0.301885,0.229946,0.039174,19.2346,37.715904,55.477878,67.857868,36.134926,67.833996,71.329181,70.216038,27.866112,57.594349,58.326198,54.098648,19.876167,36.420238,27.024341,15.688705,13.282585,10.167927,1.032074,-8.417496,-7.155502,4.392628,21.083937,32.393093,40.261701,64.112723,70.033785,73.659275,58.269739,83.032506,88.193149,92.052117,69.696035,100.536438,115.781714,128.476067,75.53839,104.164041,119.97658,134.669411,33.505634,62.722424,87.438595,106.669064,69.037594,104.504231,111.804142,108.666676,57.040524,94.747341,105.339489,105.551663,42.27277,77.596218,90.880062,95.268597,26.63015,52.951092,67.507954,77.196797,-14.527254,-11.845557,0.156389,10.060526,16.074707,39.74322,44.364855,42.663446,35.333376,59.319718,63.343066,61.135329,50.622074,73.754198,78.080766,77.62485,61.145233,83.881315,90.574689,92.327635,-31.680668,367.0065,-43.009541,375.676801
19,0.937454,-0.780772,0.094265,0.034494,16.714886,34.580933,53.236919,64.381016,31.945816,64.561878,65.080204,60.079159,25.181763,54.390461,50.972134,43.029717,19.70081,36.623943,24.171982,10.408905,16.108646,13.513996,3.000355,-8.085171,-7.743848,4.919643,22.347153,33.535895,40.084106,65.41268,71.725018,75.772658,59.18835,85.780103,91.283682,95.665714,72.056469,104.393604,119.152335,131.568935,79.883766,109.071062,124.49892,138.64757,33.445129,62.507263,86.995789,106.182999,68.90728,104.307678,111.583351,108.275688,56.936257,94.654884,105.321144,105.457764,42.145752,77.46151,90.774582,95.114205,26.472542,52.582535,67.113213,76.659577,-14.532799,-11.859241,0.16664,10.016312,15.917527,39.450572,43.989968,42.182694,35.270699,59.268021,63.228569,60.872951,50.624902,73.892358,78.021497,77.300722,61.152779,84.10411,90.768907,92.367538,-30.758995,366.165611,-42.931057,375.651178
20,-1.925056,0.365204,-0.02037,0.013931,26.916206,49.532169,72.18021,86.353191,40.567657,75.891529,76.533794,70.694606,28.712631,57.963283,53.86584,45.104759,18.675602,33.615943,20.720569,6.861156,11.058254,6.94487,-3.345681,-14.163586,-10.752661,0.58117,17.707104,29.959188,38.781185,63.614064,68.477848,70.860154,59.36319,85.177209,90.676417,94.518429,73.283092,105.036068,119.937516,132.290748,81.436764,110.178555,125.954637,140.518324,33.487896,62.494468,86.805038,105.821113,68.853675,104.272728,111.588501,108.200798,56.848457,94.565895,105.385299,105.582916,41.998684,77.362609,90.758491,95.082687,26.279937,52.37043,66.937088,76.372535,-14.535121,-11.863662,0.258228,10.175566,15.621026,39.019999,43.59032,41.748132,35.137417,59.197069,63.217663,60.816585,50.570833,73.993913,78.009419,77.079544,61.100155,84.189301,90.793891,92.204875,-32.677946,366.483551,-42.945322,375.617845
21,2.088844,-0.139556,0.07719,-0.121327,27.099678,49.320728,71.959614,84.882923,38.815315,73.64883,71.564701,62.541927,25.855362,52.628277,44.52499,32.542786,15.675567,28.176201,12.269485,-3.488182,8.447948,3.745777,-7.595684,-19.516503,-10.752278,1.333352,18.641437,30.501023,39.612,65.146141,70.313626,73.121331,60.521579,87.329322,94.006641,99.00204,74.903633,107.160677,121.991088,134.788565,83.712502,112.016668,127.622812,142.303862,33.554729,62.495876,86.673191,105.63969,68.768063,104.276539,111.425549,107.71487,56.700977,94.420864,105.243862,105.346928,41.779335,77.120441,90.523693,94.743862,26.023155,52.011166,66.567799,75.821651,-14.48561,-11.773988,0.418902,10.361855,15.56755,38.865413,43.367697,41.457843,35.145728,59.198489,63.233768,60.821241,50.632756,74.145671,78.110282,77.079013,61.18873,84.395881,90.917033,92.154474,-30.552629,366.295191,-42.831659,375.447714
22,0.195465,-0.928961,-0.0359,-0.045325,32.264557,56.198582,79.125309,91.731937,43.260052,77.958012,76.087543,66.844265,27.006912,52.859219,44.894497,32.741157,13.636185,24.123356,8.309784,-7.197121,3.384052,-2.161823,-13.004517,-24.586453,-9.85418,1.727937,18.922105,31.143499,42.131269,67.867161,71.952037,73.315276,62.397124,89.279104,96.261544,100.982203,75.784552,107.871783,122.785483,135.471413,83.179003,111.394705,127.417282,142.499154,33.581554,62.47158,86.550522,105.37928,68.758484,104.391266,111.351356,107.346611,56.630356,94.329094,105.083359,105.148979,41.648128,76.897522,90.255432,94.42662,25.830437,51.815048,66.367035,75.535309,-14.506543,-11.842593,0.337589,10.31054,15.338061,38.478262,43.113928,41.310556,34.977953,59.031714,63.233681,60.905024,50.539476,74.145041,78.251999,77.285074,61.151964,84.43839,90.928334,92.093292,-30.291784,365.309472,-42.802179,375.345631
23,0.244984,-1.069789,-0.079685,0.04719,34.40142,58.891914,81.176674,93.034149,46.107696,80.222763,78.822898,69.879295,27.845615,53.052475,45.618026,33.729194,12.405601,21.673702,6.370548,-8.649594,0.091667,-5.808518,-16.003521,-26.954716,-8.689592,2.840297,20.137946,32.368875,44.361595,70.084569,73.076685,73.335876,63.904761,90.705168,97.674888,102.171738,76.346333,108.318782,123.338804,136.062402,82.569922,110.90584,127.280962,142.681601,33.568702,62.46429,86.515125,105.236332,68.679622,104.432865,111.288219,107.134037,56.509494,94.235698,104.989254,105.05215,41.519703,76.72768,90.051258,94.152958,25.720298,51.763401,66.308132,75.313442,-14.561279,-11.918015,0.22382,10.306329,15.155774,38.100028,42.902654,41.25708,34.845041,58.7826,63.159791,60.959117,50.470167,74.037755,78.292742,77.40419,61.128721,84.401463,90.837783,91.895382,-29.963613,364.180455,-42.798677,375.333593
24,0.040363,-0.598472,0.000835,0.138209,37.821865,63.057644,84.51907,95.652386,49.848232,82.875721,81.814465,73.135609,28.875435,52.317799,45.276913,33.768505,10.676628,17.590198,2.798447,-11.554333,-4.299328,-10.926716,-20.55471,-30.976112,-7.690755,3.452478,20.432791,32.539923,46.538222,71.905526,74.17089,73.6727,65.311521,92.047103,99.754715,104.661329,76.686441,108.182238,123.527735,136.617587,81.521029,109.572549,126.33702,142.135604,33.432678,62.270531,86.33345,105.064041,68.582131,104.408661,111.108994,106.797478,56.403328,94.063454,104.774849,104.854248,41.423195,76.569901,89.800278,93.842331,25.600777,51.713699,66.194595,75.034081,-14.670823,-12.247601,-0.344159,9.664928,14.869166,37.78588,42.488359,40.763843,34.569721,58.465896,62.940466,60.845065,50.237196,73.777725,78.137119,77.321557,60.960909,84.240036,90.591424,91.50323,-29.818296,363.51395,-42.692888,375.403769
25,-0.099163,-0.501055,-0.025921,0.18661,37.25544,62.258057,83.646698,95.269409,48.443367,80.583412,80.074608,72.195946,27.928482,50.180878,43.438591,32.383816,10.365417,16.617107,2.249187,-11.828053,-3.95129,-10.608776,-20.075054,-30.442944,-7.19753,4.057483,20.761513,32.59945,46.78867,72.42439,75.926614,76.3541,65.5511,93.000628,101.673807,107.372382,76.855205,108.723197,124.43817,137.810815,81.715456,109.965664,126.701607,142.385594,33.034493,61.817951,85.983708,105.080418,68.389103,104.331356,110.900631,106.472409,56.305218,93.899403,104.579533,104.614483,41.457253,76.463642,89.612904,93.589428,25.748703,51.768208,66.127659,74.812969,-14.915898,-12.625613,-0.886118,8.816576,14.977439,37.784373,42.158093,40.295738,34.63982,58.24147,62.505126,60.38511,50.297427,73.562006,77.883967,77.194351,61.007196,84.084215,90.338815,91.303431,-29.825386,362.932474,-42.626736,375.509958
26,1.516159,0.133751,-0.058067,0.193291,27.62027,48.330688,66.624824,75.849884,39.326569,68.721703,67.750992,60.286343,24.040718,45.273239,38.423149,27.745045,11.36808,18.91927,4.605343,-9.692974,1.635178,-3.62273,-13.380947,-24.102436,-5.826757,5.804588,22.635293,33.73036,45.772135,71.856336,77.595061,80.393998,64.232494,92.751329,102.277059,109.084103,75.599461,108.381013,124.575516,138.370422,81.115255,110.177407,126.612761,141.612035,32.725834,61.470303,85.661671,104.865475,68.170498,104.289287,110.833729,106.387607,56.178783,93.826229,104.624897,104.780033,41.42625,76.505321,89.685368,93.702976,25.779339,51.834721,66.208797,74.966251,-15.114945,-12.995942,-1.44659,8.132122,14.69319,37.379908,41.581443,39.653546,34.366278,57.904695,62.166141,60.067862,50.060701,73.249833,77.52164,76.833839,60.758528,83.755456,89.986307,90.986775,-28.238319,362.987024,-42.613895,375.624048
27,-3.16222,0.557186,0.02623,0.144978,27.834572,49.129108,67.965649,79.706303,42.477665,72.292293,73.612827,68.798057,28.414272,51.856808,48.746532,41.169502,15.657246,25.382709,13.92794,1.432423,5.156204,-0.28442,-9.614536,-19.845039,-5.998212,4.944245,21.298421,32.287636,43.999812,69.124041,74.473158,76.662569,62.490059,89.742306,97.798981,103.258977,73.668513,105.818791,121.962621,135.091846,78.712645,108.002385,124.589768,139.531688,32.353832,61.032223,85.302028,104.685184,67.995312,104.171413,110.701801,106.312717,56.07336,93.721287,104.542522,104.704914,41.395042,76.488888,89.664242,93.647793,25.834923,51.922588,66.246883,74.913471,-15.312645,-13.270979,-1.840805,7.517693,14.708417,37.439583,41.444752,39.377052,34.397103,57.760187,61.851942,59.693765,50.080881,73.068052,77.210517,76.536894,60.712239,83.528374,89.632501,90.628634,-31.336206,363.480385,-42.523332,375.705201
28,0.796314,0.188524,-0.057232,0.070889,19.610996,37.593922,54.409092,65.324158,34.989727,62.572334,63.725372,59.732838,25.477822,48.126206,45.138794,38.174217,16.903141,27.747173,16.500206,4.018318,10.228066,5.619507,-3.963993,-14.374981,-4.315007,7.512642,24.291007,35.31043,43.59379,69.251383,76.916202,81.52571,61.505831,89.55314,98.564279,105.259839,72.520623,105.285095,121.686733,135.243962,78.012951,107.82174,123.992271,138.391096,31.999283,60.619743,84.991676,104.62413,67.794868,103.993103,110.722435,106.648727,56.004524,93.648537,104.625709,104.957634,41.442718,76.585945,89.864891,93.951942,25.980652,52.126648,66.457443,75.195717,-15.434873,-13.477743,-2.125696,6.97114,14.707726,37.409944,41.26864,39.133151,34.415296,57.647233,61.569385,59.345382,50.048586,72.861102,76.837853,76.134393,60.56662,83.220154,89.193382,90.206583,-30.478792,363.612688,-42.519464,375.719869
29,-3.013332,0.283608,-0.044598,-0.147941,19.221153,37.985618,55.433784,68.67287,38.274399,66.732708,69.797893,68.019172,30.259197,56.029095,56.578571,52.332104,21.715885,35.921024,27.566746,16.850017,14.135181,10.092247,0.942478,-8.989517,-4.727587,6.464712,22.989209,34.113311,41.830766,66.631115,73.565575,77.276626,59.806002,86.319678,93.341045,98.325057,70.749904,102.552824,118.548984,131.22433,75.755195,105.817173,122.065855,136.513191,31.764977,60.33038,84.768574,104.604916,67.571514,103.769291,110.759526,107.110371,55.885906,93.517628,104.768223,105.405842,41.440144,76.596508,90.082249,94.378018,26.10862,52.269184,66.637837,75.539624,-15.46176,-13.433815,-2.008395,6.882034,14.864769,37.311389,41.365786,39.511766,34.593198,57.577306,61.531074,59.397301,50.216806,72.782024,76.688985,76.033072,60.677758,83.126379,89.025902,90.117736,-33.455715,363.857316,-42.527653,375.532948
30,-0.254322,-0.50996,0.150856,-0.125317,19.295002,37.743656,54.025646,66.327461,40.425647,67.543464,70.992004,70.19347,31.635944,57.121628,58.786011,55.451969,21.770599,35.977283,28.567405,18.710014,12.475078,8.266067,-0.684025,-10.246788,-2.65985,9.394893,26.362412,37.311538,43.80016,68.056982,74.709329,78.384565,60.53341,86.485527,93.536288,98.682938,70.115765,101.428843,117.397166,130.094805,73.92679,103.572101,119.611598,134.044275,31.816052,60.406781,84.686932,104.274708,67.3037,103.678334,110.55241,106.856587,55.633107,93.438343,104.760693,105.524632,41.186714,76.566204,90.182019,94.584011,25.882668,52.117161,66.538227,75.467915,-15.359204,-13.228074,-1.789206,7.187662,14.575321,36.777064,40.700969,38.789979,34.360634,57.291489,61.218939,59.104432,50.047808,72.619954,76.465992,75.703029,60.541031,83.117006,88.8912,89.735872,-33.662241,363.302093,-42.329001,375.362368
31,-4.534504,0.724036,0.236882,-0.050968,28.204204,51.632698,71.028396,87.243427,53.21022,83.063267,88.45348,89.029415,40.796768,69.716892,74.77502,73.901344,26.402103,43.382126,41.02787,35.333816,11.80973,8.54472,2.34668,-4.388237,-4.945158,5.544236,22.120344,33.571809,41.985278,64.030002,68.074951,68.879522,59.119499,82.062358,86.708026,89.065583,68.787859,97.289787,110.658628,120.365163,71.768811,100.59294,116.830927,131.251365,31.806781,60.356323,84.504432,103.918418,67.036216,103.679283,110.360458,106.489219,55.333145,93.405601,104.722251,105.467742,40.879108,76.494369,90.240669,94.752845,25.608043,51.801933,66.281478,75.263603,-15.275558,-13.091952,-1.657579,7.154019,14.454363,36.381379,39.950849,37.862709,34.309875,56.950182,60.597173,58.369144,49.996184,72.452425,76.16129,75.335156,60.430546,83.060442,88.740319,89.454993,-38.144056,363.967605,-42.03943,375.252876
32,4.446419,-0.035852,0.227657,0.046955,17.160278,34.065685,48.92926,60.007816,40.950336,67.163372,69.273983,67.063018,34.262271,62.120647,64.087108,60.68296,26.351921,45.265319,41.406234,34.333969,17.836326,19.193103,13.308803,6.153087,0.341059,14.022246,31.379855,42.007076,46.122123,70.459789,77.049101,80.545125,59.620504,84.195982,90.313695,94.150124,66.302232,95.43699,107.879217,117.469945,67.717897,95.171698,109.945917,123.126184,31.645935,60.289707,84.368831,103.774349,66.707577,103.73315,110.41943,106.495914,55.063122,93.572147,105.024731,105.811626,40.673469,76.680324,90.697117,95.438038,25.429355,51.654934,66.332531,75.572674,-15.226738,-13.1323,-1.783649,6.83125,14.067559,35.675065,38.831326,36.61897,34.02502,56.376014,59.638412,57.237691,49.794173,72.148428,75.736583,74.86925,60.313442,83.01324,88.619473,89.258738,-33.661348,363.85082,-41.775484,375.218898
33,-2.669392,1.430423,0.074558,0.104753,24.196644,44.547832,61.62307,75.881584,49.857319,78.545906,83.339722,83.897198,40.257076,71.256317,77.376526,77.386803,28.399589,48.625431,48.623829,44.801983,15.246174,16.389324,11.89452,6.283768,-2.041703,9.762617,26.218225,36.647746,43.732037,64.723732,69.182358,70.858709,57.754753,79.054656,83.269196,85.276838,64.414967,91.021034,103.147962,112.44713,64.718545,90.863002,106.0714,120.208576,31.432926,60.081024,84.125565,103.703934,66.461952,103.828308,110.633354,106.765022,54.858765,93.676666,105.358887,106.424629,40.556957,76.810181,91.110535,96.218948,25.381485,51.535103,66.341217,75.863777,-15.178424,-13.054988,-1.665927,6.608084,14.28718,35.680339,38.426256,36.080235,34.219349,56.063075,58.973496,56.510766,49.929024,71.874343,75.440268,74.718628,60.374712,82.883712,88.451772,89.134781,-36.311686,365.151678,-41.681872,375.194086
34,4.661076,0.376814,-0.581085,0.39004,21.018493,38.46952,52.101253,62.210163,42.903236,68.332798,72.202663,72.306312,32.762798,58.404888,61.480533,59.575332,21.522972,37.65129,35.54425,30.764144,9.754589,10.961734,6.632743,1.651874,2.306859,17.206579,34.874656,45.518637,48.250351,69.959598,76.364919,80.172412,59.882079,82.883712,89.835833,94.708323,64.666859,91.9402,104.335089,114.642035,63.90355,89.258886,103.76964,117.259907,31.430797,60.227531,84.253097,103.738609,66.148819,103.761475,110.947311,107.503212,54.708687,93.734299,105.920448,107.630379,40.600181,76.978866,91.765434,97.565163,25.601509,51.775062,66.773254,76.710503,-15.076696,-12.831587,-1.383567,6.797708,14.659993,35.52269,37.543139,34.859281,34.575748,55.907156,58.563189,56.1095,50.128108,71.67416,75.294723,74.710922,60.435795,82.678034,88.104142,88.743975,-31.648841,365.376824,-42.261188,375.432458
35,1.234256,2.80805,-1.702606,0.635622,18.979901,36.053547,49.110878,57.948098,39.30138,65.380417,71.754685,73.822323,29.309292,55.677933,60.297798,59.476628,18.390908,35.204659,34.542458,30.536328,7.26804,9.44822,5.9137,1.501408,3.387714,19.223212,37.85304,49.930198,47.345745,68.610475,74.666474,77.918905,57.998099,80.549461,87.336275,91.902644,62.290518,89.039055,101.096885,110.918671,61.10617,86.222953,100.86216,114.006031,31.555732,60.536041,84.53714,103.855934,65.201202,102.714225,111.364174,109.652229,53.555523,92.734405,106.322662,109.403892,39.675075,76.293113,91.959846,98.537773,25.330032,51.840637,66.995727,76.816612,-14.721434,-11.909271,-0.019464,8.38846,15.416052,37.080184,39.637219,37.448846,35.463546,57.260737,60.405463,58.338689,50.99144,72.759127,76.690047,76.183225,61.199858,83.252807,88.516758,88.986073,-30.446532,368.056899,-43.995741,375.940105
36,5.614151,3.167994,-3.41993,0.997701,14.64933,29.582531,42.094528,48.953682,26.810372,50.911789,59.15284,62.208996,17.806183,40.080815,43.215637,41.06337,9.510865,21.835762,18.054657,11.203686,2.470036,3.76474,-1.115673,-7.02111,4.767305,21.826523,41.031543,54.277118,46.650337,69.402782,76.806854,81.351203,57.098457,81.976463,91.17888,98.216475,61.898452,89.695795,103.337622,115.151291,61.886917,86.099155,100.084487,112.969266,31.533783,61.027748,85.13839,104.342125,63.074135,100.483223,111.311485,111.962425,50.954704,90.238518,105.577149,110.093216,37.585659,74.124893,90.529015,97.453858,24.463978,51.33363,66.451996,75.572914,-14.490018,-10.834863,1.908706,11.286815,16.09527,39.026928,42.436909,41.120193,36.697739,59.852452,63.55534,62.10339,52.434362,75.294377,79.905565,80.13251,62.480043,84.520939,89.55419,89.814777,-24.930365,371.113727,-47.513655,376.82664
37,15.207253,4.344771,-4.717495,0.652381,9.748489,18.576507,25.802582,29.701675,16.829212,31.892727,37.362282,38.780388,8.252048,17.921001,17.603416,14.052887,-0.273171,-0.792767,-6.175518,-12.572319,-7.70493,-15.767281,-21.917828,-27.24186,4.675569,22.455785,41.838337,57.505998,46.611805,65.076956,71.787151,76.445195,56.472382,75.149128,82.445964,88.573593,60.521604,81.078649,93.112656,104.186592,59.098961,78.920707,91.532302,103.731714,30.904713,60.763745,84.339466,101.478619,59.620308,98.350674,109.749218,110.990925,46.675724,87.155445,102.586315,106.484654,33.534794,69.938839,85.468289,90.969509,21.68549,48.56424,61.964047,68.461018,-15.098297,-9.90032,4.79198,15.95806,16.409715,40.451213,44.228733,43.551973,37.562949,63.054927,67.791776,67.623309,53.398669,78.968946,86.115532,89.028447,63.137314,86.041172,92.201072,93.977396,-10.01362,375.464194,-52.521658,377.484717
38,20.330704,3.651747,1.533451,3.184308,-3.198716,-4.915261,-7.245026,-11.635781,-6.57684,-4.358403,-4.736596,-8.100815,-10.364102,-14.248478,-21.570134,-30.231034,-13.049344,-23.026841,-33.176159,-43.085827,-13.99807,-25.381474,-33.441422,-40.649403,4.887162,20.732268,35.964131,47.461156,46.068154,66.996122,75.612441,81.580235,55.155011,76.123154,85.75991,93.509488,59.101652,80.571295,92.271862,102.439277,58.534129,78.103946,89.923024,100.780167,25.396317,50.385865,71.386402,85.844021,50.867283,82.808899,92.599709,93.58358,41.172055,74.193856,85.235424,85.99308,31.001862,60.127442,70.262226,71.487522,21.79279,43.477055,52.383042,54.355992,-17.189993,-14.081934,-0.326165,13.115998,11.383232,33.822615,39.205497,40.94965,33.773659,59.844758,67.708537,70.628146,50.743587,77.3612,87.490689,93.936419,61.760404,84.536796,92.024132,96.264014,9.850514,379.182709,-51.454777,380.735793
39,16.803543,3.149172,-4.838264,-7.581629,-13.743393,-23.840516,-32.041603,-40.014599,-23.743527,-32.399575,-37.158486,-43.23515,-21.394799,-34.713765,-45.303406,-55.614293,-18.384739,-34.977791,-46.887715,-57.754143,-14.410138,-29.597569,-38.977662,-47.440167,0.368996,12.786077,27.051534,39.009551,40.200803,61.372376,71.314081,78.50961,51.531497,72.35875,82.480667,90.088195,57.635204,78.681226,90.203223,99.600512,59.012744,78.390617,89.835302,99.989305,22.773405,45.997518,66.15616,78.30039,45.402099,74.249908,81.35602,80.707947,37.846744,67.567428,73.635635,70.547161,29.997311,56.365087,61.128622,57.601999,23.000124,43.001427,47.731836,44.96763,-18.438864,-16.317398,-3.529165,11.007474,9.754651,29.639858,33.726606,36.282893,32.081797,55.945972,62.799743,67.107236,48.970288,73.561951,82.559572,90.462155,59.91779,80.150855,86.441314,91.662392,26.112013,382.477674,-56.835085,373.299957
40,18.35226,1.364561,-10.866017,-18.502029,-25.092968,-44.702671,-60.071056,-72.026562,-42.087959,-62.44479,-73.586529,-84.109646,-33.057426,-57.688236,-73.458973,-86.662857,-23.641044,-48.467274,-63.805481,-76.335342,-14.001606,-33.721332,-45.048157,-54.732845,-3.588799,6.07587,19.217926,30.78316,36.739667,58.96842,70.536989,79.561886,49.894715,71.178798,82.091096,90.362008,57.591818,78.226348,89.752704,98.878279,60.29225,79.382476,90.079166,99.455151,23.116923,47.648467,68.841437,79.147219,43.938939,73.175068,76.146349,72.107129,37.9319,68.153698,68.269982,60.523476,31.872094,59.475707,58.72954,50.31629,26.302615,47.890217,48.839739,41.848006,-18.906673,-16.994924,-5.559927,8.521909,11.666271,26.439866,25.510652,26.81889,32.409408,50.259933,51.713173,55.630687,47.716878,66.514154,70.245355,77.708238,57.141528,72.12224,74.706032,79.60991,43.957586,383.951842,-68.207789,354.907535
41,17.20689,-0.660322,-9.329544,-24.668524,-34.313438,-63.162964,-87.058845,-104.445762,-55.331268,-87.121204,-104.649662,-118.64265,-41.873336,-77.090915,-97.107147,-112.383636,-28.803657,-61.264,-79.396316,-92.988693,-16.749733,-41.480369,-54.769363,-65.650978,-4.882618,3.796798,16.854071,28.499902,37.313575,60.171293,73.200741,83.662471,50.508354,71.655338,83.188512,91.950303,57.645849,78.237105,90.211201,99.431526,59.610044,79.010195,89.43238,98.345867,20.254263,44.335825,66.357886,75.650935,44.120282,73.428784,70.167384,62.193455,41.303604,69.419838,61.794148,50.394871,37.531586,63.16891,55.0866,43.026553,33.268782,53.794236,49.241473,39.006873,-22.798332,-25.913054,-17.96304,-4.662187,1.445997,9.842701,7.245658,8.295433,22.287231,32.98029,32.789018,36.954905,38.513843,49.922658,51.370218,58.811056,49.937095,58.656686,59.178471,64.406057,60.825142,383.309783,-77.876667,330.257274
42,3.206498,-0.586777,-6.610267,-31.397182,-32.993432,-60.633957,-84.032902,-100.894375,-58.271256,-90.917359,-108.024857,-121.1517,-44.982766,-80.870797,-100.82063,-115.993882,-31.330628,-62.987492,-81.773163,-96.245305,-18.336022,-41.787186,-55.502816,-67.337838,-11.086781,-6.484337,6.1485,17.388767,30.974673,56.92395,70.884335,81.421586,48.520052,75.267169,89.903771,100.605858,59.977656,86.622168,100.923576,111.171242,66.007324,90.135779,102.200291,111.737605,21.522634,44.549864,64.739942,72.272524,45.646087,69.61758,65.295851,57.089561,43.310486,66.001613,54.795524,42.027031,39.509857,61.901945,50.886663,37.612684,34.327429,53.16782,47.172701,36.829656,-21.159205,-29.861227,-29.409813,-21.342912,-11.424616,-13.875212,-17.547009,-16.231991,4.785805,5.313426,5.986301,10.881954,18.532707,20.037879,20.708841,27.241219,29.546479,30.375935,30.504469,35.368259,64.008992,382.619209,-84.509582,298.756295
43,0.81118,-1.283742,-12.512158,-44.186359,-33.173287,-61.029374,-83.795586,-99.90247,-57.767281,-90.839138,-108.017956,-120.867165,-43.942315,-80.460686,-100.431141,-115.323235,-30.001717,-62.438736,-81.523831,-95.827584,-17.278038,-41.779747,-55.777748,-67.53986,-11.36068,-4.601826,12.876961,29.533653,31.370135,57.984118,72.295653,83.129775,49.598832,76.423903,90.926098,101.694642,61.353925,87.776309,102.049953,112.400212,67.239814,91.346717,103.085384,112.204129,23.537436,49.269625,71.0241,78.450938,47.468296,74.837563,71.675932,64.473152,45.480217,71.584397,61.942612,50.67072,42.954907,69.267168,59.928229,48.242518,39.542021,61.407326,56.155546,47.159197,-23.189447,-35.617762,-39.914287,-36.55856,-22.618546,-33.228113,-39.779752,-40.315492,-9.359411,-18.760615,-20.526943,-16.572601,3.087483,-4.952686,-6.499775,-1.540883,14.215803,7.492504,5.956444,9.363332,64.865393,381.378603,-96.976519,254.613072
44,0.741211,0.305603,-4.956527,-43.026848,-33.698159,-61.833321,-84.665257,-100.781582,-59.076828,-91.797284,-108.971295,-121.811772,-45.080338,-81.480435,-101.353123,-116.157692,-30.763504,-63.308693,-82.447735,-96.671654,-17.672837,-42.463463,-56.805336,-68.755486,-11.763404,-4.813297,12.806776,29.465617,31.18129,57.801164,72.047651,82.812761,49.511579,76.006458,90.238606,100.92612,61.276082,87.30272,101.385086,111.630134,67.093341,91.224563,102.774001,111.797379,18.112873,42.498172,65.091098,74.086109,46.684913,74.713394,72.170219,66.399433,48.513176,72.038955,61.48368,51.399067,48.771251,71.936428,61.501087,51.015918,47.694809,66.816993,59.664974,51.390964,-28.918693,-47.647593,-56.823914,-56.642788,-38.918228,-57.480272,-65.509777,-66.973817,-26.127717,-43.854284,-45.03707,-39.881892,-13.25278,-29.396728,-30.705985,-25.022693,-0.734774,-14.739033,-16.385743,-12.312322,65.697293,381.921306,-101.842357,211.823324
45,-0.040307,0.019513,2.60757,-39.922654,-34.040931,-62.308662,-85.165775,-101.405433,-59.64672,-92.335212,-109.587947,-122.370529,-45.650184,-81.998291,-101.932457,-116.752121,-31.3572,-63.74691,-82.91423,-97.102924,-18.353782,-43.071487,-57.43753,-69.335163,-11.644238,-4.690809,13.009058,29.736269,31.549718,57.93494,72.154949,82.804425,49.874758,76.11394,90.206372,100.749156,61.631172,87.4619,101.224412,111.198573,67.423891,91.320609,102.649056,111.500471,9.183117,28.150452,49.038037,59.738697,39.277256,65.122731,65.815384,63.883873,46.479985,65.626007,55.270764,46.611786,51.174248,68.358502,56.843079,47.838032,53.787861,67.550194,58.592743,51.380173,-34.510514,-61.131117,-75.966919,-78.739413,-58.326777,-84.387816,-92.089815,-94.285018,-45.127392,-70.925319,-69.14553,-62.711538,-31.104781,-55.28699,-52.563426,-44.004127,-16.46358,-37.316237,-36.774772,-30.359843,65.582485,382.435755,-99.309288,172.395606
46,-0.857093,-0.215336,4.856278,-41.680157,-34.087395,-62.330315,-85.104287,-101.217133,-59.859787,-92.500695,-109.789055,-122.544812,-45.831505,-82.011978,-101.91037,-116.645474,-31.511765,-63.671746,-82.737316,-96.7473,-18.505074,-43.047501,-57.340577,-69.14264,-11.349454,-4.084494,13.684237,30.331629,32.081278,58.471415,72.706071,83.347557,50.299514,76.559062,90.478544,100.883093,61.976245,87.901748,101.456408,111.276268,67.599485,91.451545,102.650031,111.438288,2.522815,16.888927,35.397525,46.489208,31.504715,54.403576,58.53075,59.17749,42.834034,58.483028,49.343994,41.576545,50.801193,64.504989,54.102047,46.104995,56.255928,66.771309,57.94741,51.548126,-36.200179,-65.946803,-85.170836,-90.84715,-66.949482,-101.105524,-111.767233,-114.908952,-55.86372,-88.889255,-85.46094,-76.650867,-43.287304,-74.104465,-69.702815,-58.987834,-29.525712,-56.044964,-54.371411,-46.238474,64.526654,383.214492,-94.651748,131.709522
47,-0.89914,-0.236492,5.647991,-42.158507,-34.136055,-62.314224,-85.06438,-101.087311,-60.054771,-92.639774,-109.911449,-122.655029,-46.035507,-81.947799,-101.765774,-116.36887,-31.688438,-63.523658,-82.499908,-96.328651,-18.642105,-42.931297,-57.142341,-68.877285,-11.030044,-3.599963,14.160839,30.529231,32.521904,58.780958,73.013527,83.737622,50.630176,76.862282,90.647629,100.935865,62.270363,88.262433,101.643179,111.297152,67.827789,91.712045,102.768197,111.432731,-7.848759,3.038978,22.472328,36.028461,22.51973,45.180324,49.148609,50.366444,40.52948,56.185501,48.674515,41.987572,54.432106,66.507889,54.868767,46.34975,65.23122,73.725494,62.774769,55.28643,-42.276104,-75.445875,-95.729088,-100.651813,-73.920325,-111.365497,-123.703544,-127.370716,-60.041117,-99.46124,-101.982343,-95.877864,-45.281367,-81.569231,-79.819237,-69.006419,-29.865247,-61.026561,-62.274253,-54.715965,63.236372,384.440346,-89.394899,91.013361
48,-0.570991,-0.075335,4.584606,-34.819637,-34.178055,-62.256569,-84.999356,-100.923363,-60.176148,-92.837689,-110.182984,-122.926724,-46.167,-81.977246,-101.756836,-116.168679,-31.797821,-63.470055,-82.416825,-96.096989,-18.734986,-42.897721,-57.04319,-68.659092,-10.874631,-3.271327,14.548458,30.803377,32.506923,58.779031,73.064804,83.875238,50.568054,76.989277,90.78422,101.053585,62.223889,88.425478,101.776078,111.383503,67.79947,91.813748,102.787698,111.301622,-12.788464,-4.764713,13.509384,28.573711,19.188881,40.341625,44.677414,46.741081,40.340103,53.875626,45.760437,38.988167,56.097794,65.434902,52.741516,44.002716,67.719212,74.119366,62.169605,54.435562,-43.493501,-78.129659,-99.490849,-104.180676,-78.320845,-117.720936,-133.323048,-139.94062,-64.657825,-106.246956,-111.355154,-107.157373,-50.32443,-88.581176,-88.594563,-78.71722,-35.845848,-68.612636,-71.070932,-63.629631,62.392336,385.971824,-85.083338,57.800537
49,-0.154358,0.011757,6.725143,-32.674156,-34.070755,-62.216126,-85.089535,-100.761555,-60.114784,-92.901386,-110.312073,-123.006375,-46.176888,-82.067116,-101.917683,-116.231941,-31.833939,-63.581978,-82.526596,-96.087319,-18.859795,-42.925369,-56.88723,-68.276241,-10.767457,-3.125436,14.688224,31.121997,32.425672,58.926541,73.227553,83.955749,50.470303,77.093784,90.985971,101.235231,62.110923,88.453624,101.849981,111.36693,67.691962,91.770338,102.73295,111.110307,-9.247467,-1.656017,13.381474,25.617257,20.991028,39.803101,44.804043,47.211548,38.032574,53.034371,48.331433,42.997822,50.495968,61.672268,52.379826,45.33648,59.464303,66.925313,57.906876,51.905755,-40.661646,-75.789312,-98.094722,-103.413711,-80.354131,-122.722821,-138.187891,-144.134752,-68.646636,-113.549344,-120.584182,-118.145649,-55.764642,-96.130275,-97.050924,-88.442886,-42.32217,-75.982881,-79.030487,-72.913299,62.287234,387.440172,-78.308939,26.582972
50,0.215652,0.019488,4.630269,-25.403218,-34.022461,-62.242172,-85.113315,-100.773479,-59.939735,-93.011352,-110.47213,-123.178447,-46.106323,-82.222595,-102.063251,-116.327659,-31.794388,-63.745262,-82.611774,-96.065952,-18.80532,-42.758606,-56.5746,-67.853599,-10.633729,-2.824439,15.0311,31.325033,32.45057,59.158056,73.443087,84.110224,50.450186,77.231982,91.233159,101.599262,62.057732,88.451093,102.058685,111.758341,67.598979,91.723618,102.833208,111.269377,-10.006028,-3.355202,10.403343,22.256183,21.352077,37.890071,42.447406,43.941352,38.057842,53.040687,50.959465,46.520084,49.993537,62.226265,55.459144,48.723232,58.263874,66.670108,59.649147,54.027591,-40.042758,-74.878111,-97.787403,-103.338814,-85.43004,-127.389327,-142.19179,-147.502057,-74.666832,-117.111305,-124.92074,-123.946455,-61.753623,-98.388388,-100.031765,-93.83805,-47.887487,-77.959487,-81.656237,-77.995,62.820614,388.859684,-73.360942,2.579778
51,0.641144,0.129157,2.587486,-19.302734,-34.131019,-62.44146,-85.413116,-101.252277,-60.042023,-93.133232,-110.610649,-123.381615,-46.295082,-82.317432,-102.172634,-116.454014,-32.030708,-63.927727,-82.780472,-96.201874,-19.055282,-42.849472,-56.577164,-67.780254,-10.467053,-2.597543,15.186884,31.376867,32.606243,59.363216,73.620398,84.233132,50.554482,77.375304,91.451817,101.865666,62.120903,88.539359,102.206392,111.904714,67.646799,91.822208,102.970159,111.34081,-9.143887,-3.044666,9.472069,20.429592,21.457798,36.07354,41.018165,42.797321,37.729969,51.278389,51.222656,47.017605,49.427341,60.906704,55.815491,48.860939,57.467434,66.342808,61.025184,55.468677,-40.068521,-74.836602,-97.858447,-104.890732,-88.727882,-128.427584,-141.591697,-146.353808,-78.515414,-116.723654,-125.451257,-126.437831,-65.731504,-97.271799,-99.597326,-95.497049,-52.135138,-77.522011,-81.671231,-79.918031,63.785471,390.079115,-70.449743,-15.632682
52,0.775086,0.009732,0.516952,-13.540235,-34.179406,-62.645096,-85.617211,-101.524464,-60.173035,-93.243084,-110.683766,-123.415913,-46.438385,-82.453709,-102.301117,-116.629372,-32.152016,-64.107628,-82.924107,-96.359391,-19.132279,-42.836586,-56.460114,-67.619271,-10.380738,-2.352987,15.406617,31.549681,32.70497,59.680242,73.981279,84.528608,50.621185,77.542833,91.763521,102.278603,62.16498,88.581769,102.402623,112.185419,67.673524,91.827062,103.074121,111.469744,-7.881294,-2.823486,8.205117,18.199265,22.427411,37.138001,42.424885,44.307621,38.754055,50.342801,49.13015,44.380577,50.131062,60.321076,56.141613,49.529755,57.673634,66.224499,61.586838,56.12566,-39.547489,-73.4225,-96.153326,-104.049864,-89.75331,-127.116919,-139.863748,-144.847074,-80.855218,-111.680616,-115.341967,-113.904745,-68.458897,-93.153047,-94.333641,-91.183307,-55.128261,-74.155959,-76.299562,-74.567445,64.947007,390.764245,-69.546341,-28.497519
53,0.945991,0.173395,2.056275,-11.597925,-34.194992,-62.858894,-85.938847,-101.99588,-60.357719,-93.376076,-110.809456,-123.564182,-46.654289,-82.659531,-102.529209,-116.948353,-32.418388,-64.418724,-83.194073,-96.615864,-19.467796,-43.113098,-56.649445,-67.751484,-10.435535,-2.402486,15.270371,31.372458,32.770018,59.823861,74.184883,84.756875,50.797285,77.671077,91.925887,102.441526,62.376006,88.676667,102.476538,112.17286,67.856404,91.942128,103.188533,111.531779,-8.264775,-3.661812,6.358108,15.083336,22.714645,37.792934,42.339958,43.179062,38.860599,48.266716,46.632374,41.940399,49.74805,58.122459,54.257538,47.667904,56.966549,65.269672,60.828243,55.121795,-38.59683,-71.946721,-94.49195,-103.98704,-89.4298,-125.474439,-135.549802,-137.888547,-80.924094,-106.07006,-106.634907,-103.697544,-68.32396,-88.159705,-88.070822,-84.842325,-54.624631,-70.348027,-71.147189,-69.414231,66.212042,391.316056,-67.171022,-39.717028
54,0.976753,-0.19581,0.078335,-4.681719,-34.359077,-63.183105,-86.247734,-102.60783,-60.61956,-93.436512,-110.838077,-123.711364,-46.942978,-82.765136,-102.605873,-117.199665,-32.749214,-64.631584,-83.371044,-96.864452,-19.776718,-43.269035,-56.803665,-68.017067,-10.262943,-2.071195,15.599278,31.496909,33.153598,60.094908,74.504774,85.191622,51.20522,77.865738,92.143174,102.768913,62.809209,88.928522,102.762738,112.533802,68.317222,92.255634,103.539349,111.975332,-13.086949,-10.751313,-0.639347,9.730831,16.172664,32.183704,37.315727,38.23431,36.997821,43.311023,40.155464,34.541599,51.905765,56.875316,51.711765,43.761097,62.570285,68.920086,62.951786,55.838127,-38.291511,-70.439769,-92.432117,-102.155818,-89.446386,-122.050044,-132.765587,-136.951506,-81.12653,-97.853476,-95.058522,-91.149082,-67.933981,-80.691381,-78.422461,-74.625632,-53.707371,-63.991149,-62.783404,-60.172961,67.16078,391.410019,-67.120702,-44.108974
55,0.442154,0.028417,1.889991,-4.548406,-34.368118,-63.202217,-86.333416,-102.658333,-60.777649,-93.492084,-110.86671,-123.730602,-46.99292,-82.733665,-102.594028,-117.22023,-32.752258,-64.572693,-83.379913,-96.95557,-19.796333,-43.370041,-56.959236,-68.245903,-10.1903,-1.935727,15.646666,31.536986,33.304863,60.259745,74.755815,85.479997,51.392781,78.09424,92.363784,102.904221,63.030363,89.221269,102.933664,112.561331,68.561285,92.540156,103.767863,112.179405,-13.101608,-11.619209,-2.226173,7.487137,13.801083,30.258339,35.684819,36.814556,34.849663,38.985546,34.537926,28.224381,49.96859,52.001496,46.38073,38.157761,61.189373,65.24326,58.459866,50.996613,-36.377118,-67.363444,-87.865093,-96.749304,-86.872869,-118.184295,-128.826025,-133.367555,-79.508657,-90.221291,-83.657587,-77.662585,-66.605723,-74.194997,-69.675015,-64.266272,-52.500762,-59.028966,-55.34209,-50.838929,67.393615,391.569523,-65.44003,-48.526293
56,0.559113,0.00042,1.756394,-3.387078,-34.486336,-63.421372,-86.552433,-102.735787,-60.903351,-93.570946,-110.957245,-123.860665,-47.080216,-82.932266,-102.825463,-117.545529,-32.86908,-64.824326,-83.678707,-97.314583,-19.948151,-43.676903,-57.344856,-68.753426,-10.168156,-1.893094,15.727904,31.608134,33.295934,60.252878,74.783874,85.56294,51.456964,78.05015,92.293549,102.862515,63.16567,89.206745,102.835197,112.417465,68.812745,92.665842,103.875802,112.347922,-13.56522,-12.397854,-2.639981,7.655044,11.853355,29.578674,35.893799,37.450699,33.136986,38.213447,33.498104,26.733604,48.553676,50.53006,45.130142,36.914531,60.360603,63.68082,56.397274,48.621071,-33.910214,-63.499078,-82.248825,-89.211085,-83.974089,-114.303223,-126.126022,-132.225873,-77.352277,-84.405909,-76.367296,-69.620668,-64.509451,-69.159313,-63.43324,-57.026203,-50.071328,-54.832254,-49.689247,-43.972456,67.759295,391.675857,-63.877069,-51.807457
57,0.16745,0.166603,1.98159,-1.625832,-34.446144,-63.328491,-86.461087,-102.663597,-60.973458,-93.589245,-110.937573,-123.820874,-47.123314,-82.94941,-102.80349,-117.465718,-32.937996,-64.94973,-83.806435,-97.410885,-20.077263,-43.953736,-57.651329,-69.055641,-10.257966,-1.936357,15.690891,31.532354,33.296662,60.173726,74.698522,85.463175,51.511502,78.059931,92.172642,102.572942,63.246871,89.229987,102.683488,112.114048,68.89733,92.671437,103.819202,112.292099,-14.050278,-13.259228,-3.346081,7.645454,10.240265,27.95977,34.964436,36.994011,31.704357,36.73431,32.011128,25.227596,47.33828,49.044594,43.957363,35.911274,59.478058,62.030697,54.954643,47.426605,-32.004158,-60.556511,-78.196085,-83.826351,-81.822514,-110.805854,-123.276917,-130.190691,-75.556971,-80.703627,-72.414036,-65.444186,-62.80293,-66.00706,-60.005772,-53.067088,-48.208813,-52.121455,-46.765162,-40.708645,67.760605,391.985193,-62.061619,-53.290556
58,0.369049,-0.1792,1.557541,-0.894801,-34.507187,-63.418305,-86.616497,-102.789025,-61.036469,-93.666676,-111.071995,-124.019863,-47.247254,-83.052132,-102.937992,-117.613564,-33.138931,-65.17305,-84.096073,-97.723412,-20.356499,-44.214524,-57.903969,-69.285141,-10.112025,-1.795825,15.767066,31.623844,33.311593,60.100935,74.568266,85.281531,51.475835,77.970171,92.080572,102.442143,63.190135,89.157048,102.616872,112.031537,68.896466,92.608958,103.774075,112.321999,-14.178085,-13.471024,-3.218399,8.373699,8.698608,26.456348,34.396831,37.198711,30.190384,37.609692,33.772144,27.111866,46.12714,49.187725,44.667171,36.80682,58.630634,60.699795,53.870396,46.654232,-29.93463,-57.138181,-73.590047,-77.637292,-79.823998,-107.711003,-120.851626,-128.66687,-73.929847,-78.869423,-70.87892,-63.809751,-61.30442,-63.497096,-57.330015,-50.104679,-46.537161,-48.889777,-43.474606,-37.530665,68.026262,391.992075,-60.60747,-53.999275
59,0.03717,-0.135653,0.965389,-0.309617,-34.449714,-63.19677,-86.398121,-102.57518,-60.954941,-93.681507,-111.146656,-124.077163,-47.16394,-82.95409,-102.788177,-117.337417,-33.116386,-65.136864,-84.055366,-97.62965,-20.483002,-44.350822,-57.972221,-69.206108,-10.152645,-1.709733,15.9445,31.868856,33.257599,59.998973,74.416051,85.030441,51.405909,78.078728,92.112497,102.323285,63.071908,89.247784,102.575178,111.843309,68.700692,92.580688,103.691082,112.117926,-14.276539,-13.286659,-2.647636,9.11982,8.498234,25.87413,34.216999,37.477284,29.906525,38.96687,35.818737,29.495373,45.730087,49.678219,45.220837,37.568825,57.853569,60.102036,53.59821,46.664349,-28.499649,-54.726401,-70.586204,-74.604192,-78.258544,-104.816233,-117.161758,-124.551596,-72.019882,-77.854783,-70.659335,-64.06809,-59.167528,-61.405616,-55.411349,-48.437974,-44.203402,-46.452988,-41.337152,-35.621824,68.028019,392.055666,-59.677494,-54.109648
60,0.315628,-0.923922,0.558872,0.260266,-34.616707,-63.29702,-86.427486,-102.447933,-60.744735,-93.56464,-111.088897,-124.069656,-46.887222,-82.668606,-102.428776,-116.869835,-32.913963,-64.940368,-83.8018,-97.270992,-20.529236,-44.438667,-58.052856,-69.201622,-9.889687,-1.014485,17.203949,33.462598,33.255635,60.084423,74.462833,85.070727,51.379961,78.392457,92.351125,102.378342,63.026781,89.618583,102.754637,111.686019,68.674066,92.876238,103.717573,111.706915,-14.337364,-12.629974,-1.677486,9.805195,9.325001,26.58593,34.492573,37.662026,30.571976,39.283562,35.937882,30.149231,46.108555,49.408196,44.509495,37.243412,57.800618,59.520482,52.896687,46.239064,-27.771321,-53.28414,-68.993173,-74.086106,-76.265989,-101.834587,-113.364327,-120.34364,-69.40713,-77.300858,-71.032882,-64.797103,-56.384171,-60.1558,-54.586148,-47.821199,-41.48397,-45.101186,-40.505269,-34.823293,68.360447,391.313698,-59.101822,-53.667428
61,0.506058,-2.300277,1.193871,1.618003,-34.883881,-63.245224,-86.236897,-102.10429,-59.914833,-92.960026,-110.450798,-123.390495,-45.817795,-81.569836,-101.216675,-115.553181,-31.899399,-63.977829,-82.871601,-96.281822,-20.045609,-44.309875,-58.214767,-69.42627,-8.98445,0.592557,19.685574,36.749239,33.245471,60.479057,74.956676,85.512761,51.184694,79.382279,93.28552,102.627147,62.668085,90.46218,103.169933,111.038356,68.337847,93.392607,103.678868,110.494853,-14.844669,-12.678303,-1.706314,9.387234,9.330368,26.680229,34.405071,37.677212,30.460121,39.540276,36.286297,31.131226,45.732033,48.904758,43.599392,36.634346,56.807293,57.555943,50.892448,44.745426,-27.422296,-52.433998,-68.326775,-74.622637,-75.123106,-99.606348,-109.484598,-114.904549,-67.580905,-77.72788,-72.211315,-66.254419,-54.490089,-59.967387,-54.759704,-48.322878,-39.846528,-44.587787,-40.331003,-34.763679,68.875362,389.080201,-57.899094,-51.982645
62,1.435043,-4.103821,0.735947,2.937331,-35.189758,-64.159858,-87.186252,-102.113571,-58.340126,-91.985984,-109.52853,-122.478298,-43.67942,-80.019218,-100.086181,-114.512672,-30.116363,-62.98938,-82.055305,-94.979976,-19.422226,-44.667343,-59.343681,-70.609932,-8.062035,2.853931,23.463291,41.901582,31.875871,59.90652,74.998555,86.08636,50.023082,80.319427,94.212566,102.74346,61.652414,91.654704,102.296374,107.417225,67.477861,93.831282,102.725984,107.362181,-15.298371,-12.234948,-0.374497,10.924152,9.123401,27.519836,35.349632,38.973632,30.228103,40.531414,36.577354,31.470989,45.39949,49.641723,43.53218,36.766342,56.213848,57.313373,50.374328,44.643722,-27.244844,-52.042407,-68.300741,-75.882049,-72.956679,-97.287039,-106.938033,-112.281898,-64.369444,-77.880861,-73.263986,-67.034833,-50.96737,-60.096872,-55.340682,-48.617526,-36.3184,-44.583803,-41.045579,-35.176332,70.332544,384.972063,-57.141008,-49.049631
63,2.420815,-6.301111,0.030132,4.322998,-35.470047,-65.093697,-87.476154,-100.925274,-56.390511,-90.126068,-107.61763,-120.659992,-41.345284,-78.145363,-98.610203,-113.357002,-28.596565,-62.702225,-81.237328,-92.737427,-19.508492,-46.19117,-61.311882,-72.044563,-8.011536,4.792178,27.387123,46.755226,29.357949,58.193008,73.648802,85.035368,48.445965,80.044811,93.477625,101.266514,60.711128,91.680948,98.13972,99.297404,66.697188,92.518012,98.5481,100.419792,-15.056591,-10.353458,2.846889,14.834209,9.319931,30.342911,38.824642,42.581348,29.82938,43.140392,38.578056,32.832985,44.925899,51.772385,45.203419,38.221973,55.722027,58.42218,51.40908,45.729183,-27.668797,-52.359304,-68.340119,-76.579254,-71.218318,-94.705804,-102.826604,-106.616779,-61.367442,-76.279895,-71.756183,-65.492999,-47.207226,-58.250046,-53.429303,-46.655233,-32.170933,-42.27235,-39.001356,-33.210952,72.690531,378.663857,-57.173704,-44.733728
64,3.311622,-8.939002,-0.440929,5.910287,-36.199173,-66.168777,-87.320949,-98.634578,-53.239128,-87.433181,-104.797176,-117.259105,-37.900657,-75.474048,-96.333068,-110.529167,-25.943756,-61.993583,-79.116451,-87.787296,-18.44387,-47.340614,-62.288314,-70.968727,-7.27226,6.912539,30.736576,50.855293,26.628494,54.847667,69.193856,79.555291,46.333075,77.179061,89.065176,95.221679,58.883192,88.219664,89.641307,86.728997,64.780591,88.071562,89.85815,88.06593,-13.07967,-5.629063,9.247009,21.672466,11.16751,35.686111,44.615821,48.293701,29.807201,47.07986,41.511966,34.898242,44.045528,55.130836,47.621772,40.324527,54.412445,60.413257,52.902442,46.906448,-29.075528,-53.50806,-68.2439,-75.676989,-68.472735,-89.962317,-96.320834,-98.464484,-57.211004,-72.101801,-67.283052,-60.895669,-41.97848,-54.04795,-49.076017,-42.367884,-25.901742,-36.979198,-33.985927,-28.718968,76.047683,369.736026,-57.569103,-38.81227
65,3.774765,-10.251742,-3.38926,13.511786,-35.583801,-65.210632,-85.510002,-95.491733,-49.632431,-84.452911,-98.886703,-107.291679,-34.91336,-73.114643,-90.812061,-100.448535,-24.233413,-60.852493,-74.81377,-79.303012,-18.361267,-47.817855,-60.760551,-66.125083,-6.654002,7.330194,30.324714,50.067531,26.215718,53.140663,61.868084,68.241603,44.949866,72.423576,78.806963,81.247697,56.364492,81.607443,78.009185,71.847049,61.353085,80.74395,78.444056,73.789248,-9.190407,1.697388,19.016773,32.313847,20.999291,49.532662,59.54369,63.881046,37.069988,59.839703,56.825432,51.450772,48.398976,62.499745,53.098572,44.761173,55.546326,63.988781,55.217468,48.411255,-32.393284,-58.145163,-71.465703,-77.571472,-70.103421,-91.619166,-99.315318,-102.90277,-56.589275,-73.692244,-72.946367,-69.894383,-39.808805,-53.908597,-49.473497,-43.248123,-22.227289,-35.374304,-33.015537,-28.159077,80.082939,359.49241,-60.697872,-25.292358
66,11.136155,-22.770365,-3.666961,16.020391,-35.471192,-64.160729,-83.517311,-92.294827,-46.714897,-80.577965,-92.134838,-97.717003,-34.157181,-71.478676,-85.898243,-91.931843,-26.301178,-62.759995,-73.50816,-74.409462,-22.992691,-51.8806,-62.300148,-64.485695,-2.599347,13.608444,36.315355,54.535691,27.735741,51.192376,56.758039,60.805173,42.251657,66.0382,69.294916,69.491258,50.458707,71.571815,65.32681,57.937954,52.901182,68.624838,64.749234,59.533522,-4.167733,10.253139,30.325298,44.159282,31.101139,64.322696,74.629783,78.618324,43.423496,69.981994,64.724189,57.613655,51.256999,67.824886,55.919219,46.556831,55.157409,65.877628,55.639869,47.941795,-34.149231,-60.200841,-72.144902,-76.697982,-69.813805,-90.223557,-99.830495,-105.582991,-54.667868,-71.542212,-71.464641,-68.729548,-36.6129,-50.755152,-46.542421,-40.532822,-17.476373,-31.212196,-29.61806,-25.326647,91.658255,336.499346,-63.925672,-9.494666
67,13.866806,-28.775594,-7.925297,23.00758,-34.777359,-62.062546,-80.132355,-87.808148,-44.965416,-76.432663,-85.282196,-88.095566,-34.100212,-69.170128,-80.717308,-83.427006,-27.209725,-62.189164,-71.034623,-70.247338,-23.874527,-51.176926,-60.168045,-61.208084,-4.452217,10.058698,32.044932,50.171593,24.597301,45.387183,47.233014,48.149563,38.500999,59.218016,59.64954,58.148165,46.355714,63.706023,57.19028,50.887255,48.690978,61.1109,57.182821,53.034873,3.473293,22.592846,45.446125,60.668129,39.827408,77.232227,89.411476,93.363384,47.596859,79.965603,75.028942,67.067527,52.290058,75.146553,62.828853,52.271393,54.164371,70.687374,60.261669,51.211727,-35.429107,-61.476345,-70.911116,-72.816536,-71.279112,-88.045547,-93.821217,-96.759425,-54.666997,-66.73735,-65.022189,-63.875873,-35.305915,-44.428569,-39.248031,-34.783359,-14.827052,-24.661435,-22.576216,-19.638866,105.955199,307.331158,-71.420831,13.12032
68,11.418297,-31.069855,-8.671143,24.433928,-29.91346,-53.726487,-69.993645,-76.232472,-35.150826,-61.825928,-67.568482,-68.003632,-25.909401,-55.955246,-64.083584,-64.05201,-20.741066,-51.314164,-58.578782,-56.914925,-18.716012,-42.804772,-50.156045,-49.881684,-5.426219,5.842145,25.233379,41.98182,16.786491,31.935399,32.00425,31.535392,29.069723,45.126324,44.393273,41.878796,37.117654,50.518728,45.387034,40.592448,40.832559,50.74802,46.961102,42.830654,12.66219,37.600731,63.501194,79.241421,49.533062,91.318874,104.79039,108.337761,51.727512,90.166466,85.339073,75.952812,52.373211,81.908272,69.147022,57.272095,51.632,74.278839,63.715313,53.416317,-35.154973,-59.089537,-64.831881,-64.621207,-70.619333,-82.570348,-84.538599,-85.433683,-52.820475,-59.092748,-55.911972,-56.180519,-32.266616,-36.12698,-30.481942,-27.950305,-10.55128,-16.81925,-14.622726,-13.082028,117.885951,275.984578,-79.579519,37.277523
69,13.854194,-30.756942,-7.879715,26.963558,-19.962387,-37.693451,-51.60926,-57.750595,-28.347771,-49.153953,-50.179046,-47.607994,-24.440872,-47.942276,-49.761932,-46.067345,-22.556007,-45.674423,-48.509537,-45.696396,-21.906463,-39.42176,-42.573532,-41.099853,-8.083956,-4.464604,6.830226,17.483246,5.982022,13.692327,11.829391,10.678005,15.087515,22.978946,20.886595,18.847819,21.91227,28.219766,25.379876,23.772032,25.967876,30.62797,28.275279,26.658987,20.952542,49.790177,77.407883,94.02507,59.232147,103.215157,118.227242,122.583092,56.564266,98.859696,98.726475,91.826374,52.969929,86.349106,78.700596,69.267494,48.777443,74.700669,68.712731,61.427159,-33.246848,-54.34169,-57.544301,-56.120713,-70.374388,-76.829739,-74.167432,-71.534061,-53.335146,-53.256013,-46.652584,-44.772667,-32.88654,-30.941464,-22.784586,-19.141979,-10.706786,-12.684399,-9.088394,-6.802771,132.113989,244.873114,-87.08539,63.886559
70,16.313507,-34.647193,-3.4258,22.282118,-14.46936,-27.662704,-38.712639,-42.688934,-20.932297,-34.935219,-36.648605,-36.17839,-19.366562,-35.435875,-37.670654,-35.751159,-19.131729,-36.073517,-39.420044,-38.186325,-19.533165,-32.713005,-35.833923,-35.691376,-11.324099,-14.784888,-9.506192,-3.791432,-12.071631,-10.635329,-7.630924,-4.848432,-4.285145,-1.983837,0.751194,2.834715,3.381453,5.739862,7.823568,10.098477,9.864172,11.648302,12.501322,13.328518,28.963337,60.155834,87.425171,104.595074,61.167686,104.490291,120.91959,126.975986,53.834644,96.698994,99.872795,96.394157,47.393738,84.378181,84.132477,79.717037,41.924698,70.570953,70.614979,67.795658,-27.294374,-44.318555,-46.056662,-43.614137,-65.307168,-64.74866,-55.049375,-46.260315,-50.868199,-42.846746,-29.274722,-21.922446,-31.543895,-23.42647,-12.269085,-6.725472,-9.590321,-6.030039,-0.895956,1.862281,148.775041,209.726194,-90.163645,85.66895
71,10.356079,-25.81203,-0.594761,20.434705,-11.576019,-22.164756,-30.259552,-31.349373,-14.192894,-23.075248,-25.241272,-25.332115,-11.540565,-20.56652,-22.838241,-21.504341,-9.798362,-20.565124,-25.261345,-25.867881,-9.027694,-18.64666,-23.163894,-25.068237,-18.15908,-30.587943,-32.046562,-30.11809,-32.506887,-36.251746,-31.548712,-26.903932,-23.252136,-28.401225,-25.465067,-22.009854,-13.13246,-16.99438,-13.396091,-9.351143,-3.062079,-6.415973,-5.48256,-4.107008,35.785904,69.534119,96.781872,116.039703,63.134468,102.841392,121.02713,129.813148,52.613296,95.215782,105.863605,108.789516,44.141647,82.859528,90.715382,92.101936,37.4179,67.3717,73.121727,74.588997,-20.716584,-33.734608,-33.240413,-30.108636,-60.080501,-55.257146,-39.989857,-25.990458,-48.546469,-37.482969,-21.31886,-11.899847,-31.057795,-20.403429,-7.324821,-0.53695,-10.415133,-3.246237,2.817326,5.802594,159.477619,183.642233,-90.411907,105.831724
72,6.827248,-23.015959,11.714104,13.900308,-9.011993,-16.4011,-21.535675,-20.314385,-5.799751,-8.291084,-9.315743,-9.211693,-2.52031,-4.444382,-6.357445,-6.063217,-0.827065,-5.099464,-9.994194,-11.465881,-0.918594,-6.416245,-10.702492,-12.716492,-19.556251,-37.69449,-46.036717,-49.270105,-47.16633,-58.755808,-55.100159,-50.628206,-39.113502,-52.859341,-50.630435,-46.872114,-28.394655,-39.074957,-35.908915,-31.610796,-16.153544,-24.464316,-24.676762,-23.716938,39.690204,73.155212,98.416649,117.738144,66.990371,102.48484,120.259391,130.829887,53.734703,91.843506,107.344597,115.255153,41.882709,75.959678,89.879951,96.997787,31.391807,56.65924,66.544681,72.635742,-12.912628,-21.537487,-20.131344,-17.043947,-52.43212,-47.281685,-31.743978,-17.126371,-45.086822,-36.276317,-20.401255,-8.578657,-30.600317,-23.130543,-10.099631,-1.370346,-11.665159,-6.422073,-0.834328,2.819956,166.768129,160.511449,-78.234541,119.617207
73,9.470329,-19.621632,14.125923,10.703131,-10.594116,-17.192253,-21.308876,-19.015938,-7.520599,-6.533844,-6.65403,-6.102607,-3.625831,-1.149513,-2.653244,-2.963539,-0.622993,-0.292648,-4.491256,-7.096733,0.680489,-1.045578,-4.406982,-7.151413,-21.708111,-44.768123,-59.074909,-66.385725,-55.947516,-72.411164,-72.465004,-70.023189,-49.446865,-69.775539,-70.422554,-67.508052,-39.728597,-56.524475,-54.495103,-49.418904,-27.369666,-40.501793,-41.65279,-39.887957,41.34177,73.09037,96.154793,116.243477,68.897129,98.841797,116.924148,130.806587,54.356209,86.385406,107.105873,121.698395,40.034534,68.343635,87.891083,100.755043,26.444744,46.135311,59.714939,69.984558,-5.370655,-11.787066,-11.324408,-8.520037,-46.282403,-43.272206,-30.81285,-18.193048,-42.869532,-38.063429,-23.371759,-9.84367,-31.481397,-27.285512,-13.402179,-1.810114,-14.370988,-11.29783,-5.716235,-0.842349,177.031557,140.482663,-63.315519,129.913184
74,7.350907,-18.430059,15.124786,5.582781,-17.175774,-26.137482,-30.801178,-27.549431,-7.251938,-3.969178,-5.91021,-7.08783,0.416816,5.35881,1.198814,-1.486885,5.287033,6.044174,-1.698029,-7.064873,6.843017,4.113784,-2.550431,-7.80336,-23.198148,-46.712112,-60.608054,-67.408751,-62.528893,-79.822257,-82.491215,-82.386924,-55.313481,-76.055037,-79.446351,-79.448858,-44.23865,-60.812226,-60.23896,-56.66592,-29.934198,-42.052438,-43.528205,-42.371929,42.305123,73.33334,95.337181,115.977768,68.751789,94.80304,113.682999,130.159355,53.521088,81.618279,102.953064,119.209213,38.022286,62.618546,82.686356,96.639107,23.158688,39.240452,52.649712,63.099289,1.523062,-3.132055,-2.915299,-0.542138,-40.979685,-41.386429,-33.222351,-24.116543,-39.70993,-37.600517,-24.607527,-11.642781,-30.211976,-27.905258,-14.782141,-2.945519,-14.562229,-12.858017,-7.998469,-3.392432,185.390414,121.693803,-47.182783,135.137164
75,4.182174,-13.985493,16.215397,3.557454,-20.644752,-31.169723,-36.533889,-33.876365,-8.386871,-4.009781,-4.798279,-5.408478,0.896416,6.822373,3.274796,0.015541,6.353943,6.958809,-1.316436,-8.049614,7.720917,4.135598,-3.576507,-9.947136,-24.723803,-48.336895,-62.520384,-69.128394,-64.837469,-83.247447,-90.944352,-95.364353,-56.905635,-78.255871,-86.60008,-91.414352,-44.897613,-62.120439,-65.448397,-64.968022,-29.782081,-41.899575,-45.260532,-45.329044,41.608063,72.211063,93.965687,114.911648,68.450752,91.960293,110.905529,128.291714,53.426697,78.830624,98.970005,114.634953,37.306458,59.162407,78.37183,92.088512,21.07964,34.488957,46.862457,56.550121,6.341409,3.329569,3.231041,4.868328,-36.686556,-39.8298,-34.609241,-27.801635,-37.335621,-38.463146,-27.31201,-15.554633,-29.970686,-30.03729,-18.127149,-6.903919,-16.096468,-16.372332,-12.225668,-7.92411,190.323343,107.757272,-30.216631,138.74358
76,1.440514,-10.636854,14.017925,2.86081,-21.372437,-32.634293,-38.757271,-36.654053,-8.722641,-3.338539,-2.94944,-2.944885,0.884628,6.521805,3.016319,-1.084557,5.683983,3.093681,-5.908722,-13.175537,5.801559,-0.660416,-8.715981,-15.043053,-26.100429,-50.650831,-65.448144,-71.74011,-67.300718,-86.051107,-98.0415,-106.311868,-58.250337,-78.770542,-89.817888,-97.267946,-44.733764,-60.061717,-64.416202,-64.949726,-28.405344,-38.265508,-41.870997,-42.477046,39.998177,69.939583,91.131707,111.361679,67.918465,90.439797,108.684014,125.733902,54.078644,78.361199,97.152123,111.951279,38.055428,59.122399,77.325371,90.574608,21.041416,33.928551,46.101242,56.110314,8.396314,5.598551,4.090149,4.973637,-32.544629,-37.345692,-33.857659,-28.832064,-34.994354,-37.548431,-28.087601,-18.003493,-30.26371,-32.17265,-22.358312,-12.639927,-19.107171,-22.012664,-19.395533,-16.327853,192.480234,97.371341,-15.482329,141.855313
77,-0.042801,-7.467416,5.964798,0.397425,-22.38929,-34.59819,-41.628891,-39.754852,-10.452255,-6.106819,-5.568878,-5.526535,-0.527321,4.792076,2.350502,-1.453743,3.990829,-2.641846,-12.489189,-20.233818,3.089676,-7.416435,-16.182014,-22.785233,-26.243147,-51.258615,-66.410468,-72.676554,-68.925729,-87.449309,-101.662988,-112.278279,-60.019165,-80.096867,-93.862231,-103.790876,-46.260074,-60.252149,-64.371414,-64.883942,-29.909985,-38.589295,-41.949105,-42.443911,39.196656,69.546227,91.441567,112.130905,66.369301,88.262513,106.561386,124.201516,53.381562,77.565651,96.285988,111.674744,37.831353,59.224892,76.939087,89.921791,20.96735,34.836937,47.399094,57.643593,8.907263,5.844689,3.302487,3.074763,-30.355378,-34.802631,-32.666468,-29.103333,-33.108119,-34.885802,-26.242906,-17.333316,-29.519055,-30.575228,-21.566467,-13.086431,-19.831972,-22.327528,-20.183072,-17.735638,193.142372,90.25765,-8.812592,142.606463
78,-2.707626,-7.343661,3.74952,0.240271,-23.375336,-36.098008,-42.964669,-40.790635,-10.067322,-6.4422,-5.811379,-5.324593,0.900695,5.176391,3.37944,0.762771,5.294929,-8.426445,-19.467316,-25.826981,2.964088,-14.215233,-24.266854,-29.807785,-25.775684,-50.774036,-65.282363,-69.607355,-70.319517,-89.450301,-105.111848,-118.179908,-60.883671,-79.92107,-94.677053,-105.909441,-46.352552,-57.462328,-58.709173,-58.261359,-29.458256,-35.833066,-36.979488,-36.37634,38.47007,68.907097,90.727729,110.194999,63.973686,86.135833,104.232605,121.505012,51.123985,75.759933,94.249397,109.465072,35.790733,57.777877,75.622192,88.887085,19.126487,34.00003,46.902099,57.544761,8.085908,5.064905,2.372957,0.940644,-30.152102,-32.719339,-29.303701,-24.891646,-33.265966,-32.826525,-23.967372,-15.06179,-30.063138,-29.648861,-21.386106,-13.251354,-20.72082,-22.516472,-20.298311,-17.388811,190.888041,83.444891,-4.609777,143.377636
79,-5.14579,-6.945859,1.041401,2.036949,-23.605271,-36.788361,-42.887558,-38.896454,-9.123917,-5.811219,-3.916192,-2.172616,3.827018,7.887657,6.689415,4.828994,9.304046,-9.861512,-21.713883,-27.148568,6.834548,-14.763108,-25.280434,-30.005631,-24.403424,-48.838932,-63.0,-65.289545,-71.033908,-91.48804,-107.564364,-121.774264,-61.530741,-79.391079,-92.95242,-103.012717,-46.618282,-54.425659,-52.730647,-50.979368,-29.468131,-33.730873,-33.351836,-32.247245,36.259426,66.257022,87.941059,106.462451,60.572788,82.485706,99.442623,115.439884,48.510097,72.920368,91.189716,106.843082,33.988506,55.902545,73.72784,88.036823,17.965496,33.257389,46.076557,57.475124,6.703921,3.003083,-0.036458,-2.428483,-30.914004,-32.284888,-27.746646,-22.730586,-34.707801,-34.649361,-27.252557,-19.713325,-32.50701,-33.410573,-26.329833,-18.826738,-24.098111,-27.382566,-25.292314,-22.017128,186.232996,77.018705,-3.077631,145.934258
80,-5.70044,-5.871353,-3.784092,-0.656506,-23.40477,-36.795959,-42.185394,-36.443916,-7.615402,-3.868423,-1.001152,1.417305,7.270958,11.629074,10.882668,9.332359,13.966438,-10.349739,-22.916679,-27.349525,11.59568,-14.029472,-24.886276,-28.719772,-23.076765,-46.564417,-59.779222,-59.61491,-71.097541,-93.383549,-109.742832,-124.816633,-61.826204,-78.293903,-90.757977,-99.613912,-46.850136,-51.484326,-46.914801,-43.607023,-29.673839,-32.155835,-30.318909,-28.387535,32.714996,61.509269,82.810386,99.505394,59.125145,80.988304,92.596069,102.810127,49.062927,72.762039,85.838859,96.593879,36.519081,57.796943,71.225395,81.545242,22.617187,38.233017,48.313614,57.007255,6.754878,3.102217,0.216028,-2.364053,-26.901468,-26.280358,-21.247427,-17.014128,-31.589819,-29.805331,-22.789199,-16.572007,-30.887494,-30.530632,-24.232442,-18.087437,-24.958948,-27.427446,-25.276889,-22.304218,181.265402,71.44531,-6.128877,145.57571
81,-4.787269,-4.286195,-15.954483,-0.442923,-22.538613,-35.867478,-40.892876,-34.201607,-6.269257,-1.556168,2.067741,4.818443,9.685707,14.979789,14.9542,13.857444,17.256797,-9.705712,-21.775589,-24.922669,15.12712,-12.565178,-23.013131,-25.765343,-22.304125,-44.56066,-56.702137,-55.241363,-70.232973,-94.518669,-111.346231,-127.467294,-61.05567,-76.663748,-88.219238,-96.543422,-46.148633,-48.941265,-42.952716,-39.233328,-29.080603,-30.516115,-27.836499,-25.369891,33.540847,61.77658,82.185104,98.07669,59.662044,82.503868,92.704055,100.11676,48.874317,72.661308,83.683639,91.54383,35.895504,57.183322,68.598301,76.162628,22.001037,37.613697,46.469307,53.165336,7.261354,4.507051,1.661963,-0.879684,-24.899767,-23.086577,-17.325956,-12.727254,-30.308115,-27.370092,-19.714968,-13.493849,-30.061682,-28.563191,-21.356417,-14.946082,-24.624879,-25.819083,-22.361776,-18.607277,177.293788,67.332097,-21.267705,145.305769
82,-3.427163,-2.885578,-23.456669,0.822139,-21.667808,-34.682258,-38.999954,-31.601806,-4.063476,0.994744,4.710595,7.495812,12.260559,17.609597,17.836418,17.073418,20.005829,-8.5681,-20.127365,-22.344703,17.878556,-10.653373,-20.982399,-23.321159,-22.420593,-44.178104,-55.594137,-52.764029,-70.007165,-95.510968,-112.214788,-128.799355,-60.59458,-75.55589,-85.701501,-93.018771,-45.447414,-47.290281,-40.469658,-36.52222,-28.318356,-29.456824,-26.433332,-23.694269,33.104376,60.966894,80.785944,95.786556,58.322559,81.89471,90.757856,95.558017,47.457985,71.303261,80.461155,85.437967,34.773554,56.123096,65.909351,71.223655,21.507345,36.803026,44.611032,49.633077,7.376611,5.459693,2.629295,0.206734,-22.043551,-19.934997,-13.875207,-9.034259,-28.316467,-25.070754,-17.258889,-11.161647,-28.915996,-26.8747,-19.431941,-12.93991,-24.666703,-25.060244,-21.030357,-16.959782,174.899173,64.558034,-43.691826,146.239423
83,-1.844101,-2.256058,-29.992962,2.197647,-20.985054,-33.678039,-37.621421,-29.581192,-2.502708,2.870636,6.635399,9.401528,13.576973,19.639641,19.89299,18.941552,21.094254,-5.758735,-17.305641,-20.219558,18.823998,-8.547981,-19.15448,-22.448753,-22.255972,-43.835314,-54.962498,-52.149661,-69.82492,-95.834929,-112.257525,-128.933631,-60.247598,-74.778983,-84.022612,-91.048234,-44.872758,-46.816772,-41.154883,-38.172882,-27.758811,-28.69089,-26.194339,-23.823407,31.877249,59.195394,78.832552,94.523575,55.769771,78.497681,86.036344,88.865845,45.732101,67.851757,75.457512,78.111688,33.842703,53.78738,61.836582,65.071209,21.402483,35.419744,42.4573,46.210859,7.575152,6.124141,2.593197,0.532456,-17.417951,-16.618728,-11.244416,-6.761238,-24.735708,-23.2947,-16.06072,-10.631136,-27.072078,-26.4885,-19.973121,-14.748727,-25.177118,-25.856466,-22.190276,-18.908612,174.845495,62.146439,-71.894365,148.281533
84,-0.236,-1.807014,-32.897186,2.296128,-20.527221,-32.918609,-37.001976,-29.078956,-1.667633,3.899575,7.64605,10.464684,13.859757,20.321183,21.084435,20.541916,20.959854,-5.110359,-16.299202,-18.814476,18.399834,-8.410492,-18.754669,-21.847046,-22.512224,-44.091746,-54.979757,-52.109067,-69.597383,-96.066716,-112.74381,-129.939188,-59.845005,-74.940239,-84.894553,-93.329666,-44.436449,-47.361856,-41.825419,-38.95376,-27.495007,-29.366279,-26.880245,-24.100803,31.300146,56.871225,74.840406,89.264282,50.687152,69.808685,73.915048,73.490318,39.407272,55.760582,58.916427,57.399461,26.345552,40.358345,43.500011,42.305019,13.303293,21.422933,23.920045,23.094354,8.400211,7.994511,4.427591,2.613246,-12.350564,-12.450687,-7.326823,-2.936702,-20.610806,-20.523688,-13.431289,-8.33002,-24.034737,-23.494309,-17.5128,-13.468123,-23.469547,-22.940612,-19.06888,-16.291655,176.507412,59.9821,-102.893634,150.220336
85,0.374543,-1.814376,-42.090054,3.740037,-20.148011,-32.132607,-36.398232,-29.014389,-0.752907,4.723022,8.483985,11.418159,14.209259,20.773544,21.968215,21.778083,20.83628,-4.352395,-15.467766,-17.978829,17.955665,-7.960282,-18.233551,-21.511506,-22.396633,-44.424703,-55.494113,-52.804778,-69.618859,-96.408936,-113.491903,-130.932053,-59.601306,-75.788417,-86.660163,-96.196564,-44.068027,-48.338438,-42.940285,-39.867128,-27.234932,-30.343559,-28.081957,-24.9413,32.808867,58.612352,76.175417,91.028549,48.902298,66.692814,71.608332,71.908516,36.412846,51.397808,55.189648,53.737959,22.355673,35.651138,38.898262,37.487606,8.390459,15.944029,18.301752,17.011259,8.706246,9.380857,5.941402,3.752332,-12.601098,-13.620733,-8.059788,-2.812447,-21.337386,-21.548646,-13.995317,-8.579553,-25.087013,-24.633715,-18.089289,-13.548041,-24.614054,-24.228713,-19.832596,-16.771431,178.883532,57.650965,-142.982111,153.443614
86,0.305397,-1.881461,-29.878944,4.752163,-19.88974,-31.605996,-35.703644,-28.347153,0.338974,5.623329,9.372779,12.463279,15.098236,21.613288,23.099304,23.351188,21.479805,-2.825936,-14.520447,-17.528412,18.397293,-6.447854,-17.205643,-21.267312,-21.885809,-44.518335,-55.771545,-53.087033,-70.233504,-97.41364,-114.940463,-132.811544,-60.136849,-76.980848,-88.629088,-99.106595,-44.429125,-49.590848,-44.078506,-40.556003,-27.566112,-31.705415,-29.447443,-25.6997,28.042997,50.893804,66.515653,79.443946,36.952423,49.648109,54.11963,55.426311,23.199508,31.470039,35.049442,34.511232,8.841619,15.053535,17.603485,16.965225,-4.530093,-3.705077,-5.627055,-10.121779,7.488207,6.993364,3.931316,1.978626,-19.036318,-17.573537,-10.368474,-4.874441,-26.328535,-23.368245,-14.563383,-8.804262,-27.883553,-24.695749,-17.0401,-12.023052,-25.008861,-23.715653,-19.162727,-16.011987,181.188933,55.101757,-170.861051,157.52803
87,0.252639,-1.532805,-24.877488,3.555916,-19.654174,-31.286178,-35.601654,-28.335365,0.702118,6.191597,10.343399,13.934578,15.774468,22.64756,24.379898,24.981285,22.355988,-2.009582,-13.938766,-16.540832,19.142418,-5.734108,-16.411354,-20.121048,-21.395975,-44.212005,-55.550449,-53.467403,-71.031573,-98.473636,-116.178812,-134.319305,-61.103546,-78.564043,-90.830423,-102.191251,-45.376648,-50.562485,-44.312281,-40.420412,-28.412532,-32.617562,-29.929758,-25.832612,25.079533,45.109372,57.727524,65.65757,28.220021,34.396466,36.087902,35.857853,13.010193,14.000496,14.296097,11.98367,-2.027046,-2.62706,-3.749153,-6.406208,-15.247226,-20.156856,-26.394081,-33.922611,6.113872,4.850421,1.767544,-0.370589,-24.767855,-20.971094,-12.986161,-7.72689,-31.142066,-26.060983,-17.132713,-11.447872,-31.341063,-26.343047,-18.484232,-13.097793,-26.794948,-24.631782,-19.74047,-15.789481,183.213489,52.799523,-193.966622,160.314517
88,-0.145454,-0.313266,-18.96437,2.777423,-19.340538,-30.862518,-35.40358,-28.590202,0.983299,6.772316,11.139564,15.081573,16.546623,24.194069,26.157646,26.970314,23.506348,-0.959106,-13.308769,-15.681519,20.469978,-4.779327,-15.846565,-19.522522,-21.598386,-44.336648,-55.520975,-53.681974,-72.18412,-99.604699,-117.053019,-135.154004,-62.271715,-80.169226,-93.045885,-105.174994,-46.35438,-51.058798,-43.778844,-39.223948,-29.123699,-33.217603,-30.053938,-25.589828,22.887886,40.173614,49.656452,52.071338,22.133823,22.956138,21.287864,18.633888,5.386173,0.133873,-4.30822,-9.364815,-10.483921,-17.371296,-23.456417,-28.971268,-23.833569,-34.068867,-44.861309,-55.499588,5.082553,2.452541,-0.987673,-3.352517,-31.038277,-26.142432,-16.735066,-10.45164,-36.392322,-31.132249,-21.246415,-14.046589,-35.277751,-30.431283,-21.895943,-14.998768,-29.152073,-27.389643,-22.072154,-16.893431,184.22477,51.79485,-211.774257,162.400533
89,-0.841393,1.005599,-14.863507,1.697012,-19.315635,-30.811019,-35.285293,-28.662895,0.960503,7.471756,12.02282,16.22255,17.187401,25.885781,27.631554,28.292038,24.665383,0.303177,-12.741302,-15.388458,21.899987,-3.600608,-15.0531,-18.694404,-21.565022,-44.224089,-55.154326,-53.363996,-72.993767,-100.560719,-117.493102,-135.309139,-63.021958,-80.90174,-93.553437,-105.42076,-46.897585,-50.64591,-42.96246,-38.388126,-29.352645,-32.720111,-29.323517,-25.03965,21.307309,37.116795,44.671841,43.819622,19.331978,17.835469,15.422013,12.396492,2.034233,-5.126747,-10.93087,-16.197841,-13.624534,-21.944011,-28.996502,-34.370132,-26.509025,-37.772174,-49.213886,-59.819343,3.971169,-0.442034,-4.99467,-7.589558,-37.33089,-31.660115,-21.665144,-14.903956,-41.746786,-36.302388,-26.030293,-18.135133,-39.483559,-35.165933,-26.395003,-18.320285,-32.12412,-31.307273,-26.212111,-20.25458,184.230674,52.362525,-225.790467,163.659621
90,-1.118408,2.809292,-3.682022,2.064909,-19.723411,-31.284965,-35.469978,-28.58725,0.339409,7.62101,12.001625,16.080689,16.910958,26.67865,27.978218,28.367913,24.672592,1.914574,-11.050552,-13.943275,22.210236,-3.1035,-14.683456,-18.295006,-21.60416,-43.540339,-54.154297,-53.122762,-72.716915,-100.47969,-116.898316,-134.450278,-62.726587,-80.384513,-92.49882,-104.189667,-46.567882,-49.817658,-42.784156,-39.118503,-28.98339,-31.117157,-27.736884,-24.081834,18.760414,32.224697,37.045681,31.94767,12.019787,5.838707,2.705292,0.149266,-7.137485,-19.893242,-26.449253,-30.32016,-23.846626,-37.395881,-44.823486,-48.594635,-36.865356,-53.426902,-66.252308,-76.33556,2.070553,-4.654264,-10.248864,-12.799749,-43.451381,-37.783064,-26.51433,-18.792268,-46.610051,-41.938064,-29.996127,-20.678755,-42.670065,-39.311671,-29.273499,-19.767183,-33.350063,-32.681442,-26.896454,-19.827402,183.754743,54.991385,-228.830012,165.544098
91,-1.815674,4.362493,-3.398071,-0.228205,-20.069595,-31.313736,-35.178176,-28.121452,-0.180839,8.030228,12.108376,15.667145,16.217995,27.111283,27.85952,27.603539,23.85624,3.938027,-7.602035,-10.471893,21.526886,-3.176834,-14.354415,-17.897735,-22.022105,-43.165952,-52.962074,-51.79777,-71.187783,-98.89363,-114.517114,-131.382127,-60.67593,-78.084451,-89.333079,-100.329729,-44.319882,-47.781777,-43.111846,-41.443776,-26.847251,-27.969886,-25.302206,-22.726072,18.991585,32.013943,35.739086,27.914234,11.801113,3.789425,-1.117573,-4.854939,-8.140915,-21.810802,-30.010769,-34.728104,-25.12833,-38.817009,-47.637886,-52.316826,-37.825092,-54.547337,-66.610027,-75.351746,1.781129,-5.303335,-11.045036,-14.024012,-43.032651,-39.328874,-27.522553,-18.833702,-45.715843,-43.3067,-30.533096,-20.336374,-41.670795,-39.904536,-29.024743,-18.426434,-32.352115,-31.011995,-23.630487,-14.834375,182.460634,59.367837,-231.706518,165.329852
92,-2.401565,6.331017,0.262516,-0.417741,-20.216881,-31.301262,-33.881218,-26.372246,-1.165947,7.574844,11.484375,14.871689,14.319145,25.304306,25.715217,25.284553,21.998108,7.989555,-2.053688,-5.354576,21.266876,1.44548,-8.894028,-12.774376,-20.969081,-41.718943,-51.313271,-50.678606,-68.827374,-96.21554,-111.030439,-127.018399,-58.756233,-77.002399,-87.841029,-98.597636,-43.090234,-49.135464,-47.100003,-47.167348,-25.978009,-28.783794,-27.401344,-26.050634,18.442108,31.345825,34.81929,26.720203,11.22139,3.986321,-0.620934,-3.73415,-9.085178,-22.540569,-29.864719,-33.226856,-26.026508,-39.328468,-46.550354,-49.348675,-38.360012,-54.424965,-64.447105,-70.637535,1.745499,-4.964943,-10.013188,-12.428753,-43.055302,-39.870549,-26.468931,-15.843192,-44.791724,-41.761977,-26.60892,-14.819,-39.697413,-36.813916,-23.58557,-11.583772,-29.794673,-26.482603,-17.14925,-7.461599,180.429119,65.934926,-231.073952,165.148183
93,-3.306221,7.521873,1.721191,0.408145,-19.915375,-30.600952,-31.996605,-23.728203,-1.533325,8.015144,11.080147,13.404007,12.975311,22.66262,20.748413,18.93132,20.777572,11.121139,1.469375,-2.488243,21.803604,7.304008,-2.237297,-6.524529,-18.592993,-38.644272,-48.18032,-48.605842,-64.687033,-92.286731,-106.405383,-120.406183,-55.534257,-73.542592,-80.957001,-88.465752,-41.104242,-48.854999,-47.505147,-47.467492,-24.866749,-29.283391,-28.26835,-27.141146,18.557682,31.459191,34.929108,27.522801,11.302277,5.602341,2.492993,0.924889,-9.819271,-21.843395,-26.233875,-26.718658,-26.998992,-38.876438,-42.250248,-41.914547,-39.250763,-54.227256,-60.841976,-63.574642,0.945152,-4.938254,-8.492781,-9.729098,-43.294609,-38.040662,-23.018108,-11.180307,-43.761294,-36.350096,-18.67961,-6.033534,-37.054372,-29.700997,-13.727104,-0.956476,-26.068973,-18.934985,-7.322796,3.072145,177.063996,74.003364,-229.411663,166.102893
94,-2.344368,6.498237,3.6297,-0.860776,-19.587845,-30.473145,-32.029839,-23.800369,-2.549378,5.615341,6.373581,7.007927,11.169365,17.81694,13.400116,10.384849,19.178306,13.191971,3.551124,-1.320397,21.765083,11.359543,1.850349,-3.552223,-16.120229,-34.192525,-42.175402,-41.755363,-59.323831,-85.673392,-95.174243,-104.009436,-50.694834,-67.61018,-70.017662,-73.735037,-37.124274,-45.487675,-43.495941,-42.671795,-21.843677,-25.686831,-24.136291,-22.906544,18.87093,31.549851,36.070965,31.146,10.893402,7.991181,6.877625,7.148918,-9.987705,-19.285354,-20.200046,-17.516945,-26.897381,-36.350498,-35.626453,-32.142368,-38.935799,-52.015205,-54.304573,-53.022537,-0.472798,-4.70753,-5.320156,-4.806331,-40.424993,-31.632599,-13.57584,0.315162,-38.496997,-26.380504,-5.520425,8.874486,-29.950592,-18.036801,0.872003,14.700896,-18.100824,-7.14393,6.242732,16.954218,174.40947,81.115511,-226.092121,165.856027
95,1.314216,17.224135,3.707016,-4.451735,-21.623565,-34.609588,-37.614624,-29.477371,-6.129272,-3.70475,-6.413887,-7.08712,7.738381,7.754998,-0.487747,-4.281623,16.084717,7.694344,-3.081962,-7.777038,19.457428,7.675255,-2.041694,-6.768127,-17.089507,-35.551287,-41.371232,-36.177794,-59.607796,-83.008868,-86.562506,-89.783951,-50.133301,-65.836054,-63.83807,-63.069055,-35.907698,-43.55984,-40.57643,-38.671572,-19.646449,-23.351437,-21.870452,-20.71467,12.751145,22.632397,27.717041,25.998184,3.187672,2.625595,5.772091,9.796188,-11.490543,-15.327656,-11.765751,-6.105801,-22.045017,-25.890976,-21.478878,-15.776058,-28.292026,-35.904556,-34.616112,-31.208324,3.120409,4.101166,7.068952,9.753972,-24.537959,-12.018347,6.247301,20.816039,-24.182993,-8.310494,13.030634,28.320888,-18.630025,-2.309688,17.189857,31.214277,-10.472154,4.941836,19.391852,30.24135,175.189899,98.854907,-222.918892,161.919553
96,2.188866,16.702054,4.676972,1.628124,-21.782547,-38.264763,-45.395393,-39.294708,-10.313988,-17.587417,-22.04599,-22.349624,3.1344,-7.954376,-17.350937,-20.002899,11.3703,-3.173607,-13.333237,-16.385902,15.435448,1.504326,-6.966522,-10.0559,-17.530294,-34.138209,-35.507024,-27.078352,-55.006693,-69.704983,-67.704782,-66.990157,-44.219637,-52.04166,-47.082547,-45.265281,-29.066679,-31.339409,-27.389216,-25.790683,-11.928259,-12.623341,-11.461859,-11.556053,14.688686,26.613704,33.738338,34.663101,7.851654,12.133895,17.795333,24.070129,-6.745892,-3.873311,3.069271,10.574924,-16.844033,-14.295971,-6.088211,1.612335,-22.854287,-23.558339,-18.335118,-12.51994,0.98624,5.294937,12.726525,18.307898,-19.206145,-1.852537,17.272553,32.613295,-17.926935,4.789905,27.986731,44.694614,-11.759736,11.053089,32.289327,47.068547,-3.235673,16.608983,31.671317,42.027515,176.617395,116.004179,-219.00329,163.994895
97,1.653328,18.646858,5.897975,3.596158,-23.996109,-44.270279,-55.554794,-51.649521,-17.075844,-33.446846,-38.09626,-37.420074,-2.985214,-23.543358,-32.842918,-34.0559,5.862282,-16.999786,-25.707642,-26.313171,10.6138,-8.682518,-15.851921,-16.757194,-18.13998,-29.754337,-23.428915,-10.159239,-46.792863,-51.732136,-45.287264,-41.649757,-33.43405,-31.600378,-23.985502,-20.795143,-16.731509,-11.228293,-7.151241,-6.445946,0.76234,5.316186,6.221725,5.172079,18.273972,33.111649,43.052388,47.81408,14.148343,23.849499,32.373105,40.350655,-1.068569,9.027707,20.241463,29.842003,-11.66003,-2.15887,10.369938,20.359589,-18.03115,-12.678817,-3.719512,4.2235,0.410159,7.114982,18.402352,27.440871,-14.528958,6.978118,27.328003,43.03448,-11.685314,15.962618,40.842069,58.25009,-4.21365,22.940488,45.41276,60.232711,5.567665,28.583896,44.114013,53.963364,177.393333,135.023463,-213.982705,167.963479
98,1.048531,21.533906,8.996991,4.803293,-28.004677,-52.036446,-66.35677,-64.200371,-24.695298,-49.777005,-54.580181,-52.43581,-9.653733,-38.118508,-46.07095,-44.824288,-0.154324,-30.302479,-37.573449,-35.700978,4.860717,-20.313195,-26.6983,-25.480625,-17.653874,-23.296973,-9.187115,9.51509,-33.91834,-28.559837,-19.635167,-15.109924,-18.42334,-8.851532,-3.235011,-2.278083,-1.211734,10.183069,11.935145,10.140974,15.335814,24.162597,23.324255,20.198109,21.029766,40.108646,53.341026,60.714809,21.697311,36.823974,46.799812,55.373462,6.251186,24.022865,37.769199,47.876175,-4.776787,12.323879,27.396377,38.393898,-11.625607,1.202694,12.623462,21.55022,0.047301,9.700545,25.043275,37.89403,-7.947401,18.887574,40.032768,54.911122,-3.715646,29.044998,54.614399,70.723735,4.278044,35.986041,58.43013,71.56611,14.146637,40.131148,55.575322,64.168237,177.665074,156.722138,-205.762504,172.931541
99,-1.067917,26.392318,7.316562,8.506762,-33.437943,-60.151291,-75.193417,-73.660996,-31.858887,-62.755658,-67.077084,-63.312481,-15.893189,-49.97033,-57.135006,-53.920029,-5.900311,-41.492993,-47.862854,-43.794171,-0.604981,-30.169373,-36.114453,-32.994999,-15.617118,-15.158837,5.438464,27.929748,-16.107336,-1.741139,3.894104,5.299513,0.410442,15.842364,16.366409,13.888248,16.337257,31.03798,28.336609,23.575319,30.218385,40.039239,35.967509,30.469358,23.838307,46.964539,62.20253,70.53225,33.386559,52.331303,64.25021,74.132687,18.039379,41.094658,57.233494,68.517952,6.696019,29.398934,46.577156,58.878033,-0.579952,18.593434,31.243904,40.894947,-0.558348,10.994537,28.300584,43.376465,-4.102698,24.16916,45.134104,60.526963,0.716786,36.022201,60.93459,76.840335,9.138801,43.410959,65.054491,77.887079,19.507091,47.214488,62.571099,71.288763,175.866543,182.615485,-199.176556,180.939332
100,-5.893799,21.699959,9.912243,12.744186,-35.116287,-62.782402,-77.961765,-77.746284,-36.130165,-68.462277,-71.416981,-66.537083,-20.432808,-56.395569,-61.45467,-56.949051,-10.454556,-46.712528,-51.234398,-46.092465,-4.800179,-33.783852,-38.764584,-35.228153,-11.089627,-3.106935,23.287785,46.609767,5.476632,27.923376,30.459688,28.615209,23.054436,45.114635,41.277125,34.468475,37.472843,55.429467,48.675652,40.997136,47.910867,59.377381,52.978056,45.773753,33.638134,62.719059,80.468823,90.193314,51.565087,74.916996,87.652691,97.798634,31.262066,57.448597,75.012257,86.90308,14.215519,39.416405,58.597996,72.088658,1.084488,22.896412,37.342655,48.792973,-6.05185,3.913481,22.471283,39.159246,-11.156089,17.146459,38.399209,54.050716,-1.651873,35.047113,59.938654,75.60503,11.938688,47.301704,68.829615,81.619446,27.393693,55.372755,70.232942,78.793748,169.202814,203.395668,-190.034243,192.763742
101,-4.95282,21.665144,14.303971,9.545317,-38.134552,-66.0084,-79.816921,-80.804649,-41.78762,-70.006245,-74.720684,-72.943828,-25.121086,-56.604286,-64.081844,-63.36692,-13.540935,-44.527004,-51.4235,-50.129505,-6.116913,-30.677353,-37.002262,-36.440357,-4.852674,8.649665,36.781214,60.76863,19.693318,45.770752,50.294032,51.211105,35.596168,60.12458,59.649836,57.069818,47.441768,68.010768,65.14981,61.287396,54.825431,68.868531,65.700642,61.55102,36.122955,68.424797,87.736312,98.537097,58.409168,85.12294,98.803779,108.742961,38.881816,68.43909,86.701698,98.662445,21.577938,50.599536,70.208496,83.727871,7.85519,32.60733,48.087616,60.322368,-5.894324,4.651004,23.878254,41.690642,-8.655469,20.343858,41.231886,56.054714,2.70573,39.003585,62.614621,76.490852,17.538142,52.811002,72.823162,83.433958,33.503575,61.621761,75.987167,83.728062,163.179571,223.758156,-176.800695,201.006403
102,-6.193611,24.815169,13.40356,9.470327,-40.015984,-67.422546,-80.415791,-83.294266,-41.440796,-67.525807,-76.227962,-78.684368,-24.285576,-54.14843,-66.329784,-70.490593,-13.211254,-42.299091,-53.724655,-56.890789,-6.99852,-30.189812,-39.762554,-42.779835,-0.360888,16.204235,44.261004,68.189585,31.762794,60.971135,67.656679,71.486038,46.905212,74.417577,76.290152,76.353273,56.960593,80.695006,79.946419,77.845509,62.122057,79.32705,78.274989,75.539045,36.936081,70.133755,90.598778,102.848431,64.125916,92.416111,107.226208,118.349453,46.471848,78.269303,96.663792,109.263508,30.240635,61.573952,80.982319,94.480076,16.729706,43.706886,59.156845,71.759239,-7.844896,2.15483,20.757203,37.87028,-6.90603,21.279019,41.070261,55.766673,6.00992,40.486373,61.942604,74.954008,21.590957,54.878875,72.95579,82.893469,37.66822,64.175079,77.382417,85.173109,155.602655,246.895452,-164.78044,208.798857
103,-4.203186,22.367543,12.272415,7.305012,-40.544266,-67.873879,-81.368752,-87.060219,-42.819008,-66.348244,-78.281982,-84.966087,-25.640785,-52.941811,-68.866493,-77.603737,-14.752121,-40.647949,-55.277023,-62.861046,-8.870865,-29.171883,-40.393272,-46.602058,3.629554,22.380869,49.471528,73.254773,40.230727,71.838972,83.015649,90.915589,54.157606,84.678896,91.393315,95.812891,62.76712,89.985146,94.265722,95.912482,66.615838,87.294915,90.213709,90.738563,38.107659,70.732041,91.831364,106.948918,68.63823,96.32515,112.836285,125.972283,53.591446,84.713082,103.941834,118.243035,39.077809,70.226452,89.746914,104.038617,26.017033,52.844216,68.358536,82.011086,-9.393189,-0.444665,16.452273,31.234013,-6.353957,17.89522,35.917991,50.904421,7.823011,37.432247,56.794188,70.202104,24.197454,53.074467,69.701086,80.255738,40.925678,64.783641,77.098674,85.597927,149.806978,267.409637,-154.100516,214.250511
104,-6.345291,23.063051,14.272728,5.209092,-38.959236,-65.880501,-80.390167,-89.079598,-41.045563,-64.05201,-78.425652,-88.425018,-23.805313,-50.33281,-69.144287,-82.003716,-13.289246,-37.140541,-54.508049,-66.109245,-8.058426,-25.82396,-38.580483,-47.895996,4.781346,24.204803,51.109161,74.465204,40.964766,76.469388,93.377688,105.376547,54.918815,91.059726,103.333411,111.041023,64.018838,97.020752,105.317637,108.647083,68.725442,94.789587,101.428238,104.034636,38.880787,71.533608,93.658459,111.551171,68.691559,96.146313,113.744305,127.919953,55.917378,87.057175,106.824887,121.736058,43.357144,75.042572,94.515141,108.767762,31.3419,58.431313,74.219685,88.179612,-10.67388,-2.980199,12.290308,24.98555,-6.783765,14.838167,30.750482,43.999404,8.401464,33.853132,51.703718,64.079687,25.269837,50.438452,65.779873,75.499413,42.228118,64.054789,75.431956,83.40291,141.682245,289.079546,-141.60723,218.066461
105,-5.253891,17.980139,17.757614,1.586281,-38.659424,-65.48021,-80.670845,-91.488899,-40.477982,-62.735161,-79.188561,-92.402069,-22.584778,-48.0569,-69.756981,-86.338326,-11.689041,-33.542725,-54.144081,-69.706169,-6.26635,-21.866181,-36.530777,-48.93116,7.415496,28.45438,54.69975,77.482811,43.767988,82.032903,103.709236,119.469127,55.896818,96.442448,114.34015,125.924144,64.104683,102.387777,115.921072,121.901673,68.723972,99.757346,110.783697,116.004484,38.514061,72.458085,96.412789,114.126183,70.953747,101.52895,113.044831,121.265305,58.587674,91.993481,105.517766,114.70784,46.291409,80.02438,93.727902,102.50718,34.313324,62.660351,76.559086,87.703766,-12.743543,-7.001916,7.17562,18.657208,-9.39756,13.978663,26.9658,36.141738,6.567614,32.656286,46.440694,54.496023,23.989813,48.997396,60.787674,66.437133,41.361525,63.026423,73.205694,79.365557,134.573382,306.000832,-125.704588,218.593889
106,-7.3079,19.134316,9.906521,-3.216048,-38.981689,-65.29898,-80.285202,-91.603935,-38.479866,-61.815605,-78.800171,-92.342811,-20.243042,-46.892715,-69.166076,-85.802993,-9.861259,-33.20272,-55.135208,-71.121345,-5.480026,-22.560035,-38.325714,-51.117828,7.219413,29.453835,56.564118,80.093545,48.314918,87.894721,109.050721,123.555942,60.726121,103.356481,120.250961,130.009762,68.645549,108.755196,120.826068,124.729237,72.833709,105.164051,115.70807,120.064438,38.609242,72.366085,97.54049,116.470814,73.70176,106.326016,113.391724,117.165654,63.177281,97.527558,106.122437,110.90934,52.166622,86.606919,95.446759,99.966591,40.848713,69.719181,82.328133,91.89909,-14.767932,-11.874999,-1.130366,6.583002,-13.722028,8.105038,18.172097,24.590039,2.225041,26.99833,37.110812,42.290227,19.99182,43.831097,52.712301,56.184292,38.553104,58.860011,67.744191,73.099039,125.761259,324.406321,-117.30229,214.649014
107,-5.850105,13.154801,10.117716,-10.656274,-38.526512,-64.497711,-79.678802,-91.21962,-39.410911,-62.295525,-79.404556,-93.261314,-20.756012,-47.061539,-69.149414,-85.768776,-9.721985,-32.510765,-54.587952,-71.047256,-4.878387,-21.562866,-37.146881,-50.340454,7.280967,30.052135,57.186019,81.148452,50.135221,90.387314,111.376773,125.103457,61.609658,105.501765,122.742097,132.031742,68.607203,110.126624,123.200001,127.26382,72.097706,105.791078,117.32708,122.255071,37.141806,70.840307,96.831379,115.636305,71.760618,107.297596,110.236874,109.232197,62.727534,99.238363,103.193533,103.059832,53.117008,89.049666,93.375544,93.343895,43.135265,72.973801,84.436054,91.850172,-17.435816,-18.170939,-10.785469,-6.370216,-21.636817,-1.682659,7.324877,11.360136,-6.162133,17.259789,26.078409,29.118376,11.659323,34.878769,42.577588,44.057943,30.988715,50.353471,58.862264,63.358942,118.772901,337.252928,-108.322827,203.684546
108,-7.16169,10.83579,9.97189,-16.678453,-37.932357,-63.352455,-78.442405,-89.590622,-37.840004,-61.91217,-78.997902,-92.539764,-18.701957,-46.605583,-68.501426,-84.942718,-7.540512,-31.733665,-54.197136,-70.756279,-3.076057,-20.77977,-36.986595,-50.629623,6.018713,28.51014,56.30962,80.404482,49.13442,90.398675,110.589516,123.249981,61.025659,106.209177,122.54284,130.071351,68.353284,111.233931,122.860855,124.917971,72.176833,107.172434,118.117065,121.666145,34.143728,66.858816,93.340233,110.978216,65.137453,104.672275,104.297058,98.531055,57.277101,97.320734,97.129984,91.864134,49.243572,87.58909,88.172121,83.58649,41.52024,73.131408,83.62231,88.611345,-21.393511,-27.360703,-24.30345,-22.707102,-34.236896,-16.78006,-6.71177,-3.655909,-19.360758,2.21813,11.453269,13.479553,-1.255145,20.454601,28.285356,28.884768,18.992525,36.745558,45.400934,49.565184,110.645902,348.160679,-99.316246,187.078054
109,-3.972198,4.990643,9.442085,-25.872978,-37.858956,-63.194893,-78.54419,-89.693985,-38.735367,-62.961983,-80.079552,-93.689484,-19.583084,-47.91053,-69.731781,-86.11425,-8.267189,-32.936508,-55.453263,-72.249001,-3.720612,-21.879753,-38.113609,-51.982613,5.725227,27.888549,55.271757,79.359715,48.874241,89.642974,109.66357,122.046157,60.838902,105.497924,121.797698,129.136574,68.283186,111.07637,123.040512,125.215102,72.300989,107.335468,118.314024,121.768737,32.910124,63.283613,88.151722,102.230753,57.951353,99.20676,95.047474,84.895351,49.802954,92.002356,87.508833,77.139307,42.232327,82.493746,78.981646,69.623142,35.742828,69.429108,77.128143,77.759417,-24.653315,-36.147663,-37.732837,-38.031937,-46.533984,-30.65502,-19.713467,-17.830555,-32.531633,-11.805259,-2.684692,-2.103775,-14.613044,6.462378,14.007389,13.185368,5.721737,22.093995,30.685379,33.650955,105.931286,353.544064,-90.616579,161.597818
110,-3.593033,2.293905,11.740902,-42.275506,-37.601097,-62.703094,-78.269691,-89.427246,-38.686615,-63.342224,-80.297607,-93.694771,-19.510712,-48.38221,-69.789024,-85.999054,-8.16346,-33.289604,-55.665573,-72.554214,-3.682274,-22.108246,-38.381104,-52.569283,4.881271,26.389804,53.823104,77.640275,47.250587,87.942306,107.326501,119.388048,59.74608,104.367816,120.439263,127.331226,67.574822,110.375131,121.896745,123.677504,71.808887,107.020404,117.496695,120.26199,28.358381,52.396753,72.319,83.401312,42.621012,77.255676,74.463661,65.855873,36.107668,72.319567,68.519796,59.388048,31.101627,66.186838,63.616934,55.812946,27.573333,57.264969,63.440803,63.42938,-22.474793,-34.701912,-38.520722,-40.324949,-47.396414,-34.14267,-20.054969,-15.247996,-36.712442,-19.43671,-7.319336,-3.800497,-22.087797,-4.03184,5.249798,6.35567,-4.910627,8.160468,16.489247,19.520578,101.924028,356.585421,-79.289902,120.069764
111,-2.590805,-0.258043,20.957924,-59.278469,-37.294029,-62.120796,-77.8843,-89.217659,-38.238464,-63.525032,-80.377052,-93.609581,-19.136925,-48.754715,-70.093048,-86.357163,-7.805328,-33.606583,-55.994202,-72.974098,-3.420799,-22.135117,-38.553886,-53.056137,4.510448,25.33323,52.559839,75.91298,45.220852,85.783079,104.856658,116.970298,58.230046,102.356557,118.263438,124.867262,66.62142,109.20737,120.559417,122.171128,71.366519,106.570602,116.510751,118.671645,19.065313,33.561887,46.170879,51.725069,21.801595,44.277729,40.731903,33.505062,17.394178,41.441076,36.773317,29.254663,15.390415,39.391199,37.417654,32.122352,14.950012,35.437912,39.429737,39.32012,-15.373771,-23.739214,-25.725314,-25.961947,-34.574719,-20.459816,-3.175589,4.968315,-29.503516,-14.808193,0.012894,6.976821,-21.405718,-6.984416,3.34917,6.499157,-11.397576,-1.607029,6.340462,9.649688,98.785698,357.646719,-58.879503,62.110636
112,-1.538086,-1.860503,27.451567,-71.972136,-37.025848,-61.688507,-77.652626,-89.015053,-37.564247,-63.359825,-80.175957,-93.326889,-18.67971,-48.790581,-70.161667,-86.398453,-7.523575,-33.824089,-56.24762,-73.255486,-3.248497,-22.111404,-38.650978,-53.21315,4.431173,24.682615,51.58722,74.695558,43.535016,83.624754,102.73752,115.12979,56.986269,100.117598,116.138458,122.934301,65.969188,107.755803,119.331634,121.231743,71.381476,106.152367,115.866732,117.829666,7.142108,9.871753,12.761306,11.512287,-0.700036,3.992889,-2.660866,-8.987858,-2.244015,2.94144,-4.523049,-10.2128,-0.928918,6.158157,3.826297,1.908565,1.591941,7.683906,8.803012,9.413692,-2.137355,-0.893856,2.888709,5.604628,-6.48643,12.536167,32.336579,43.858576,-9.67679,5.038895,21.604764,31.904486,-11.446131,0.997775,11.109541,15.607182,-11.934367,-4.531912,1.984071,4.870255,96.721436,357.483185,-31.954112,-8.164531
113,-0.260902,-2.361644,18.402351,-52.899164,-36.814087,-61.599656,-77.810166,-89.325234,-37.529869,-63.52565,-80.470025,-93.656388,-18.848351,-49.030083,-70.523461,-86.771302,-7.716523,-34.04464,-56.585244,-73.660241,-3.339844,-22.33516,-38.959443,-53.499825,3.947802,23.827582,50.401921,73.284302,41.519544,81.378521,100.556025,113.051172,55.285205,98.124232,114.408199,121.46327,64.729795,106.220786,118.259164,120.743223,70.620994,105.245747,115.004523,117.234318,1.869976,-3.2677,-9.466004,-16.94965,-9.653424,-19.725271,-30.329447,-37.275244,-12.468653,-23.187155,-34.052559,-39.253561,-12.272461,-19.330645,-21.293822,-19.506907,-10.871538,-16.121018,-16.649162,-14.856531,5.257257,11.001244,16.657986,19.942188,5.55577,22.143491,38.630545,49.729014,-2.885464,7.536252,21.229301,31.562498,-10.364938,1.415165,12.551068,18.918443,-16.579646,-10.466732,-3.809359,-0.441759,96.153408,356.767761,-13.858887,-59.417475
