takenoko1/special-research/HandMotion_SimilarSearch_自分用/NewProject/handData/tgt/d4_feature_d3/10.csv
,vel_0x_L,vel_0y_L,vel_0x_R,vel_0y_R,posFromWrist_1x_L,posFromWrist_2x_L,posFromWrist_3x_L,posFromWrist_4x_L,posFromWrist_5x_L,posFromWrist_6x_L,posFromWrist_7x_L,posFromWrist_8x_L,posFromWrist_9x_L,posFromWrist_10x_L,posFromWrist_11x_L,posFromWrist_12x_L,posFromWrist_13x_L,posFromWrist_14x_L,posFromWrist_15x_L,posFromWrist_16x_L,posFromWrist_17x_L,posFromWrist_18x_L,posFromWrist_19x_L,posFromWrist_20x_L,posFromWrist_1y_L,posFromWrist_2y_L,posFromWrist_3y_L,posFromWrist_4y_L,posFromWrist_5y_L,posFromWrist_6y_L,posFromWrist_7y_L,posFromWrist_8y_L,posFromWrist_9y_L,posFromWrist_10y_L,posFromWrist_11y_L,posFromWrist_12y_L,posFromWrist_13y_L,posFromWrist_14y_L,posFromWrist_15y_L,posFromWrist_16y_L,posFromWrist_17y_L,posFromWrist_18y_L,posFromWrist_19y_L,posFromWrist_20y_L,posFromWrist_1x_R,posFromWrist_2x_R,posFromWrist_3x_R,posFromWrist_4x_R,posFromWrist_5x_R,posFromWrist_6x_R,posFromWrist_7x_R,posFromWrist_8x_R,posFromWrist_9x_R,posFromWrist_10x_R,posFromWrist_11x_R,posFromWrist_12x_R,posFromWrist_13x_R,posFromWrist_14x_R,posFromWrist_15x_R,posFromWrist_16x_R,posFromWrist_17x_R,posFromWrist_18x_R,posFromWrist_19x_R,posFromWrist_20x_R,posFromWrist_1y_R,posFromWrist_2y_R,posFromWrist_3y_R,posFromWrist_4y_R,posFromWrist_5y_R,posFromWrist_6y_R,posFromWrist_7y_R,posFromWrist_8y_R,posFromWrist_9y_R,posFromWrist_10y_R,posFromWrist_11y_R,posFromWrist_12y_R,posFromWrist_13y_R,posFromWrist_14y_R,posFromWrist_15y_R,posFromWrist_16y_R,posFromWrist_17y_R,posFromWrist_18y_R,posFromWrist_19y_R,posFromWrist_20y_R,posFromBody_0x_L,posFromBody_0y_L,posFromBody_0x_R,posFromBody_0y_R
6,0.074684,-2.363831,0.387566,-0.150313,23.623901,42.458919,57.138725,67.037327,44.04332,72.912598,81.725487,85.696335,29.04499,55.802238,64.14537,66.285988,12.622845,29.343292,33.510578,33.437302,-4.21835,-1.778435,-1.232071,-1.780735,-1.08446,8.333008,24.013575,35.61208,34.684108,53.184272,57.631339,57.744046,48.063656,69.104034,71.493923,69.288446,54.542509,79.266398,83.572353,83.719282,54.576756,78.006159,86.242441,90.191812,29.784473,57.295315,79.013225,98.248089,59.864239,91.309376,101.747715,103.238102,46.579983,80.742908,92.239735,93.03931,32.053493,64.622509,77.345203,80.168735,17.775638,41.880215,54.577618,60.413395,-16.663484,-15.074646,-3.857227,4.016791,13.600652,37.651635,46.324666,49.212942,33.35987,58.403775,62.434446,60.272157,48.278646,71.729835,74.543875,72.173363,57.820406,79.30167,82.683296,80.135165,-42.150833,349.990411,-55.167652,355.029652
7,-2.348866,1.249224,0.784218,0.408245,22.716671,43.324288,59.271183,71.71399,45.706227,74.516041,84.452603,89.666348,31.81548,60.818219,70.192051,72.771138,17.003952,37.632809,43.950669,45.258671,1.94204,8.162327,10.780346,11.4814,-4.49858,3.462357,18.687403,30.031584,30.47715,49.951353,55.558216,57.335134,44.839258,66.521693,69.817078,68.488851,52.474894,76.23859,80.925162,81.675318,53.485489,76.01241,84.055537,88.219392,29.390774,56.637439,78.393642,97.735988,59.204372,90.286159,100.831226,102.683361,46.074497,79.635235,91.449474,92.758083,31.771213,63.930965,76.843425,80.142574,17.693664,41.981197,54.767658,60.859508,-16.609428,-15.622052,-4.889385,2.834801,12.603704,36.268413,45.586488,49.109263,32.250276,57.285993,62.037489,60.444218,47.444015,70.961881,74.132061,72.042415,57.515247,78.851299,82.154786,79.634467,-45.821652,351.549029,-55.705387,355.747291
8,5.87193,0.734039,1.030437,0.432216,20.604686,37.998378,50.445831,58.311161,40.04853,68.747497,78.99797,84.650962,25.823341,52.325569,60.748855,62.778259,10.540706,27.195167,30.644863,29.69347,-4.807846,-1.736424,-0.820336,-1.113659,0.007015,9.749044,25.282125,36.943468,32.396156,51.540438,56.911415,58.355041,44.916249,66.286214,70.71961,70.610052,50.678291,75.09638,81.359786,83.640155,50.568339,73.102818,81.278239,85.998737,28.777348,55.789582,77.431343,96.918343,58.14505,89.249634,99.920471,101.877548,45.018242,78.360764,90.552155,92.132241,30.882477,62.877938,76.047821,79.606888,17.110291,41.469658,54.241013,60.287018,-16.824357,-15.985428,-5.659685,1.657825,11.880322,35.472277,45.212453,49.047191,31.451856,56.64926,61.832676,60.518232,46.804046,70.579708,73.94802,71.991409,57.143164,78.625577,81.941524,79.413561,-40.632408,352.490994,-55.357636,356.387433
9,-3.824547,0.026232,0.807404,0.468364,21.036289,39.392978,52.750053,63.100971,43.784729,72.629356,82.953689,89.032791,30.374016,59.583275,69.330162,71.94342,15.602634,36.4636,43.188194,44.500042,0.31493,4.916839,6.252754,5.939552,-1.751193,7.6561,23.398342,34.778091,30.134201,49.193811,54.929498,57.081932,43.451727,64.912823,68.769433,67.677216,50.143075,74.135692,79.681854,80.737329,50.854169,73.37568,82.56093,87.947283,28.222538,55.040634,76.529411,95.98732,57.259529,88.338157,99.222816,101.330223,44.22258,77.428139,89.91497,91.582672,30.22863,62.013542,75.314232,78.91143,16.629627,40.869438,53.598495,59.539329,-17.162712,-16.445098,-6.314572,0.62778,11.135131,34.491137,44.476895,48.574776,30.697279,56.036066,61.43425,60.21363,46.194705,70.171489,73.59613,71.67868,56.79467,78.388752,81.643258,79.031969,-44.767896,352.618037,-54.861173,356.956608
10,6.931595,0.719491,0.797321,0.171543,16.695888,29.699192,37.308494,41.440612,36.540458,64.845382,75.013481,81.167976,23.565605,49.964859,58.594574,60.484909,8.548027,25.201446,29.402069,28.597538,-7.017231,-6.303177,-7.677327,-10.046505,5.315401,19.0079,37.206414,50.006632,33.692346,52.820796,57.90609,59.548553,43.317111,64.56397,69.91063,70.213441,46.761203,71.485327,79.236054,81.962235,45.25001,67.768138,78.364113,85.391829,27.740582,54.31992,75.592747,95.004444,56.323231,87.456631,98.483379,100.723652,43.41219,76.620449,89.360401,91.10947,29.530872,61.221691,74.667515,78.3074,16.026581,40.091114,52.813603,58.726536,-17.334069,-16.719678,-6.737711,-0.056317,10.774236,34.003865,44.155002,48.494303,30.271484,55.515312,61.127264,60.123017,45.865316,69.833738,73.40001,71.65419,56.648556,78.393642,81.698648,79.146034,-38.000782,353.404398,-54.228333,357.195021
11,-2.315438,1.924068,0.475113,0.45289,21.323593,38.166413,49.686653,59.492352,40.462944,68.590737,80.021302,87.620636,25.94735,54.248246,64.470475,67.310623,9.97593,29.241234,35.758988,36.921742,-6.00991,-3.690685,-3.624859,-4.384849,-3.224804,5.385279,20.425234,30.589944,26.646304,44.861835,50.939101,54.197102,40.148229,61.34596,67.312815,67.943571,47.271892,71.002094,78.908246,81.958321,48.749505,71.080406,81.664155,88.945393,27.300716,53.706242,74.826565,94.183605,55.447918,86.827435,98.125134,100.660847,42.690434,76.158772,89.208538,91.053257,28.9911,60.760105,74.462391,78.202595,15.667133,39.554844,52.365864,58.430729,-17.917191,-17.599559,-7.825791,-1.199045,10.026328,33.030258,43.421012,48.102187,29.604073,54.755955,60.54145,59.69248,45.336041,69.183618,72.926742,71.322899,56.216241,77.971356,81.538307,79.125273,-40.357928,355.382599,-53.794928,357.702044
12,3.517948,-1.266303,0.260227,0.437674,21.045285,34.924221,42.665738,47.795403,37.712437,65.731213,76.20139,82.513653,22.12563,47.54076,55.916439,57.345715,4.681378,19.020985,21.911992,20.071976,-12.696487,-14.713279,-17.377018,-20.380073,2.649537,14.36506,31.157776,42.422768,31.680123,50.539094,55.974847,58.066889,43.233687,64.515991,70.853077,72.063855,48.068954,72.866869,81.983144,86.060722,47.369112,70.260014,81.077871,88.944701,26.845677,53.139862,74.270508,93.746613,55.010536,86.406693,97.851197,100.618653,42.443756,75.949379,89.222054,91.144455,28.858727,60.657257,74.500603,78.260971,15.60664,39.51844,52.36187,58.460633,-18.466868,-18.399622,-8.735793,-2.308724,9.489026,32.31798,42.829061,47.749754,29.125619,54.095251,59.864604,59.084474,44.932589,68.605177,72.248291,70.649808,55.838378,77.547526,81.128297,78.746065,-36.847596,354.162306,-53.542317,358.185728
13,-3.629699,-0.515171,0.283505,0.120759,22.105877,38.60487,49.321644,59.199463,41.402446,69.166385,79.70129,86.55067,26.1553,53.455936,62.68816,64.917766,9.06736,26.311809,31.133526,31.282757,-8.205311,-8.903607,-11.331127,-14.218094,-1.724751,8.079053,23.951206,34.263315,30.423094,48.717876,54.126274,56.688891,43.408576,64.281265,69.90937,70.442054,49.458758,73.106584,81.81506,85.565743,49.192465,71.609544,82.887145,91.185302,26.492775,52.5741,73.744846,93.304241,54.988552,86.110714,97.523014,100.47163,42.599704,75.692882,88.939441,90.956737,29.000141,60.384533,74.208721,78.104679,15.63311,39.300876,52.120502,58.428943,-18.842866,-19.05924,-9.618738,-3.425048,9.743413,32.451657,42.768521,47.618719,29.276513,53.79339,59.489779,58.828062,44.939801,68.160673,71.824461,70.448859,55.662834,77.143839,80.969734,78.946457,-40.465925,353.674046,-53.247442,358.333398
14,5.10094,-0.399081,0.266533,0.049648,15.055092,26.661519,32.268334,35.930787,34.248185,61.98951,71.895447,78.131745,21.464676,47.195023,55.303276,57.002655,6.529793,22.075905,25.214585,23.694191,-8.804145,-8.126014,-9.61972,-12.159874,6.316277,21.199942,39.732735,52.383961,35.058821,54.249491,58.851749,60.369772,44.167402,65.2041,71.12242,72.088901,47.080848,71.445585,80.411498,84.518999,45.117828,67.432549,78.12367,85.727825,26.125122,51.967792,73.151218,92.837688,54.899746,85.935276,97.280857,100.289943,42.513279,75.379245,88.715183,90.933986,28.83958,59.999874,74.058323,78.323124,15.427436,38.857898,51.834308,58.711887,-19.170366,-19.82597,-10.847782,-4.871107,10.016373,33.091761,43.085992,47.606986,29.441411,53.637371,59.198267,58.643119,44.925067,67.820205,71.578187,70.598851,55.416524,76.655158,81.026964,79.744049,-35.39054,353.294818,-53.006464,358.402899
15,-3.394912,1.419457,0.011524,0.012473,17.081566,32.269947,42.282577,51.499271,37.187393,64.784271,75.624412,83.456131,24.690788,52.364731,62.114502,65.510879,10.689365,29.546837,35.823555,37.393753,-3.659844,0.186641,1.030117,0.890567,-1.189498,9.556691,25.02328,35.043136,29.626576,47.557759,52.802617,55.757967,41.56025,62.250368,68.180001,69.15457,47.279783,70.341771,78.613017,82.397848,47.605171,69.259447,79.562812,87.069822,25.833469,51.467354,72.825599,92.64656,55.061691,86.03231,97.322639,100.497665,42.685043,75.290771,88.679649,91.204147,28.92778,59.781601,74.151581,79.000946,15.416782,38.384765,51.483719,59.198936,-19.477438,-20.627478,-12.262545,-6.778651,10.46982,33.737054,43.391027,47.639579,29.714842,53.439931,58.893529,58.528016,44.937479,67.390806,71.271906,70.809235,55.150331,76.184312,81.385895,81.308781,-38.851547,354.717332,-53.061035,358.418429
16,2.655555,-1.959686,-0.514561,-0.006348,15.124443,27.379796,33.857392,38.500546,34.293343,61.65271,71.195275,77.762261,21.772133,46.55246,54.640206,57.101876,7.28928,21.859246,24.795422,23.708668,-7.828159,-7.303264,-8.880432,-11.379901,7.330502,22.742232,41.217053,53.59848,36.031488,55.249044,60.025031,61.740507,44.573077,65.372678,72.072759,73.858902,47.097125,71.162175,80.997793,85.802617,44.842482,66.773622,77.720599,85.730579,25.710709,51.130657,72.791416,92.814594,55.731434,86.580654,97.808247,101.223736,43.467236,75.723461,89.035618,91.826603,29.621235,60.042812,74.597202,79.991673,15.916775,38.361729,51.439579,59.868107,-19.696813,-21.523736,-13.853828,-8.860887,10.903036,34.086907,43.474019,47.571542,30.063534,53.272155,58.758642,58.616184,45.096203,67.056601,71.12142,71.151246,55.066078,75.797816,81.855111,83.021182,-36.267432,352.75918,-53.647036,358.413615
17,-3.047401,1.065256,-0.710861,-0.144236,15.120712,29.826473,39.771652,49.066074,36.053925,63.314552,74.004135,82.49865,24.421143,51.247376,61.952499,66.991539,10.859241,29.16053,36.050251,38.606884,-3.624596,-0.668495,-0.930908,-2.243992,1.847251,13.933202,29.937872,40.364206,31.206435,48.891889,54.509694,57.939732,41.499969,61.869244,68.858909,71.026756,46.069969,68.850684,78.442474,83.288375,45.721512,67.158241,78.775346,87.795859,25.832645,51.172657,73.095806,93.317768,56.397526,87.20097,98.406773,102.039196,44.211422,76.100109,89.302883,92.414623,30.332256,60.266064,74.980053,80.942036,16.515678,38.297642,51.306255,60.403942,-19.695307,-22.147811,-15.237668,-10.724133,11.543227,34.543489,43.653824,47.576605,30.629204,53.324123,58.774795,58.784626,45.49238,67.046979,71.311537,71.761265,55.255577,75.757468,82.693002,85.092302,-39.375778,353.825443,-54.418842,358.270386
18,4.043999,-0.672981,-1.170685,-0.096282,12.923835,24.53017,30.675773,35.137172,31.174713,57.492027,67.329185,74.992813,19.649505,43.085403,52.172127,56.100151,6.210113,20.521064,24.77726,25.045463,-8.0014,-6.119683,-6.665692,-8.151364,9.145533,25.918723,44.923425,57.921207,35.916115,54.95783,60.425532,63.189468,43.075099,64.403062,72.058161,75.125428,44.979124,69.173244,79.425282,85.030404,43.003358,65.029668,76.566053,85.544859,26.123394,51.700596,74.01321,94.31361,57.146862,88.2262,99.527332,103.360233,45.047253,76.977711,90.178059,93.539372,31.172779,60.964382,75.934994,82.396076,17.250115,38.623936,51.625431,61.269573,-19.690613,-22.734241,-16.441874,-12.148973,11.53741,34.347729,43.542525,47.614051,30.702651,53.281492,58.926047,59.19812,45.577819,67.097726,71.685473,72.511434,55.358183,75.824505,83.520137,86.94873,-35.393881,353.154586,-55.651629,358.176228
19,-3.256794,0.994577,-1.401855,-0.165528,18.688144,34.251377,45.000377,55.103634,35.702465,61.557003,72.286663,81.589153,21.819614,45.442966,56.077091,61.789707,6.205536,19.814358,24.236835,25.410221,-9.908959,-9.87862,-11.559815,-13.440869,1.125871,12.542929,27.88288,37.934859,30.727326,47.584658,54.200251,58.874757,41.613442,62.209971,71.052272,75.458361,46.415339,69.492592,81.31088,88.924533,45.835799,67.257511,78.643559,88.351378,26.652202,52.520748,75.268192,95.659069,58.187679,89.400272,100.779796,104.81583,46.254856,78.183345,91.262203,94.761165,32.452457,62.102657,77.046123,83.711963,18.451984,39.631542,52.451809,62.1748,-19.518737,-22.929632,-17.072309,-12.865377,11.672582,34.045176,43.429658,47.77748,30.897177,53.305401,59.251781,59.883092,45.823795,67.253041,72.114787,73.192739,55.686151,76.162674,84.21373,88.221814,-38.691232,354.152204,-57.094041,358.013741
20,2.804695,-2.14306,-1.238594,-0.028071,18.758663,32.477268,40.661945,47.596195,33.952778,59.443828,68.728283,76.282276,18.810161,39.887524,48.765369,53.008999,1.663605,11.080765,12.207287,10.639171,-15.980427,-20.063816,-24.192146,-28.105591,7.638674,22.356909,40.262997,52.422555,37.124928,55.603022,61.595295,64.788285,45.835379,67.003383,75.867309,80.282142,48.080982,72.62272,85.371155,93.360077,45.244279,67.599262,79.413364,89.152466,27.060241,53.287914,76.325397,96.804004,59.088764,90.275425,101.755703,105.960559,47.294712,79.127986,92.088123,95.688022,33.545963,62.986141,77.780147,84.47826,19.476642,40.48328,53.101306,62.688663,-19.294003,-23.003017,-17.419508,-13.103994,11.699566,33.690987,43.252693,47.796609,31.015885,53.397495,59.586986,60.505795,46.009379,67.405527,72.46622,73.664042,55.933943,76.35825,84.501449,88.649756,-35.904991,352.014093,-58.351089,357.990619
21,-3.799622,1.077371,-0.797093,-0.076213,21.73811,38.339253,50.210141,62.13921,38.232045,64.051541,74.215153,82.905339,22.523175,45.527035,56.060887,61.776684,4.77435,16.071419,19.011658,19.30497,-13.457267,-17.398727,-21.270813,-24.699085,-0.625964,8.969519,23.445212,32.759545,32.03052,48.551966,55.11869,59.643797,44.305081,64.949615,73.697302,78.060129,49.335949,72.808639,85.560988,93.873471,47.908811,69.769086,81.246215,90.969559,27.333229,53.929619,77.197014,97.728699,59.651665,90.850044,102.329476,106.50103,47.918198,79.708099,92.497673,96.073242,34.203072,63.501892,78.057839,84.64666,20.106743,40.988846,53.487328,62.905449,-19.051891,-22.841403,-17.401451,-13.006131,11.755142,33.445468,43.207986,47.90555,31.132039,53.540152,59.861109,60.857106,46.13587,67.663002,72.778715,73.869733,56.065151,76.5302,84.520728,88.398938,-39.715714,353.090109,-59.159283,357.913051
22,2.787896,-1.398745,-0.517467,-0.048671,17.497066,30.032283,37.463413,44.269226,34.866474,60.784206,69.196414,75.652301,20.467128,41.985065,50.373584,53.995731,3.572834,12.807655,13.207443,10.738975,-13.960156,-18.553093,-22.479538,-26.408135,6.827076,21.109922,38.580299,50.462313,38.438112,56.475889,61.6731,63.893633,47.545051,68.918091,76.522666,79.473459,49.558806,74.682195,86.778743,93.899825,45.926758,68.484282,79.195039,87.201659,27.564788,54.310787,77.70148,98.335476,59.891727,91.173969,102.685032,106.793369,48.208294,80.265049,92.982204,96.39307,34.540935,64.099514,78.442943,84.710621,20.498691,41.675869,54.131733,63.156795,-18.84651,-22.633675,-17.213607,-12.568568,11.532716,33.255795,43.247135,48.08712,31.006536,53.560899,59.958686,60.961624,46.134276,67.796197,72.83529,73.693818,56.190923,76.734075,84.20585,87.328371,-36.931554,351.679335,-59.680486,357.852351
23,-4.24981,1.708572,-0.09161,0.117301,19.01128,34.715847,45.936344,57.369393,39.522663,66.471417,76.163464,83.494755,25.556088,50.9137,61.28159,65.778614,9.172714,23.573387,27.673954,27.919155,-7.971748,-9.06118,-10.753063,-12.805137,-1.244913,7.80477,21.639963,30.756781,31.47584,48.342792,53.923103,57.335875,44.122621,64.882084,71.965276,74.162628,49.572033,73.41215,84.174815,90.02905,48.807933,70.802652,81.428848,89.244301,27.616275,54.325172,77.654915,98.361969,59.943329,91.042144,102.468841,106.435844,48.304756,80.338531,92.933693,96.161247,34.700042,64.300071,78.332542,84.178413,20.74942,42.165985,54.551193,63.11309,-18.720576,-22.493625,-17.102394,-12.33178,11.321468,32.919922,43.073753,48.035163,30.905772,53.512981,59.879386,60.703322,46.161841,67.891947,72.701131,73.109807,56.306816,76.865591,83.690333,85.84499,-41.177302,353.364182,-59.768034,357.945927
24,2.825249,-1.293177,-0.052552,0.350816,14.840309,26.727573,33.353897,38.721107,36.550541,64.126476,72.302753,77.404049,23.618191,48.611423,56.661152,58.573231,7.991821,22.538361,25.618641,24.262836,-8.488232,-8.898079,-10.139912,-12.215389,6.078834,19.965995,37.443091,49.532895,36.560875,55.578149,59.740485,60.983533,46.452365,67.93332,73.404357,74.064951,49.801596,74.954404,84.056241,87.954088,48.070818,71.21444,81.713814,88.627637,27.522973,54.255845,77.553521,98.368676,59.843399,90.902619,102.322335,106.183228,48.231057,80.329468,92.852921,95.882012,34.673996,64.366745,78.180085,83.623536,20.82518,42.531487,54.895203,62.998581,-18.777584,-22.564267,-17.203405,-12.364174,10.874062,32.416595,42.715823,47.816802,30.546484,53.247998,59.463164,60.008791,45.945048,67.747118,72.290602,72.221788,56.233988,76.818241,82.978722,84.128675,-38.32929,352.044854,-59.797823,358.270592
25,-3.312973,1.975235,0.101841,-0.048931,15.328216,29.365551,38.448646,47.458145,39.292454,67.307751,76.976223,83.349644,27.26881,54.779606,64.621754,67.460552,12.665909,31.253551,37.366917,38.221882,-2.842587,0.455589,1.303139,0.878746,-0.65737,9.17516,23.567267,33.441528,30.198977,47.88369,52.7793,55.563959,42.617973,63.875663,69.206749,69.630061,48.737254,72.681038,80.929324,84.314321,49.477678,71.987543,82.59351,89.655855,27.48975,54.16428,77.467907,98.386677,59.478711,90.532483,102.016583,105.901829,47.885113,80.121334,92.608601,95.512699,34.419033,64.345768,77.934574,83.045941,20.689328,42.757588,55.14465,62.894429,-18.709362,-22.445423,-17.036803,-12.221419,10.769445,32.429575,42.813673,47.977724,30.548349,53.485156,59.500338,59.662285,46.072847,68.114496,72.418426,71.873688,56.493501,77.183816,82.783084,82.993727,-41.606689,353.989405,-59.660408,358.190977
26,3.157562,-0.801903,0.105927,0.012869,12.464585,23.659344,29.037346,32.559105,35.367016,64.060513,73.409466,78.710095,23.65218,51.128689,60.171925,61.632694,9.537369,27.667706,33.405934,33.158123,-5.26878,-2.517002,-1.76334,-2.574463,5.627599,19.585526,37.358616,50.492299,33.630262,53.26814,57.25035,58.612812,43.895255,65.623459,70.262051,70.125892,48.482681,73.588744,80.990025,83.310136,48.847503,72.077896,82.560597,89.250933,27.562145,54.148029,77.345959,98.229183,59.079014,90.204265,101.709698,105.448162,47.360676,79.810696,92.401096,95.145206,33.870106,64.02531,77.643963,82.512325,20.202072,42.54665,55.012287,62.431263,-18.744165,-22.413893,-16.880253,-11.971725,10.757144,32.789716,43.045434,47.991407,30.589771,53.739778,59.414912,59.190857,46.172512,68.348814,72.492378,71.665107,56.666389,77.502522,82.751702,82.275977,-38.402544,353.147905,-59.507898,358.164249
27,-3.900718,1.737236,0.028965,-0.144558,16.895473,32.432498,42.466186,51.171169,39.670703,68.321605,79.385913,86.655452,26.825695,56.063083,66.888027,69.984729,12.231044,33.164371,41.2737,43.522533,-2.793171,2.061481,3.791896,4.282676,-2.309885,7.047044,21.85914,32.46938,26.939186,45.671778,50.921255,54.234424,40.447138,61.898811,67.406824,68.036827,48.241213,71.868304,79.237413,81.998681,51.028404,73.455759,84.127131,91.618444,27.567581,54.147858,77.335899,98.145401,58.856117,90.147583,101.71241,105.365387,46.981911,79.678802,92.301956,94.842888,33.425136,63.751099,77.439331,82.225983,19.742844,42.182808,54.771103,62.170212,-18.648328,-22.188775,-16.575712,-11.705754,11.032143,33.333342,43.444984,48.190651,30.783309,54.165807,59.60871,59.091205,46.280798,68.601793,72.667379,71.701071,56.740935,77.670261,82.869831,82.186699,-42.240205,354.826518,-59.415876,357.961068
28,3.340667,-1.494434,0.079891,-0.050252,15.649601,28.06937,34.474663,38.097187,35.518605,64.142269,74.688458,81.264118,22.063923,49.545948,59.284024,61.618527,6.994629,24.657292,30.425801,30.52525,-8.23677,-6.44561,-6.269611,-7.450916,4.509213,18.152436,36.070034,49.255957,32.703932,52.533163,56.67974,58.3811,43.561915,65.229245,70.743187,71.630034,48.714715,73.322649,81.341336,84.591717,49.365317,72.310103,82.675033,90.004313,27.447956,54.01173,77.163815,97.956013,58.291065,89.967671,101.689785,105.292294,46.200955,79.481335,92.189106,94.45538,32.540051,63.260159,77.066906,81.797413,18.857334,41.331219,54.046017,61.513882,-18.602448,-22.040847,-16.326192,-11.520478,11.193373,33.933148,43.857019,48.305828,30.88579,54.690981,59.756318,58.797001,46.279352,68.860465,72.748666,71.594502,56.640861,77.742336,82.961468,82.132617,-38.809719,353.270179,-59.246166,357.848911
29,-4.210602,1.630878,0.095352,-0.393832,19.885861,36.604901,47.834073,57.343884,39.469563,67.318394,79.674305,88.522808,25.419629,53.907429,65.866002,70.346753,10.273018,30.203831,38.989735,42.165928,-4.931247,-1.610469,-0.475479,-0.394626,-2.974233,6.029644,20.65986,31.125641,27.208257,45.940676,50.942238,54.20093,40.648172,62.341289,68.643265,70.057362,48.166742,71.656376,79.582511,83.028851,50.444332,72.704676,83.387127,91.591719,27.477516,53.970944,77.027516,97.754872,57.912266,89.712765,101.588505,105.261486,45.618244,79.247441,92.055119,94.167904,31.89719,62.968998,76.853909,81.517605,18.182785,40.732991,53.528103,60.986607,-18.454012,-21.715261,-15.914502,-11.273192,11.537743,34.674647,44.540856,48.856531,31.171842,55.269916,60.250939,59.121388,46.527861,69.332337,73.15638,71.908429,56.863855,78.142652,83.411888,82.49156,-42.918452,354.810102,-59.048945,357.364124
30,2.980305,-1.429435,-0.066295,-0.220795,17.04483,30.08384,36.877991,39.874134,35.29921,63.901268,75.621689,83.408363,20.911286,49.252533,60.107964,63.528397,5.382351,23.644478,30.613403,31.882874,-9.949997,-8.751079,-9.004291,-10.612656,3.802343,17.945287,36.558158,50.258685,31.980797,51.932973,56.13436,58.143693,42.724887,64.539307,70.773073,72.574641,47.719149,72.233458,80.415585,84.164675,48.117736,70.887151,81.381497,89.619274,27.52621,54.011879,77.022972,97.785759,57.693512,89.666221,101.675056,105.361473,45.209816,79.130699,92.074997,94.053589,31.441532,62.822456,76.873855,81.46463,17.788559,40.518928,53.400604,60.713699,-18.4107,-21.455749,-15.539837,-10.948027,11.590738,35.053461,44.876865,49.042671,31.174152,55.583053,60.456123,59.138209,46.499925,69.522973,73.201112,71.757733,56.805402,78.260817,83.413963,82.242953,-39.82881,353.282805,-59.005903,357.045467
31,-3.133884,1.288163,0.040741,-0.289325,19.195347,35.329731,45.81419,53.789314,38.310184,66.195545,78.581783,87.684025,24.173069,53.214626,64.945118,69.575351,9.14796,29.878818,38.764538,42.243175,-5.672402,-0.749142,1.328293,2.290397,-2.602521,7.47322,22.711011,33.544108,27.189496,45.573594,50.824874,54.522859,40.079141,61.88546,68.378194,70.371646,47.162482,70.499679,78.234474,82.051662,49.195725,71.298717,81.63003,89.914009,27.414379,53.919639,76.972274,97.746986,57.580719,89.63198,101.740448,105.526886,44.988578,79.082656,92.046844,93.913765,31.17445,62.806045,76.863556,81.366211,17.541572,40.55912,53.464119,60.687652,-18.306886,-21.166053,-15.208979,-10.690293,11.637655,35.306415,45.228965,49.493918,31.072091,55.814357,60.742139,59.419087,46.356219,69.674274,73.269729,71.727982,56.700871,78.311218,83.32671,82.033891,-42.847177,354.479763,-58.849645,356.664937
32,3.197296,-1.991476,0.053226,-0.283027,16.470291,29.060795,34.918522,36.718094,34.433018,63.105228,75.151005,83.111286,20.125843,49.10004,60.092365,63.474483,4.824909,23.836384,31.335834,32.926082,-10.089832,-7.420246,-6.565979,-7.126259,4.926201,20.097363,39.139708,53.260101,32.609207,52.386394,56.645987,58.783144,42.782946,64.800302,70.809519,72.588536,47.216119,71.844702,79.601493,83.157773,47.229617,70.12809,80.396801,88.414178,27.417263,53.921551,76.972744,97.761028,57.554089,89.288899,101.429363,105.300922,44.89896,78.740673,91.740566,93.641247,31.046654,62.678936,76.648029,80.993031,17.391804,40.670963,53.554493,60.517262,-18.431967,-21.136586,-15.092233,-10.685044,11.462,35.22178,45.284195,49.67833,30.942279,55.932955,60.87384,59.557877,46.302237,69.89397,73.331368,71.625921,56.71779,78.439992,83.147806,81.533638,-39.520019,352.416613,-58.666557,356.310236
33,-3.42437,1.661938,0.034218,-0.691037,17.552788,33.119579,42.524426,49.019554,37.69994,66.302959,79.055843,88.278523,24.178036,54.814556,66.924053,71.433209,9.733898,32.043011,42.008801,46.000454,-4.441715,1.825447,4.676056,6.326992,-2.01042,9.133146,25.056243,36.493555,26.469351,44.90101,50.28977,54.107329,38.96966,61.091943,67.367242,69.193449,45.874752,69.662246,76.910855,80.316748,48.025939,70.305994,80.52523,88.493824,27.609226,54.08147,77.077206,97.833698,57.883221,89.295307,101.239826,104.918232,45.170895,78.6423,91.607448,93.516781,31.290127,62.842197,76.706463,80.887745,17.609505,41.230602,54.034595,60.594807,-18.347257,-20.882705,-14.788309,-10.270983,11.588503,35.594543,45.740877,50.168036,30.963201,56.040376,61.203575,60.144951,46.372633,70.12236,73.618755,71.989717,56.938623,78.818127,83.24536,81.411324,-42.83725,354.016032,-58.5252,355.55668
34,3.783852,-1.913917,0.060013,-0.339281,15.503574,27.614696,32.430988,33.074844,33.872898,63.14661,75.377735,83.262554,19.96091,49.935276,61.115993,64.332744,5.059684,25.086078,32.946842,34.480945,-9.434624,-5.348683,-3.533112,-3.203842,5.045095,20.585303,39.704243,54.088372,31.194061,50.826888,55.551227,58.006732,41.212756,63.146639,69.396632,71.262248,45.914309,70.635778,78.403239,81.784802,46.549956,69.435041,79.496703,86.804765,27.576507,54.167049,77.2084,97.868717,58.063945,89.378849,101.147838,104.561886,45.307354,78.602359,91.475521,93.266292,31.323211,62.740299,76.467075,80.473674,17.590393,41.382557,54.111362,60.363544,-18.37591,-20.885397,-14.760016,-10.029329,11.465051,35.674683,45.796625,50.129935,30.750384,56.117749,61.234351,60.095822,46.107081,70.09887,73.542271,71.816952,56.685915,78.685228,82.884058,80.802575,-38.967338,352.064435,-58.379127,355.179719
35,-3.295578,1.084807,0.147297,-0.458485,18.225116,34.08649,43.612575,50.420208,37.502071,65.860119,78.769558,88.087703,24.06348,54.11935,66.29179,70.816715,9.706501,31.399555,41.020832,44.6842,-4.432606,1.462635,4.152076,5.738113,-1.626926,9.318903,24.916587,36.254346,26.831418,45.391715,50.609748,53.918928,39.064694,61.224014,67.424534,68.769359,45.797971,69.739297,77.00427,80.042897,47.807663,70.106465,80.135634,87.656118,27.669937,54.377884,77.337593,97.839477,58.251068,89.452674,100.91407,103.873352,45.379394,78.488777,91.242942,92.903366,31.299453,62.572357,76.11232,79.914688,17.534774,41.517494,54.150283,60.023277,-18.276331,-20.751448,-14.660153,-9.810819,11.385331,35.915275,46.001081,50.228329,30.644766,56.349882,61.484651,60.295647,46.019223,70.305648,73.814726,72.109155,56.69067,78.801912,82.715307,80.419896,-42.180982,353.114387,-58.149896,354.686379
36,3.378742,-1.897776,-0.071263,-0.384668,16.498169,28.923752,33.939422,34.865616,34.25901,62.78698,75.194321,83.371147,20.237457,48.478935,59.210106,62.191017,5.014423,23.135788,29.63015,30.283481,-9.976856,-7.780392,-7.636288,-8.828488,5.888557,21.646262,40.681579,54.761118,32.915279,52.726985,56.645913,58.080178,42.147411,64.160568,70.57919,72.270941,45.965747,70.845124,78.984162,82.489968,45.445624,68.238738,78.416355,86.01336,27.871628,54.713757,77.641354,98.103825,58.398228,89.523228,100.81477,103.474606,45.512272,78.488812,91.197705,92.818142,31.427079,62.6162,76.027142,79.680508,17.684464,41.84808,54.394078,59.890332,-18.215766,-20.64189,-14.515002,-9.501992,11.214962,35.84446,45.990361,50.218412,30.520475,56.418907,61.668754,60.532867,45.956151,70.435126,73.995396,72.247698,56.71495,78.878618,82.47085,79.865612,-38.724787,351.162777,-58.143706,354.247877
37,-1.649574,1.128156,0.066319,-0.077867,19.225982,34.689262,43.868682,50.780113,36.96746,64.316803,77.094017,86.443451,22.643394,50.595268,61.881111,65.652786,6.940223,25.930893,33.109703,34.96194,-8.710476,-6.74366,-7.224232,-8.494229,-0.834372,9.938049,25.278951,35.958339,29.335916,47.571517,52.220705,54.730329,40.588533,62.489268,69.248715,70.879605,46.071291,69.97364,78.533136,82.457116,46.440916,68.582403,79.269139,87.742,27.964599,54.924179,77.887413,98.288475,58.63678,89.736191,100.811394,103.157181,45.726745,78.610313,91.149101,92.650909,31.570267,62.524132,75.706558,79.227058,17.780536,41.934219,54.230186,59.43013,-18.072542,-20.532197,-14.461576,-9.463782,11.245689,35.642437,45.776309,50.031555,30.491501,56.460748,61.745299,60.58407,45.869626,70.51345,74.067038,72.251527,56.581878,78.773865,82.125306,79.292543,-40.323938,352.223526,-58.026964,354.102603
38,3.809692,-1.918388,-0.027271,0.24857,18.341606,30.434349,35.106812,36.565773,33.293587,60.725418,72.652496,80.49147,17.842529,43.369148,52.585533,54.503792,1.002937,15.584175,18.884548,17.492969,-15.471851,-17.513592,-20.728077,-24.603092,6.446718,21.881407,40.674243,54.165979,35.89959,55.22968,58.861678,59.905124,44.343613,66.139076,73.180697,75.465734,46.936785,71.479498,81.088011,85.941741,44.686624,67.216262,78.032921,86.846755,28.014999,55.121051,78.212024,98.618465,58.702457,89.663646,100.787143,103.074932,45.890613,78.743694,91.110408,92.414577,31.803348,62.676921,75.637699,78.900478,18.068607,42.268604,54.361209,59.253055,-18.090314,-20.47246,-14.388439,-9.613316,11.263103,35.180074,45.224619,49.498538,30.602628,56.519374,61.382837,59.832778,45.953249,70.585723,73.731931,71.548338,56.561859,78.639138,81.598193,78.378625,-36.466862,350.23783,-58.006851,354.283865
39,-2.753826,0.823022,0.185497,0.185708,20.577106,36.106144,45.306118,52.822162,36.567959,63.576313,75.794094,84.623897,20.938946,47.383221,57.307033,60.037159,3.860859,20.508831,24.999229,25.196091,-12.942158,-14.363835,-17.642086,-21.122543,-0.160465,10.817141,26.327955,36.80017,33.110756,51.161427,55.383994,57.220105,43.803853,65.553101,72.010823,73.451325,47.979502,71.576026,80.597811,85.049472,46.336793,68.349147,79.415389,88.610581,28.163097,55.1483,78.213661,98.61708,58.576149,89.33963,100.46997,102.739631,45.783943,78.590744,90.793693,91.910843,31.774967,62.636078,75.372688,78.391456,18.132282,42.427551,54.362343,58.975639,-18.123424,-20.385033,-14.146945,-9.508217,11.464261,34.984289,44.863873,49.127023,30.95852,56.761782,60.995526,58.944684,46.328667,70.949038,73.486918,70.826599,56.831214,78.794094,81.225751,77.504622,-39.163914,350.984887,-57.76458,354.393608
40,4.067894,-1.018907,0.169613,0.569821,17.652134,28.613354,32.160175,33.289329,32.802372,60.240818,70.549793,77.079655,17.258938,42.140476,49.543155,49.86224,-0.236641,13.630474,14.603485,11.263733,-17.564427,-20.933373,-25.884888,-31.490273,8.00793,23.943723,42.622741,55.541223,38.906638,57.719086,60.748438,60.946583,46.241018,67.689456,73.889568,75.434254,47.363382,71.73412,81.414609,86.332016,43.286953,65.729535,76.656122,85.391446,28.139877,54.917347,77.938076,98.396793,58.237941,88.885654,100.224643,102.731334,45.549556,78.469585,90.50877,91.367809,31.683998,62.63451,75.06847,77.728832,18.175403,42.537128,54.130108,58.304294,-18.291114,-20.551007,-14.108327,-9.568189,11.677954,34.809967,44.445118,48.655311,31.282598,56.839352,60.308676,57.709366,46.622635,71.081924,72.826571,69.585255,57.000694,78.862637,80.691425,76.34117,-34.990236,349.865187,-57.489183,354.862636
41,-2.582554,2.271106,0.199047,0.859467,19.028252,33.438217,41.591515,48.612774,35.811287,63.233826,74.01828,81.409492,20.875145,48.041656,56.676704,57.894974,4.262833,22.233398,25.959446,25.010902,-12.232029,-11.86219,-14.445065,-17.622356,0.355498,11.36898,26.579465,36.599186,33.402589,51.052709,54.94338,56.21408,43.745079,65.20583,70.357395,70.605175,47.635293,71.030894,79.082296,82.747022,45.849743,67.714033,78.139886,86.202748,28.029487,54.51535,77.41523,97.923088,58.195656,88.488945,99.921043,102.6893,45.551994,78.375206,90.096679,90.637916,31.698898,62.510353,74.449905,76.663009,18.165779,42.396309,53.532074,57.231079,-18.340478,-20.652006,-14.259702,-10.093364,11.866539,34.625975,44.035515,48.227615,31.596204,56.914107,59.612699,56.421265,46.937637,71.186171,72.152158,68.364202,57.213609,78.84337,80.027348,75.123538,-37.382109,351.969549,-57.099455,355.555359
42,2.441402,-1.001394,0.028782,1.011817,17.040516,28.072689,31.565083,32.368767,32.616063,60.167164,70.437184,76.751049,17.709149,43.707287,51.306942,51.471875,1.166062,17.119114,19.088837,16.251378,-15.185897,-15.096428,-17.635574,-21.330162,7.833225,23.955245,42.541736,55.445103,38.981591,57.644442,60.27354,60.070542,46.717386,67.410381,72.055383,72.386748,48.107338,71.545077,79.444277,83.02396,44.380787,66.273902,76.088969,83.198208,27.90176,54.276249,77.064205,97.684055,57.922245,88.081066,99.686519,102.747059,45.339626,78.130153,89.880741,90.448848,31.637592,62.469898,74.324489,76.435718,18.271557,42.364299,53.357059,56.86259,-18.497842,-20.813606,-14.301704,-10.167859,11.961426,34.642685,43.67808,47.639764,31.809873,56.88632,58.972978,55.372064,47.130187,71.043948,71.543052,67.43271,57.285709,78.665098,79.499642,74.253982,-34.626498,350.725182,-56.756464,356.324203
43,-2.425563,2.242528,-0.062222,1.305676,17.852737,31.980995,39.862793,45.660244,34.797775,62.649238,73.710708,81.471473,20.701263,49.168922,58.885345,60.847801,4.858051,25.079956,30.47319,30.610817,-10.933377,-8.496918,-10.151768,-12.942742,1.523321,13.004872,28.144974,38.510818,34.642019,51.900765,55.238053,55.830326,44.630246,65.71012,69.223558,67.945658,48.070732,71.234633,77.485294,79.369324,45.888819,67.49924,77.240133,84.266403,27.814385,54.065918,76.853073,97.614166,57.834091,87.837525,99.565155,102.959358,45.408852,78.17054,89.784989,90.290657,31.843506,62.637634,74.100289,75.921135,18.571518,42.571358,53.068176,56.04625,-18.761566,-21.165497,-14.604911,-10.548428,11.707137,34.206739,43.06391,46.975588,31.620805,56.469393,58.191945,54.364766,46.994484,70.685165,70.671556,66.210768,57.206285,78.353171,78.585698,72.896806,-36.643266,352.668869,-56.409891,357.331038
44,3.752712,-0.688492,0.050858,1.125722,11.811893,21.624424,24.767658,24.619995,28.061931,55.896389,66.371075,72.941677,16.851574,44.670673,53.570835,54.621036,4.024704,23.958378,28.95235,28.017803,-8.99564,-3.825371,-3.770966,-5.967568,10.370105,27.938146,46.55613,59.681415,40.907808,59.395202,61.418108,60.451467,46.415747,67.543564,70.205785,68.619725,46.188925,69.796034,75.302972,76.639066,41.655877,63.262383,72.419673,78.630171,27.844471,54.155479,76.980858,97.899147,57.774559,87.454284,99.368705,103.161461,45.5205,78.047126,89.553955,90.127327,32.048263,62.597877,73.778915,75.429908,18.764213,42.335403,52.452118,55.08696,-18.768111,-21.170807,-14.642122,-10.914447,11.469855,33.707426,42.597336,46.598207,31.425341,56.244906,57.908709,54.066277,46.811802,70.508572,70.337301,65.711318,57.019824,78.267561,78.323865,72.488735,-32.435766,351.682515,-55.904245,358.158898
45,-2.346394,1.291325,-0.017956,0.944423,14.99794,29.30983,37.90979,44.063164,30.683327,58.542412,70.608994,78.904335,18.780739,48.350716,59.652947,62.472176,5.528424,27.780213,35.783203,37.662438,-7.759266,-2.990364,-3.033188,-4.575908,3.025165,15.225156,30.235805,40.631635,37.182442,54.457391,57.667746,57.889949,45.871614,67.070197,69.402967,67.118758,48.004128,70.995374,75.581997,75.823874,44.796787,65.883737,75.345432,81.999224,28.03949,54.497211,77.459186,98.43671,58.251217,87.938358,99.715336,103.26115,45.984844,78.661915,89.866184,90.154049,32.412472,62.984608,73.996387,75.474964,18.964325,42.398815,52.303699,54.724468,-18.768778,-21.072834,-14.601058,-11.162325,11.579969,33.654333,42.252868,45.999228,31.531601,55.955124,57.268345,53.281553,46.819891,70.190224,69.905493,65.312201,56.880997,77.819253,77.630198,71.786386,-34.322096,352.697294,-55.462137,358.826775
46,2.387753,-1.798938,0.317928,0.423781,14.151317,24.855686,28.366207,28.228683,27.654133,55.668171,66.989559,73.984485,15.113445,42.819271,52.268062,53.423458,1.225776,20.037597,24.705585,23.643139,-12.52787,-10.696152,-13.029579,-17.057877,11.15394,28.855869,47.358194,60.611228,44.546747,63.253652,64.931731,63.359356,49.899409,70.930636,73.384264,71.531282,48.59913,72.248995,77.750586,78.720919,42.264044,63.796425,73.347473,80.298865,28.200588,54.806397,77.889107,98.881943,58.41259,88.130036,99.79232,103.01033,46.16288,78.949494,89.973725,90.023438,32.63665,63.227532,74.175934,75.546272,19.18388,42.554924,52.391739,54.744004,-18.844447,-20.87138,-14.147797,-10.764282,12.026807,33.974101,42.262612,45.740444,31.927594,56.03141,57.065087,52.987572,47.04691,70.141429,69.785931,65.261516,56.912378,77.669631,77.470004,71.759746,-31.527202,350.713104,-54.737068,359.065304
47,-1.850064,1.398795,0.685101,-0.094169,16.295128,30.62114,38.901329,44.867695,30.526154,59.115052,70.774201,78.416703,17.775628,47.619164,57.931344,59.570893,3.722661,25.37415,31.778,32.244347,-9.963775,-7.439174,-9.747768,-13.27399,4.013962,16.732509,31.867337,42.428263,39.598773,57.639551,60.468325,60.0492,47.748247,69.857463,71.818607,69.096426,48.985256,72.901869,77.406105,77.37686,44.468435,66.043955,75.741326,82.93825,28.24007,54.86745,77.931576,98.785686,58.690784,88.480076,99.839847,102.441456,46.363003,79.346706,90.047184,89.576465,32.724231,63.405979,74.251293,75.442577,19.085804,42.510235,52.279941,54.563793,-18.712981,-20.475004,-13.553833,-10.240615,12.390924,34.777585,42.893194,45.923275,32.142917,56.181093,57.18965,53.055336,47.212031,70.238265,70.052989,65.776884,57.123552,78.003182,77.990103,72.554461,-33.065964,352.027792,-53.740665,358.887028
48,3.458577,-2.186854,0.991802,-0.380136,10.136913,20.112991,23.40493,24.120929,24.703159,53.173496,63.484211,69.541408,14.280819,43.51054,52.18626,52.699527,2.636501,23.827057,28.494747,26.982502,-8.824906,-4.465851,-5.849373,-9.359036,12.427394,31.473382,50.31573,63.378993,46.584906,66.432798,67.920452,66.250943,50.054106,72.195074,74.034718,71.800255,47.24282,71.413858,76.089414,76.413035,39.708207,61.278799,70.833181,77.604448,28.090107,54.754074,77.737541,98.468124,58.908142,88.874336,99.875084,101.883499,46.388443,79.417076,90.226913,89.825935,32.587143,63.303955,74.605041,76.225868,18.796085,42.141129,52.466652,55.513298,-18.54187,-20.159311,-13.032387,-9.602387,12.690772,35.64834,43.632495,46.26867,32.325958,56.294726,57.72615,53.92351,47.27083,70.12467,70.64551,67.039533,57.064791,77.906,78.756315,74.175225,-29.388347,349.815834,-52.529823,358.481788
49,-2.349026,0.748909,1.082886,-0.549245,16.05629,30.30225,38.277409,44.958893,30.773827,59.538528,70.094925,76.994224,17.366455,47.499046,56.827629,58.1922,2.620525,23.589855,27.888313,26.719688,-11.528423,-10.006336,-13.293079,-17.775673,4.048308,17.177236,32.560955,43.180161,40.390043,58.698521,61.717573,62.045851,48.61006,70.465976,73.23547,71.736565,49.66514,73.245634,79.159792,80.580299,44.521985,65.803018,75.617171,83.029826,27.850239,54.323593,77.14888,97.78054,58.476654,89.149223,99.909462,101.015808,45.829788,79.603157,90.653686,89.98304,32.045585,63.478019,75.288116,77.092071,18.39442,42.262481,53.219124,56.962486,-18.442329,-19.915385,-12.760537,-9.104246,13.003698,36.766899,44.233722,45.929314,32.371567,56.297752,57.764151,53.93097,47.170189,69.840679,70.700949,67.535734,56.938017,77.727874,79.183455,75.211804,-31.564711,350.587634,-51.274275,357.955434
50,2.742977,-2.41223,1.059334,-0.87672,15.082729,26.104797,29.93969,31.953518,29.057751,57.114246,66.421795,72.057598,15.519207,43.083904,50.541744,50.859203,0.760975,18.187912,19.583736,16.112824,-13.268635,-12.6893,-16.107548,-20.910759,10.512859,28.368744,47.114243,60.207059,45.060399,65.050107,67.376134,66.933914,50.846573,72.919011,76.44223,75.805114,49.773154,74.323067,81.573714,84.166206,43.111593,65.172706,74.986822,82.107176,27.503002,53.957084,76.549369,97.037727,57.891494,88.795578,99.572273,100.586746,45.194252,79.043197,90.763938,90.535606,31.4561,63.154266,75.741508,78.107437,17.913116,41.814239,53.5624,58.302864,-18.574586,-19.852572,-12.507287,-8.551148,12.427172,36.830514,44.581364,46.148602,31.778195,56.254588,58.490657,54.89561,46.690203,69.791637,71.361629,68.580884,56.602823,77.83301,80.40468,77.275429,-28.73168,348.245002,-50.124887,357.148312
51,-1.816601,-0.204295,0.789573,-1.20044,16.689102,31.005009,39.849049,48.534588,32.238785,60.054978,69.902848,76.977082,18.779091,47.17685,56.744614,59.700783,3.76799,22.440537,26.463089,25.759014,-10.733768,-10.585979,-13.8987,-18.083221,3.189026,16.137482,31.613123,41.640822,39.127605,57.200283,61.349787,63.262679,48.049057,70.084371,74.715862,74.978363,49.7302,73.817035,81.956912,85.397361,45.130239,66.973521,77.457135,85.424,27.291275,53.878029,76.248299,96.675751,57.333756,88.590157,99.501114,100.768501,44.603668,78.689347,91.030792,91.522476,30.880669,62.96798,76.289223,79.395401,17.389778,41.327614,53.786453,59.620674,-18.504191,-19.732443,-12.391703,-8.138235,11.321925,36.426913,44.832256,46.714693,30.621399,55.644642,59.049486,56.176646,45.807554,69.358495,72.005636,70.002057,56.09416,77.798751,81.573862,79.536531,-30.521313,348.20811,-49.308346,356.115275
52,1.754334,-1.592161,0.276123,-1.417975,17.418571,31.618732,40.395366,48.091129,31.871933,59.866997,68.914627,74.826027,17.415161,43.733139,52.007904,54.523773,1.900337,16.510345,17.551666,14.810325,-12.855583,-14.734738,-18.637997,-23.142597,5.054457,18.858292,34.787132,45.257371,40.419832,59.257363,63.574507,65.286858,48.935176,70.783929,76.8886,78.713917,50.031938,74.618111,84.669004,90.006845,45.036601,67.271097,77.751525,85.738286,27.18068,53.994255,76.289109,96.927384,56.709961,88.351296,99.556595,101.415367,44.080742,78.467514,91.463013,92.838936,30.497269,63.020027,76.927437,80.678604,17.198113,41.340615,54.348084,60.983208,-18.935505,-20.070811,-12.48886,-8.094862,10.026945,35.533472,44.716128,47.314993,29.40399,54.900883,59.367426,57.321425,44.812508,68.704397,72.151305,70.772925,55.374348,77.318765,81.915614,80.757744,-28.774235,346.818805,-49.039479,354.900156
53,-6.455818,-2.210319,-0.16975,-2.268241,25.509155,45.373672,60.301323,73.959068,42.801109,71.333335,80.770591,86.344482,25.504875,53.503967,62.818908,65.572425,7.041629,22.959411,25.513343,24.042343,-10.595879,-13.779843,-18.170941,-22.896218,-3.3662,4.653758,17.582615,26.008607,33.48857,52.402376,58.650221,61.683043,47.736045,70.163832,76.608216,77.930169,53.988151,78.799627,88.575001,93.346962,52.713499,76.114596,86.304389,93.729913,27.247822,54.417812,76.601452,97.326954,56.285625,87.919796,99.385288,101.999828,43.669155,77.909649,91.191319,93.536282,29.979481,62.30286,76.503765,81.086529,16.530785,40.411869,53.658222,61.171909,-19.312688,-20.145627,-12.217393,-7.915131,8.953983,34.458657,44.381651,47.91785,28.335498,54.122692,59.839212,59.084363,43.895157,68.117793,72.773774,72.490254,54.652412,76.965368,82.513222,82.423907,-35.257999,344.829494,-49.237175,352.852923
54,1.043598,-2.076234,-0.589359,-3.284319,26.217212,45.756031,60.870403,73.446384,42.315387,71.341839,80.494457,85.160122,24.38467,50.996143,59.547191,61.880481,5.656139,19.069187,19.823581,16.959778,-11.898846,-16.211449,-21.207779,-26.332375,-2.206033,5.726968,18.423544,26.253571,33.341678,52.934578,59.593791,62.324839,47.338113,70.106046,77.725392,80.150417,53.503398,79.331372,89.877441,95.563728,52.595457,76.715489,86.855512,94.294398,27.602257,55.276886,77.339103,98.011436,56.541435,87.799095,99.345703,102.912918,43.868522,77.360939,90.791015,94.413986,30.000641,61.447448,75.905914,81.59816,16.297817,39.530227,52.746437,60.999069,-19.454776,-19.885942,-11.260497,-7.066754,8.106989,33.6179,44.648573,49.622458,27.453825,53.341142,60.836073,61.887955,43.115558,67.502611,73.825384,75.057675,54.012949,76.526359,83.205333,84.567485,-34.258678,342.985179,-49.870811,349.800523
55,-6.881481,-3.127609,-0.81165,-3.791414,28.887165,52.984611,73.515152,91.262603,49.09243,79.073318,89.037002,93.836929,30.977851,61.099273,71.345901,74.606369,12.249824,30.586601,34.314468,33.632927,-5.329194,-6.879044,-10.754563,-15.092514,-9.1801,-5.320057,4.772467,10.76905,26.59137,46.660439,55.17387,59.636646,44.137873,68.390916,76.522049,78.632641,54.136364,80.04969,89.946527,94.859192,56.483707,81.272731,91.36733,98.690336,27.899792,55.969128,77.991749,98.796673,56.242482,87.002392,98.818737,103.435513,43.561512,76.578679,90.094265,94.857983,29.624325,60.462262,74.980236,81.603001,15.802117,38.567151,51.638684,60.46439,-19.370684,-19.536842,-10.310404,-6.153651,6.739379,32.107757,44.29057,50.92128,25.926973,51.95219,61.514625,64.859607,41.784417,66.360649,74.410544,77.307613,53.087768,75.821121,83.477715,86.140701,-41.167362,340.080832,-50.709664,346.232371
56,0.484119,-4.517326,-1.111015,-5.445596,28.861359,52.97105,73.797237,90.235554,48.522045,78.725292,88.043118,92.115429,29.755657,57.997044,66.544453,68.980923,10.460964,26.005325,27.201359,24.960114,-7.628529,-9.612213,-13.903244,-18.20295,-7.480791,-3.769418,6.167297,12.034908,27.314504,48.411508,58.207272,63.216033,44.484292,69.482329,79.236066,83.119216,54.489909,81.429564,91.990465,97.928274,57.361588,82.615975,92.408516,99.397143,28.287872,56.706928,78.889286,99.643307,55.789295,85.707172,97.963291,103.63187,42.823345,74.854878,88.948368,95.208836,28.731857,58.522259,73.565563,81.366085,14.882332,36.738979,49.557461,58.517658,-18.930996,-18.208479,-8.10116,-4.124544,6.617446,31.532095,44.397608,52.434511,25.648861,51.685663,63.051531,68.715921,41.372184,66.381767,76.258536,81.068584,52.438364,75.463289,84.427671,88.668689,-40.693909,335.724835,-51.831345,340.948104
57,-6.859852,-7.463476,-0.939171,-7.961097,30.198818,55.897179,77.858231,95.345627,53.050759,83.067124,93.342934,98.149407,34.896675,65.258606,75.829605,79.751061,16.132233,36.362423,41.777596,42.613518,-1.734844,0.648548,-1.168762,-3.872131,-9.268305,-5.111317,5.245685,11.369807,23.495377,46.696563,58.484556,65.542097,41.612096,69.192757,80.862399,85.792268,53.729799,82.091924,93.515577,99.829816,59.148422,85.720711,96.16152,103.43052,28.676754,57.202229,79.263188,99.410534,54.733578,83.763966,96.31493,102.78693,41.172741,71.91425,86.557423,94.329632,26.482327,54.419186,69.815701,78.818127,12.130898,31.778618,43.951058,52.827381,-17.303528,-14.920715,-3.67967,0.603721,7.877685,32.264096,45.778791,55.24361,26.247173,52.752092,66.166579,74.413408,41.324512,67.505871,79.861338,87.224877,51.63236,75.475132,86.380008,92.708314,-47.546139,328.411554,-52.762894,333.137202
58,4.664063,-5.597305,-1.21883,-9.64707,20.41349,40.689502,57.097217,68.10522,44.651184,67.500892,74.079998,77.550899,32.196762,55.284187,61.825882,64.547653,18.504856,33.050571,34.495056,34.009529,4.738964,6.241207,2.968643,0.071743,-0.863332,8.357598,21.184764,28.433286,33.774549,55.389873,65.422734,71.576471,46.134919,70.161856,79.870997,84.822108,52.413849,77.486356,87.567543,94.012693,53.006258,75.008967,83.836151,90.317857,29.219124,57.374199,78.679962,98.000633,53.363594,81.505989,94.303208,101.237023,39.093201,68.963951,84.069901,92.714012,23.89745,50.841133,66.609009,76.417946,9.264439,28.06184,40.109059,49.016739,-14.984849,-10.615871,1.793553,7.023035,8.81602,34.29839,49.207101,60.10984,25.967963,54.447648,70.131759,80.342152,40.329614,68.842287,83.234517,92.180225,50.418792,75.769275,88.245649,95.921843,-42.844659,323.084448,-53.944307,323.760331
59,17.26252,-0.864332,-0.04945,-12.230743,8.62001,18.191402,25.524364,29.80775,25.223602,34.821773,38.601963,41.253536,19.689445,29.50177,33.262893,35.409107,12.715358,17.645862,18.90612,20.036876,4.679729,1.944683,-1.372902,-3.233002,4.153159,16.232639,29.281045,37.546708,37.524774,50.634707,56.307693,60.736717,44.528753,56.939165,61.414983,63.702626,45.806949,59.04993,64.201878,68.331449,41.971532,53.7431,59.270589,64.219354,29.304531,56.381687,75.791004,92.920178,50.093228,76.778675,89.406269,96.442784,35.124939,63.301792,78.14732,86.642338,19.432526,44.455033,60.038075,70.010479,4.663674,21.873425,33.389122,41.73151,-10.269872,-2.489629,11.974738,19.893167,11.055806,38.234323,54.878381,67.306368,25.346024,56.574258,75.01892,87.403719,37.911603,69.106146,85.861935,96.668442,47.364134,74.167654,88.362789,97.523166,-25.492315,322.50815,-53.903933,311.817622
60,21.142044,0.496399,-3.013836,-18.434962,-3.867016,-5.866917,-7.376988,-9.53024,1.473037,1.134658,2.204006,4.024395,1.568504,-0.331101,0.241149,1.723056,0.447887,-5.158162,-6.778931,-6.378949,-2.396656,-10.123249,-14.159214,-15.953316,6.048119,18.034269,29.853891,37.592378,37.003749,45.155631,46.708542,47.869117,42.284471,48.076438,48.221872,48.245127,42.011201,48.067237,48.854468,50.374232,37.651288,41.523175,42.139864,43.558876,30.037045,56.365048,73.994122,88.170994,47.74054,73.390606,84.703732,90.391434,31.546183,58.442402,72.216225,79.58412,15.202658,39.067904,53.684195,62.613339,0.38819,17.254527,28.008969,34.98571,-5.388162,5.910928,22.536455,33.028492,14.109265,43.301927,61.109955,73.786512,25.972958,60.115008,79.204697,91.302121,36.97154,71.046671,87.728903,97.870222,45.824931,74.344828,88.238399,96.713884,-4.283626,323.284609,-56.851124,293.66272
61,12.859989,0.026849,-5.891475,-23.310398,-11.862396,-21.115494,-28.775368,-35.173462,-13.859539,-20.635975,-20.969078,-19.928215,-8.224125,-13.183445,-11.997219,-9.707703,-2.752075,-8.450329,-7.656521,-5.111744,0.940681,-5.376686,-7.235127,-7.169964,4.361888,14.932645,25.5787,33.871101,31.067793,35.51654,33.459214,31.807229,36.198314,37.175106,31.842304,27.708225,36.384294,37.065499,32.350324,29.731008,32.924356,32.37248,29.064955,27.387703,31.253483,57.17839,72.986984,83.688675,46.064769,71.214912,80.046936,82.979953,28.303922,54.918045,66.518978,71.365797,11.250131,35.333891,47.910467,54.282829,-3.52252,14.788519,24.730201,29.817112,-0.893781,13.390929,32.170792,45.35222,16.054996,47.834518,66.658057,78.595066,26.043539,63.666138,81.615001,90.947341,36.12908,73.330733,87.329588,93.85142,45.197918,75.737832,86.839358,91.861636,8.577599,323.570001,-62.741363,270.610865
62,22.093838,-5.903482,-5.682244,-25.982091,-22.248231,-41.17067,-55.845486,-67.143174,-34.583439,-49.21431,-51.43578,-50.787026,-23.440774,-36.555703,-36.927521,-34.455735,-11.949658,-24.853524,-25.952214,-23.596516,-2.359784,-12.328572,-14.704331,-14.16766,3.729626,11.228973,19.069374,26.056099,28.681962,27.775459,21.028751,15.927389,33.082617,27.85684,16.540027,9.137592,32.256853,27.05217,16.658415,10.766592,28.033811,22.168584,14.391582,9.656147,31.192429,56.184769,70.654518,78.366669,40.259365,65.257965,73.250645,74.965485,21.60089,49.209572,58.387642,60.173292,4.937239,30.652674,41.299353,45.008526,-8.500871,12.117606,21.64571,25.260269,0.703554,14.856563,34.186338,49.706649,10.743337,44.292737,62.748923,72.979052,19.572676,59.971019,74.772747,79.677705,29.922583,68.951714,79.003978,81.061094,40.579605,71.137969,78.709768,80.14846,30.706479,317.946152,-68.388565,244.908407
63,19.927986,-14.59051,-10.412189,-32.187476,-23.070179,-46.824108,-63.432267,-73.396306,-48.916981,-65.938271,-65.16996,-62.145848,-38.190857,-54.840271,-51.967965,-46.896859,-25.735989,-42.155686,-40.327343,-35.786351,-14.10886,-27.034115,-27.706993,-25.555516,-5.591908,-5.677278,-3.334208,0.586153,14.798331,12.64457,3.870447,-2.465095,23.867861,18.811417,5.940321,-2.37775,28.151216,22.645006,10.503096,3.447389,29.03035,23.525758,13.944595,8.022996,31.892361,57.560451,72.164909,78.435047,38.340488,64.105304,72.300373,73.693668,19.633089,48.389511,55.501156,54.756059,3.682188,30.99349,39.048334,39.739815,-8.512602,14.005606,22.11129,23.348167,0.334817,13.313407,32.438924,48.964458,4.984382,35.893717,53.428006,62.73325,13.972111,54.404478,66.217881,67.630249,25.170024,64.154288,70.125923,68.036289,36.967872,66.787529,70.486984,68.189628,50.795763,303.690923,-78.639456,213.056212
64,3.887695,-25.572439,-9.88781,-31.934349,-20.011746,-41.456692,-55.654266,-63.317791,-46.828022,-60.702107,-56.847267,-52.51601,-37.857536,-49.768547,-43.127243,-36.717075,-26.557285,-38.05497,-33.019535,-27.948017,-15.338505,-25.456524,-23.13517,-19.678219,-14.518078,-21.414098,-23.172182,-23.498236,2.698931,8.055958,1.053863,-5.109989,17.448363,21.936568,10.784086,3.165178,28.180794,30.992402,19.44137,12.057138,35.7041,37.244613,27.602625,20.80727,32.509518,58.37154,72.112244,73.502953,38.068634,63.278595,71.699844,73.019909,18.764277,47.307415,53.288521,51.168829,2.787523,30.527967,37.25564,36.052139,-9.322077,14.067896,21.986366,22.004528,0.413536,10.176227,25.707956,39.693535,-3.732701,19.344409,34.556346,42.566405,4.27608,38.266415,48.778626,48.957616,15.325279,49.024263,53.588076,49.955669,27.279319,53.060091,55.154307,51.237719,54.901686,278.762136,-88.309038,181.765515
65,5.842129,-29.624643,-7.267113,-29.906194,-17.902394,-38.342263,-51.979443,-58.887692,-43.288616,-56.824494,-51.902424,-47.071575,-35.052281,-47.8163,-39.126778,-31.301823,-24.819111,-36.828632,-29.840504,-23.636559,-14.280407,-24.699818,-20.942379,-16.097752,-18.095063,-28.804826,-32.42474,-34.537209,-6.444742,-2.101045,-9.268246,-15.562947,8.45268,15.594579,7.423727,1.815635,20.748138,26.969894,17.930807,12.246157,30.07828,35.672046,28.332009,23.009828,32.223988,57.938399,71.002459,68.993574,38.036831,62.676081,72.438744,75.363121,19.051134,46.957226,53.460715,52.225645,3.391577,31.166834,36.787875,34.560328,-8.561582,15.193262,22.652951,21.79584,-0.180546,5.694385,16.911505,27.252942,-13.952286,0.246468,11.941495,18.157601,-7.662229,17.520105,26.482269,26.429059,2.674305,30.914072,36.128641,33.195243,14.811899,36.701333,39.059127,35.683309,61.188429,250.270622,-95.131537,152.99245
66,9.718139,-33.951241,-4.646415,-27.878039,-19.300403,-41.721496,-56.937389,-64.112262,-40.944362,-56.817146,-53.652706,-50.209018,-32.834415,-53.161903,-46.173271,-38.802211,-24.241001,-43.606029,-37.775242,-31.646599,-15.836986,-31.302944,-28.535625,-23.784038,-19.699907,-32.354215,-35.897571,-38.226945,-15.513939,-15.40264,-24.774608,-33.064329,-1.469956,7.576757,3.824295,0.128712,12.034587,20.25361,14.6825,10.051275,23.134471,30.348197,25.297248,20.637031,31.03577,56.261026,68.835554,64.906911,38.245079,62.297761,74.51707,80.723304,20.493662,47.338943,56.017736,57.926508,5.494348,32.910089,37.645036,35.264379,-6.23112,17.381704,24.111042,22.722101,-1.447429,-0.132118,6.049571,11.642679,-25.674373,-21.400108,-14.416544,-10.493164,-21.842815,-7.834453,-0.671189,0.044578,-12.782897,9.823713,17.747618,17.75501,-0.434389,17.711254,22.201444,21.526398,71.637165,218.327579,-99.047355,127.122609
67,6.380104,-26.902598,-4.798325,-24.392339,-21.48127,-44.5536,-61.306949,-68.487487,-38.844154,-55.902145,-54.14558,-51.386696,-30.542369,-56.697532,-51.341491,-44.374282,-23.198501,-48.531291,-43.548523,-37.415714,-16.857971,-36.817131,-34.613994,-29.7434,-20.248955,-33.914197,-38.115047,-41.41552,-27.46914,-30.732976,-41.071215,-50.880602,-15.439159,-5.495602,-4.53253,-6.054949,-1.610865,8.404786,6.982193,3.992263,11.415625,19.422894,17.577427,14.895366,31.529732,56.625498,69.158953,63.918211,42.385059,65.662645,79.555,88.364971,25.421969,51.00975,62.745077,68.710962,10.582243,38.055102,41.333422,38.004232,-1.211134,22.944506,28.436062,25.911043,-1.983441,-3.009569,-0.620042,0.731999,-33.641016,-36.927459,-33.470369,-31.327864,-31.871539,-27.235185,-21.077194,-20.133369,-23.976098,-5.019826,6.489765,8.617023,-11.73414,4.768398,11.546812,12.165406,78.915693,194.001412,-102.947256,105.306701
68,-1.163818,-23.538381,2.546459,-20.700522,-22.822609,-45.345715,-61.831341,-67.710983,-34.222183,-50.416534,-51.168423,-50.749649,-24.895122,-53.662811,-50.680687,-44.843193,-18.168846,-46.507519,-42.986481,-37.489117,-13.385055,-35.926552,-34.949764,-30.530685,-19.241397,-34.607036,-39.385425,-41.858961,-42.154462,-53.055842,-64.237808,-75.629326,-32.43152,-21.872354,-14.504912,-13.464664,-17.715983,-6.2196,-3.101568,-4.501518,-2.32644,6.808249,8.237011,7.122275,30.597611,54.171736,65.209551,56.473074,41.574829,64.059271,78.820816,89.463478,24.427672,49.733986,64.419691,73.474142,9.842119,37.952746,40.229925,35.826571,-1.618211,23.483111,27.711022,23.822394,-1.53288,-3.835797,-3.219296,-3.459904,-39.914049,-47.677694,-48.101858,-49.447578,-40.032369,-42.934271,-38.744827,-37.863667,-33.192224,-16.913586,-2.955097,1.298815,-20.688265,-5.705152,2.405608,4.538723,78.672752,173.031252,-99.47992,87.1744
69,-2.949371,-19.933107,2.505318,-16.957769,-25.647423,-47.641606,-63.570271,-68.318688,-30.301323,-44.795769,-49.119381,-51.092263,-18.924946,-50.697716,-52.007721,-47.216927,-11.887574,-43.67181,-43.13443,-37.979336,-8.030686,-32.773155,-34.466915,-30.697861,-17.496831,-32.365354,-36.548772,-37.128911,-53.588538,-72.146322,-86.478676,-100.613876,-46.921976,-36.934687,-24.643181,-20.478221,-32.697967,-19.965865,-12.493732,-11.506658,-16.252196,-6.81262,-2.009321,-0.978972,29.49202,52.510008,64.237776,57.433885,42.317734,65.451479,81.027889,93.586899,25.444731,51.866157,68.693316,80.522982,11.128023,41.472479,42.655741,37.372965,0.223566,27.479341,30.422413,25.339651,-4.959682,-8.180481,-7.347922,-8.002881,-45.632909,-53.020691,-56.089816,-60.234701,-45.503962,-49.101964,-49.137933,-51.399382,-37.938872,-18.412886,-4.816371,-2.128703,-23.472961,-6.143554,1.388851,2.109604,76.685171,155.586322,-96.012812,72.704808
70,-4.199055,-15.731924,4.057835,-12.224111,-28.128227,-48.978607,-63.696487,-67.965546,-28.83696,-41.823051,-47.777412,-51.011467,-15.598892,-48.290176,-53.586159,-50.883774,-7.670082,-40.570335,-43.099297,-39.479828,-3.813171,-29.22123,-33.645447,-31.569191,-16.246379,-31.334635,-36.735005,-37.863185,-62.612713,-85.064539,-101.005068,-116.517303,-58.418044,-49.679725,-34.922636,-27.948285,-44.891888,-31.968311,-21.597984,-17.785853,-27.647116,-18.775929,-11.73351,-8.443813,29.046203,51.405006,63.51115,58.92937,43.95243,67.768775,83.424167,96.304412,26.857841,54.031105,70.453399,81.873367,12.261062,43.477867,44.761516,39.731609,0.768047,28.498008,31.617141,27.006294,-7.298516,-10.958352,-9.493626,-9.681483,-48.449991,-55.178081,-60.155226,-66.496172,-48.468343,-49.961301,-50.198028,-52.413781,-40.416818,-17.839231,-3.599839,-0.485994,-24.670161,-5.607987,2.314998,3.18009,73.39674,142.292653,-91.044353,62.918952
71,-5.926575,-11.816842,6.050502,-6.355834,-30.69873,-50.026725,-62.831245,-67.151367,-30.086654,-41.815613,-47.078567,-49.672737,-14.907211,-46.853027,-55.012413,-54.592712,-5.427177,-37.803177,-42.84169,-41.234138,-0.643913,-25.877907,-32.486412,-32.161903,-16.2107,-33.334293,-42.773245,-47.739176,-69.070881,-91.479092,-107.828273,-123.552238,-66.294563,-58.43452,-42.759907,-33.214355,-53.252185,-40.583804,-28.443401,-21.714088,-35.425156,-27.822945,-19.068688,-13.066808,30.333985,52.129303,64.006794,61.67498,45.775429,68.377133,84.089733,97.068913,28.163166,55.073204,71.38361,82.507611,13.206768,44.091339,45.591923,41.128727,1.107731,28.263474,31.563893,27.85096,-8.978628,-14.252848,-14.944403,-16.762174,-49.397656,-54.506873,-59.661359,-66.500056,-49.13815,-45.655235,-43.890112,-44.374908,-40.313454,-14.017307,1.152367,5.482646,-24.14422,-3.489732,4.931684,6.435461,68.213596,132.121994,-84.25042,58.209301
72,-9.241287,-9.439236,7.005112,-3.225996,-31.885986,-50.794556,-61.795017,-66.772041,-31.01445,-40.561821,-45.179466,-47.887207,-13.625359,-41.150528,-50.958572,-52.631126,-2.115074,-32.674393,-40.433693,-40.92762,4.42083,-19.734856,-28.291763,-29.427658,-16.321795,-36.308001,-48.222879,-55.257925,-73.607529,-97.90823,-114.894509,-130.310258,-71.450735,-66.956089,-54.466803,-45.56771,-58.547499,-45.663059,-32.551514,-24.529493,-40.431929,-32.137545,-22.363215,-15.573825,30.585011,51.814362,62.39724,61.938767,47.947987,68.142803,82.547665,94.708729,29.868187,55.206436,70.355164,80.374958,14.442444,43.448467,46.249558,43.655548,1.437561,27.337154,31.331451,29.215656,-8.749323,-15.03244,-16.811043,-18.8715,-47.025563,-53.594634,-59.236164,-66.378112,-47.169084,-40.272933,-35.264234,-31.867387,-38.530991,-10.143296,5.607376,11.919762,-22.902691,-0.956656,7.840376,10.622874,59.517523,123.798458,-76.700094,56.099005
73,-6.888542,-2.236934,3.670155,2.344879,-33.144173,-52.467499,-63.007324,-68.898686,-34.196777,-40.581757,-42.921661,-44.092529,-14.926026,-38.30333,-48.652771,-51.608048,-1.427055,-29.910095,-39.889526,-42.291321,6.84288,-16.002068,-26.091293,-28.393341,-16.677557,-38.01314,-51.296388,-60.598754,-76.228685,-98.681894,-115.051558,-129.271801,-74.180424,-74.223495,-64.96649,-56.088319,-61.859556,-48.769444,-34.265476,-24.260427,-43.554177,-34.345066,-23.39268,-15.226336,31.173751,52.815067,63.553699,65.952186,51.880909,70.274025,83.475242,94.943801,33.952137,57.412021,71.020088,80.398933,17.79269,44.364132,48.118869,47.430358,3.472217,27.623725,32.525825,32.103481,-9.037945,-16.800725,-21.428393,-25.870483,-44.46925,-51.103918,-56.286464,-62.491139,-45.007072,-33.664429,-24.975238,-18.19897,-36.558745,-6.102886,10.315598,17.678766,-21.969049,1.449721,11.238217,14.741948,53.048945,122.493795,-72.609975,59.376155
74,-8.46714,0.730063,1.605159,3.204754,-32.904167,-51.379589,-60.05333,-65.259659,-34.419709,-37.164025,-36.157975,-34.516915,-14.250138,-33.315239,-43.682831,-48.33648,0.344673,-23.955231,-35.495957,-40.117287,10.062698,-9.125496,-20.195298,-24.39029,-16.307166,-39.132502,-53.084001,-63.657573,-76.124932,-97.211068,-111.203297,-122.580465,-73.684019,-76.29022,-68.252632,-59.379147,-61.386597,-47.529947,-31.870845,-20.841542,-42.914499,-32.503385,-20.635117,-12.016278,31.334748,53.861012,65.322293,69.927784,54.453884,72.715405,85.928501,97.166943,37.037007,60.075497,73.080128,82.228032,20.965416,45.733155,50.027745,50.711712,6.156773,29.000405,34.147923,34.862286,-8.84332,-16.898834,-22.982651,-28.214826,-39.716235,-46.069253,-50.431685,-55.118807,-39.5621,-25.196885,-13.091304,-2.558474,-30.673251,0.83891,17.614194,26.73673,-16.901644,7.08071,17.401834,22.500356,44.951077,123.574965,-70.635544,62.932016
75,-2.314362,3.269376,-0.029422,5.087746,-28.710068,-47.815281,-57.034927,-62.438827,-38.12558,-42.075485,-39.629837,-35.739509,-20.496002,-36.83963,-43.369949,-46.019829,-6.604111,-25.632522,-33.21611,-36.375137,3.819901,-11.24247,-18.800606,-21.919075,-19.035084,-43.534887,-58.678891,-70.335887,-71.127546,-89.8937,-101.671745,-110.662858,-65.543833,-69.403147,-65.211931,-59.510966,-52.270755,-39.626629,-26.610383,-18.101979,-34.146762,-24.32563,-14.305508,-7.405425,30.662864,53.761276,66.566757,73.415519,54.098568,72.900787,87.029342,99.094574,37.864448,61.138916,74.875099,84.879753,22.682087,46.622245,49.952282,50.300834,8.887458,30.967117,34.762825,34.739364,-9.348364,-16.639167,-21.828987,-25.912875,-35.701841,-41.556724,-44.276392,-46.577768,-33.463814,-17.32385,-4.110811,7.428031,-23.103917,7.841672,22.572517,30.22159,-9.251249,14.347288,22.888012,26.828096,42.85841,126.657033,-70.443271,67.832454
76,0.492073,4.602826,-2.234368,6.418795,-24.70935,-44.015385,-54.319313,-59.997368,-37.806724,-45.93885,-45.707531,-43.753807,-22.613365,-38.11615,-42.071319,-43.582397,-9.818252,-27.408691,-33.372185,-35.452949,0.343346,-14.118599,-20.367782,-22.728058,-20.976967,-45.15644,-60.505845,-72.409589,-63.781445,-79.649714,-89.163983,-95.94826,-55.46104,-58.937891,-56.951646,-53.544375,-41.521953,-29.206148,-18.34304,-11.847372,-23.844823,-13.076743,-5.032887,-0.23493,28.656613,52.452736,66.744599,75.48626,51.737114,72.349251,87.278641,100.173065,36.437302,61.881844,76.109322,86.176598,22.247074,47.5574,51.451916,52.050671,9.806294,32.527531,36.394501,36.273457,-9.731538,-14.527692,-15.477371,-14.612395,-32.683332,-38.777845,-40.570509,-41.521298,-28.733146,-12.543781,1.80878,13.964738,-16.942177,12.552722,25.949906,32.089954,-2.300444,20.865155,28.162949,30.699217,43.523557,130.893852,-72.504565,73.885242
77,4.413529,5.204393,-4.461456,6.296584,-18.602578,-36.435116,-47.409108,-53.962281,-37.247521,-51.10801,-55.585648,-57.697094,-25.517304,-44.508454,-48.339638,-49.661179,-14.909821,-32.481102,-37.446213,-38.832344,-6.050126,-20.402321,-25.916863,-28.046654,-22.827819,-45.544461,-60.368451,-71.598374,-55.82254,-68.582601,-75.418662,-79.823721,-44.896872,-46.134351,-41.64911,-36.944185,-29.966617,-19.489511,-10.042285,-4.150425,-12.708989,-3.289414,2.827242,6.392606,26.035274,50.797165,67.281315,77.745621,47.293098,70.338924,86.298454,100.10907,33.908157,62.9702,78.697105,89.660316,22.064117,50.715134,55.504326,56.176311,12.163444,36.808388,40.850578,40.652481,-13.058242,-17.44853,-15.466625,-11.593615,-32.124935,-36.858141,-38.035802,-38.522865,-24.691489,-8.672629,4.773708,16.187278,-10.319735,16.243119,26.53259,30.821625,5.873292,26.198137,30.688979,31.540129,48.098191,135.595668,-76.804916,79.679249
78,6.408004,4.871415,-3.104988,6.886122,-10.706314,-25.968395,-37.527671,-45.525798,-36.542678,-54.051223,-58.393592,-59.436161,-31.084556,-51.399215,-51.082946,-49.281303,-24.562545,-40.498649,-40.245094,-38.50399,-17.828636,-30.517044,-31.985366,-31.903061,-25.563021,-48.066607,-62.609224,-74.214491,-49.400712,-59.724442,-65.015897,-67.585597,-36.394223,-36.630572,-33.003847,-28.84035,-20.921792,-14.952467,-9.585454,-5.689275,-4.732718,0.333156,3.113802,5.081343,21.566963,45.680225,63.651695,75.978264,39.405338,63.047653,80.117031,94.615196,28.80748,59.672584,77.891212,90.721344,20.423412,51.153934,59.180351,62.131073,14.388531,39.798603,45.665119,47.107532,-16.951877,-22.033195,-18.187145,-12.451168,-34.205937,-39.808971,-41.321412,-41.692075,-23.241089,-11.704525,-1.802482,6.736828,-6.509765,13.593853,20.478561,22.710542,11.212226,25.857707,27.805272,27.277917,54.693964,139.872763,-79.722135,85.971051
79,8.944016,3.021843,-3.264931,5.29461,-4.7528,-18.954598,-32.957291,-43.563583,-31.622566,-53.956192,-61.552643,-65.131863,-31.866257,-53.573067,-53.226677,-51.125954,-29.658508,-46.812836,-45.331902,-42.379578,-26.416329,-40.498306,-40.664429,-39.308258,-28.221352,-50.681712,-65.140077,-76.392552,-43.808805,-54.405669,-60.446823,-63.927497,-29.196323,-32.935706,-34.168837,-33.866816,-13.794733,-15.426222,-16.419786,-16.41153,1.009348,-0.255091,-2.545778,-3.51043,15.933071,37.515919,56.521454,70.772667,33.592232,56.273426,73.640797,88.463402,27.869557,57.761856,75.001213,86.50668,23.653278,53.762592,60.546501,61.909607,21.164085,46.02134,52.391853,54.087353,-20.642193,-28.797125,-25.673777,-20.53492,-38.253318,-44.473678,-46.992119,-48.515285,-25.297835,-18.269674,-11.960598,-6.477853,-7.83843,4.456731,8.192761,8.799082,10.11691,18.687274,17.815568,15.539071,63.797871,142.54374,-82.827175,90.914795
80,4.976807,-4.073248,-3.395845,1.171708,1.398353,-7.330079,-19.690522,-30.284569,-21.570969,-41.676156,-49.271325,-53.797818,-26.028122,-45.821412,-45.578568,-43.897751,-27.928597,-45.535286,-44.359841,-41.26989,-28.444062,-43.041619,-42.92759,-40.751404,-27.174201,-49.993387,-65.199766,-77.140498,-47.329085,-60.222837,-64.413769,-65.33942,-34.488266,-42.020161,-40.77137,-38.057261,-19.808674,-25.841936,-25.460967,-23.763936,-4.966697,-9.476861,-11.00698,-10.920548,8.540691,26.394642,44.335298,58.142395,26.298191,47.518037,64.011451,78.034853,26.00988,55.18103,71.635626,82.19458,26.630956,56.468113,63.507694,64.653208,28.14945,52.982854,60.257326,62.623209,-24.190119,-37.377148,-38.786517,-37.349826,-44.534561,-53.950066,-58.572103,-61.846366,-30.939763,-31.220138,-29.738155,-27.266209,-13.676413,-10.273595,-9.764941,-10.271409,3.879402,5.347138,2.249527,-0.844335,68.966578,138.228507,-86.03112,91.844518
81,4.261207,-4.433143,-3.396549,-3.533871,8.067627,5.057785,-3.607017,-11.326332,-11.331848,-27.017349,-32.327236,-34.845486,-20.143684,-36.399307,-36.996712,-35.999176,-26.633858,-40.916061,-40.067779,-37.656715,-31.485763,-43.094536,-42.845306,-40.992805,-27.338445,-51.873896,-68.26613,-80.854748,-49.287128,-67.018302,-74.330453,-78.065068,-38.163588,-53.469638,-58.144824,-60.565057,-25.223431,-38.442336,-43.422451,-46.371657,-11.728052,-22.338403,-27.391494,-30.265099,-1.182507,11.106948,26.658605,38.301132,17.304553,37.89644,52.64804,64.430288,23.72945,51.806167,66.406465,74.980236,30.086545,58.622074,65.459827,66.282709,36.110109,59.955121,66.968885,69.147725,-27.987948,-47.183854,-54.727399,-58.981656,-51.760038,-66.669613,-73.948165,-78.763972,-37.933306,-47.914504,-53.012695,-54.36439,-21.244883,-29.419761,-34.611751,-37.713243,-4.353361,-12.387117,-19.10668,-23.531628,73.421986,133.630923,-89.233468,88.146206
82,3.069809,-11.126572,-2.77327,-3.845155,14.431206,16.743599,11.904968,8.060326,0.452934,-9.637321,-10.501533,-8.641914,-12.826721,-24.199173,-23.408386,-21.905617,-23.606232,-33.781906,-31.843849,-29.466179,-32.167511,-40.95591,-39.497246,-37.003715,-27.156232,-54.366125,-73.217834,-87.560886,-54.263952,-79.833995,-90.185136,-95.552649,-44.515791,-69.525171,-79.736751,-85.174337,-32.794532,-55.024989,-65.445241,-71.740332,-20.115085,-37.734651,-46.491014,-51.693375,-9.730373,-3.941826,7.863905,15.93417,8.8335,27.247141,40.601932,50.792627,20.800644,44.404781,56.43152,63.271534,31.392385,55.033298,61.250587,62.414389,40.583456,61.090135,68.128172,70.74666,-28.626719,-51.972382,-66.135275,-76.42918,-57.085462,-78.671325,-89.198702,-96.272857,-45.335846,-65.467422,-76.770505,-83.436422,-30.951381,-49.904645,-60.294859,-67.338966,-15.773704,-31.638382,-41.364813,-48.514356,76.9382,122.361661,-91.560333,84.158361
83,2.750107,-12.586401,-2.558739,-6.209906,18.203544,25.091812,24.136734,24.051704,13.248001,5.231552,2.825706,2.816276,-2.231896,-11.321938,-13.723526,-14.960404,-16.204422,-24.68113,-25.633118,-25.126488,-28.590614,-36.394684,-36.796005,-35.541939,-27.625535,-56.307669,-77.964063,-93.920092,-58.4681,-90.336505,-104.117302,-112.723401,-50.46679,-82.641904,-97.189937,-106.746146,-40.341137,-69.074918,-83.435563,-93.420901,-28.8806,-51.463059,-62.680534,-70.699813,-16.500217,-17.179287,-9.980146,-6.193005,2.382317,18.626936,29.715729,38.206587,18.85968,38.150665,46.711229,50.992676,32.813753,51.668781,55.334587,55.010428,44.327379,61.270609,66.689112,68.438192,-27.68697,-53.746187,-72.999981,-87.984231,-60.793191,-87.939091,-101.79786,-111.682301,-52.014054,-79.750416,-95.433683,-105.880362,-40.289389,-66.91035,-81.736244,-92.281019,-26.82068,-48.609118,-61.275764,-71.159109,80.17828,109.648357,-93.629099,77.821552
84,1.975204,-13.8809,-0.448791,-6.189873,23.045426,34.35402,37.914734,42.03788,19.173409,14.137139,12.841164,13.553467,1.598763,-4.275489,-5.037758,-5.273758,-14.643722,-19.73925,-19.588485,-18.460144,-29.258789,-34.532203,-33.951439,-32.075821,-28.315015,-58.141736,-82.277799,-100.261501,-63.020766,-98.485263,-114.242374,-124.635031,-56.655657,-92.62889,-109.65028,-121.582664,-47.801741,-80.328116,-97.096879,-109.591105,-37.143262,-62.526022,-74.976226,-84.920704,-21.501892,-27.530732,-25.341357,-25.823422,-6.401642,7.906969,16.634857,23.135885,12.300865,29.095745,37.102667,41.521156,28.735719,45.246585,50.357517,52.111753,42.662424,57.383897,62.061601,63.894773,-26.352519,-53.571897,-76.027728,-94.026911,-63.388888,-97.166561,-114.394222,-126.999578,-56.324098,-91.693533,-111.651553,-125.556088,-46.022502,-79.286288,-98.87643,-113.141532,-33.736986,-60.940867,-76.306445,-88.589318,82.691276,95.523883,-93.540098,71.388105
85,0.263924,-9.119239,1.400739,-2.669526,23.950722,36.797836,42.932877,50.210976,23.80426,19.167412,17.438965,17.886177,6.065437,0.852356,-1.320717,-2.544731,-10.952454,-15.454948,-17.506256,-17.576431,-26.732117,-31.957993,-33.334053,-32.56826,-29.217115,-59.035024,-83.948814,-102.337327,-61.844952,-100.537426,-121.143199,-136.530976,-56.177962,-96.517894,-120.038163,-137.499216,-48.812694,-85.818487,-108.688363,-126.116411,-39.972128,-68.817864,-85.254984,-98.955214,-24.265262,-34.138584,-35.663921,-39.290016,-12.865322,-0.596477,6.80571,12.578957,7.029877,20.905335,28.161541,32.693024,24.960995,38.740105,44.379845,47.432648,40.504269,52.828594,56.887791,58.874932,-24.663429,-52.20725,-76.468549,-96.081776,-63.300002,-101.261018,-121.031703,-136.033786,-57.500619,-97.616688,-120.528962,-137.406628,-48.463378,-86.230381,-108.989934,-125.956755,-37.480141,-68.421902,-85.834178,-100.267911,83.675045,85.892078,-91.419514,68.206013
86,-0.671265,-7.689816,3.329441,1.429429,25.014611,38.782082,45.721711,53.889107,24.277771,20.520493,19.224312,19.93142,6.21492,1.72554,0.229111,-0.696533,-10.886009,-14.903595,-16.481346,-16.50412,-26.41381,-31.994224,-32.90522,-31.841194,-28.263985,-57.536792,-82.519409,-100.632979,-63.344103,-103.693027,-124.119791,-139.226789,-58.217596,-100.51251,-123.838277,-140.436776,-51.253799,-90.209732,-113.096392,-130.013331,-42.824843,-73.100113,-89.707645,-103.379668,-24.804554,-37.096847,-40.916645,-46.487434,-16.579364,-6.887821,0.032811,6.116959,3.489064,13.672165,20.459393,25.538567,21.84375,32.273827,37.900383,41.778077,37.895703,47.682587,51.54649,54.034481,-22.104183,-49.005429,-73.621996,-93.452029,-60.639275,-99.524472,-120.777655,-137.823856,-55.593334,-96.802835,-121.039687,-140.341174,-47.603009,-86.725298,-110.768759,-129.526805,-37.867501,-69.890357,-88.262395,-104.444628,83.861726,77.315075,-87.232127,68.748255
87,-1.450149,-0.631305,4.875344,2.338717,24.333847,38.417496,45.786072,54.554077,24.32801,20.791305,19.634628,20.208137,6.15113,2.041649,0.606491,-0.106728,-11.241417,-14.986771,-16.498833,-16.441727,-27.115975,-32.369797,-33.469071,-32.643128,-27.258095,-55.899826,-80.672702,-98.641572,-60.651421,-99.455411,-120.30277,-136.694294,-55.923211,-97.32241,-121.227106,-139.251687,-49.634524,-87.924349,-111.017892,-128.727441,-42.034506,-71.936266,-88.579848,-102.67049,-25.494564,-39.031586,-43.878983,-49.909069,-18.79406,-9.335038,-2.61913,3.497577,1.655445,11.027527,17.626018,22.631057,20.561062,30.191288,35.587921,39.405292,37.069141,45.773163,49.219139,51.490825,-19.70279,-45.855739,-69.909062,-89.349734,-56.842193,-95.416632,-116.832317,-133.98994,-51.814548,-93.334735,-117.569536,-136.792384,-44.210739,-83.247725,-107.045698,-125.537371,-35.358076,-67.549288,-85.454783,-101.045657,83.048905,75.638101,-81.719455,70.041303
88,-2.23201,0.660766,4.298481,5.724059,24.217575,38.728569,45.953567,54.426613,24.167999,20.335922,19.142944,20.010246,5.983772,1.542297,0.085762,-0.372162,-11.411339,-15.742401,-17.351006,-17.395294,-27.439911,-33.359917,-34.574204,-33.548058,-24.781014,-52.645097,-76.845578,-94.250431,-55.252175,-93.472876,-113.549776,-129.279643,-50.162138,-90.732751,-114.109531,-131.599983,-43.685254,-80.926335,-103.707266,-121.249873,-36.073256,-65.033057,-81.448256,-95.035995,-25.848416,-39.79897,-44.566407,-50.577324,-20.236267,-10.085198,-3.06189,3.185188,0.377563,10.180606,16.80812,21.581279,19.493419,29.439628,34.685108,38.212165,36.039814,44.764148,48.199516,50.292102,-17.581182,-43.365999,-66.833391,-85.622065,-52.632074,-91.038163,-112.296032,-129.116647,-47.47568,-88.728333,-112.601357,-131.40605,-40.251956,-78.794303,-101.817549,-119.268969,-32.374178,-63.967103,-81.141017,-95.736362,81.337795,75.307347,-76.900074,74.773842
89,-3.147629,2.616736,1.503112,7.693108,24.313339,39.36953,46.435227,54.750893,24.035912,19.692055,18.227532,19.117836,5.939827,0.99456,-0.928505,-1.373382,-11.266937,-16.648979,-18.510177,-18.374267,-27.17466,-34.377685,-35.844292,-34.381348,-21.420354,-48.342737,-71.920779,-88.828499,-47.500541,-84.399173,-103.572966,-118.447911,-41.92086,-81.129118,-103.834843,-120.634018,-35.416282,-71.19226,-93.290719,-110.195741,-28.228781,-56.034967,-71.996652,-84.621678,-25.171073,-38.70425,-43.163188,-49.229061,-19.869106,-9.097927,-1.605285,5.128739,0.784985,11.332123,17.952118,22.719624,19.895588,30.395852,35.673317,39.08495,36.307286,45.344033,49.059918,51.171444,-16.482445,-42.365748,-65.631061,-83.958689,-49.209589,-87.316787,-108.402663,-125.163318,-43.817599,-84.501586,-108.354893,-127.213691,-36.77247,-74.698622,-97.612884,-114.853216,-29.483933,-60.607456,-77.68786,-92.145311,78.600752,77.050685,-74.986376,81.593552
90,-3.161957,5.326362,0.269154,6.737618,24.603997,39.784424,46.717507,55.006279,23.934014,19.225754,17.414727,17.97686,5.823418,0.613747,-1.382377,-1.806244,-11.445511,-17.450225,-19.052009,-18.618484,-27.635833,-35.118347,-36.215973,-34.174072,-18.60296,-45.11729,-68.412948,-85.334772,-41.875109,-77.346547,-95.692841,-110.167965,-36.127085,-73.766943,-95.743569,-112.218981,-29.85031,-64.096045,-85.488209,-101.90124,-23.31238,-49.950223,-65.58108,-77.537491,-24.696854,-37.836216,-41.948158,-47.911159,-19.663444,-8.795059,-1.2537,5.729668,1.13673,11.978462,18.759407,23.92337,20.280167,30.987831,36.441467,40.029831,36.51923,45.689415,49.611774,51.923447,-16.439411,-42.228946,-65.049897,-83.103235,-47.34853,-84.749501,-105.748958,-122.515553,-41.524071,-81.52545,-105.379116,-124.208873,-34.569616,-71.554772,-94.37702,-111.747424,-27.587874,-57.976492,-74.871164,-89.339101,75.692436,81.652527,-74.463581,87.60665
91,-2.239288,5.055173,-1.422295,4.546448,24.611893,39.422905,46.064461,54.437965,23.496208,18.423706,16.010696,16.048233,5.176392,-0.253418,-2.505753,-2.997551,-12.251129,-18.712601,-20.242447,-19.563812,-28.701851,-35.859444,-36.607979,-34.227104,-16.936286,-42.958724,-65.808347,-82.945025,-37.946888,-72.267786,-90.531118,-104.998937,-32.055831,-68.712537,-90.225423,-106.774601,-25.966079,-59.286336,-80.28599,-96.483,-19.951929,-45.829563,-61.192571,-72.706677,-24.307571,-36.977176,-40.854892,-46.796997,-19.623081,-8.659195,-1.253849,5.867478,1.11327,12.441365,19.139924,24.508828,20.181164,31.184075,36.672627,40.406868,36.375458,45.517777,49.473862,51.969098,-16.913246,-42.562175,-64.91354,-82.646832,-46.528441,-83.535778,-104.728804,-121.655808,-40.328484,-79.967778,-104.155284,-123.19574,-33.447722,-69.90175,-93.05361,-110.83198,-26.760918,-57.010135,-74.036922,-88.797555,73.581923,86.377943,-75.757101,91.823341
92,-1.294373,3.740729,-2.95388,2.343064,24.326867,38.308228,44.638733,52.837899,22.544312,17.164078,13.92643,13.103165,4.130585,-1.664451,-4.506111,-5.338233,-13.366813,-20.149978,-21.947456,-21.250122,-29.913368,-36.77069,-37.614509,-35.237983,-16.822542,-42.236591,-64.510372,-81.749228,-36.434571,-69.748956,-88.118629,-102.848053,-30.490526,-66.212435,-87.63022,-104.579146,-24.499063,-57.055658,-78.240693,-94.652168,-18.736527,-44.046748,-59.484018,-71.183776,-23.679439,-36.121376,-39.984798,-46.312157,-19.374287,-8.710625,-1.608959,5.442661,1.341923,12.530869,18.858399,24.183586,20.35334,31.046219,36.292408,39.93639,36.472698,45.425789,49.165432,51.536453,-17.788676,-43.672207,-65.82024,-83.413309,-46.698496,-83.64102,-105.173685,-122.601849,-40.411816,-80.03834,-104.820868,-124.280429,-33.624372,-70.2416,-94.104948,-112.597986,-27.061649,-57.7694,-75.352676,-90.753809,72.452911,89.995668,-78.54562,94.043401
93,-1.253929,2.71301,-3.42382,0.183615,24.11879,37.230149,43.413735,51.751236,21.791268,16.202317,12.645745,11.346886,3.099793,-3.031173,-6.003433,-6.980735,-14.519622,-21.524025,-23.404495,-22.792968,-30.910812,-37.189888,-38.067947,-35.997482,-17.519907,-42.942638,-65.058869,-82.866861,-36.826951,-69.703865,-88.699483,-104.063116,-30.886778,-66.620865,-88.312253,-105.749711,-25.072384,-57.769431,-79.399804,-96.051611,-19.558974,-45.096307,-60.969911,-73.079507,-23.171917,-35.36578,-39.384362,-46.083664,-18.90889,-8.75354,-1.866864,5.236747,1.865867,12.628429,18.578395,23.91988,20.895721,31.122276,36.110355,39.782203,37.047935,45.724376,49.123684,51.305225,-18.506463,-44.543611,-66.646411,-84.296309,-47.319779,-84.265996,-106.151021,-124.081488,-41.157897,-80.957125,-106.304582,-126.183244,-34.445942,-71.404892,-96.025133,-115.305699,-27.777336,-59.03143,-77.218631,-93.271818,71.430164,92.616253,-81.738258,94.134591
94,-0.917907,3.055188,-2.277592,-0.585697,23.721473,36.236137,42.057357,50.085846,21.468658,15.403541,11.407814,9.53247,2.681945,-3.846199,-6.994973,-8.242493,-15.069535,-22.221772,-24.394249,-24.269486,-31.466469,-37.487252,-38.496163,-36.922966,-18.583521,-44.592214,-67.022841,-85.272268,-39.723194,-73.043994,-92.645613,-108.602475,-33.759524,-70.052804,-91.75905,-109.555315,-27.86646,-61.006468,-82.719339,-99.537199,-22.297172,-48.117014,-64.225603,-76.709011,-23.424946,-35.570652,-39.402832,-46.144833,-19.692021,-9.687058,-2.904156,4.194317,1.185871,11.64172,17.523365,22.905121,20.48291,30.285553,35.051765,38.71027,36.957367,45.30257,48.428112,50.453075,-18.321952,-44.432379,-66.528158,-84.245753,-47.394188,-84.573697,-106.700364,-124.642756,-41.32705,-81.524635,-107.030637,-126.797345,-34.606141,-72.034603,-96.749656,-115.980599,-27.889456,-59.509477,-77.946866,-94.160758,70.821413,95.637442,-83.706694,93.514895
95,-0.457329,2.202415,-1.678654,0.477164,23.277283,35.226082,40.733162,48.449867,20.465286,14.142151,10.116417,8.326858,1.923271,-4.772392,-8.172432,-9.510979,-15.618668,-23.05481,-25.761864,-26.044716,-31.843483,-38.253868,-39.849495,-38.74308,-19.699376,-45.807678,-68.132329,-86.373691,-40.667549,-73.76506,-93.575994,-109.857194,-34.254195,-70.303202,-92.031838,-110.155103,-27.855253,-60.529748,-82.204303,-99.348138,-21.785879,-47.19027,-63.405786,-76.251551,-23.5555,-35.654983,-39.163399,-45.752563,-19.920296,-9.672157,-2.73999,4.476116,0.870918,11.520973,17.438358,22.814198,20.160656,30.042973,34.75708,38.409954,36.638203,44.986439,48.185017,50.166641,-17.290807,-43.365085,-65.433713,-83.10891,-46.370762,-83.724895,-105.80126,-123.707959,-40.484224,-80.75948,-106.271391,-126.047794,-33.824202,-71.369428,-96.121803,-115.124232,-27.264814,-58.950488,-77.378891,-93.477335,70.654616,97.923365,-85.094816,94.075567
96,-1.19941,2.504591,-0.988861,2.410039,23.148674,34.995072,40.202751,47.359978,19.764084,13.436737,9.417137,7.602722,1.638703,-5.228256,-8.773018,-10.201286,-15.628074,-23.233589,-26.443382,-27.029663,-31.716797,-38.631134,-40.717254,-39.834114,-20.369603,-46.389775,-68.591543,-86.695986,-40.57787,-72.874891,-92.221135,-108.234696,-33.861246,-68.85142,-90.368474,-108.366367,-27.184662,-58.75159,-80.050054,-97.045114,-20.835485,-45.434978,-61.401986,-74.183852,-23.365974,-35.283749,-38.346817,-44.809479,-19.869896,-9.088875,-1.832668,5.640816,0.855217,11.814846,17.848217,23.240513,20.110954,30.353291,35.099156,38.763611,36.53405,45.193852,48.539509,50.506382,-16.826012,-43.038117,-65.063131,-82.687328,-45.324457,-82.725249,-104.464667,-122.10177,-39.400339,-79.654839,-105.027664,-124.634229,-32.731566,-70.215011,-94.794694,-113.344006,-26.280624,-57.878038,-76.108711,-91.838924,69.732273,100.509547,-85.80661,96.567197
97,-1.244041,3.484495,-0.500954,3.672321,23.063782,34.990974,39.796234,46.630806,19.344887,12.728004,8.740219,7.082519,1.459167,-5.591858,-9.198143,-10.742088,-15.646889,-23.427544,-26.922569,-27.741486,-31.630051,-38.9748,-41.276276,-40.524193,-20.736282,-46.77125,-69.011661,-87.281169,-40.373383,-72.55603,-91.685178,-107.451589,-33.362253,-68.106332,-89.294239,-107.132673,-26.579915,-57.698035,-78.345607,-94.965804,-20.264886,-44.464483,-60.145445,-72.593488,-22.932609,-34.521034,-37.115112,-43.239589,-18.841861,-7.665893,-0.186801,7.563652,1.632672,13.034283,19.258427,24.797184,20.577679,31.314972,36.256325,40.188664,36.732834,45.866593,49.523781,51.745972,-16.839843,-43.097613,-64.988733,-82.581444,-45.405775,-82.179893,-103.197381,-120.287172,-39.23284,-78.679244,-103.6896,-123.023678,-32.293705,-68.992302,-93.235737,-111.410142,-25.630354,-56.631167,-74.601117,-90.037349,68.734572,104.100308,-86.061224,100.345784
98,-1.103005,3.752647,0.17339,4.365155,22.790383,34.640763,39.028176,45.509446,18.616951,11.923302,7.77182,6.062851,0.870644,-6.137283,-9.890945,-11.541847,-16.144775,-23.824241,-27.495575,-28.36679,-32.025856,-39.483879,-41.876907,-41.074401,-21.007138,-46.926985,-69.131779,-87.490534,-40.250938,-72.169374,-91.069594,-106.589227,-33.147794,-67.458404,-88.308869,-105.942792,-26.390811,-56.884795,-76.896164,-93.03724,-20.198832,-43.937598,-59.265736,-71.283824,-22.51284,-33.664353,-35.925533,-41.615376,-17.906353,-5.993054,1.797649,9.835773,2.329136,14.476513,21.049919,26.88668,21.049576,32.361088,37.586243,41.818645,36.997032,46.62989,50.554207,52.974815,-17.208425,-43.689472,-65.449261,-83.205969,-45.351355,-81.710825,-102.3015,-119.081779,-38.67382,-77.752574,-102.516879,-121.559403,-31.350715,-67.762771,-91.788504,-109.512608,-24.45546,-55.158981,-72.949355,-88.077323,67.817842,107.980219,-85.701559,104.838203
99,-0.522125,3.190965,0.711811,3.912278,22.358254,33.742401,37.701279,43.964012,17.549629,10.716088,6.445198,4.986031,-0.255867,-7.528747,-11.57666,-13.334747,-17.170257,-25.057617,-28.945564,-29.850151,-32.842827,-40.266884,-42.961601,-42.396744,-21.761154,-47.529638,-69.585373,-88.121093,-40.515675,-71.884569,-90.440487,-105.684268,-33.326778,-66.960295,-87.524831,-104.904422,-26.531009,-56.276065,-76.004544,-91.919404,-20.196411,-43.421686,-58.576972,-70.485552,-22.140095,-33.015781,-35.184883,-40.651154,-17.267773,-4.968178,2.901592,11.073875,2.804008,15.480675,22.269653,28.302566,21.324394,33.224888,38.700096,43.061062,37.055386,47.335751,51.636497,54.367733,-17.885062,-44.429545,-65.94781,-83.843172,-45.498722,-81.233247,-101.52531,-118.084269,-38.518394,-76.944867,-101.499288,-120.39542,-31.053461,-66.84865,-90.629734,-108.246817,-24.063679,-54.192557,-71.693253,-86.598975,67.41913,111.29395,-84.866335,108.873247
100,-0.650963,2.29504,0.261497,3.087558,21.849312,32.888283,36.375046,42.257607,17.004479,9.944184,5.303009,3.662728,-1.017746,-8.580253,-13.007698,-15.114143,-18.027809,-25.985298,-30.217964,-31.369835,-33.538101,-40.771156,-43.701439,-43.339302,-22.264043,-48.036806,-70.021102,-88.86913,-41.156013,-72.251279,-90.851714,-105.907866,-34.056439,-67.399636,-87.866322,-104.997387,-27.375365,-56.803963,-76.587696,-92.363722,-21.030727,-44.26942,-59.402618,-71.22718,-21.538753,-31.930252,-33.995933,-39.502819,-16.229324,-3.757118,4.075356,12.203831,3.654614,16.60365,23.573479,29.693505,22.000763,34.252705,39.834252,44.216698,37.572785,48.370079,52.762139,55.574719,-18.898658,-45.608361,-66.996622,-84.891132,-46.231669,-81.489012,-101.63496,-117.957434,-38.862752,-76.950956,-101.446498,-120.213307,-31.141888,-66.703981,-90.363713,-107.962161,-23.93856,-53.918879,-71.34734,-86.193751,66.857717,113.692858,-84.515288,112.064673
101,-0.45948,1.34669,0.249665,1.562464,21.554192,32.136383,35.342835,41.129906,16.79567,9.451538,4.579697,2.88794,-1.543419,-9.486191,-14.23098,-16.642616,-18.745285,-26.937836,-31.310577,-32.620972,-34.160019,-41.217522,-44.283279,-44.071014,-22.649829,-48.434516,-70.469508,-89.63691,-41.7312,-72.952616,-91.856918,-106.962143,-34.697661,-68.159209,-88.726005,-105.769502,-28.059251,-57.555453,-77.592017,-93.456692,-21.682737,-45.140582,-60.440846,-72.447899,-21.178803,-31.128536,-33.022202,-38.307518,-15.325081,-2.885033,4.861026,12.902836,4.545398,17.642063,24.699177,30.906017,22.824177,35.16711,40.786228,45.164474,38.246956,49.258152,53.555374,56.288452,-19.816812,-46.393733,-67.517011,-85.436005,-46.693667,-81.603064,-101.759374,-117.972316,-39.019715,-76.963169,-101.492421,-120.147838,-31.108629,-66.679713,-90.340031,-108.071026,-23.718907,-53.672019,-71.173722,-86.108356,66.506206,115.131704,-84.157654,113.719293
102,-0.48365,0.552296,0.342739,0.811098,21.339249,31.568298,34.656212,40.325867,16.705147,9.489532,4.574341,2.919548,-1.71151,-9.966019,-15.028839,-17.70282,-18.992455,-27.475662,-32.09713,-33.586281,-34.390846,-41.524315,-44.792381,-44.724701,-22.762585,-48.557566,-70.548994,-89.715371,-41.824085,-72.806823,-91.771301,-106.97487,-34.85528,-67.881265,-88.532196,-105.605703,-28.178714,-57.352727,-77.634082,-93.687256,-21.668448,-44.930112,-60.212351,-72.301013,-20.965714,-30.39164,-32.032185,-37.087944,-15.002037,-2.323174,5.479454,13.442287,4.899525,18.36383,25.591644,31.837646,23.248993,35.936336,41.647373,45.965137,38.654526,49.965031,54.198143,56.806057,-20.386547,-46.938544,-68.042081,-86.026531,-46.470026,-81.579673,-102.104924,-118.407594,-38.549047,-76.9828,-101.671004,-120.172718,-30.570776,-66.773289,-90.497643,-108.17284,-23.185396,-53.51597,-71.115819,-86.024999,66.128992,115.750709,-83.708479,114.5971
103,-0.382256,0.309536,0.305282,0.065116,21.315079,31.241799,34.073822,39.749611,16.993355,9.814568,4.906266,3.34758,-1.343765,-9.924637,-15.259071,-18.144905,-18.663299,-27.467445,-32.295959,-33.990005,-34.154182,-41.573662,-44.999153,-45.113434,-22.873044,-48.746491,-70.797551,-90.096679,-41.684084,-72.541043,-91.478721,-106.709133,-34.621826,-67.342443,-87.919477,-104.947709,-27.808057,-56.751389,-76.998009,-93.126463,-21.145515,-44.144647,-59.373503,-71.517975,-20.817443,-29.722,-30.895088,-35.567928,-14.803493,-1.902442,6.004372,13.985459,5.012925,18.975254,26.483323,32.870671,23.335717,36.677491,42.745045,47.274559,38.720364,50.551587,54.980942,57.766892,-20.802386,-47.250681,-68.300519,-86.219143,-46.369126,-81.462366,-102.208115,-118.457705,-38.260802,-76.810381,-101.50508,-119.841699,-30.185417,-66.581332,-90.282511,-108.049309,-22.820211,-53.317832,-70.975936,-85.981002,65.906364,116.125342,-83.243569,114.727313
104,-0.282028,-0.187863,-0.718849,0.006237,21.32991,30.963684,33.534256,39.360146,17.680161,10.643967,5.654045,3.902779,-0.365776,-8.981438,-14.562973,-17.638939,-17.68396,-26.673866,-31.888229,-33.999412,-33.433662,-41.162521,-44.653725,-44.869308,-22.685669,-48.685853,-70.786134,-90.321167,-41.095869,-71.795636,-90.969262,-106.436481,-33.772634,-66.338011,-86.819159,-103.954559,-26.646377,-55.508569,-75.610749,-91.977918,-19.665919,-42.269991,-57.374469,-69.641812,-20.272762,-27.956154,-27.98061,-31.504966,-14.177147,-0.21381,8.554219,17.2328,5.327545,20.611519,28.956036,35.918598,23.45279,38.203297,45.188713,50.473583,38.822056,51.50758,56.361775,59.52824,-21.751855,-48.571782,-70.08694,-88.006613,-46.555279,-81.120467,-101.944558,-118.217496,-37.806542,-76.150602,-100.811383,-119.090277,-29.129979,-65.482058,-89.222337,-107.053806,-21.424559,-51.892447,-69.636805,-84.773769,65.769636,116.034625,-83.817118,114.830696
105,0.542519,-0.683534,-1.198505,-0.205864,21.187774,30.254722,32.343567,37.891136,17.879127,10.732383,5.631683,3.521942,0.265503,-8.599045,-14.485932,-17.816025,-16.814026,-26.093079,-31.65239,-34.104561,-32.6819,-40.885849,-44.513832,-45.072029,-22.561205,-48.632074,-70.7477,-90.342724,-40.791915,-71.135277,-90.519768,-106.207461,-33.155754,-65.308712,-85.465966,-102.49481,-25.45486,-53.95843,-73.705965,-90.167371,-17.792597,-39.595006,-54.371367,-66.664714,-19.036457,-24.559742,-22.410793,-23.865933,-13.431175,2.032574,12.221741,22.061325,5.147049,22.878387,32.910461,41.16037,22.685325,39.953373,48.775268,55.507324,37.980743,52.093918,57.874317,62.006653,-23.188181,-50.667071,-72.755076,-90.714702,-46.974008,-79.890133,-100.357115,-116.318794,-37.19859,-74.282102,-98.521986,-116.544325,-27.500997,-62.917439,-86.423882,-104.136759,-19.124998,-48.982372,-66.533444,-81.526333,66.453198,115.536861,-84.87458,114.810602
106,0.579918,-1.093847,-2.121117,-0.044781,20.568695,28.812675,30.131721,34.819999,18.573783,11.626831,6.362388,3.678909,1.946434,-6.455498,-12.818962,-16.488762,-14.661003,-23.811997,-29.829346,-32.560822,-30.705208,-39.191872,-42.880486,-43.584893,-22.655071,-48.754747,-70.8579,-90.302191,-40.172891,-70.24628,-89.81866,-105.841935,-32.210509,-63.789065,-83.903854,-101.023205,-23.74935,-51.677512,-71.02168,-87.575194,-15.128258,-35.846645,-50.07909,-62.345964,-15.840603,-17.810795,-12.721275,-11.199611,-12.257057,6.003124,18.653767,30.252285,3.883118,25.92841,38.6899,48.909897,20.19619,41.57246,53.37022,62.275097,35.515457,52.824875,60.771206,66.840809,-25.360901,-53.437269,-75.771288,-93.707306,-49.501594,-79.109064,-98.112105,-112.814242,-37.751411,-71.522681,-94.100663,-110.754335,-25.968333,-58.428845,-80.660636,-97.293647,-16.016717,-44.114186,-60.809231,-75.000674,67.176041,114.799789,-86.852772,115.122596
107,0.197799,-0.915851,-1.140919,-3.775532,19.649849,26.877091,26.85791,29.925957,19.919129,12.97966,7.668824,4.741013,4.531357,-3.413704,-9.995636,-13.810295,-11.411888,-20.349495,-26.276413,-28.83538,-27.458198,-35.755027,-39.089927,-39.684997,-22.772823,-49.01936,-71.15563,-90.295732,-40.082717,-69.549897,-88.845505,-105.023403,-31.65964,-62.591564,-82.662522,-100.138889,-22.585781,-49.622576,-68.565225,-85.116058,-13.233891,-32.895111,-46.331618,-58.033321,-10.048027,-6.480297,3.615155,9.162106,-5.468719,15.503415,27.758,37.946366,6.496193,31.775071,44.438096,53.325371,19.472031,44.52768,56.740265,64.852364,32.461751,52.067173,60.180886,66.070347,-27.679443,-55.360615,-74.577757,-87.803707,-52.671749,-75.933024,-88.023798,-98.230863,-37.664034,-63.854279,-80.298957,-92.851025,-22.555307,-47.606295,-65.403214,-78.830841,-9.891736,-32.343995,-46.560304,-58.62334,67.493128,114.420775,-87.874403,111.883901
108,0.542176,-0.830488,-2.149257,-3.194577,17.845733,23.535278,22.178283,23.423904,20.606712,13.695213,8.204658,4.954788,6.823219,-0.403542,-7.294854,-11.455719,-8.005715,-16.29728,-22.184395,-24.823677,-23.701676,-31.327584,-34.493683,-35.118645,-23.167735,-49.113474,-70.850471,-89.572875,-40.656508,-69.13234,-88.315136,-104.693593,-31.656373,-61.640162,-81.663301,-99.414834,-21.688269,-47.613309,-66.224359,-82.820492,-11.293359,-29.801718,-42.551708,-53.983229,-2.176506,7.351982,21.717922,30.765598,-0.323628,23.471683,38.317509,49.578026,5.889908,35.308822,51.768951,63.132706,15.091953,44.815372,60.714729,71.454597,26.167373,49.445858,59.926552,67.575977,-29.652511,-55.804397,-71.113559,-79.644928,-54.637901,-70.80314,-78.014834,-84.531003,-37.434199,-55.086832,-66.569853,-75.031481,-19.623663,-36.658496,-50.061269,-59.94378,-4.059954,-21.316273,-32.602359,-42.000944,68.090138,114.228289,-89.968826,109.327326
109,1.071739,-0.859318,-0.638752,-2.644881,15.610542,19.557907,16.410141,15.063766,20.665695,13.168762,7.275009,3.562866,8.721794,1.907203,-5.206513,-9.662544,-4.701943,-12.211945,-17.52919,-19.822174,-19.485123,-25.991249,-28.589287,-28.977928,-23.662795,-49.361921,-70.535489,-88.492286,-42.026954,-69.200433,-87.952594,-104.261137,-32.694627,-61.438844,-81.146081,-99.009413,-22.040538,-46.534623,-64.423334,-80.694858,-10.724849,-27.816653,-39.706645,-50.697045,6.529095,21.201336,38.606975,50.547546,5.576294,30.962459,47.128532,58.69376,4.930023,38.253445,57.730614,70.566433,9.035396,42.207687,60.900593,72.689541,16.66571,42.781803,55.535625,64.461925,-29.234702,-52.446891,-63.94241,-69.102466,-57.054818,-66.418608,-68.096391,-69.722489,-39.228197,-47.416511,-51.313944,-53.629696,-19.429033,-27.349369,-33.85814,-38.751502,-1.081781,-11.934237,-18.692776,-24.345613,69.195276,114.021463,-90.574179,107.334937
110,0.01902,-1.12316,0.553196,-2.153916,11.549057,14.063782,10.841949,8.788925,19.338249,12.346023,6.641853,3.000023,10.225799,4.503593,-2.280281,-6.750092,-0.838257,-6.915138,-11.42363,-13.474846,-13.522339,-18.613724,-20.754135,-21.095009,-24.688741,-50.052284,-70.18926,-87.144392,-44.066452,-69.881768,-88.018908,-104.159162,-34.565269,-61.980469,-81.36301,-99.088916,-23.440364,-46.684139,-64.375206,-80.275511,-11.467657,-27.481051,-39.072765,-49.656964,14.939987,33.123573,52.659141,67.65517,12.06879,36.057861,51.495415,62.607902,4.682556,39.019443,59.575401,72.371921,3.278835,37.10234,56.585552,68.410904,6.35796,33.140728,46.94498,56.1301,-25.837737,-45.41221,-52.779448,-54.550111,-57.964915,-63.642087,-61.93391,-60.75996,-41.556416,-40.547519,-36.079642,-32.358173,-21.259562,-19.528933,-18.395831,-18.115645,-1.279469,-4.489002,-5.958532,-7.65849,69.124689,113.483194,-90.11059,105.765912
111,-0.336571,-1.098978,-0.630879,-4.44251,7.628014,8.711174,5.386643,2.679268,16.146401,10.010491,5.173782,2.30571,9.710678,4.974495,-0.471107,-4.011314,1.324356,-3.279602,-6.571014,-8.102348,-8.650017,-12.257309,-13.952659,-14.243225,-26.145594,-51.79243,-71.090495,-87.661879,-46.952692,-70.768912,-88.196082,-104.136895,-37.390122,-63.257295,-82.075505,-99.650783,-26.007335,-48.192924,-65.495933,-80.87052,-13.54817,-29.159934,-40.690552,-50.85588,23.873463,45.733864,67.134179,84.29551,22.189728,42.734402,56.013348,65.400742,9.617821,41.190834,59.733158,70.331681,2.772595,33.706822,51.038773,60.779274,0.120644,25.032486,37.742329,45.239823,-20.916409,-36.315844,-40.059839,-38.418167,-54.168629,-56.955332,-54.118154,-52.917701,-40.812046,-31.588047,-20.401818,-11.930081,-22.182422,-11.67662,-4.029351,0.673061,-2.649754,1.409095,4.262501,5.845646,68.54532,112.79727,-90.984267,101.736456
112,-1.205246,-2.765956,0.571324,-0.888663,2.411751,2.331185,0.033669,-2.643768,11.093422,7.45855,4.412682,2.583092,8.228874,5.665421,2.047325,-0.457832,3.479485,1.11573,-1.042145,-2.373276,-2.741569,-4.793083,-6.320206,-6.751556,-27.662579,-53.215615,-71.557488,-88.565837,-49.587044,-71.503012,-88.817896,-105.322861,-39.877767,-64.066311,-82.177559,-99.477832,-27.608275,-48.915076,-65.989553,-81.268889,-13.651731,-28.667832,-40.615796,-51.077927,28.732372,52.017917,72.938106,91.171119,26.234459,42.582893,55.650638,65.657524,10.051883,39.915905,59.265941,70.43724,-0.55616,28.335262,45.946644,55.733356,-6.667053,17.28107,31.049721,38.576694,-15.371987,-27.856302,-31.022079,-30.062218,-51.433394,-54.407158,-56.713647,-58.951476,-43.170503,-30.80565,-16.807721,-5.441292,-27.945062,-13.941119,-2.772112,4.552685,-10.089659,-2.934552,3.149345,7.175163,67.032108,110.295171,-90.720909,101.11165
113,-1.511741,-4.017247,5.430736,-0.72516,-1.2762,-2.057122,-3.493104,-5.950173,5.94976,4.169403,2.644111,1.755638,5.975349,4.828697,3.04811,1.740051,4.398674,3.611389,2.626441,1.791961,1.866439,0.981262,-0.157586,-0.657395,-28.826815,-54.495973,-72.22829,-89.156486,-51.753804,-71.8042,-88.644013,-105.374552,-42.510292,-64.730585,-82.038293,-99.056306,-30.427441,-50.487705,-67.294876,-82.632301,-16.080005,-30.483307,-42.854489,-53.691501,30.717133,54.274864,74.615891,94.355301,30.164566,41.567848,50.985626,58.89972,11.779141,37.37312,52.937119,60.572617,-2.375908,22.013203,35.890114,41.977982,-12.900032,7.634423,20.003128,25.499348,-11.479469,-23.094104,-26.802778,-26.084856,-53.16159,-57.519045,-63.887729,-69.772043,-49.580085,-35.722218,-17.720565,-4.087537,-37.484118,-21.151998,-6.427279,2.7911,-21.499671,-11.808327,-2.833337,3.004281,65.197501,106.440093,-85.613039,100.548659
114,-2.587121,-4.362141,5.93478,-2.754939,-4.894798,-5.734291,-5.557228,-7.249488,1.442917,1.822518,1.850396,1.944512,3.743409,4.199135,4.177186,3.945534,4.812562,5.511658,5.546425,5.154511,5.487832,5.462449,4.465233,3.882271,-29.732398,-55.54013,-72.888371,-89.902289,-53.281448,-71.976219,-88.678421,-105.868173,-44.766437,-65.59474,-82.911149,-100.001063,-33.276099,-52.821457,-70.055269,-85.739379,-19.168224,-33.984932,-47.135868,-58.466896,31.442757,55.24292,75.468728,96.29282,32.839978,39.954792,46.309822,52.443684,13.850453,34.285115,46.094284,50.515744,-2.303604,17.956501,28.416825,31.838723,-15.991939,1.667176,12.184262,15.602074,-9.923908,-21.986586,-26.273868,-25.238807,-55.214273,-62.668078,-74.304937,-85.393897,-54.921508,-43.422926,-23.513062,-9.219509,-46.082084,-31.026488,-14.364257,-4.01001,-32.868262,-23.818566,-12.832248,-5.141277,62.242795,102.278319,-80.045844,97.994087
