takenoko1/special-research/HandMotion_SimilarSearch_自分用/NewProject/handData/tgt/d4_feature_d3/11.csv
,vel_0x_L,vel_0y_L,vel_0x_R,vel_0y_R,posFromWrist_1x_L,posFromWrist_2x_L,posFromWrist_3x_L,posFromWrist_4x_L,posFromWrist_5x_L,posFromWrist_6x_L,posFromWrist_7x_L,posFromWrist_8x_L,posFromWrist_9x_L,posFromWrist_10x_L,posFromWrist_11x_L,posFromWrist_12x_L,posFromWrist_13x_L,posFromWrist_14x_L,posFromWrist_15x_L,posFromWrist_16x_L,posFromWrist_17x_L,posFromWrist_18x_L,posFromWrist_19x_L,posFromWrist_20x_L,posFromWrist_1y_L,posFromWrist_2y_L,posFromWrist_3y_L,posFromWrist_4y_L,posFromWrist_5y_L,posFromWrist_6y_L,posFromWrist_7y_L,posFromWrist_8y_L,posFromWrist_9y_L,posFromWrist_10y_L,posFromWrist_11y_L,posFromWrist_12y_L,posFromWrist_13y_L,posFromWrist_14y_L,posFromWrist_15y_L,posFromWrist_16y_L,posFromWrist_17y_L,posFromWrist_18y_L,posFromWrist_19y_L,posFromWrist_20y_L,posFromWrist_1x_R,posFromWrist_2x_R,posFromWrist_3x_R,posFromWrist_4x_R,posFromWrist_5x_R,posFromWrist_6x_R,posFromWrist_7x_R,posFromWrist_8x_R,posFromWrist_9x_R,posFromWrist_10x_R,posFromWrist_11x_R,posFromWrist_12x_R,posFromWrist_13x_R,posFromWrist_14x_R,posFromWrist_15x_R,posFromWrist_16x_R,posFromWrist_17x_R,posFromWrist_18x_R,posFromWrist_19x_R,posFromWrist_20x_R,posFromWrist_1y_R,posFromWrist_2y_R,posFromWrist_3y_R,posFromWrist_4y_R,posFromWrist_5y_R,posFromWrist_6y_R,posFromWrist_7y_R,posFromWrist_8y_R,posFromWrist_9y_R,posFromWrist_10y_R,posFromWrist_11y_R,posFromWrist_12y_R,posFromWrist_13y_R,posFromWrist_14y_R,posFromWrist_15y_R,posFromWrist_16y_R,posFromWrist_17y_R,posFromWrist_18y_R,posFromWrist_19y_R,posFromWrist_20y_R,posFromBody_0x_L,posFromBody_0y_L,posFromBody_0x_R,posFromBody_0y_R
43,2.069985,-12.998177,-7.822666,-27.905345,-29.483803,-54.177132,-70.579686,-82.090886,-54.136414,-80.680138,-94.455082,-104.034108,-40.920662,-70.196526,-86.444481,-97.283398,-26.361031,-52.929612,-68.973782,-80.202748,-12.074753,-31.196778,-42.445038,-50.990902,-10.935455,-5.338237,7.062567,17.535647,22.425205,48.72599,62.65876,71.891188,36.537397,62.657673,75.546824,83.425152,45.514993,68.517615,78.463333,84.172196,50.882537,70.459282,77.533681,81.53843,25.613972,47.87324,63.51622,71.076548,52.952179,78.435505,78.890471,73.148375,45.39493,71.754822,72.296448,66.276117,37.182232,60.623571,61.815022,56.33927,29.444475,48.689135,51.607567,48.193863,7.400305,25.372244,43.300346,54.24515,46.896437,72.262722,72.818087,70.06542,51.021568,77.368394,77.88808,74.812063,50.98143,73.43824,72.834339,68.945935,48.321056,64.673176,64.022605,59.77254,50.55011,439.863218,-108.530846,386.158668
44,4.913143,-19.891531,-10.151184,-35.459137,-31.207684,-56.087837,-72.3412,-84.255432,-55.862149,-82.195971,-94.834391,-103.292519,-42.343346,-71.095562,-85.899748,-95.480467,-26.983498,-52.804436,-67.92453,-78.754166,-11.27076,-29.340454,-40.15408,-48.918011,-6.018454,2.712486,17.198045,29.229379,22.74188,49.483619,64.602447,74.863606,34.864542,61.215592,75.767157,85.016942,42.938662,66.213374,77.975481,85.497175,48.121139,68.235064,77.146395,82.913359,23.521683,47.43881,65.653061,76.101614,58.307316,82.76405,82.979754,77.711214,52.482588,76.881557,76.241901,69.921118,44.710922,66.057936,66.130966,60.420301,36.787474,54.717859,56.626888,52.832314,17.761938,36.387641,52.228888,63.08487,47.126297,73.208615,77.134404,76.341127,44.777219,71.740882,75.6529,75.175156,40.28947,63.446739,65.898805,64.393979,34.677784,51.402433,54.169265,52.840723,55.511782,421.260872,-118.633501,351.988716
45,7.012527,-26.900468,-12.72274,-41.664546,-34.166805,-59.927536,-76.073873,-88.000316,-59.780628,-85.82044,-97.269556,-104.384079,-45.719352,-73.94886,-86.858545,-94.585596,-29.450134,-54.667969,-67.853702,-77.032402,-12.244354,-29.58165,-39.964634,-48.638569,0.44753,13.344561,29.932635,43.279944,25.415142,52.597124,67.754102,77.584292,35.186657,61.334709,76.126631,85.229364,42.058731,64.949874,76.911312,84.387928,46.473305,66.179257,75.982104,82.354925,22.912388,48.904455,69.761822,81.510721,58.25291,85.118706,87.599539,84.374925,54.720549,80.962303,80.555099,74.344099,49.115387,71.371599,69.452717,62.280905,43.21142,61.337316,61.218944,55.795074,25.107063,43.244505,55.543069,64.118694,45.426196,67.342671,72.991728,74.50189,36.386906,59.028052,65.275706,66.921879,26.740034,46.215669,51.023291,51.462898,17.551492,32.04842,36.957473,37.522286,62.674845,395.70958,-131.205705,311.673346
46,5.502754,-25.764433,-19.506832,-51.032937,-36.256313,-62.876312,-79.38783,-92.506748,-60.92181,-84.642957,-95.480032,-102.002185,-46.53495,-71.701503,-81.87597,-87.217946,-30.306541,-53.048332,-63.350715,-70.016933,-13.249511,-29.145332,-38.438266,-45.637195,6.463045,23.037337,40.613481,53.171594,29.17841,53.313058,65.9378,73.605231,35.10159,58.318423,70.204124,77.072863,39.11268,58.993565,68.476662,74.379372,41.285109,58.205475,67.42283,73.447478,22.671695,50.676229,73.577339,86.518289,61.878948,93.261337,98.414617,98.17238,61.028875,91.78593,94.216701,91.064924,57.446731,83.972276,82.072117,75.007009,53.180666,74.280401,73.360416,67.012665,23.873463,38.226988,46.338195,52.792113,43.898245,59.977725,65.360403,67.869279,33.559614,50.833514,56.61074,59.241141,22.382456,35.877934,39.182749,39.475649,11.881051,21.868149,25.481975,25.89419,68.286615,371.185845,-150.603521,261.881107
47,5.3195,-28.936793,-16.299935,-44.152798,-38.321628,-66.391719,-84.1224,-98.120452,-63.722385,-86.468404,-97.338552,-104.010583,-49.800476,-73.463235,-82.525119,-86.720174,-34.416492,-56.204864,-65.362203,-70.789987,-18.386444,-34.092064,-43.492824,-50.209842,11.931989,30.585727,47.506093,59.472965,32.004492,53.403498,63.718676,69.329423,34.724184,55.555871,64.783284,69.069343,36.310965,54.049247,61.284629,64.902474,36.498656,51.179223,59.228705,63.900068,22.585694,50.928383,74.059731,88.501488,64.090782,97.909481,107.353203,111.207997,63.910721,97.653534,104.813645,105.223687,60.992318,90.379326,92.926209,89.382317,57.180004,80.510411,82.769783,79.316231,14.576901,23.146883,27.574214,31.644728,32.49466,43.080397,47.793238,51.135306,26.075433,37.644583,42.351076,45.310761,17.958057,26.777153,28.712608,28.96271,9.942224,16.456325,18.70399,18.992513,73.748903,343.367719,-166.760668,218.846976
48,5.24762,-32.843142,-13.161838,-37.387318,-39.84518,-69.890545,-89.26708,-104.943306,-69.079685,-91.999575,-103.823095,-111.437021,-56.433311,-80.068914,-89.741672,-94.488687,-42.487576,-64.451317,-73.77836,-79.115507,-27.77639,-44.191544,-54.452007,-61.364719,15.065044,33.287813,48.611684,59.708209,34.418266,54.430321,62.849255,66.56424,35.253199,55.108995,62.364878,64.789879,35.462156,52.411922,58.255586,60.212073,34.164873,47.918814,55.047917,58.417001,23.697532,52.012275,75.086906,90.172394,62.429958,98.559253,113.999519,124.036102,61.270603,98.594044,112.964802,119.539615,58.337219,91.430649,100.550365,102.546146,54.707359,80.71281,87.711971,88.483864,-0.128329,0.690567,1.78497,3.293551,14.501319,19.326879,23.996655,29.213676,15.644591,21.347822,25.33838,28.941542,13.541211,17.42299,17.480529,17.705733,10.050757,12.109602,12.193681,12.169068,79.193321,311.62543,-179.725708,182.560511
49,2.4688,-26.81721,-9.490895,-30.556141,-40.702996,-71.827778,-92.537568,-110.104077,-71.761711,-95.056458,-108.533558,-118.290533,-60.033898,-83.786448,-95.279303,-102.579037,-47.13612,-69.201554,-79.980578,-87.174334,-33.166901,-49.673378,-60.671952,-68.492043,15.420986,32.451182,46.245668,56.146945,34.377282,51.860466,58.29481,60.570856,33.834595,51.617269,57.09587,58.505218,32.61768,47.867487,52.438055,53.752079,29.942399,41.775766,48.050509,51.125297,20.77604,47.908391,72.174786,89.516739,56.392113,98.034943,119.245663,134.633973,56.762135,100.634217,121.618527,134.252324,55.902043,95.036477,110.115452,117.476841,54.041279,83.703484,94.596074,99.24899,-15.977648,-22.044286,-23.15265,-23.766764,0.402328,2.652056,6.506986,12.079072,9.631298,11.923881,14.314116,17.273776,13.683249,14.137188,12.222938,11.364867,14.688978,13.261506,10.709398,9.033122,81.98865,285.998675,-188.890074,153.194825
50,-0.78447,-20.192434,-4.893562,-22.21318,-39.777626,-70.617702,-91.868294,-110.705898,-72.34996,-95.807213,-110.812134,-122.666204,-62.472588,-86.300714,-100.113733,-110.508671,-51.277508,-73.063316,-85.877283,-95.675142,-38.514061,-54.336067,-65.825249,-74.493988,14.228746,28.507405,39.936394,47.793041,31.736711,45.514055,50.219153,52.106838,29.735578,44.040036,48.140479,49.456189,27.144024,39.58956,43.411726,45.196078,23.571115,32.747757,38.22445,41.719066,17.728157,44.119744,69.16943,88.510025,58.565334,101.700462,125.244805,143.548096,60.261578,106.273018,131.813896,149.423699,60.066399,101.59623,122.487763,135.660565,58.332813,89.604687,104.524441,113.793984,-28.428315,-39.965305,-41.89495,-42.644272,-8.944411,-5.997595,-1.892674,3.753808,8.714935,10.570646,12.238883,14.908798,19.583538,19.055189,16.209002,14.539283,25.356288,22.006279,17.724839,14.855371,81.60668,266.998697,-193.381136,132.174101
51,-1.815353,-20.977356,4.501225,-9.937753,-40.710251,-71.382214,-92.574452,-111.873036,-74.555535,-99.806614,-116.541905,-130.553885,-65.632462,-91.629805,-108.992243,-123.685662,-54.857609,-77.997162,-94.163962,-107.868926,-41.867226,-57.914269,-70.77459,-81.38633,13.043904,25.175452,34.626513,41.793568,27.299042,40.423673,45.168093,47.451302,25.330946,38.521711,43.407076,45.536631,22.859892,34.828925,39.146069,41.396056,19.551052,28.079265,33.105143,36.615938,16.849388,42.730247,68.618923,90.44379,59.352424,101.023819,125.239265,144.578247,61.522659,106.338421,132.759452,151.376037,61.533806,101.776428,125.76979,142.312294,59.685493,90.120357,107.500076,119.911354,-32.647455,-45.297546,-47.146341,-48.862644,-16.379247,-12.371917,-7.861914,-2.117705,4.264805,5.934412,7.837943,10.308305,18.309701,18.963379,17.372379,15.879897,26.845004,24.087836,20.531444,17.480566,80.28455,247.142327,-188.386688,123.357334
52,-3.22649,-16.165819,6.999344,-3.372832,-40.640992,-70.741288,-91.725563,-111.701638,-75.028359,-101.15593,-119.754113,-135.86356,-66.649773,-94.028321,-114.227578,-132.458359,-55.916954,-80.008255,-98.688275,-115.534836,-42.445725,-58.594231,-72.302903,-84.540734,11.292644,21.698625,29.874565,36.400929,22.826447,33.973965,38.178304,40.644442,20.95578,31.821185,36.606484,39.154479,18.7176,29.133103,32.956677,35.380343,15.823629,23.088985,27.377366,30.906094,18.335357,45.485721,72.73756,95.34003,60.596557,101.892116,126.47359,146.71035,62.678215,107.240913,134.51889,155.184413,62.496116,102.689346,127.328235,145.45951,60.322505,90.784824,108.258945,121.445903,-34.107927,-46.902124,-48.325131,-49.923627,-18.836778,-13.413363,-7.602563,-0.708574,2.409526,4.957397,8.198034,11.740729,17.356633,18.597248,18.353297,17.765112,26.734359,23.441803,20.369189,17.547306,77.561692,231.981521,-180.883712,120.989515
53,-3.957848,-11.441993,9.837501,3.161041,-40.047729,-69.442612,-90.196644,-110.680367,-73.348984,-99.377758,-119.808609,-138.104313,-64.545731,-92.029003,-114.232784,-135.361279,-53.413353,-77.577759,-98.119675,-117.497257,-39.368317,-55.343536,-69.70134,-83.326675,9.392163,18.244579,25.333193,31.166643,19.909382,28.376796,31.429255,33.214373,18.070838,26.177185,29.462677,31.176041,15.586841,23.799436,26.026798,27.802481,12.218949,18.003394,21.393208,24.715726,20.734131,49.614349,77.348534,100.199318,64.498295,104.603874,128.871666,148.302063,65.400444,108.930061,135.896839,156.062004,63.803352,103.078022,127.388992,145.454144,60.238312,90.118847,107.272671,120.390633,-35.051337,-47.434635,-48.361639,-48.790674,-18.668385,-11.129067,-4.404262,3.204895,2.721748,6.609208,10.640806,15.097765,17.955945,20.403386,21.220134,21.442447,27.715314,24.734424,21.837786,19.075925,74.050226,221.51252,-170.599829,125.123548
54,-4.982254,-9.826417,9.66766,6.147722,-37.944328,-66.580559,-86.743515,-106.365234,-71.840996,-97.769691,-119.164078,-138.499569,-63.727524,-91.393375,-114.56971,-136.938549,-53.316101,-77.928349,-99.483273,-119.915108,-40.125572,-56.547066,-71.513947,-85.722118,8.585295,15.452731,20.732861,25.445282,16.20516,22.856569,25.561101,27.319209,14.570627,20.657908,23.358958,24.828222,12.652745,19.020843,20.582672,22.039475,9.925711,14.824989,17.532708,20.44072,21.880314,51.894859,80.326515,103.21273,66.734802,106.962742,130.998264,150.001522,67.36726,111.140018,137.670776,157.115181,65.289207,104.415928,127.772827,144.923996,61.316654,90.979935,107.574451,120.032993,-34.636695,-45.799514,-45.599134,-45.481827,-17.05839,-8.669399,-1.627049,6.432813,4.367792,9.066159,13.162904,17.712958,19.539375,22.660524,23.362059,23.466194,29.129448,27.089536,23.944155,20.938268,69.395107,212.468496,-160.605034,132.053663
55,-5.372269,-8.107002,6.60807,4.627663,-36.285598,-64.742935,-84.577972,-103.617279,-70.077575,-95.6735,-118.020733,-138.403759,-62.259018,-89.724918,-113.763748,-137.091385,-52.158622,-77.240558,-99.624698,-120.712005,-39.40361,-56.692978,-72.473831,-87.338447,7.849206,13.184034,17.197576,21.436322,12.816137,18.604621,21.339028,22.995606,11.735999,17.221881,19.840568,21.542582,10.528902,15.843674,17.229872,18.795504,8.409011,12.801577,14.986911,17.511935,22.288536,53.210907,82.06485,104.651402,68.248879,108.91927,132.466599,150.787262,68.519165,112.820194,138.709511,157.462887,65.922238,105.437851,127.91034,143.730103,61.260555,91.036137,106.970627,118.181751,-34.440842,-44.560555,-43.207097,-42.874701,-15.659312,-6.746554,0.683009,8.838583,6.148143,11.150889,15.207027,19.53147,21.874997,25.448456,25.812561,25.709265,32.080105,31.054443,27.797713,24.600685,64.206379,205.00209,-153.813423,137.321922
56,-3.852287,-6.452511,2.527943,1.232415,-33.433067,-60.905937,-79.764919,-96.81863,-68.453041,-94.717209,-117.354023,-138.009247,-61.605995,-90.292076,-114.997982,-138.435722,-52.211426,-78.836437,-101.794613,-122.794453,-40.061943,-59.194794,-75.744678,-91.070892,6.333641,10.797307,14.375101,18.436525,9.208531,15.160319,18.618787,20.995141,9.043212,15.087812,18.389767,20.746533,9.382988,14.625993,16.60828,18.565472,9.304392,13.655573,15.527117,17.5262,21.256634,52.571869,81.647003,104.026371,67.997005,110.180958,133.621559,151.23912,68.080707,113.771644,139.680588,157.671066,65.411636,106.201424,128.717686,143.635368,60.700333,91.557552,107.802578,118.420853,-34.487476,-44.18954,-42.070365,-42.011461,-15.095309,-5.789583,1.819932,10.310194,7.278051,12.591724,16.472441,20.635295,23.36102,27.231116,27.276663,27.125128,33.909695,33.877807,31.114476,28.387022,60.551714,199.077116,-151.087858,139.081874
57,-2.111023,-3.909714,-1.809757,-3.994783,-31.088333,-57.696762,-75.789699,-91.075573,-66.662979,-93.569069,-116.030971,-136.612518,-60.370308,-89.879494,-114.812977,-138.134514,-51.54451,-79.149857,-102.360477,-122.961742,-40.142807,-60.735512,-77.94532,-93.442966,4.808504,8.388373,11.45659,15.2226,6.928495,13.857138,18.166106,21.06015,7.635351,15.004621,18.980273,21.551214,9.208999,14.952998,17.82328,20.020977,10.657948,15.231097,17.266786,18.890241,19.416252,50.423298,79.466652,101.548324,66.26009,109.666019,132.813755,149.742359,66.659465,113.634819,139.208175,156.129203,64.262409,106.194522,128.311123,141.9715,59.804832,91.583015,107.840492,117.523601,-34.421069,-44.316863,-42.309647,-43.111976,-15.28629,-6.46922,0.77167,8.988847,7.59966,12.472892,15.596586,19.218754,24.057417,27.259534,26.093155,25.122081,34.962589,34.537635,31.03572,27.942531,58.623213,195.481257,-152.715093,135.400946
58,-0.282417,-1.080966,-6.188839,-7.823419,-29.216789,-54.70855,-71.80925,-85.384255,-65.440933,-92.769322,-114.446778,-134.329319,-59.775055,-90.07655,-114.717339,-137.310665,-51.441124,-79.94252,-102.738556,-122.359291,-40.746231,-62.485726,-79.741001,-94.837372,2.280504,5.601318,9.102159,13.095793,3.71898,12.15999,17.794789,21.942848,5.633218,14.658448,19.991325,23.599488,8.951834,15.642651,19.638965,22.506617,12.723771,17.609599,19.802591,21.328753,16.65303,46.693256,75.854038,98.032505,62.260631,107.686569,130.899582,148.074691,63.851749,112.537433,138.260181,155.412151,62.550819,106.178466,128.669071,142.307327,59.084301,92.459003,109.317146,119.211639,-34.529811,-45.459412,-44.284555,-46.912208,-17.271609,-9.526464,-2.862378,4.744161,6.13625,9.801482,12.492034,15.668747,22.945268,24.967495,23.196444,21.626798,34.092044,32.8631,29.042281,25.749934,58.580721,194.299891,-158.664007,127.477127
59,1.545982,0.694359,-9.06268,-9.206344,-28.757263,-53.805199,-70.697285,-84.02663,-64.713066,-92.116379,-113.133842,-132.396229,-59.018211,-89.587898,-113.895183,-135.763813,-50.305366,-78.940189,-101.295364,-120.179649,-39.122612,-61.379494,-78.591328,-93.384739,0.782661,4.295445,8.40638,13.043996,2.238551,11.94842,18.562877,23.702982,4.617411,15.046685,21.307844,25.666966,8.772621,16.306184,21.220343,24.746304,13.83534,18.848992,21.320824,22.932349,15.210102,44.502583,73.389817,95.506897,59.346863,105.56083,128.830925,146.230912,61.903038,111.196118,137.176609,154.643921,61.632454,106.302773,129.539967,143.721222,59.024128,93.396996,110.859673,121.330021,-35.069306,-47.512811,-47.865795,-51.8973,-19.269803,-12.518754,-6.25423,0.887551,4.477745,7.094011,9.59594,12.692748,21.614237,22.672541,20.726402,19.172305,33.162244,30.743295,26.790478,23.511309,60.412348,194.623575,-167.441042,117.900108
60,1.73394,1.038802,-7.831318,-6.432578,-29.027115,-53.782036,-70.659954,-83.683788,-64.034157,-91.735759,-112.539734,-131.680881,-57.557647,-88.569202,-112.643657,-134.238624,-47.888717,-76.622532,-98.977684,-117.77861,-35.868988,-58.229416,-75.38673,-89.99596,-0.31899,3.974466,8.757456,14.137917,1.671337,12.642224,20.010925,25.854935,4.368027,15.92285,22.904265,27.733197,9.194365,17.521457,23.099681,26.966775,15.299344,20.54225,23.374075,25.08219,15.03201,43.796128,72.536488,94.555848,57.225094,103.793679,127.507782,145.317399,60.323308,109.953255,136.615815,154.709187,60.924866,106.080105,130.367318,145.821934,59.3336,94.410622,112.786538,124.653019,-35.58239,-49.328804,-51.281185,-56.456857,-22.256614,-15.609571,-9.482263,-2.334289,1.316914,3.970009,6.667489,10.083447,18.336724,19.037603,17.452137,16.296119,29.84164,26.112619,22.210487,19.218421,62.52297,195.158083,-174.895678,110.963236
61,2.148331,2.113951,-4.112079,-2.496285,-29.747589,-55.168945,-72.666847,-86.663498,-64.093941,-91.396694,-112.333065,-131.766163,-56.858551,-87.352375,-111.141609,-132.766377,-46.33905,-74.360081,-96.471726,-115.302704,-33.404091,-54.884239,-71.70726,-86.148308,0.100431,4.595799,9.088414,14.292232,2.528,13.408806,20.815904,26.675301,4.875986,16.169284,22.980379,27.69732,9.043138,17.090847,22.572184,26.464238,14.417338,19.551453,22.591561,24.489337,15.960411,44.629623,73.051643,94.878799,57.758285,103.016258,126.715908,144.841381,60.554603,109.032085,135.886391,154.867607,60.9562,105.306427,130.051483,146.5532,59.206615,93.934238,112.350975,124.995804,-35.977951,-50.487896,-53.554323,-59.20924,-24.181461,-17.366729,-11.00945,-3.731441,-1.216298,1.733458,5.038241,8.92722,15.809254,16.475887,15.614395,14.893977,27.437524,22.697463,18.528755,15.186131,65.107355,196.762686,-178.571703,107.957603
62,2.005852,1.472402,0.120998,3.070453,-30.365982,-56.292458,-74.038479,-88.167515,-64.114609,-90.89859,-111.934674,-131.576557,-56.705681,-86.544285,-110.260014,-131.876999,-46.126396,-73.567681,-95.428173,-114.145077,-33.038269,-54.087777,-70.676594,-84.804577,-0.409986,4.106513,8.723406,14.072919,1.866171,12.346513,19.673039,25.486865,4.425677,15.3132,21.796636,26.472809,8.56992,16.263329,21.19095,24.914945,13.821409,18.885264,21.537494,23.314275,18.004532,47.303318,75.523957,97.545388,59.953846,103.656235,127.34729,145.954388,62.041031,108.963444,136.131066,156.064785,61.965935,105.151989,130.387493,147.868584,59.922421,93.880005,112.564602,126.310959,-36.6376,-51.458872,-54.874559,-60.278875,-25.295747,-17.85678,-11.022096,-3.35737,-3.028598,0.707499,4.919322,9.49483,13.889718,15.340914,15.947575,16.249263,25.590013,21.643223,18.513305,15.647517,67.573288,197.769286,-177.990624,110.562254
63,1.376358,-0.194489,4.198609,6.801437,-31.362831,-58.143929,-76.628311,-91.88839,-63.870072,-90.208363,-111.684563,-131.849053,-56.179802,-85.194271,-108.945305,-130.866326,-45.444809,-72.08741,-93.76268,-112.604199,-32.111046,-52.480316,-68.80259,-82.686814,-0.664373,3.630269,7.995431,13.041699,2.089584,11.450156,17.960243,22.944724,4.775567,14.521202,19.948754,23.838771,8.604697,15.355549,19.220976,22.218428,13.224048,17.774226,19.933329,21.365136,21.155822,51.503002,79.408241,101.456565,64.039638,105.394203,128.97219,147.725978,64.855236,109.61824,136.910774,157.369045,63.610199,105.060951,130.377845,148.284599,60.470592,92.799064,111.262458,125.351852,-37.034099,-51.099608,-53.976677,-58.271893,-25.044059,-16.215633,-8.756375,-0.513022,-3.632863,1.965244,7.139015,12.446414,13.174476,16.16301,18.199934,19.574745,25.08592,22.52003,20.45538,18.168972,69.407496,197.433259,-173.334165,117.222153
64,-10.884865,-2.132551,7.39397,9.455014,-31.128147,-57.750046,-75.760746,-90.115643,-63.878758,-82.923363,-96.230118,-109.122219,-56.507389,-77.638767,-93.638123,-108.295715,-46.702721,-67.908955,-83.122398,-96.07243,-34.242622,-53.215645,-68.385819,-81.137856,-5.786125,-7.102643,-8.100962,-7.421782,-5.650928,-0.938791,4.533333,9.449369,-0.195551,5.568319,10.154534,13.227852,5.868302,9.736793,12.429839,14.69277,12.746891,17.260438,19.020757,20.0871,23.738457,55.562954,83.342629,105.045113,68.338898,107.716427,131.142197,149.604733,67.736424,110.783833,137.898033,158.199967,65.124802,105.230839,130.126293,147.664398,60.730202,92.072685,110.170956,124.003784,-37.059769,-49.997067,-51.513886,-54.614918,-24.540695,-14.301297,-6.171861,2.71046,-3.689131,3.339314,8.933592,14.583137,13.20225,17.593272,20.152247,21.925644,25.532066,24.167197,22.682816,20.655587,58.990803,195.508859,-165.472023,126.885318
65,-15.529415,-2.93023,8.732403,8.864296,-27.188175,-52.737683,-68.71962,-80.788857,-61.13197,-68.731785,-73.455174,-78.93512,-55.251515,-64.96463,-72.175358,-78.661984,-46.557553,-58.295712,-64.834053,-70.893975,-34.853142,-52.106495,-66.459538,-78.573441,-11.383935,-18.38432,-24.344198,-28.354653,-13.436284,-11.883051,-7.09469,-2.37534,-4.491379,-2.363435,1.171727,3.666493,3.956584,5.188665,5.801983,6.723286,12.892078,17.14436,18.786303,19.923499,24.544292,56.983784,85.108234,107.106296,70.427502,109.738174,132.8722,150.868824,69.02148,111.948131,138.766399,158.493862,65.549171,105.289707,129.658756,146.516865,60.39489,91.260681,108.952331,122.210998,-36.395532,-48.355334,-48.988257,-51.566898,-22.670416,-11.601643,-3.144529,5.809269,-1.699495,6.014157,11.855412,17.433858,15.296182,20.270215,22.92263,24.486657,27.620156,27.063551,25.598003,23.327083,43.865456,192.971451,-156.335552,136.142436
66,-26.682026,-8.415099,7.558742,6.585471,-19.913693,-38.431057,-48.823929,-55.821934,-46.416344,-42.294113,-38.696549,-36.714237,-42.09129,-39.933106,-38.49987,-36.92466,-35.489994,-36.691864,-34.86747,-33.929112,-25.885723,-37.49263,-48.288574,-57.138462,-16.241655,-27.006802,-35.820438,-43.075914,-17.377455,-16.457374,-11.629653,-7.014266,-4.347328,-3.154236,-0.014845,2.174417,6.724126,7.738908,6.871228,6.567774,17.178866,22.75084,24.482915,25.799507,24.902539,57.741909,86.778775,109.154366,70.137463,110.46595,133.240414,150.503563,68.607937,112.61007,139.163876,158.150918,65.102898,105.494385,129.11063,144.902916,60.011147,91.003155,108.308362,120.69286,-35.413855,-46.728383,-46.568394,-48.814207,-20.50536,-8.656777,0.014067,8.785281,1.0483,9.339009,15.203545,20.78509,18.033591,23.549446,25.924071,27.112494,29.95662,30.211908,28.679448,26.422199,17.475226,184.966082,-148.485014,143.137637
67,-23.851879,-6.660967,5.357174,2.196203,-12.59388,-25.794972,-34.378144,-40.820011,-31.390366,-18.874089,-9.462055,-1.693383,-29.298683,-18.770817,-10.193413,-1.912297,-25.999729,-19.983639,-10.796356,-2.980591,-20.409531,-26.441242,-31.41893,-34.445744,-7.766115,-15.485732,-23.690916,-30.257468,-12.208724,-12.890621,-8.463648,-3.620723,-4.32432,-5.940921,-2.552577,-0.090774,1.577525,-0.162145,-0.836237,-0.799014,7.100395,9.283458,10.387222,11.904726,25.080918,58.484768,88.699093,111.195053,68.451874,110.249955,132.799256,149.317681,66.947411,112.432595,138.774617,156.909027,63.769593,105.555428,129.031437,144.344811,59.159443,91.11652,108.422516,120.401986,-33.518012,-44.212856,-43.753032,-46.923032,-18.975272,-6.199111,2.79575,11.5722,3.349009,12.43972,18.471228,23.978525,20.6288,26.961762,29.221481,30.12421,32.550371,33.561201,31.916096,29.553006,-6.14471,178.72369,-142.895897,145.752415
68,-1.026718,6.470875,3.424302,-2.095167,-16.52314,-31.917412,-42.03946,-49.394097,-37.185666,-25.684319,-14.89674,-4.766156,-33.971238,-24.729229,-14.301899,-3.093293,-29.497708,-24.903901,-14.791844,-5.4058,-22.775254,-30.070187,-35.329846,-38.225327,-5.941316,-12.46195,-19.953794,-25.57507,-11.097031,-10.020487,-4.840899,0.333427,-3.197782,-3.179776,1.222522,3.986903,3.088891,2.766369,3.207588,3.589242,9.034245,12.157013,13.930633,15.701178,25.839019,59.593425,90.179191,112.144134,68.446151,109.416732,130.998859,146.264556,66.318283,110.646102,135.64698,152.642784,62.573089,103.669269,126.198978,141.007404,57.478809,89.468799,106.536804,118.514774,-31.024271,-41.709741,-41.736251,-46.456514,-19.134279,-5.851543,3.205427,11.641052,2.688218,12.45207,18.686663,24.267184,20.035589,27.264339,29.674803,30.513534,32.729188,35.184212,33.976238,32.074103,-7.007034,185.43985,-139.307201,143.902533
69,11.469223,11.441462,6.570819,-8.085969,-20.929791,-39.558232,-52.154011,-61.955716,-41.901181,-37.982071,-35.453385,-32.319626,-37.467694,-36.503586,-33.506825,-28.911267,-31.29784,-32.987091,-29.510422,-25.765332,-23.144738,-32.354771,-39.072636,-43.015526,-1.902222,-2.619663,-4.409832,-5.504222,-2.874791,3.900341,10.732123,16.578454,3.229942,8.233886,14.517769,18.794528,8.285065,11.873196,14.167619,15.727113,12.87254,16.975583,19.419739,21.506125,23.554367,55.224381,84.336216,105.029595,63.819889,101.134278,120.175484,133.554657,62.225693,102.315846,124.457817,139.608788,59.008553,96.608437,117.245888,131.121964,54.238083,83.741192,99.973297,111.974408,-29.512683,-40.426828,-41.329656,-46.578527,-21.153042,-10.186447,-3.04784,3.283269,-0.72645,8.458732,14.177821,18.961687,15.907128,23.142276,25.850377,26.656751,28.742841,32.117414,31.731042,30.53837,4.557433,196.856457,-132.641138,135.791709
70,16.899227,16.213225,5.734955,-8.874003,-27.574276,-49.599941,-65.584706,-78.945591,-48.924053,-56.873451,-62.997711,-67.293034,-42.857426,-53.88366,-59.713635,-63.340657,-35.797051,-48.140545,-53.650074,-57.070748,-26.943993,-39.098992,-46.909241,-52.06287,1.633471,6.028446,9.283372,12.508201,6.520164,17.541699,26.11252,33.220091,10.940617,20.046666,28.848866,35.301253,14.867708,21.653165,27.22898,31.403209,18.133021,23.273496,26.774756,29.847037,22.840519,51.840374,77.216389,95.243878,58.619705,89.928921,105.092434,115.232334,56.486733,90.196873,107.488678,118.614247,52.700684,84.76109,101.54971,112.544964,47.388268,72.398174,86.133946,96.410168,-26.237621,-36.896619,-39.153973,-45.171921,-23.223676,-14.822409,-9.578675,-5.040606,-6.377762,1.421025,5.900875,9.835858,8.417507,15.221711,17.589481,18.327954,21.239103,25.271899,25.019303,24.05943,21.520157,212.781478,-126.842686,126.629502
71,22.478725,28.361581,1.908795,-9.214101,-36.394901,-66.316406,-88.05566,-105.986458,-68.853012,-90.203602,-102.540367,-110.973781,-60.747059,-85.368931,-97.165901,-104.433666,-51.205009,-75.715084,-87.286983,-93.92316,-40.127598,-59.763634,-70.35197,-76.811817,4.673617,13.257616,20.344489,27.317568,13.687905,29.507694,39.032127,46.257777,16.671265,30.349673,39.551189,45.587773,19.950126,30.299705,36.621959,40.479483,22.737107,29.245527,32.263454,34.043879,23.999015,49.298389,70.035965,83.242138,47.697704,70.201549,81.561538,89.141704,42.769088,72.233368,88.366882,98.257953,37.849685,67.206562,82.893402,92.867946,32.573902,55.871349,69.266693,79.261104,-24.902934,-37.917402,-43.618465,-51.541512,-36.325711,-35.892025,-35.647481,-35.529513,-23.010105,-17.958637,-12.031431,-6.543894,-8.920736,-3.127016,1.554339,4.878542,5.394881,9.255455,10.532287,11.36667,44.13608,240.676389,-124.796693,116.948731
72,21.763516,30.648274,2.017765,-9.525488,-46.693772,-83.089588,-107.984162,-127.374733,-89.243065,-120.606823,-137.671807,-150.046681,-78.248223,-112.870743,-130.817849,-142.991467,-64.696392,-98.214306,-116.957051,-129.346653,-48.966568,-75.463372,-91.664921,-103.70422,-5.826423,0.246297,8.193353,14.926099,12.33483,33.002483,44.580648,53.184456,22.928903,42.548133,53.309081,60.485615,33.007027,49.255883,56.951108,61.27744,41.718195,54.033339,58.959145,61.276403,23.58657,44.169708,59.307048,66.860653,35.156971,48.514949,55.311321,59.994953,27.313934,51.638637,66.479805,75.222324,20.749672,46.562141,60.671928,69.376659,15.056396,35.753173,48.657932,58.077861,-24.507893,-40.856537,-50.324795,-59.533993,-48.95422,-56.883807,-63.073014,-68.487518,-38.948109,-38.50421,-31.674232,-24.344977,-25.992138,-22.990759,-17.005891,-11.401961,-11.056381,-9.241919,-7.059641,-4.060769,66.081528,270.804345,-122.596996,106.902925
73,-1.771775,21.914603,3.062175,-9.113818,-44.999496,-80.380474,-104.852016,-123.667362,-88.557392,-120.121547,-137.490463,-150.534484,-78.375537,-113.497501,-132.690296,-146.582782,-65.592132,-99.428856,-119.05878,-132.416885,-50.452354,-76.913967,-92.727012,-104.941967,-9.008693,-3.528949,5.431147,11.67641,15.299653,37.481191,50.644749,61.561431,28.3024,49.349596,61.552725,70.812792,39.66723,57.701611,66.504601,72.197767,49.122861,62.959547,68.987388,72.365086,21.727776,36.998703,46.363209,48.499661,18.971981,25.988949,28.941388,30.835053,8.890252,31.527478,46.113957,53.701905,1.9861,26.790448,40.281121,47.70821,-2.590026,17.148125,30.252331,38.973187,-24.410852,-44.318653,-57.164802,-66.66136,-60.287755,-76.811331,-89.336945,-100.37254,-52.087102,-56.249203,-48.324835,-39.33734,-39.682568,-39.638145,-32.562307,-25.167819,-24.53489,-25.274289,-22.662537,-18.244462,64.487663,292.26156,-119.356911,97.331719
74,-3.825393,22.18102,-0.002712,-4.88723,-43.195221,-77.031166,-100.977814,-119.373299,-87.822842,-120.265606,-137.05933,-149.203915,-78.142548,-114.11443,-133.325627,-146.944336,-65.914662,-100.074955,-119.496014,-132.64032,-51.148819,-77.793125,-93.037171,-105.240795,-10.53814,-5.109686,5.291677,12.002922,18.995625,42.180163,55.844726,67.332365,33.894888,55.878738,68.124499,77.853129,45.80112,65.130494,74.342223,80.329073,54.935019,69.998896,76.768248,80.895053,23.778923,35.59132,40.296971,38.313732,8.538529,11.657673,12.557499,12.813446,-4.950142,18.180908,33.710472,41.610317,-13.226486,12.557144,26.442867,33.508324,-17.69442,2.836888,16.841572,25.362557,-23.623059,-46.655684,-62.701041,-74.074355,-70.341191,-93.032232,-109.746784,-124.355993,-63.693778,-70.170284,-60.114644,-48.644072,-51.295116,-52.784586,-43.772879,-34.222764,-35.381603,-37.848569,-34.614169,-29.282546,60.888565,314.067887,-119.133328,92.069796
75,-5.081612,20.714756,0.430824,-3.025894,-41.75695,-74.578262,-98.692841,-117.319862,-86.601791,-120.251678,-136.206837,-146.701549,-77.072891,-114.236023,-132.948841,-145.084339,-64.877003,-99.696968,-118.554577,-130.541565,-50.385178,-77.334537,-91.992725,-103.384598,-11.145875,-5.216205,6.916133,14.677604,21.518524,45.605421,59.047115,70.391073,37.585957,60.900838,72.503283,81.413954,49.896717,70.941109,79.875233,85.006655,59.046374,75.676254,82.417336,86.110456,26.227387,36.855629,40.02031,36.380173,2.87613,3.40305,4.264401,4.929005,-13.147499,11.890263,30.431111,40.557049,-22.036193,6.313935,22.607048,30.889653,-26.285133,-2.918804,13.705239,23.499264,-24.792852,-50.646718,-68.845571,-80.980101,-81.226399,-110.234816,-131.074814,-149.130931,-74.674773,-82.312496,-69.508425,-55.588227,-61.485404,-63.752237,-51.810516,-39.873377,-44.568631,-48.361002,-43.157906,-36.159077,56.097061,334.554815,-118.412396,88.816074
76,0.196816,15.503355,6.289799,-1.826305,-40.613846,-73.604451,-99.075612,-118.951115,-83.997025,-117.895123,-135.126984,-147.145558,-74.996624,-112.833344,-133.766762,-148.814553,-63.525708,-99.169934,-120.149941,-134.962017,-49.784432,-76.906289,-92.213791,-105.362446,-12.517562,-7.086181,6.249426,14.487857,21.862857,44.422876,57.845637,69.997291,38.584066,60.745362,73.480434,84.066282,51.200428,71.682126,82.291946,89.51604,60.570078,77.081458,85.156424,90.709206,26.659664,36.658024,38.213928,34.415474,3.771675,4.426323,4.885529,5.177159,-12.700378,12.23893,30.157482,39.729641,-22.090988,6.031414,21.845879,29.628021,-26.834415,-3.548206,13.278958,23.011986,-24.031513,-50.474009,-69.151224,-81.367975,-81.666495,-111.202272,-133.295421,-152.557795,-75.661107,-83.32692,-70.655884,-56.41304,-62.92627,-64.867598,-52.7319,-40.832806,-46.498746,-50.332242,-44.70762,-37.505805,56.526799,349.966354,-111.889675,86.897953
77,-1.951859,12.197547,6.294434,-0.448512,-38.486504,-71.418663,-97.435673,-118.016716,-81.10524,-115.171612,-132.72298,-145.109516,-72.298725,-110.950264,-132.295441,-147.904015,-61.198425,-97.48637,-118.425945,-133.615162,-48.04042,-75.537804,-90.817646,-104.134266,-12.747274,-7.362033,6.693374,14.964706,23.203878,45.07123,57.78585,69.011605,40.331083,61.621415,73.62756,83.762383,52.976765,72.961545,83.021588,90.18329,61.974059,78.595529,86.531173,92.299859,27.480469,37.684032,39.009063,36.232601,6.213135,7.617794,8.607788,9.038738,-10.55151,15.972782,33.25502,41.889129,-19.999958,8.867946,24.124729,31.158039,-24.969727,-1.075161,15.692871,25.033458,-22.679339,-48.746701,-67.237868,-78.870473,-81.708911,-111.859167,-134.075854,-153.722711,-76.192666,-82.72623,-69.479575,-55.093088,-63.703164,-64.393892,-51.482992,-39.610567,-47.343473,-49.8775,-43.529249,-36.434676,54.755945,362.099881,-105.414236,86.385421
78,-1.533234,9.254818,4.1842,0.811641,-36.434303,-69.236286,-95.886394,-117.105526,-78.488594,-113.0709,-130.932632,-143.639648,-69.8027,-109.130825,-130.746196,-146.579876,-58.952499,-95.887722,-116.843925,-132.025142,-46.411811,-74.501484,-89.929149,-103.334861,-13.402384,-8.126367,6.394527,14.754717,23.889542,45.010159,56.717914,66.484211,41.374789,62.159731,73.232209,82.299887,54.118333,73.841809,83.138507,89.672244,62.903255,79.814371,87.187395,92.571166,27.77005,38.343796,40.332779,38.691753,8.258205,9.8489,11.524235,12.70911,-8.263927,18.839893,35.432304,43.416744,-17.707638,11.435246,26.074814,32.601322,-22.904125,1.114792,17.558533,26.60804,-22.317976,-48.059271,-66.158125,-77.974635,-82.038608,-112.788529,-135.120084,-154.705777,-76.862392,-83.091373,-69.8153,-55.857755,-64.786896,-65.584013,-52.476821,-40.567044,-48.731091,-51.407094,-44.760928,-37.529554,53.423355,371.275448,-101.029392,87.117811
79,-0.591384,5.93188,0.775005,-0.234114,-34.886902,-67.708169,-94.857033,-116.461487,-76.601693,-111.31881,-129.388596,-142.379872,-68.038331,-107.701275,-129.517731,-145.622223,-57.357502,-94.787396,-115.764325,-130.908589,-45.205422,-73.73362,-89.273198,-102.659409,-13.638937,-8.220684,6.560339,14.57947,24.586655,44.874012,55.80465,64.553646,42.300539,62.350972,72.758831,81.114069,55.088197,74.403714,82.861161,88.806466,63.629934,80.673616,87.617561,92.719442,27.277749,38.524441,41.047738,39.1325,8.12756,9.535492,11.339894,12.986,-8.28836,19.004963,35.424248,42.830532,-17.750839,11.517277,26.032723,32.396565,-22.796653,1.255497,17.647065,26.65416,-21.97118,-47.74858,-65.666148,-76.423069,-82.04516,-112.93807,-135.294714,-154.943924,-76.778462,-83.560905,-69.716024,-55.525693,-65.002979,-66.263361,-53.139706,-41.029252,-49.305852,-52.479946,-45.843753,-38.012732,53.005658,377.153522,-100.0807,86.829891
80,0.523796,4.253838,-1.729305,-2.184186,-34.068627,-67.142659,-94.698864,-116.492032,-75.817326,-110.50549,-128.835629,-142.181031,-67.378682,-107.015591,-128.974595,-145.507542,-56.837117,-94.294407,-115.306595,-130.584561,-44.955758,-73.344853,-88.92722,-102.327851,-14.044464,-8.638426,6.182278,13.700169,24.963925,44.184865,54.385057,62.190618,42.74487,61.758575,71.627292,79.452242,55.328703,73.923999,81.696622,87.261187,63.374868,80.194544,86.800331,91.762421,25.413174,36.000996,37.729134,34.344566,4.325478,5.323963,6.516495,7.846607,-12.100811,14.734875,30.954495,38.286965,-21.55743,7.757183,22.130585,28.809895,-26.140846,-2.423172,13.78022,22.945645,-22.177228,-48.803944,-66.80272,-76.623752,-81.312566,-112.252431,-134.75057,-154.751355,-75.599708,-83.570939,-69.302024,-54.763816,-63.844881,-65.886103,-52.994766,-40.567384,-48.30016,-52.007167,-45.720808,-37.481531,53.633566,381.406107,-101.705893,84.644452
81,0.830474,2.940888,-4.930595,-2.752895,-33.714729,-66.784069,-94.461971,-116.447296,-75.091529,-110.019447,-128.444034,-142.025116,-66.770805,-106.624649,-128.693389,-145.591072,-56.413593,-94.094249,-115.153129,-130.538349,-44.852783,-73.445102,-89.070945,-102.380332,-14.615013,-9.274344,5.609333,12.830785,24.975065,43.190227,52.761108,59.901185,42.893046,60.68849,69.979173,77.317222,55.363147,73.073709,80.305509,85.405044,63.172425,79.633801,85.853549,90.494142,23.475322,33.727615,35.366764,31.006633,0.219188,0.26176,0.772018,1.577453,-16.210648,10.006965,26.177307,33.60236,-25.574879,3.514354,17.942894,24.900272,-30.041966,-6.882054,9.555999,19.029098,-22.283785,-49.176164,-67.139167,-76.567387,-79.955033,-111.692262,-134.219819,-154.218332,-73.573869,-82.90677,-68.089401,-53.623854,-61.766412,-65.504251,-52.937789,-40.713097,-46.277902,-51.384327,-45.546036,-37.361247,54.500867,384.438672,-106.599661,81.983234
82,1.083001,2.65628,-4.053978,-1.359423,-33.310456,-66.544705,-94.358723,-116.345845,-74.733719,-110.13192,-128.692829,-142.453102,-66.4888,-106.638874,-128.866734,-145.964848,-56.1946,-94.131718,-115.465474,-131.052281,-44.804261,-73.635418,-89.39724,-102.673474,-15.376124,-10.434374,4.26031,11.60646,24.294514,41.626842,50.660051,57.343508,42.355781,59.152548,67.943917,74.813181,54.783867,71.69071,78.534891,83.130924,62.483859,78.5259,84.419779,88.69082,22.005089,31.279106,32.412185,27.083095,-4.098313,-4.897877,-5.246945,-5.523228,-20.407643,4.982734,21.164657,28.928993,-29.674771,-0.690926,13.817104,21.029445,-34.074784,-10.844078,5.857601,15.678829,-22.767322,-50.715861,-69.058623,-78.543468,-79.585463,-111.711658,-134.121191,-153.940437,-72.511323,-82.711059,-68.204781,-54.378463,-60.394416,-65.206367,-53.180838,-41.38922,-44.868115,-50.966166,-45.534044,-37.800083,55.644574,387.231628,-110.592933,80.760487
83,1.059425,1.921451,-1.849606,0.701231,-33.058937,-66.260262,-94.101803,-116.088055,-74.225887,-110.221161,-128.913322,-142.794193,-65.961514,-106.618217,-128.93375,-146.062237,-55.66571,-94.24593,-115.790691,-131.449333,-44.401726,-73.799103,-89.701206,-102.899414,-16.012697,-11.296917,3.410488,10.975432,23.706354,40.444284,48.951676,55.171029,41.951081,57.828075,66.159898,72.6141,54.338251,70.420133,76.909545,81.151885,61.926364,77.527074,83.180238,87.252468,21.473522,30.122589,30.944103,25.150669,-6.320812,-7.74139,-8.608188,-9.775337,-22.834533,2.716336,19.182198,27.2528,-31.924942,-2.4795,12.408577,19.759632,-36.120815,-12.357868,4.644539,14.656094,-23.134804,-51.29745,-69.883892,-79.212237,-80.040767,-112.288462,-134.474243,-154.20135,-72.742819,-82.588051,-67.9396,-54.17213,-60.248821,-64.865905,-52.750295,-41.210823,-44.505041,-50.497233,-45.046592,-37.86744,57.027946,389.211958,-112.118592,81.520597
84,0.894836,1.41175,0.317459,2.961451,-33.031745,-66.217643,-94.090942,-116.08057,-73.841468,-110.434307,-129.250957,-143.20388,-65.454998,-106.648292,-128.980922,-146.111206,-55.122802,-94.253917,-115.978958,-131.724334,-43.968063,-73.792236,-89.842449,-103.005775,-16.618357,-12.096016,2.706891,10.528359,23.402962,39.678135,47.733736,53.511339,41.799126,56.829472,64.639084,70.645053,54.087606,69.3756,75.573822,79.530344,61.47624,76.654566,82.072559,85.994081,21.813378,30.404927,31.438855,25.603684,-6.247158,-7.997394,-8.969959,-10.67173,-22.987804,3.722786,20.168232,28.008305,-31.890896,-1.133377,13.480236,20.165039,-35.887504,-10.751426,6.059155,15.445141,-23.783776,-52.198679,-71.180144,-80.947324,-81.19737,-113.42018,-135.375558,-154.895375,-73.953954,-82.601655,-67.905582,-54.36418,-61.152927,-64.819278,-52.518299,-41.202987,-45.108781,-50.138111,-44.34315,-37.497882,58.468277,390.466182,-111.255638,84.324522
85,0.791245,1.257696,1.48407,4.159718,-32.939003,-66.107437,-94.125652,-116.198044,-73.377571,-110.798767,-129.699669,-143.678341,-64.841526,-106.893299,-129.239204,-146.249279,-54.533867,-94.479492,-116.32235,-132.027077,-43.608719,-74.117008,-90.367069,-103.435433,-17.434908,-13.126384,1.699643,9.783932,22.857248,38.876058,46.616509,52.125362,41.610058,55.954357,63.270349,68.88908,53.945394,68.532706,74.507269,78.288654,61.182085,75.916796,81.108202,84.943298,22.813511,31.944294,33.031197,27.665554,-3.99535,-6.281765,-7.31345,-9.143783,-21.049633,6.341412,22.605995,30.254299,-30.1371,1.259789,15.515236,21.769352,-34.434219,-8.475448,8.162693,17.16132,-24.036157,-52.347109,-71.571982,-82.051107,-82.199926,-114.268477,-136.094932,-155.483289,-75.139223,-83.148264,-68.7856,-55.391731,-62.43071,-65.14516,-52.993821,-41.949037,-46.406596,-50.707969,-44.764844,-38.056162,59.905718,391.313547,-109.125372,88.073909
86,0.719078,0.824182,1.567646,4.301225,-32.960861,-66.173435,-94.36433,-116.366695,-73.441406,-111.229603,-130.09362,-143.935398,-64.739857,-107.126644,-129.368076,-146.162418,-54.309105,-94.607895,-116.465515,-132.095341,-43.399681,-74.152199,-90.4926,-103.54026,-17.990439,-13.849888,0.928356,9.379369,22.546385,38.527873,45.987891,51.184991,41.547098,55.446535,62.350132,67.577947,53.95073,68.023451,73.778256,77.318692,61.108406,75.523681,80.527132,84.205814,23.556942,32.783283,33.960983,29.528572,-2.806801,-4.896641,-5.451897,-6.856567,-19.789535,8.061379,24.238335,31.720596,-28.612461,3.355717,17.373402,23.285397,-32.56493,-5.712101,10.659794,19.246411,-24.555521,-52.729585,-71.867612,-82.58242,-83.043535,-114.557895,-136.151594,-155.300699,-76.056908,-83.704802,-69.789816,-56.564755,-63.40247,-65.562018,-53.50714,-42.340782,-47.417814,-51.059428,-45.126077,-38.289529,61.42198,391.641759,-106.760542,91.879164
87,0.719742,0.423299,0.056648,2.926031,-33.152161,-66.452191,-94.689903,-116.554802,-73.730862,-111.595047,-130.343125,-144.017544,-64.788311,-107.212898,-129.221054,-145.78323,-54.210022,-94.575096,-116.27544,-131.712216,-43.2957,-74.083557,-90.37508,-103.251286,-18.453678,-14.273052,0.602042,9.303527,22.51961,38.61546,45.974825,51.053339,41.696386,55.352847,62.040219,67.082103,54.179417,67.940595,73.518127,76.926008,61.302648,75.523014,80.388132,83.957528,23.671177,32.847016,33.851944,29.654789,-2.668384,-4.854103,-4.958095,-5.662319,-19.61729,8.502102,24.873311,32.21695,-28.127369,3.979649,18.221592,24.132592,-31.429836,-4.883754,11.396347,19.804436,-24.99377,-52.795065,-71.462227,-81.786044,-82.884176,-114.157283,-135.609135,-154.778198,-75.827567,-83.548851,-69.526117,-56.155714,-63.054223,-65.371407,-53.469935,-42.435309,-46.924077,-50.624791,-44.995667,-38.230384,63.113972,391.602884,-105.731644,94.343021
88,0.684929,0.332193,-1.855865,0.645983,-33.359986,-66.847092,-95.114056,-116.816895,-74.03143,-111.99289,-130.661923,-144.104496,-64.837899,-107.301201,-129.08685,-145.376633,-54.122406,-94.526058,-116.09047,-131.351475,-43.197121,-73.916737,-90.129776,-102.836266,-18.844583,-14.567046,0.457941,9.427127,22.581175,38.824411,46.115331,51.105542,41.897716,55.422958,61.917336,66.863482,54.433445,68.009088,73.459315,76.806904,61.4734,75.600683,80.425058,84.020636,23.472599,31.935196,31.735783,26.913402,-3.844585,-6.293942,-6.645882,-7.270145,-20.63728,7.070824,23.822788,31.591461,-29.052418,2.798069,17.241909,23.61121,-32.070717,-6.023861,10.317593,18.988232,-25.373145,-53.705309,-72.410595,-82.710181,-81.595642,-112.562424,-133.913648,-153.19585,-74.12496,-82.641638,-68.829047,-55.411726,-61.217531,-64.149193,-52.487294,-41.429253,-44.939276,-49.01752,-43.770588,-36.889011,64.627064,391.675527,-106.759346,94.729454
89,0.664924,0.309184,-3.100216,-0.872663,-33.475914,-67.067253,-95.432384,-117.048477,-74.131679,-112.323314,-130.972664,-144.28886,-64.743827,-107.421238,-129.071834,-145.13253,-53.928245,-94.557094,-116.036087,-131.166492,-43.063888,-73.926246,-90.110275,-102.695606,-19.133698,-14.821309,0.232219,9.4427,22.484918,39.025952,46.327024,51.291436,41.978968,55.542779,61.911284,66.742192,54.628947,68.17017,73.557449,76.82454,61.656984,75.797902,80.593847,84.154005,22.452896,30.585171,30.121983,25.460529,-6.287899,-9.225758,-10.227562,-11.190617,-23.031578,3.961624,21.300121,29.972694,-31.476768,-0.253841,14.800221,22.239887,-34.478531,-9.560623,7.249489,16.874485,-24.985853,-52.90482,-71.40478,-81.803494,-79.583925,-110.54891,-131.979736,-151.283075,-71.724425,-81.478761,-68.098577,-54.623791,-58.738165,-62.59149,-51.474217,-40.472109,-42.348395,-47.487258,-42.922143,-36.16106,65.957016,391.990281,-109.194534,93.862361
90,0.495919,-0.192031,-2.499607,-1.150212,-33.655472,-67.22295,-95.540646,-117.072922,-74.084553,-112.15543,-130.777577,-144.065609,-64.610699,-107.110909,-128.69973,-144.668072,-53.741593,-94.273911,-115.715138,-130.812001,-42.900353,-73.664429,-89.818852,-102.380619,-18.946422,-14.460959,0.739955,10.174455,22.820037,39.611716,46.937908,51.857625,42.335773,56.032262,62.335139,67.019241,55.016727,68.690392,74.008881,77.102355,62.064301,76.331401,81.104028,84.515356,21.266899,28.500927,27.884766,22.864254,-9.649269,-12.804051,-14.591515,-16.3801,-26.250275,0.897938,18.725063,27.944138,-34.377972,-2.935272,12.66291,20.699947,-36.983059,-12.19138,4.996204,15.133072,-24.898884,-52.793071,-71.180336,-81.547329,-78.284999,-109.044071,-130.398821,-149.550427,-70.12346,-80.229921,-66.872152,-53.570996,-56.728875,-61.327947,-50.377753,-39.367562,-39.947694,-45.776001,-41.633011,-35.031732,67.098885,392.044125,-111.048191,92.958024
91,0.383308,-0.202492,-1.412762,-0.908831,-33.73835,-67.326473,-95.622414,-117.218433,-73.754436,-111.888245,-130.574787,-143.983395,-64.219173,-106.795555,-128.415596,-144.402798,-53.394104,-94.005386,-115.457531,-130.625736,-42.65815,-73.578072,-89.804466,-102.418373,-18.868901,-14.23042,1.091809,10.553639,23.12112,39.97135,47.377423,52.376292,42.697001,56.424402,62.666121,67.242889,55.398641,69.145308,74.47049,77.488999,62.440979,76.685181,81.400826,84.734693,20.548645,27.368557,26.756447,21.215927,-11.819435,-15.208763,-17.722229,-20.377464,-28.555355,-1.144775,16.870674,26.376274,-36.608207,-4.869518,10.951676,19.223065,-39.117428,-14.307003,3.098625,13.488957,-24.725155,-52.831682,-71.174494,-81.203829,-77.7072,-108.674167,-129.971279,-148.944593,-69.290273,-79.300206,-65.951897,-52.853598,-55.504567,-60.316363,-49.603822,-38.861454,-38.378653,-44.698918,-40.737265,-34.431986,68.112974,392.112118,-111.830172,92.319678
92,0.024399,-0.363932,-0.145351,0.176014,-33.696625,-67.259892,-95.593586,-117.310833,-73.152134,-111.553723,-130.375923,-143.972386,-63.585034,-106.457955,-128.235855,-144.328102,-52.832657,-93.69603,-115.252762,-130.57893,-42.244812,-73.40839,-89.801708,-102.578625,-18.641215,-13.837169,1.534485,11.074059,23.549989,40.454992,47.893187,52.874654,43.196982,57.041523,63.210759,67.591173,55.882727,69.779373,75.168171,78.098895,62.856324,77.103095,81.77486,85.021956,20.313537,27.171329,26.935833,21.396767,-12.379166,-15.927143,-18.945202,-22.389233,-29.282627,-1.42701,16.496773,25.986992,-37.379963,-4.96764,10.575302,18.503506,-40.036183,-14.491264,2.899074,13.113304,-24.620884,-52.774533,-71.27261,-81.335333,-78.041789,-109.053272,-130.216966,-148.88125,-69.597692,-79.066284,-65.680431,-52.695956,-55.657814,-60.106406,-49.359488,-38.557211,-38.397388,-44.594956,-40.465885,-34.156759,68.609585,391.954837,-111.503311,92.702343
93,-0.062393,-0.254029,0.348049,1.319865,-33.734917,-67.257981,-95.610478,-117.40559,-72.780259,-111.378857,-130.321621,-144.091107,-63.158318,-106.281716,-128.250801,-144.467617,-52.428772,-93.456459,-115.122116,-130.568058,-41.960106,-73.334221,-89.903458,-102.819832,-18.493705,-13.630799,1.697691,11.221149,23.727867,40.777736,48.320796,53.29804,43.474439,57.52246,63.681248,67.873039,56.198568,70.295347,75.757937,78.566148,63.164212,77.389272,81.964841,85.030984,20.449116,28.351273,29.386333,24.318821,-11.528286,-15.004738,-18.094448,-21.866913,-28.629581,-0.50132,17.112728,26.300858,-36.838154,-3.99646,11.196659,18.647598,-39.687115,-13.590019,3.78439,13.777725,-24.445784,-52.119737,-70.653166,-80.430665,-78.941096,-110.162444,-131.17879,-149.519045,-70.668153,-79.796253,-66.282472,-53.365206,-56.757811,-60.72567,-49.937687,-39.051831,-39.457438,-45.364409,-40.976338,-34.577205,68.956244,391.73072,-110.74621,94.05212
94,-0.166993,-0.139445,0.577309,1.569665,-33.78749,-67.254547,-95.559288,-117.423454,-72.637401,-111.248874,-130.200061,-144.078712,-63.018493,-106.202797,-128.239128,-144.560588,-52.329757,-93.378707,-115.077014,-130.618366,-41.933143,-73.405059,-90.074878,-103.111553,-18.367611,-13.516992,1.750612,11.191768,23.747776,40.837956,48.4245,53.391012,43.527038,57.736092,63.888693,67.973618,56.290996,70.547944,76.021821,78.742927,63.31229,77.505708,81.966509,84.874323,21.009029,29.181278,30.362274,25.559635,-10.47583,-13.694825,-16.58487,-20.347298,-27.577423,0.873447,18.27761,27.01276,-35.811619,-2.543049,12.376957,19.273098,-38.714905,-11.981781,5.254211,14.825786,-24.85916,-52.651087,-71.352811,-81.064058,-79.810555,-111.036565,-131.973234,-150.388942,-71.625958,-80.763951,-67.013745,-54.017192,-57.784764,-61.731288,-50.722671,-39.656954,-40.536571,-46.153011,-41.458665,-34.820353,69.259014,391.514189,-109.699138,95.544699
95,-0.301254,-0.096108,0.075187,1.085128,-33.818138,-67.25655,-95.52436,-117.362846,-72.747333,-111.233951,-130.104011,-143.987617,-63.166305,-106.232529,-128.232616,-144.600849,-52.463219,-93.344124,-114.961521,-130.535602,-41.998512,-73.397198,-90.06768,-103.185745,-18.238343,-13.402977,1.895799,11.254469,23.815367,40.915971,48.553163,53.604532,43.527124,57.824222,64.013712,68.177839,56.29685,70.621933,76.116386,78.888078,63.380672,77.517293,81.9301,84.824416,21.4907,30.087937,31.337311,26.627701,-9.48674,-12.813068,-15.430275,-18.875873,-26.5956,1.980263,19.344189,27.834881,-34.86969,-1.430271,13.352349,19.983937,-37.754596,-10.946994,6.22015,15.672444,-25.12649,-52.662536,-71.422132,-81.048528,-80.138191,-111.51176,-132.525758,-151.081708,-71.964616,-81.234007,-67.398432,-54.182702,-58.246503,-62.112665,-51.033987,-39.859317,-41.141083,-46.689462,-41.969569,-35.228598,69.508037,391.370104,-109.073674,96.58185
96,-0.251793,-0.08876,-0.484497,0.605734,-33.948417,-67.318794,-95.513889,-117.324314,-72.931389,-111.225036,-129.99385,-143.845859,-63.345909,-106.192554,-128.129081,-144.536567,-52.569786,-93.231445,-114.791324,-130.38216,-42.005562,-73.191261,-89.795276,-102.932533,-18.04294,-13.164583,2.273637,11.691958,23.900916,41.111707,48.764374,53.80427,43.542722,58.02985,64.287106,68.507216,56.264295,70.761699,76.291633,79.107884,63.339842,77.582217,82.014414,84.892873,21.615223,30.639496,32.044155,27.180165,-8.716781,-12.203281,-14.694774,-17.879322,-25.800602,2.969811,20.335522,28.670964,-34.128902,-0.663585,14.126816,20.752945,-37.024372,-10.509773,6.664776,16.210865,-25.22379,-52.48073,-71.474719,-81.267537,-80.277975,-111.661226,-132.803906,-151.543199,-72.137998,-81.534305,-67.581281,-54.189012,-58.498975,-62.357246,-51.353131,-40.169402,-41.430494,-46.930844,-42.38497,-35.676177,69.851463,391.226402,-108.962952,97.132642
97,-0.088417,0.100554,-0.896793,-0.056304,-34.053291,-67.487434,-95.542774,-117.344215,-73.237392,-111.318729,-129.97007,-143.664528,-63.628589,-106.197738,-128.020397,-144.391434,-52.754425,-93.141392,-114.594463,-130.146023,-42.07148,-73.155018,-89.728397,-102.886299,-18.191042,-13.221245,2.521257,12.000303,23.9548,41.23858,48.903881,53.944184,43.628358,58.083808,64.361244,68.653775,56.340322,70.813495,76.347617,79.131782,63.379919,77.564643,82.095308,85.023994,21.712521,30.927338,32.232124,27.093429,-8.521408,-12.085144,-14.552788,-17.488117,-25.505631,3.258797,20.789909,29.354633,-33.828335,-0.500668,14.435451,21.420399,-36.694794,-10.525234,6.733932,16.664062,-25.368175,-52.361404,-71.540853,-81.492593,-80.066165,-111.44736,-132.742631,-151.698896,-71.908206,-81.782709,-67.879289,-54.272462,-58.377086,-62.483785,-51.535776,-40.290705,-41.387559,-47.056469,-42.792912,-36.171008,70.354437,391.317881,-109.268354,97.067263
98,-0.111625,0.056119,-0.685352,-0.497239,-34.123742,-67.588715,-95.487053,-117.277817,-73.333924,-111.404206,-129.992638,-143.581295,-63.694829,-106.189202,-127.937634,-144.267117,-52.757195,-93.067544,-114.447327,-129.972336,-42.011742,-73.127118,-89.677174,-102.837628,-18.301884,-13.157049,3.012617,12.725352,24.204951,41.445814,49.127565,54.216652,43.897306,58.218412,64.490216,68.84341,56.543827,70.921373,76.474699,79.270782,63.445436,77.566545,82.168111,85.173627,21.622627,30.752998,31.8857,26.563682,-8.762639,-12.429451,-15.017281,-17.925076,-25.742913,3.274154,20.886234,29.690677,-34.014851,-0.547554,14.448074,21.77021,-36.794472,-10.759392,6.573211,16.886203,-25.472946,-52.278306,-71.514912,-81.605812,-79.901038,-111.090967,-132.46381,-151.471482,-71.765112,-81.593901,-67.714279,-53.904411,-58.259951,-62.243971,-51.350235,-40.115297,-41.265713,-46.895875,-42.929368,-36.491795,70.836789,391.433525,-109.359729,96.629549
99,-0.108651,0.033678,-0.615315,-0.539007,-34.228958,-67.718559,-95.385635,-117.103328,-73.50531,-111.472709,-129.98901,-143.489765,-63.838886,-106.138664,-127.799766,-144.126949,-52.828033,-92.934253,-114.220493,-129.705505,-41.989196,-72.982761,-89.477291,-102.608974,-18.389297,-13.051814,3.537237,13.463949,24.501354,41.661534,49.364391,54.500259,44.122176,58.308852,64.629291,69.056746,56.693375,70.973367,76.572944,79.393456,63.514004,77.614995,82.334912,85.451468,21.446571,30.455109,31.541748,26.151306,-9.079445,-12.667957,-15.326649,-18.250431,-26.013096,3.256508,20.867706,29.947426,-34.220924,-0.583546,14.487385,22.221645,-36.921741,-10.94434,6.493343,17.277821,-25.559366,-52.351369,-71.619888,-81.784944,-79.837812,-111.010827,-132.422332,-151.44149,-71.72353,-81.364566,-67.534857,-53.67168,-58.214151,-62.014778,-51.14941,-39.901134,-41.200801,-46.814864,-43.057543,-36.79042,71.265718,391.586609,-109.437464,96.209948
100,-0.073631,0.189179,-0.322128,-0.123501,-34.283798,-67.81366,-95.312187,-116.989517,-73.717335,-111.573784,-130.078239,-143.569736,-64.076637,-106.173614,-127.775482,-144.171341,-53.022881,-92.918999,-114.134365,-129.665359,-42.09185,-73.030952,-89.477806,-102.645721,-18.524395,-13.061867,3.852448,13.958829,24.60045,41.718467,49.470206,54.685535,44.165315,58.200245,64.565551,69.078679,56.694671,70.820572,76.48369,79.360629,63.446967,77.461767,82.311755,85.577265,21.228573,30.062988,31.242222,25.982849,-9.55085,-12.804875,-15.436913,-18.363796,-26.422795,3.197845,20.784496,30.148155,-34.563938,-0.687344,14.466121,22.587272,-37.226521,-11.086979,6.493217,17.684543,-25.800785,-52.754402,-72.04875,-82.42127,-80.056513,-111.18082,-132.591065,-151.66384,-71.953303,-81.450788,-67.812085,-54.042003,-58.410091,-62.165041,-51.317624,-40.037911,-41.297428,-46.936834,-43.295894,-37.157291,71.6653,391.874533,-109.286379,96.185192
101,-0.219978,0.288683,-0.199711,0.426177,-34.370728,-67.860443,-95.186085,-116.784485,-73.930893,-111.704075,-130.159745,-143.635781,-64.360989,-106.313542,-127.871189,-144.347889,-53.298432,-93.065037,-114.20081,-129.791027,-42.251038,-73.198345,-89.613545,-102.86776,-18.658628,-13.104005,4.071983,14.331369,24.579974,41.66267,49.468453,54.730526,44.103404,58.015587,64.422674,69.011816,56.6151,70.582005,76.323176,79.302572,63.30677,77.220582,82.214931,85.679487,21.105606,29.778683,31.06184,25.999065,-9.614834,-12.67503,-15.141827,-17.972008,-26.461395,3.073757,20.470642,29.915703,-34.556957,-0.617249,14.397011,22.568184,-37.221726,-10.824337,6.734493,17.984596,-26.239553,-53.374259,-72.590839,-82.876303,-80.512534,-111.547772,-132.670223,-151.55219,-72.347647,-81.563884,-68.124302,-54.638864,-58.729477,-62.279138,-51.413813,-40.168452,-41.545819,-47.122555,-43.382079,-37.213096,71.903967,392.255237,-109.027445,96.70339
102,-0.498139,0.185202,-0.338882,1.735211,-34.393844,-67.774761,-95.033352,-116.454094,-73.708774,-111.560051,-130.053177,-143.602009,-64.153061,-106.282425,-127.882713,-144.435024,-53.166275,-93.108776,-114.274234,-129.938301,-42.184318,-73.197567,-89.629692,-102.952194,-18.328239,-12.691377,4.541261,15.011772,24.828914,41.921836,49.698127,54.913172,44.285012,58.237567,64.598279,69.109937,56.717445,70.658144,76.429732,79.465049,63.334471,77.268179,82.315596,85.866134,21.085762,29.825431,31.319904,26.56446,-8.988053,-11.839348,-13.691655,-15.909474,-25.760674,3.727329,20.748641,30.052402,-33.796429,0.189125,14.946498,22.939899,-36.49775,-9.876103,7.516445,18.626403,-26.644092,-53.903219,-73.115785,-83.462604,-81.119806,-111.991702,-132.771561,-151.409645,-72.937641,-81.808471,-68.825681,-55.883159,-59.284014,-62.725476,-52.062241,-41.01374,-42.073587,-47.72924,-43.94063,-37.733972,71.954229,392.440281,-108.817926,98.438443
103,-0.282303,0.611144,-1.501488,4.306968,-34.362556,-67.787235,-94.996261,-116.213527,-73.85971,-111.342578,-129.86697,-143.570709,-64.407577,-106.203392,-127.796356,-144.45108,-53.497306,-93.078495,-114.209472,-129.929214,-42.512054,-73.102523,-89.474681,-102.882087,-17.91913,-12.29347,4.714446,14.982786,25.245507,42.24957,50.015734,55.274584,44.430582,58.447222,64.919529,69.582377,56.689583,70.666702,76.493162,79.647534,63.266335,77.221879,82.261602,85.841767,21.824398,31.252121,33.720497,30.329372,-6.161431,-8.911995,-9.625271,-10.397885,-22.662964,6.592712,23.709034,33.133816,-30.563416,2.956718,18.073093,26.421341,-33.310318,-7.141239,10.321449,21.726768,-27.224948,-54.431939,-73.614525,-84.430746,-82.123429,-112.824721,-132.897841,-150.673759,-74.192095,-82.515063,-69.850374,-57.347021,-60.533083,-63.748557,-53.314923,-42.518024,-43.275232,-48.707879,-45.058979,-39.065466,72.150341,392.969588,-109.840999,102.663574
104,0.020211,1.430967,-2.746102,6.582742,-34.24514,-67.675083,-94.914872,-116.031601,-73.458023,-110.6964,-129.485791,-143.380177,-64.175583,-105.857403,-127.632832,-144.280907,-53.583573,-92.951065,-114.155926,-129.778233,-42.904335,-73.280617,-89.654538,-102.963398,-17.58243,-12.048654,4.694278,14.88879,25.686664,42.929257,50.755442,56.11975,44.608473,59.028009,65.647826,70.544152,56.544778,70.866724,76.789416,80.135646,62.862216,76.939296,81.986368,85.592221,23.446175,34.071728,38.477475,36.963421,-1.189201,-3.007804,-2.570377,-2.215473,-17.112121,12.695641,30.471131,39.883038,-24.412937,9.027901,24.763115,33.057942,-26.813037,-0.635788,16.694836,27.599591,-28.413131,-54.846605,-73.490851,-84.450092,-83.209681,-113.591427,-132.591664,-148.981724,-74.963543,-82.755309,-70.612893,-58.538223,-60.670564,-63.846937,-53.623564,-43.172356,-42.803095,-48.186316,-44.87831,-39.577037,72.659232,394.159385,-112.098421,109.005146
105,0.248748,1.936283,-4.250473,7.767535,-34.311607,-67.656028,-94.677383,-115.500492,-72.862632,-109.35886,-128.375782,-142.502643,-63.594692,-104.802738,-126.803375,-143.523456,-53.2844,-92.074321,-113.312496,-128.80775,-42.969955,-72.697563,-89.017742,-102.153499,-16.694483,-11.130203,5.265235,15.338135,26.480651,44.320642,52.418023,58.001705,45.175094,60.611895,67.634621,72.877404,56.872253,72.073858,78.247232,81.882824,63.007984,77.495655,82.624262,86.21259,25.699528,38.810772,45.992901,46.530854,6.876412,8.227662,12.336823,14.752213,-7.862926,23.802258,41.072354,48.474404,-13.996639,20.505776,35.421227,41.69616,-15.607578,11.587727,27.788762,36.65625,-28.330317,-53.840697,-70.876913,-79.753393,-82.737593,-112.866205,-125.929147,-136.207095,-73.712177,-79.478992,-67.576743,-56.480829,-58.352849,-60.010409,-50.401576,-40.977956,-39.639164,-43.76035,-40.704136,-36.23345,73.342632,395.798065,-115.914242,116.475078
106,0.620751,2.627393,-3.150432,11.180838,-34.399407,-67.93594,-94.532925,-114.866192,-72.038773,-107.539089,-126.712017,-141.086598,-62.51294,-102.858387,-125.06678,-141.960434,-52.317444,-90.099815,-111.416302,-126.969143,-42.18132,-70.945599,-87.155789,-100.200462,-15.320549,-9.365178,7.058542,17.492546,28.269895,47.058557,55.751014,61.987732,46.515462,63.401236,71.05121,76.915832,57.797657,74.276879,81.016874,85.225227,63.597268,78.92293,84.555766,88.568777,27.100485,43.371557,53.922392,57.15497,17.166034,23.916012,30.346779,33.560554,4.38006,37.974123,53.778774,58.854589,-0.726311,34.683586,48.249939,52.442739,-1.967823,26.069521,40.539751,47.244821,-28.071206,-51.042773,-64.579572,-70.132802,-77.855861,-103.818078,-110.941784,-115.886603,-67.525446,-70.444777,-58.86944,-48.832683,-51.083093,-50.771948,-41.698602,-33.432636,-31.777182,-34.279957,-31.545531,-28.091102,74.287302,398.021756,-118.740755,127.252214
107,1.347908,3.567322,-1.920571,13.952469,-34.775505,-68.268402,-94.277973,-114.044598,-71.069058,-105.311771,-124.377617,-138.865025,-61.097809,-100.129624,-122.322167,-139.283444,-50.738823,-87.103672,-108.299629,-123.842606,-40.432983,-67.945015,-83.884049,-96.841621,-13.864894,-7.383188,9.344591,20.416106,30.44583,50.758628,60.468535,67.794085,48.180178,66.998394,75.799668,82.781626,59.074087,77.224052,85.034751,90.313954,64.538381,81.027816,87.427258,92.156697,27.544024,47.549567,62.129866,68.636542,29.549378,43.852948,50.895859,53.169045,19.428355,54.591116,68.030331,70.494353,15.128334,50.922638,62.73428,64.848193,13.734261,42.196776,54.47362,58.900286,-27.57619,-46.449617,-54.620534,-55.606759,-68.669178,-86.564803,-87.597121,-87.853695,-56.527482,-55.577341,-44.139034,-35.275429,-38.947655,-35.958963,-27.19608,-20.202314,-19.218204,-19.491672,-16.980283,-14.666995,75.911785,401.285695,-120.384751,140.9013
108,1.78846,4.131843,-0.013355,16.813377,-35.106125,-68.456761,-93.815197,-113.140755,-69.503186,-102.519986,-121.429024,-135.849026,-58.82943,-96.707154,-118.835381,-135.641854,-48.209519,-83.289528,-104.32964,-119.716873,-37.781617,-64.238045,-79.881775,-92.553074,-12.176107,-4.812864,12.459554,24.301554,33.063913,55.396023,66.30842,74.793606,50.232046,71.447586,81.523709,89.589894,60.629877,80.933573,90.050404,96.504705,65.609813,83.635623,91.090034,96.769849,29.30337,53.31724,70.797335,78.879336,45.105755,65.651413,72.046406,72.401379,36.319777,71.696783,81.469425,80.554167,30.97419,66.145855,74.607994,73.3692,27.237808,55.877787,65.501581,66.725836,-24.22531,-35.651452,-35.824307,-31.195382,-51.337622,-57.782843,-52.437171,-48.786932,-37.403348,-29.535104,-18.446811,-11.396495,-19.361492,-11.111363,-2.982508,2.00721,-0.269015,3.551396,5.782179,6.531138,77.902932,404.992534,-120.195419,157.289673
109,1.9067,3.76454,0.065987,16.204543,-35.358536,-68.561394,-93.069431,-112.093048,-67.64859,-98.959728,-117.517101,-131.98819,-56.430977,-92.452938,-114.248978,-131.133236,-45.470329,-78.725945,-99.364357,-114.867588,-34.655434,-59.470116,-74.596356,-87.187237,-9.895788,-1.0524,16.972829,29.274005,36.632604,60.986411,73.298455,83.207593,52.977222,76.597866,88.247662,97.867857,62.845444,85.242356,95.920163,103.971281,67.427634,86.996203,95.647214,102.569583,31.416429,58.9214,78.072778,87.932527,57.079445,82.565323,91.03878,93.324943,47.678404,82.133177,91.129303,91.594305,39.677021,72.933826,81.245373,81.968908,32.339447,59.305487,68.321016,70.623544,-17.789472,-22.027347,-15.686769,-6.135088,-30.285227,-24.744069,-11.796706,-1.943656,-17.203917,-0.687794,13.478794,22.766006,-1.343722,14.495521,25.453915,32.258582,15.007154,25.006552,30.015418,32.658707,79.788574,408.247955,-120.15049,172.985097
110,2.114731,4.157618,6.181217,26.795159,-35.288933,-68.469029,-92.488633,-111.572102,-65.315083,-95.49852,-113.663704,-127.963234,-53.335053,-88.085221,-109.531105,-126.14169,-41.999955,-73.986809,-94.314309,-109.732533,-30.963089,-54.709053,-69.509251,-81.994583,-8.391609,1.935703,20.928129,33.692544,39.915751,66.310742,80.070907,91.438207,55.516745,81.397368,94.530124,105.5246,64.817926,89.226209,101.507056,111.062352,68.921031,90.081081,99.921429,108.14057,31.046396,59.257433,77.991549,88.048822,65.88192,92.794865,97.716339,97.373062,56.747835,88.07987,93.6759,93.082083,46.249351,76.027668,82.362808,82.869799,34.878376,59.826422,67.941645,70.45455,-7.480031,-1.813017,11.196538,23.936189,-3.091673,15.290563,29.813945,38.631021,7.385294,31.143518,46.24166,55.012392,19.394776,41.521551,53.89245,60.475655,31.336469,46.2368,53.167908,56.470493,81.497092,411.613275,-114.375486,198.987958
111,2.011963,3.942109,2.935123,24.017391,-35.094292,-67.87674,-91.627327,-111.289834,-62.478516,-91.558571,-109.32137,-123.370686,-49.802926,-83.436242,-104.443737,-120.590722,-38.319924,-69.391869,-89.414544,-104.478951,-27.606835,-50.748917,-65.360333,-77.615857,-7.526782,4.198905,24.000113,36.710966,42.177224,70.571409,85.698148,98.319698,57.417386,85.67451,99.98129,111.694096,66.477283,93.011546,106.304187,116.542245,70.334065,93.229747,103.713053,112.426987,33.656582,61.932164,79.092911,88.592274,71.737393,97.533097,101.906674,102.421509,60.750847,88.522809,94.372593,96.271031,47.343121,73.610665,80.681981,83.809468,32.492947,54.940213,63.610142,68.114113,1.202972,14.695783,32.653111,47.750494,18.463336,47.087517,64.564588,75.772362,26.791095,58.467327,76.688454,88.709085,36.055176,65.542455,81.536713,91.097394,45.041886,65.886775,75.753577,81.176041,82.971875,414.719116,-111.977543,222.169081
112,1.345001,3.060561,3.206223,29.175451,-35.035675,-67.113327,-90.120838,-108.979294,-60.18663,-87.641968,-104.771759,-118.485535,-46.828171,-78.924534,-99.347248,-115.050064,-35.044785,-64.835667,-84.410843,-99.211853,-24.584152,-47.018532,-61.461823,-73.634903,-6.493315,6.442272,26.514775,39.153614,44.364213,74.674254,90.662547,103.561369,59.083572,89.667946,104.706505,116.319634,67.772967,96.292678,110.081064,120.194941,71.355096,95.669147,106.475321,115.024258,36.143841,63.426281,78.193073,87.149597,71.561302,95.067261,101.192619,103.640991,59.383381,84.394031,92.157486,96.240395,44.553005,67.638142,76.392929,82.03355,27.644703,47.975338,57.902733,64.408195,11.54818,32.658941,54.039713,70.138601,40.690163,76.693086,95.420133,106.762004,45.344192,84.880956,105.113985,117.301244,49.859691,86.952312,105.401655,115.980649,53.57677,80.687757,93.51869,100.907065,83.602444,416.760496,-109.485752,250.325351
113,0.570511,2.683092,1.242748,24.785072,-35.117226,-66.490013,-88.901436,-105.83725,-58.418358,-84.619309,-101.015145,-114.267208,-44.363343,-75.170437,-95.033718,-110.379628,-32.131165,-61.02958,-80.153756,-94.738987,-21.778336,-43.741974,-58.179337,-70.454327,-5.96714,7.537465,27.780263,41.542133,45.336609,77.61292,94.286964,106.913354,59.942261,92.902001,108.3193,119.003233,68.519221,99.112338,112.94984,122.023347,71.994966,97.875132,108.616295,116.14104,30.126034,53.703839,67.372067,77.195641,59.944851,81.502362,89.991257,94.982014,51.830384,74.83421,85.443775,92.808586,41.974365,63.126789,74.066162,82.412293,30.580879,48.9203,59.533791,68.014286,22.005537,46.752608,67.688196,82.864249,58.056836,96.314983,116.134259,129.34944,58.72043,101.667718,124.630659,139.98559,58.593262,99.434811,121.644051,135.967368,57.232381,88.224036,104.829068,116.036471,83.458969,418.529626,-108.95699,274.196461
114,-0.417595,1.887537,5.129277,30.175734,-35.19571,-65.737358,-87.635113,-102.563256,-57.315422,-82.777268,-98.281563,-110.668236,-42.300316,-72.656433,-91.988983,-106.682213,-29.346131,-58.257706,-77.089302,-91.266152,-18.960686,-41.36792,-55.979302,-68.332901,-5.755373,7.897965,28.005813,42.695532,45.251999,79.464951,96.75924,108.961912,60.07663,95.257384,110.788736,120.175849,68.823774,101.342072,115.051738,122.786508,72.417771,99.728645,110.319125,116.802016,24.737525,44.522563,55.928684,65.272361,50.623546,71.718109,79.871726,83.217109,46.370121,68.427761,78.171649,83.329593,40.646507,60.565635,70.48748,76.638805,33.399604,51.423442,61.156951,68.01123,28.009073,56.274806,78.575164,93.870247,69.537436,111.175306,130.75136,142.982919,68.695407,115.199852,137.976183,151.585912,66.305876,110.722145,132.946118,146.374424,62.013012,96.085692,113.731316,125.643403,82.42891,419.74334,-104.440177,303.698372
115,-1.409272,0.912943,0.002803,19.629197,-35.396575,-64.841079,-85.741687,-98.062969,-56.971366,-81.578979,-96.215297,-107.876575,-41.365356,-70.994464,-89.597751,-103.890014,-27.757576,-56.341026,-74.635837,-88.502941,-17.105278,-39.510704,-54.054359,-66.474906,-5.243264,8.448358,28.425061,44.246517,45.538237,80.7408,98.19879,109.731619,60.419777,96.838108,112.196534,120.404202,69.238823,102.795578,116.085304,122.506988,72.905982,101.097713,111.343971,116.697485,26.941487,45.851258,55.355461,63.016148,48.257675,68.076554,77.346508,81.882981,41.94928,63.09985,74.755417,81.725727,35.080548,54.419358,66.097985,73.896309,27.75483,45.097,55.371941,63.3708,25.833544,54.370089,77.742694,93.17406,71.243722,114.729968,135.56247,149.300417,72.728943,120.970156,145.721154,161.561666,71.570333,117.295179,140.965643,155.96383,67.753515,103.399545,121.813494,134.820674,80.723842,420.408596,-104.73317,323.079882
116,-2.443702,1.24164,1.824486,21.153332,-36.040238,-64.430317,-83.730686,-92.737049,-57.758377,-82.178868,-96.163536,-107.036854,-41.588539,-70.990895,-89.090161,-102.961773,-27.134743,-55.535477,-73.420086,-87.118057,-15.808388,-38.21386,-52.728104,-65.262451,-4.516733,9.31815,29.61556,46.717732,45.136612,81.107944,98.543259,109.299551,60.169318,97.251762,112.112999,119.230475,69.052139,103.026426,115.711615,120.951767,72.86482,101.275752,111.109283,115.516311,26.267212,44.069321,52.962719,59.784771,44.555214,64.616673,73.957169,77.525551,39.146736,60.991963,72.168823,77.613224,33.368591,53.358502,64.529068,71.000256,27.439625,45.639015,55.636276,62.807533,25.052303,54.140872,77.907197,92.959626,74.248362,117.692753,137.544066,149.291711,76.611846,124.349855,147.718594,160.906778,75.235726,120.32395,142.075521,154.494158,70.516859,105.640962,123.36191,135.464447,78.048214,421.577089,-103.14061,344.160067
117,-3.020668,1.432869,0.487679,13.911726,-36.302674,-63.982304,-81.904633,-89.173279,-58.51117,-83.500317,-97.21669,-107.516041,-42.010529,-71.765373,-89.621613,-103.291535,-26.997895,-55.762642,-73.468346,-86.885594,-15.127556,-37.79551,-52.281212,-64.673859,-4.096818,10.134466,31.016294,48.523128,43.833987,79.947234,97.624648,108.382471,59.238838,96.540002,111.088411,117.547319,68.463337,102.658788,114.866622,119.156041,72.64563,101.290905,110.687169,114.339076,25.9491,43.007789,51.468029,56.719963,43.880115,63.011409,71.107601,73.589939,38.624233,60.125965,69.780784,73.971679,33.395988,53.577472,63.480869,68.480472,28.629501,47.406017,56.582519,62.541767,22.558697,50.620554,73.865879,88.260777,72.440383,113.970117,133.230712,144.943395,76.42247,122.348623,144.601483,157.820591,76.575203,119.541696,139.975883,151.774114,73.289921,106.28329,122.243017,133.047758,74.734263,423.049976,-102.946214,358.111811
118,-3.055184,1.609574,2.36087,13.908304,-36.294456,-63.188324,-79.776683,-86.628318,-59.131553,-84.889526,-98.723087,-108.817028,-42.513588,-72.587459,-90.286319,-103.684375,-27.197525,-56.086486,-73.61182,-86.615879,-14.983314,-37.669601,-51.899116,-63.843647,-3.65082,11.20691,32.618914,49.489843,42.812734,78.307032,96.145231,107.398799,58.579887,95.330632,109.395202,115.658411,68.191264,101.799543,113.463332,117.346124,72.707467,100.9495,109.87446,113.189222,33.334042,52.300175,59.239723,60.710255,52.014358,70.63472,76.931316,77.408993,41.068863,62.483196,70.224083,72.182957,29.835216,50.146099,59.196545,63.046326,19.049469,39.026459,48.868092,54.792252,16.399835,43.520517,67.89501,83.322499,66.18503,106.900177,124.010364,132.927593,73.418807,117.822306,137.647918,147.77354,76.571215,118.285335,136.389135,145.601778,76.231415,107.776131,121.806269,130.550029,71.256815,424.676547,-101.007608,372.037112
119,-2.789749,2.665679,-0.057713,7.893802,-36.228973,-62.488266,-77.948135,-84.375011,-59.581901,-86.248009,-100.505287,-110.701446,-42.904175,-73.386555,-91.144169,-104.438175,-27.496422,-56.333336,-73.871109,-86.687198,-15.157608,-37.583313,-51.779136,-63.476738,-3.429803,11.87353,33.928159,50.71691,41.773771,76.164243,93.823391,105.340151,58.063752,93.705904,106.932238,112.688685,67.977744,100.634041,111.244948,114.229815,72.601664,100.255635,108.383891,110.747462,38.673695,59.339161,66.284157,64.96336,58.562954,75.91919,80.297207,79.11921,44.104317,64.892201,71.027676,71.451588,29.350834,50.182011,57.922188,60.106636,15.276307,36.335049,46.169243,51.384224,12.303387,38.052234,62.426987,78.042493,61.989522,99.220859,113.347229,119.292015,72.059915,112.414736,128.498149,135.710017,77.802148,115.617866,130.488106,137.156273,79.770751,108.357697,119.074407,124.628498,67.874559,427.253367,-101.657828,379.842055
120,-2.348877,3.373771,0.477288,7.828989,-36.200981,-62.143696,-76.519031,-82.489174,-59.997207,-87.606971,-102.394169,-112.832748,-43.277641,-74.246795,-92.273346,-105.467148,-27.802482,-56.766483,-74.590885,-87.263695,-15.364082,-37.673927,-51.93045,-63.211166,-3.637742,11.824883,33.864272,49.800398,40.217216,73.652927,91.037953,102.645215,57.109683,91.76935,104.168104,109.332476,67.384952,99.159256,108.633498,110.510686,72.161568,99.053564,106.152799,107.26853,34.405105,54.711239,63.194412,63.807037,53.293853,72.507774,77.226082,75.678463,43.619899,65.032356,70.208564,69.280071,34.047111,55.509681,61.30188,61.222538,24.77988,46.463424,54.349628,56.857761,14.063237,38.846863,61.195931,75.548505,63.247539,96.301176,105.696513,108.222389,71.25201,107.956961,118.632409,121.810715,74.973189,109.404168,119.131229,121.918396,75.155439,100.890392,107.885516,110.008964,64.708637,430.318531,-101.997585,387.362437
121,-1.558891,3.09419,0.919773,5.499035,-35.625252,-61.382652,-75.358704,-81.025177,-59.812065,-88.116268,-103.612885,-114.773174,-43.400574,-74.819023,-93.302765,-106.817493,-28.178467,-57.395496,-75.49474,-88.021568,-15.887215,-38.214455,-52.530121,-63.396652,-4.037329,10.778386,31.623299,46.388774,39.155034,71.247131,88.078181,99.522657,56.367752,89.688385,101.575451,106.441692,66.888799,97.541914,106.223478,107.293143,71.714013,97.709109,103.923732,104.040008,35.400364,56.434559,65.095482,64.6623,55.775791,74.288486,77.531101,74.482269,45.540767,66.103603,69.830738,67.46426,35.471592,56.218483,60.516357,58.528095,25.840072,46.818134,53.706459,54.52026,12.83034,36.564518,58.414605,71.998918,61.764565,90.751357,94.569595,93.183348,70.665541,102.84646,107.449533,106.84822,75.072582,105.459218,110.160339,109.812585,75.833816,99.181239,102.200439,101.374108,62.207806,433.023567,-102.019752,392.472318
122,-1.132095,3.490145,1.243732,4.804775,-35.045746,-60.90984,-74.970509,-80.684338,-59.614323,-88.986477,-105.631119,-117.796235,-43.740075,-76.17025,-95.562779,-109.625416,-29.040116,-58.962536,-77.810326,-90.760369,-17.111458,-39.641396,-54.279465,-65.14991,-5.337582,8.415136,27.738582,41.38194,38.076354,68.561927,84.365624,95.010691,55.508075,87.226619,98.291898,102.776348,66.054305,95.309402,103.242082,103.896019,70.734615,95.611053,101.109063,100.737325,37.131192,58.461148,66.64872,65.044991,60.31445,77.458695,78.326981,73.339543,49.104698,68.439549,70.310738,66.371613,37.515724,57.07021,59.419876,55.251652,26.276116,45.620373,51.042069,50.156903,11.314948,33.90315,55.281661,67.941446,60.188867,83.289499,83.057342,79.410289,70.974059,95.917125,95.991546,92.929084,76.569288,100.866062,101.54933,98.951231,78.202401,98.675985,98.871055,95.904231,60.142674,436.03271,-101.709057,396.796091
123,-1.494049,3.394655,0.853089,5.072129,-34.76381,-61.054196,-75.311589,-80.514805,-59.461098,-90.102025,-107.745461,-120.925988,-44.459244,-78.476269,-99.082089,-114.252903,-30.583924,-61.88387,-81.940373,-95.992688,-19.302407,-42.521519,-57.715851,-69.059407,-6.886085,5.525452,23.343817,35.896169,36.76622,65.61663,79.901452,89.102275,54.381995,84.407638,94.654329,98.889716,64.928928,92.5087,99.825444,100.353978,69.56195,92.925935,97.828041,97.333543,36.917163,57.444122,65.010955,63.697277,62.206947,77.048446,75.942684,69.385746,52.380466,68.758815,68.322281,62.781635,41.674759,58.093128,57.646282,51.158363,30.890339,47.007545,49.208885,45.460052,10.946434,32.951082,53.226991,64.310498,59.963528,77.454407,75.127083,70.886867,71.270918,88.973365,86.122015,82.00719,76.889217,94.560753,92.151437,87.95252,78.515699,94.623738,92.18498,87.3003,57.765639,438.928227,-101.738954,401.369082
124,-0.989823,2.614846,1.06065,5.099843,-34.764335,-61.606064,-75.866558,-80.442798,-59.875351,-91.727817,-110.266342,-124.52528,-45.919235,-81.146988,-102.67448,-118.807319,-32.872993,-65.409817,-86.284904,-101.137951,-22.049538,-45.721229,-61.011165,-72.300705,-8.149091,2.932613,19.248665,30.40925,35.603472,62.525799,75.27211,83.064036,53.292767,81.368221,90.950675,95.018261,63.914554,89.672763,96.692735,97.375027,68.729406,90.549557,94.847373,94.294237,35.080398,54.67266,62.08049,61.674602,62.542831,74.624679,71.928989,64.39191,55.095531,67.751598,65.143741,58.507873,46.003932,58.606132,55.569728,47.402812,36.255935,48.520431,47.475471,41.28162,11.07175,32.067397,50.737757,60.071567,60.197204,72.206424,67.9021,63.136573,71.114751,80.868118,75.343815,70.343143,75.858245,85.531941,79.946913,74.240137,76.646205,87.037638,82.377063,76.321188,55.978186,441.044204,-101.475934,405.970056
125,-0.446091,2.422012,1.208793,4.864303,-34.707,-62.038982,-76.812686,-81.495941,-59.918907,-93.059921,-112.479766,-127.615688,-47.079414,-83.696971,-106.116107,-123.094013,-35.000518,-69.042537,-90.687938,-106.342231,-24.880577,-49.56681,-65.267829,-77.01361,-9.034456,1.070579,16.39303,26.599928,34.750377,60.108518,71.314649,77.676102,52.472733,78.560949,87.139056,90.778058,63.086888,87.090829,93.690269,94.607497,67.955562,88.27782,92.183299,91.951711,38.373287,58.07024,64.889774,63.002381,68.371456,77.69212,72.611881,63.535652,58.30045,67.978935,63.924889,56.404724,45.642952,55.279392,51.209747,42.477253,32.192837,41.653427,39.623509,32.981678,7.218783,26.597705,44.62801,53.137798,56.820296,62.38323,56.399195,51.363708,70.321999,71.16956,63.980058,58.460646,76.804866,78.162189,71.198583,65.513284,79.002859,83.35756,77.353851,71.656647,54.866455,443.031067,-100.932781,410.39921
126,0.015702,3.164177,1.162502,5.669465,-34.651703,-62.908459,-78.416611,-83.592716,-59.994095,-94.629982,-114.683041,-130.106449,-47.967659,-86.261318,-109.037762,-126.129193,-36.797035,-72.299538,-94.166451,-110.004833,-27.520249,-53.150849,-69.111912,-81.061146,-10.102713,-0.37354,14.65756,24.367639,34.346259,57.933916,67.345592,72.193,52.11368,75.898494,82.8106,85.630754,62.553489,84.48369,90.062396,90.69945,67.27043,85.714179,88.949097,88.619313,37.709233,57.20121,64.342289,63.042447,70.062298,77.162144,70.540741,60.89431,60.479016,66.947411,61.602414,53.521328,47.48283,53.949486,48.5117,39.264496,33.297661,39.822384,35.969662,28.389805,5.690054,23.12033,39.800043,47.484598,54.546609,54.999055,49.308285,44.977136,68.682526,63.304127,56.750222,51.762913,75.164899,70.661194,63.740233,58.463475,77.214099,77.628926,71.138204,65.499626,54.251753,445.725487,-100.400683,415.598918
127,0.327644,3.298164,1.315499,5.666255,-34.710136,-63.605015,-79.749618,-85.427124,-60.05088,-95.463375,-115.487606,-130.803612,-48.535423,-87.736999,-110.230831,-127.035667,-37.952545,-74.359417,-95.73056,-111.0103,-29.248581,-55.535431,-71.476295,-83.136269,-10.360768,-0.669128,14.44042,24.102248,34.532139,56.551608,64.364751,67.960502,52.29446,73.775638,78.9624,80.826263,62.520415,82.338629,86.461753,86.177837,66.960109,83.456595,85.770828,84.775362,36.785785,56.339767,63.996391,63.007026,69.677913,75.147892,68.079918,58.547516,60.272289,64.464031,58.605972,50.482727,47.274685,51.790878,45.843475,36.857242,32.981884,37.974701,33.236858,25.505607,4.336472,20.124163,36.032774,43.463769,52.147001,49.631474,43.815672,39.708047,66.195269,57.153588,50.508886,45.492789,72.311709,64.301754,56.837735,51.295845,74.039189,71.418069,64.29038,58.685072,53.963161,448.593192,-99.70142,420.834714
128,0.85984,3.623736,1.352772,5.565503,-34.472007,-63.618141,-80.11774,-86.381938,-59.712295,-95.457195,-115.283409,-130.283443,-48.483764,-88.059276,-109.920982,-126.238597,-38.346038,-75.179225,-95.587726,-109.911186,-30.041587,-56.905506,-72.651374,-83.856193,-10.333672,-0.401254,14.946638,24.628102,35.104467,55.757263,62.457022,65.363935,52.818413,71.958743,75.650257,76.657826,62.684325,80.453982,83.137951,81.84039,66.650777,81.155356,82.525029,80.883271,36.152217,56.147357,65.116252,64.846916,68.577816,74.633102,67.571239,58.301559,58.869083,63.607795,58.206996,50.267932,45.597782,51.035339,45.747448,37.242599,31.178043,36.914245,32.51152,24.881172,2.645289,16.485952,31.72877,39.2084,50.040929,44.708966,37.654488,33.352818,64.193543,52.166254,44.429767,38.831179,69.970936,59.197934,50.37695,44.162005,71.216503,66.714935,58.475887,52.48044,54.284969,451.838472,-98.88668,426.021761
129,0.870186,4.337287,1.127426,5.659475,-34.139053,-63.56203,-80.18106,-86.4211,-59.326091,-94.833377,-114.252914,-128.860828,-48.091186,-87.601032,-108.846302,-124.778206,-38.18074,-74.83691,-94.167663,-107.325256,-30.152389,-57.525695,-73.173706,-84.048179,-10.455876,0.050154,15.564636,25.119537,36.084731,55.722214,61.513031,64.042971,53.383528,70.476487,72.742023,73.123542,62.521453,78.222495,79.338572,76.96296,65.614642,77.854969,78.37818,76.329586,37.256389,58.219093,68.024299,67.728069,68.978084,76.334919,69.189628,59.963287,57.527046,63.969326,59.101719,50.956924,42.788864,50.120372,45.68106,37.474983,27.274784,34.671249,31.234348,24.105526,0.670955,12.999425,28.216431,35.898281,47.874514,40.228244,32.298071,28.006973,62.826228,49.155538,40.982699,35.272589,69.015212,57.471417,48.423438,42.237393,70.475399,65.341593,56.836252,51.092859,54.683721,455.800171,-98.230688,431.305648
130,0.590676,4.490836,1.622451,5.633132,-33.829125,-63.441387,-79.97715,-85.665161,-59.055233,-94.313896,-113.244965,-127.569226,-47.633126,-86.911789,-107.505833,-123.068814,-37.756256,-73.848015,-91.823399,-103.445813,-29.82605,-57.275597,-72.361817,-82.415486,-10.572683,0.428178,16.02149,25.519605,37.231645,55.513213,60.450652,62.722067,54.071835,68.913621,69.927488,69.770914,62.39873,75.563411,74.774834,70.919904,64.522191,74.418892,73.755656,70.846421,37.131547,58.835953,68.94032,67.767941,69.453702,75.985314,68.483506,59.394391,57.053227,63.144001,58.118008,49.843461,41.454312,48.767773,44.650658,36.67978,25.276818,32.791638,29.898697,23.247151,-1.099108,9.907075,25.472946,34.095082,45.299546,37.855262,30.461046,26.423433,60.577352,47.976612,40.043685,34.306244,67.142063,57.315238,48.756495,42.653479,68.939037,65.503898,57.274618,51.230179,54.856448,459.917093,-97.026186,436.564866
131,0.328766,3.745027,2.079735,5.484968,-33.670372,-63.058617,-79.29237,-84.597943,-58.837532,-93.19558,-111.558667,-125.753815,-47.329834,-85.524674,-105.614033,-121.01635,-37.277092,-72.165631,-88.678093,-98.810578,-29.131554,-56.179116,-70.476243,-79.533131,-10.273626,1.25252,16.814291,25.746031,38.502246,55.622597,59.993341,62.025102,54.754732,67.781204,68.210604,67.762506,62.125916,72.872995,70.541028,65.584248,63.12647,70.9212,69.198351,65.555065,36.120438,57.79438,67.646977,65.754456,66.933472,74.109352,66.892273,58.217938,54.129891,61.539219,56.852932,48.5453,38.563683,47.390385,43.834763,36.098282,22.589367,31.521893,29.276104,23.097725,-1.952165,8.305307,23.769499,32.799299,44.555417,36.375599,28.769924,25.132874,59.416024,46.747186,38.550152,33.037088,65.580691,56.051861,47.468381,41.595781,66.913376,63.257455,55.119961,49.304048,54.787629,463.364146,-95.344036,441.75186
132,0.069328,3.437621,1.499569,4.380815,-33.560555,-62.627998,-78.500496,-83.393532,-58.358894,-92.068943,-110.151775,-124.40276,-46.737053,-83.955963,-103.638611,-118.789868,-36.598206,-70.186535,-85.421059,-94.232632,-28.380684,-55.00779,-68.523159,-76.675278,-9.921748,2.078346,17.777227,26.436215,39.805019,55.868203,59.822317,61.824512,55.337619,66.569216,66.351842,65.719802,61.629356,70.175774,66.488644,60.757613,61.551526,67.639548,64.865065,60.562445,35.474329,57.407087,67.442708,65.322149,64.886297,73.525748,66.917412,58.713045,51.696004,61.066339,56.978044,48.695864,36.134087,46.818578,43.984564,36.410042,20.404401,30.839969,29.344151,23.458242,-2.695423,7.054703,22.389344,31.627448,44.461965,36.068623,27.964936,24.278587,58.80241,46.591777,37.994821,32.491292,64.551145,55.652839,46.900683,41.144578,65.422163,61.876343,53.671943,47.918235,54.463383,466.560036,-94.238041,445.890944
133,0.414047,3.070144,1.180762,3.207983,-33.751602,-62.666107,-77.817764,-81.644577,-58.798656,-91.693382,-109.406216,-123.497017,-46.844398,-82.692856,-101.297653,-115.25568,-36.335014,-68.129722,-81.678715,-88.610046,-27.671837,-53.404106,-65.837688,-72.655895,-9.811919,2.514699,17.541365,25.044719,41.196367,56.281709,59.563348,61.206106,55.675258,65.044018,63.440743,61.969193,60.707472,67.013066,61.684573,54.990446,59.520295,64.087097,60.006926,54.713396,35.483295,57.701253,67.456964,64.701365,63.414032,73.380395,67.46512,59.804954,49.673291,60.921871,57.507712,49.410983,33.995306,46.327966,44.200741,36.854679,18.438691,30.181444,29.358826,23.848543,-3.245209,6.43566,21.787187,31.104099,44.956959,36.512653,27.779937,23.781049,58.856096,47.098005,37.918601,32.153352,64.328103,55.90444,46.673844,40.695174,64.95288,61.208965,52.645152,46.664399,54.411552,469.426691,-93.523157,448.895438
134,0.726746,2.315603,0.955718,1.911317,-33.9982,-62.834519,-77.714207,-81.150994,-59.168988,-91.653683,-109.181042,-122.987034,-46.802765,-81.803261,-99.827671,-112.981385,-35.896408,-66.532299,-79.208931,-85.067379,-26.918976,-52.013397,-63.912415,-69.975666,-9.798148,2.763677,17.315717,23.937164,42.237492,56.536701,59.123796,60.120275,55.901487,63.842701,61.367448,59.310715,59.906693,64.577321,58.09564,50.620752,57.793174,61.354147,56.310806,50.206135,35.739867,58.3183,67.812627,64.257145,62.73268,73.908273,68.64979,61.516493,48.502462,61.632507,58.7719,50.86496,32.706553,46.610605,45.088971,37.957855,17.264097,30.130699,29.842628,24.577984,-3.977262,6.019458,21.648433,31.090906,45.763534,37.643419,28.172616,23.734616,59.340887,48.266165,38.390209,32.207494,64.640183,56.892411,47.033829,40.687329,65.12381,61.681608,52.61398,46.169921,54.571821,471.623517,-93.133916,450.687978
135,1.000877,1.406539,0.192538,0.719022,-34.469467,-63.356266,-77.927341,-81.193497,-59.576511,-91.717861,-109.155384,-122.736042,-46.863487,-81.168354,-98.795082,-111.394112,-35.619598,-65.344551,-77.492466,-82.741573,-26.348625,-50.860542,-62.520687,-68.151512,-9.638165,3.373042,17.832864,23.699981,43.152706,56.853209,59.016042,59.547663,56.086454,63.276005,60.379565,58.003767,59.238059,63.110032,56.138213,48.332924,56.404407,59.48301,54.039563,47.573777,36.199859,59.129997,68.615318,65.199394,61.507954,75.507706,71.535324,64.910454,47.083774,63.536293,61.67839,53.888397,31.623825,48.240314,47.511108,40.437126,16.806255,31.704723,31.978123,26.59172,-3.654686,7.262059,22.914874,31.863633,47.794337,39.935634,29.200374,24.192811,60.795504,50.069383,39.051973,32.428204,65.594931,58.057824,47.149441,40.344088,65.565575,61.898588,52.206985,45.512487,54.962282,472.96477,-93.551794,451.341714
136,1.03038,1.110457,-0.405447,-0.239561,-34.933273,-63.789848,-78.157699,-81.491272,-60.463474,-92.395557,-109.629352,-123.01617,-47.453773,-81.146942,-98.23629,-110.347686,-35.948639,-64.965088,-77.031406,-82.295139,-26.356933,-50.42855,-61.960304,-67.576812,-9.737188,3.452861,17.631731,23.172176,43.687243,57.034669,58.871287,59.172246,55.976353,62.43478,59.007212,56.385993,58.465747,61.942691,54.713014,46.811308,55.17613,57.964433,52.190189,45.50257,37.211643,60.792354,70.469936,67.232694,61.399761,78.196546,75.388132,69.087902,46.840576,66.445959,65.409651,57.596598,31.680799,50.786384,50.796759,43.692455,17.408146,34.110306,34.825247,29.217539,-3.396161,8.745378,24.59611,33.017001,50.263496,42.75564,30.745012,25.029122,62.791833,52.319778,40.030854,32.668988,67.107415,59.677951,47.561489,40.064211,66.627114,62.60636,52.124505,45.078826,55.40332,474.037591,-94.546583,451.064517
137,1.373932,0.276358,-0.405447,-0.23956,-35.238716,-64.305702,-78.468635,-81.277622,-61.295059,-92.983738,-110.086601,-123.289238,-48.115974,-81.434383,-98.315174,-110.280178,-36.445472,-65.057773,-77.081714,-82.305073,-26.654526,-50.394562,-61.886352,-67.468838,-9.583948,3.627071,17.232712,21.932709,44.061809,57.141213,58.819527,58.979412,55.957384,62.038033,58.499043,55.797932,58.107483,61.187471,53.907171,45.956484,54.564615,56.868177,50.974261,44.257162,38.223427,62.454712,72.324554,69.265995,61.291569,80.885387,79.24094,73.26535,46.597378,69.355625,69.140911,61.304798,31.737774,53.332455,54.082409,46.947784,18.010036,36.515888,37.672371,31.843357,-3.137637,10.228696,26.277344,34.170368,52.732653,45.575645,32.289648,25.865432,64.788162,54.570173,41.009733,32.909771,68.619898,61.298078,47.973537,39.784333,67.688652,63.31413,52.042024,44.645165,56.219885,474.293231,-95.509397,450.804239
138,1.145165,-0.136999,-0.405447,-0.239561,-35.463913,-64.671192,-79.059666,-82.278855,-61.466286,-93.043476,-110.143181,-123.405842,-48.189972,-81.476258,-98.791958,-111.386742,-36.466782,-65.064778,-77.83857,-83.90839,-26.664711,-50.38131,-62.396004,-68.652157,-9.245532,4.162941,17.874187,22.424489,44.342847,57.281719,59.038025,59.256238,56.089517,62.245378,59.31647,57.173903,58.128528,61.478524,54.703319,47.014948,54.441781,56.875426,51.501412,45.203104,39.23521,64.117069,74.179172,71.299295,61.183376,83.574228,83.093748,77.442798,46.354179,72.265291,72.872171,65.012998,31.794748,55.878525,57.368059,50.203113,18.611927,38.92147,40.519495,34.469175,-2.879113,11.712015,27.95858,35.323737,55.201812,48.39565,33.834286,26.701743,66.784491,56.820568,41.988613,33.150554,70.132382,62.918205,48.385585,39.504456,68.750192,64.021901,51.959545,44.211504,56.844773,474.155497,-96.435121,450.563943
139,0.736999,0.288078,-0.405447,-0.239561,-35.564712,-64.823719,-79.449257,-83.145813,-61.676594,-93.273399,-110.336872,-123.66877,-48.423454,-81.729469,-99.068207,-111.752243,-36.741554,-65.320369,-78.139892,-84.348861,-27.000503,-50.80426,-62.753929,-69.095077,-9.32246,4.120073,17.80315,22.295122,44.267746,57.115722,58.899259,59.193315,56.010871,61.996499,59.090735,56.9363,57.988527,61.167315,54.39017,46.769132,54.222962,56.481805,51.129365,44.887733,40.246994,65.779426,76.03379,73.332596,61.075184,86.263069,86.946556,81.620247,46.110981,75.174957,76.603432,68.721199,31.851723,58.424595,60.653709,53.458443,19.213817,41.327053,43.366619,37.094993,-2.620588,13.195335,29.639815,36.477105,57.67097,51.215656,35.378923,27.538053,68.78082,59.070963,42.967493,33.391338,71.644866,64.538332,48.797634,39.224578,69.811731,64.729672,51.877065,43.777844,57.106859,474.447407,-97.315481,450.328214
140,0.553963,-0.078251,-0.405447,-0.23956,-35.488884,-64.798874,-79.531117,-83.339996,-61.681194,-93.158215,-110.189095,-123.517731,-48.420731,-81.648113,-99.079651,-111.824146,-36.738991,-65.2416,-78.131481,-84.39576,-26.99453,-50.758438,-62.672813,-68.94952,-9.080249,4.191198,17.7342,22.096311,44.251408,57.161085,59.09165,59.486519,55.992483,61.958326,59.105963,56.906932,57.980994,61.134044,54.514536,46.954816,54.217381,56.39785,51.202059,45.057362,41.258777,67.441784,77.888408,75.365896,60.966991,88.95191,90.799364,85.797695,45.867782,78.084623,80.334692,72.429399,31.908697,60.970665,63.93936,56.713772,19.815708,43.732635,46.213743,39.720812,-2.362065,14.678653,31.32105,37.630472,60.140128,54.035661,36.92356,28.374363,70.777149,61.321357,43.946372,33.632121,73.157349,66.158459,49.209681,38.9447,70.873269,65.437442,51.794584,43.344182,57.178448,474.362181,-98.203302,450.081679
141,0.59832,-0.310061,-0.405447,-0.239561,-35.466133,-64.921921,-79.427227,-82.584675,-61.044869,-92.682072,-109.912663,-123.329899,-47.741478,-81.312927,-99.109921,-112.046173,-36.112267,-64.896561,-78.068493,-84.414448,-26.4925,-50.437752,-62.573937,-68.859478,-8.770287,4.472521,18.154066,22.254132,44.377811,57.315288,59.396215,59.809547,56.056567,62.310501,59.827603,57.802004,58.036397,61.536805,55.382129,48.039375,54.261594,56.711727,51.961292,46.141625,42.270561,69.104141,79.743027,77.399196,60.858799,91.640751,94.652172,89.975143,45.624584,80.994289,84.065952,76.1376,31.965671,63.516735,67.22501,59.969101,20.417599,46.138218,49.060867,42.34663,-2.10354,16.161972,33.002285,38.78384,62.609286,56.855667,38.468197,29.210674,72.773478,63.571753,44.925252,33.872904,74.669833,67.778586,49.621729,38.664823,71.934808,66.145213,51.712104,42.910522,57.304853,474.030326,-99.080664,449.820324
142,0.444054,0.5633,-0.801862,-0.010794,-35.544754,-65.029644,-79.227414,-81.921662,-61.114266,-92.862992,-110.11147,-123.439534,-47.731842,-81.356209,-99.040615,-111.658688,-36.059807,-64.785279,-77.835961,-84.032193,-26.421753,-50.443703,-62.468216,-68.613865,-9.117387,3.979641,17.867012,22.059112,44.181901,57.088725,58.936507,59.0833,55.838625,62.031055,59.366661,57.14293,57.706908,61.252506,55.072265,47.782777,53.820547,56.355575,51.632706,45.890634,42.816041,69.862898,80.667643,77.635631,61.486688,92.076766,94.980443,90.077817,46.071329,81.373882,84.756202,77.294689,32.418122,63.918596,67.822821,60.801853,20.971243,46.842194,50.013317,43.523277,-2.094211,15.701546,32.574827,38.80546,63.102813,57.934832,39.85275,30.80152,73.459871,65.126277,47.068261,36.374367,75.285114,69.305029,52.005458,41.442707,72.39747,67.985588,54.006567,45.118282,57.298903,474.567851,-100.33253,449.783755
143,0.573394,0.058243,0.006613,0.317564,-35.627266,-65.22171,-79.262146,-81.669719,-60.967872,-92.783786,-110.151706,-123.45243,-47.483162,-81.259506,-99.101543,-111.683109,-35.75029,-64.626033,-77.700611,-83.726554,-26.088798,-50.207428,-62.254074,-68.203251,-8.95565,4.034747,17.984054,22.142277,44.14905,57.118291,58.867866,58.792048,55.730389,62.0212,59.358522,56.964594,57.563153,61.200537,55.075674,47.730376,53.688883,56.361861,51.685045,45.924535,42.834199,69.586002,80.302787,76.629759,62.354386,90.889232,93.181559,88.175691,46.659686,79.734589,83.079569,76.2768,32.678992,62.349674,66.213493,59.641102,20.878391,45.503497,48.785508,42.889315,-2.123273,14.904331,31.733217,38.67068,62.380015,57.511006,40.351281,31.827469,72.98359,65.153376,48.383527,38.45176,74.918594,69.753857,53.814861,43.917192,72.043447,69.17125,56.038278,47.245282,57.46277,474.588099,-100.735444,450.063324
144,0.66156,-0.44259,0.788356,0.849488,-35.717308,-65.267509,-78.991996,-80.98732,-60.348655,-92.237262,-109.897956,-123.357582,-46.903518,-80.865142,-99.114566,-112.018638,-35.28543,-64.402244,-78.062507,-84.493846,-25.775779,-50.029724,-62.54187,-68.766151,-8.473676,4.552179,18.818092,22.867993,44.288507,57.284449,59.099047,58.944646,55.77953,62.615202,60.339131,58.130689,57.642034,61.94148,56.34462,49.217869,53.768529,56.845206,52.760898,47.480966,42.276247,68.348513,78.763861,74.584482,63.108808,88.14758,89.105362,83.744772,47.134028,76.386599,78.935308,72.432283,32.617851,59.205828,62.406854,56.012146,20.225329,42.79213,45.774627,40.315367,-2.329888,13.50217,30.207964,37.697146,60.692922,55.376117,39.621569,31.941989,71.721152,63.630324,48.482802,39.436563,73.944124,68.913994,54.761367,45.786873,71.23282,69.567276,57.534917,49.074939,57.765604,474.104547,-100.305814,450.87185
145,0.287613,-0.072285,1.687606,1.67937,-35.750496,-65.155815,-78.68462,-80.612308,-59.501793,-91.489769,-109.397998,-122.989551,-46.172424,-80.324306,-98.817146,-111.934158,-34.75225,-64.13063,-78.347992,-85.276851,-25.54264,-50.071724,-62.980613,-69.58881,-8.482111,4.710791,19.445069,23.579926,44.161721,57.286944,59.020809,58.649454,55.541655,63.063176,61.087781,59.000024,57.381521,62.544683,57.305222,50.374603,53.490677,57.15055,53.512956,48.604144,40.897465,65.913105,75.788109,70.929989,63.739563,83.998478,82.977665,77.06654,47.582406,71.470608,72.72638,66.402707,32.399632,54.54126,56.739293,50.568467,19.144146,38.571156,41.021576,36.158993,-2.921115,11.101502,27.411502,35.491148,57.562734,51.510514,37.641557,31.083083,69.098514,60.959809,47.867166,39.819222,71.73328,67.066703,55.135202,47.316204,69.361657,69.17028,58.62778,50.6642,57.711113,473.982167,-98.960312,452.501125
146,-0.080406,0.12355,2.650635,2.179543,-35.57103,-64.644905,-78.147571,-80.7644,-58.772941,-90.7336,-108.727409,-122.318607,-45.573921,-79.663868,-98.050587,-111.019489,-34.303711,-63.73748,-78.207321,-85.388752,-25.256859,-49.857124,-63.006935,-69.885521,-8.632386,4.5628,19.649858,23.93236,43.743584,57.225107,58.821442,58.226415,55.210463,63.264372,61.173762,58.910572,57.181882,63.051086,57.85038,50.885736,53.382861,57.696559,54.359394,49.599709,38.738652,62.364029,71.682644,66.385449,63.284901,77.978268,74.911698,68.629761,47.113358,64.89497,64.845932,58.84869,31.334793,48.579952,49.663708,43.783928,17.168003,33.048466,34.95773,30.803982,-3.790636,7.939658,23.714776,32.67486,53.457603,46.367804,34.706263,29.478992,65.611801,57.28619,46.541964,39.724102,68.819648,64.426909,54.930758,48.410371,66.938657,68.156375,59.329907,51.921117,57.334047,474.098964,-96.606337,454.673915
147,-0.100136,-0.156957,0.76046,0.358905,-35.374603,-64.275489,-77.831829,-81.056293,-57.802574,-89.746215,-107.890331,-121.579502,-44.672493,-78.783668,-97.353252,-110.520572,-33.527458,-63.155777,-78.301288,-86.09523,-24.615715,-49.465232,-63.089836,-70.424377,-8.481814,4.911973,20.298274,24.516642,43.675189,57.285314,58.965271,58.347717,55.160531,63.59649,61.77058,59.675709,57.206866,63.674777,58.856874,52.052226,53.433162,58.294241,55.465517,51.030281,39.280197,63.32016,72.658905,67.950005,63.13892,79.747055,76.964298,70.728287,46.757527,66.399479,66.054016,59.216274,30.907654,49.664429,50.57198,44.097794,16.763455,33.416794,35.05188,30.384247,-4.255245,8.407455,24.371838,32.650271,54.26872,46.532419,33.688407,28.001071,66.171186,56.81054,44.881114,37.781496,69.299166,64.031287,53.099291,46.133029,67.401193,67.213644,57.497205,50.083253,56.94136,473.956679,-96.138428,455.047492
148,-0.194275,0.237727,-0.052952,0.286547,-35.256774,-63.964256,-77.388462,-80.994735,-57.371818,-89.266662,-107.389034,-120.952182,-44.237205,-78.164268,-96.313957,-108.944309,-33.155525,-62.660018,-77.683834,-85.331886,-24.318786,-49.265693,-62.828178,-70.100154,-8.726445,4.836922,20.45922,24.761211,43.648982,57.172236,58.692544,58.029431,55.127631,63.391664,61.199487,58.92002,57.095591,63.567035,58.580294,51.809299,53.208922,58.151289,55.282859,50.826591,39.519757,63.670956,72.865036,67.916783,63.369049,80.355194,77.353581,70.777611,47.001297,67.170754,66.540688,59.385727,31.210179,50.394631,51.098454,44.34478,17.162808,34.175492,35.649662,30.678143,-4.502568,8.199566,24.091429,31.963211,54.689537,46.37656,33.302775,27.631667,66.615319,56.833412,44.638335,37.499235,69.588441,63.869526,52.834838,45.927684,67.592544,67.054155,57.244052,49.871683,56.451112,474.234637,-96.487353,455.37427
149,-0.303131,0.379098,0.182717,0.163577,-35.322006,-63.857757,-77.131611,-81.142582,-57.472068,-89.252552,-107.134941,-120.314312,-44.235054,-77.829025,-95.262645,-107.029758,-33.046737,-62.157463,-76.666591,-83.791362,-24.054542,-48.794311,-62.031349,-68.945709,-8.895975,4.717632,20.357493,24.709514,43.769927,57.147376,58.264601,57.315176,55.146366,62.934068,60.033392,57.362415,56.936288,63.147848,57.723482,50.859924,52.926846,57.969607,54.796858,50.051722,39.452797,63.635227,72.887008,67.844295,63.352398,80.502639,77.569027,71.001159,46.959846,67.377571,66.853706,59.71479,31.183181,50.539226,51.387096,44.68222,17.117901,34.105373,35.663063,30.799129,-4.541162,8.070297,23.88091,31.903301,54.6977,46.751187,33.727247,28.075084,66.561893,57.292934,45.137353,38.048245,69.53168,64.328702,53.352591,46.416599,67.590729,67.408281,57.657706,50.278618,55.846326,474.674488,-96.606291,455.5986
