takenoko1/special-research/HandMotion_SimilarSearch_自分用/NewProject/handData/tgt/d4_feature_d3/12.csv
,vel_0x_L,vel_0y_L,vel_0x_R,vel_0y_R,posFromWrist_1x_L,posFromWrist_2x_L,posFromWrist_3x_L,posFromWrist_4x_L,posFromWrist_5x_L,posFromWrist_6x_L,posFromWrist_7x_L,posFromWrist_8x_L,posFromWrist_9x_L,posFromWrist_10x_L,posFromWrist_11x_L,posFromWrist_12x_L,posFromWrist_13x_L,posFromWrist_14x_L,posFromWrist_15x_L,posFromWrist_16x_L,posFromWrist_17x_L,posFromWrist_18x_L,posFromWrist_19x_L,posFromWrist_20x_L,posFromWrist_1y_L,posFromWrist_2y_L,posFromWrist_3y_L,posFromWrist_4y_L,posFromWrist_5y_L,posFromWrist_6y_L,posFromWrist_7y_L,posFromWrist_8y_L,posFromWrist_9y_L,posFromWrist_10y_L,posFromWrist_11y_L,posFromWrist_12y_L,posFromWrist_13y_L,posFromWrist_14y_L,posFromWrist_15y_L,posFromWrist_16y_L,posFromWrist_17y_L,posFromWrist_18y_L,posFromWrist_19y_L,posFromWrist_20y_L,posFromWrist_1x_R,posFromWrist_2x_R,posFromWrist_3x_R,posFromWrist_4x_R,posFromWrist_5x_R,posFromWrist_6x_R,posFromWrist_7x_R,posFromWrist_8x_R,posFromWrist_9x_R,posFromWrist_10x_R,posFromWrist_11x_R,posFromWrist_12x_R,posFromWrist_13x_R,posFromWrist_14x_R,posFromWrist_15x_R,posFromWrist_16x_R,posFromWrist_17x_R,posFromWrist_18x_R,posFromWrist_19x_R,posFromWrist_20x_R,posFromWrist_1y_R,posFromWrist_2y_R,posFromWrist_3y_R,posFromWrist_4y_R,posFromWrist_5y_R,posFromWrist_6y_R,posFromWrist_7y_R,posFromWrist_8y_R,posFromWrist_9y_R,posFromWrist_10y_R,posFromWrist_11y_R,posFromWrist_12y_R,posFromWrist_13y_R,posFromWrist_14y_R,posFromWrist_15y_R,posFromWrist_16y_R,posFromWrist_17y_R,posFromWrist_18y_R,posFromWrist_19y_R,posFromWrist_20y_R,posFromBody_0x_L,posFromBody_0y_L,posFromBody_0x_R,posFromBody_0y_R
6,-2.26656,-0.535216,-0.309758,-0.372071,22.639572,42.675556,57.761581,66.862976,39.325035,70.984646,81.184513,85.65176,25.848564,57.991722,68.295055,70.552792,12.314941,35.819813,44.387501,46.364765,-0.582401,9.284019,13.888561,15.396584,-0.594483,11.948791,29.406275,42.39172,37.130548,53.183185,53.413551,51.361128,49.53875,68.019746,69.564112,67.74224,56.135558,77.684254,80.489291,81.344151,57.312929,78.681214,86.175553,90.518484,32.630173,62.640233,85.236866,101.727276,63.287339,98.998044,108.882786,106.439175,49.732728,89.281346,100.607129,99.150845,35.296338,73.230641,85.060055,85.521801,21.821091,50.412587,63.69912,67.551739,-14.352586,-10.001751,5.22306,17.909558,16.534686,43.078038,45.342562,41.923195,36.668111,61.129573,59.338466,53.910814,51.064429,72.82751,70.351627,65.503639,59.82596,80.555426,79.784879,74.541602,-53.34371,356.795708,-69.928351,361.985571
7,-4.50761,-2.414503,0.377816,-0.071334,25.139969,47.759285,65.045231,74.585025,44.589122,78.208992,87.763755,90.317024,30.359195,65.070545,74.78199,75.185417,16.361332,42.24337,50.631694,51.402649,3.180931,15.985634,22.034809,23.704548,-1.393904,11.161252,29.178416,43.515207,38.227766,56.161506,55.964374,52.496829,52.129822,72.162656,71.770269,67.961405,59.847685,82.611628,83.321239,82.041264,61.603817,83.878364,89.505592,91.026443,32.360012,62.464554,85.011028,101.191646,63.100994,98.736133,108.322345,105.545047,49.410999,88.82809,99.838978,98.073498,34.810318,72.674549,84.205227,84.519642,21.137089,49.626205,62.597854,66.143509,-14.316858,-9.890477,5.468011,18.194685,16.74497,43.462855,45.400632,41.744711,36.75382,61.426951,59.334353,53.671037,51.126352,73.09889,70.406375,65.384683,59.85376,80.731352,79.919693,74.635537,-57.515018,355.4662,-69.214233,362.999232
8,-0.571987,0.952698,0.013115,0.150893,33.979866,60.663974,80.893924,93.699291,49.029075,81.827899,91.412075,94.161701,29.53038,62.338863,72.744976,74.058002,11.289287,33.868515,42.10794,43.580348,-5.18232,4.015583,9.885852,12.366176,-6.026186,3.076393,19.505881,33.620382,36.116013,54.37577,54.327136,50.642921,52.972023,73.04392,72.992285,69.059957,62.801503,86.657379,88.568122,87.592713,65.650679,89.500467,96.265471,98.383758,32.218918,62.326137,84.811855,100.905155,63.009933,98.642017,108.342922,105.585537,49.216861,88.728801,99.809452,98.050884,34.499061,72.427242,83.977077,84.269725,20.725731,49.215339,62.242435,65.760418,-14.370716,-10.08094,5.17755,17.948869,16.427858,43.208875,45.234215,41.543059,36.478698,61.387122,59.251447,53.490554,50.872262,73.132508,70.275353,65.096185,59.608093,80.641901,79.777926,74.413532,-57.904077,356.950609,-69.01819,363.681836
9,-6.240979,-1.240973,0.106945,-0.016487,34.504132,63.354847,85.572464,100.353058,55.128422,89.051995,98.538185,100.810112,36.472332,72.825794,84.203934,85.545296,19.311207,47.28225,57.4506,59.713898,3.902344,18.064568,26.364155,29.96925,-7.570181,0.670029,17.393362,32.737092,34.041014,55.148157,55.498059,51.716921,52.314949,73.939708,72.065299,66.388596,63.317551,86.950014,86.911543,83.850057,67.034555,90.262417,95.042344,94.906233,32.225704,62.291301,84.722831,100.707321,62.762466,98.470024,108.147743,105.2677,48.906921,88.563743,99.564743,97.646759,34.165455,72.278663,83.746193,83.944862,20.370392,49.107193,62.079883,65.411796,-14.259899,-9.966393,5.261839,18.103183,16.442134,43.437228,45.469632,41.723765,36.390839,61.614573,59.473909,53.691958,50.760271,73.286772,70.38144,65.193775,59.515096,80.683693,79.761439,74.391388,-64.029808,355.94108,-68.795997,363.896793
10,5.299496,0.705128,-0.149494,-0.065616,34.033104,61.009678,81.771801,95.067799,49.570999,83.039921,92.947117,95.782505,30.248028,63.992237,75.142559,77.074596,12.268364,35.651035,44.419281,46.416389,-3.886139,5.795414,12.278332,15.276318,-6.256935,2.552428,19.062809,33.717738,36.029513,54.9953,54.823115,50.665879,53.335695,73.406592,72.85878,68.200823,63.419143,87.509485,89.083429,87.151407,66.316299,90.621533,97.213377,98.567786,32.099555,62.017021,84.420215,100.650775,62.743331,98.464015,108.271625,105.523761,48.963878,88.682086,99.731174,97.876728,34.224781,72.397327,83.896305,84.134136,20.367027,49.025836,61.96693,65.272544,-14.1929,-9.997182,5.102412,17.667805,16.473392,43.199353,45.384478,41.780168,36.456319,61.520787,59.477268,53.729107,50.829802,73.295454,70.489478,65.402455,59.577168,80.809911,79.978701,74.675057,-58.650261,356.697979,-68.86544,363.882948
11,-6.069122,-0.662298,0.178527,-0.168591,34.851917,64.001701,86.752681,101.666347,56.071312,90.370365,99.612705,101.631855,37.688976,74.058254,85.096721,86.507206,20.671451,48.485126,58.303436,60.667396,5.38377,19.693496,28.25069,32.172981,-8.092058,0.08529,17.17931,32.839042,34.010163,54.785645,55.017629,51.057846,52.6547,74.183413,72.006945,65.820431,63.962522,87.673383,87.444684,83.880265,67.78912,91.173248,95.828056,95.210391,32.060852,61.82396,84.15453,100.319722,62.788411,98.434765,108.179547,105.44711,49.040417,88.641598,99.553357,97.706234,34.306698,72.380345,83.761746,84.037663,20.383644,48.986149,61.821373,65.102806,-14.039055,-9.818908,5.293332,17.84871,16.544343,43.124561,45.468137,41.98765,36.501434,61.426074,59.583454,53.941109,50.855145,73.271248,70.673729,65.74139,59.63982,80.818099,80.156975,75.046017,-64.674482,355.993456,-68.642012,363.672132
12,5.328106,0.80693,-0.072063,0.119783,34.351753,61.690429,83.054489,96.677215,50.687187,84.314781,93.69255,95.971801,31.659828,65.108551,75.952789,77.907051,13.936111,37.095886,45.562099,47.543289,-1.980664,8.185157,15.073883,18.395233,-6.915775,1.93995,18.805952,33.813018,35.879978,54.597256,54.097708,49.483186,53.567383,73.645875,72.885542,67.724183,64.074067,88.21213,89.664809,87.327025,67.338725,91.70997,98.284277,99.309914,32.000347,61.742752,84.108673,100.439484,62.805141,98.456795,108.226295,105.582985,49.130688,88.706657,99.656204,97.916565,34.458435,72.519035,83.91053,84.21373,20.61026,49.166279,62.058517,65.505798,-14.10146,-9.953758,5.144897,17.674685,16.39576,42.894442,45.365929,42.008867,36.356469,61.051151,59.347852,53.840246,50.694322,72.854186,70.345218,65.536503,59.487655,80.517239,80.038624,75.122415,-59.330669,356.735403,-68.698368,363.726932
13,-6.318306,-0.94409,-0.080795,0.163812,35.079425,64.568195,87.633522,102.813308,57.32452,91.534149,100.511398,102.198326,39.029857,75.122051,86.114273,87.568016,22.102203,50.010109,59.903881,62.28582,6.897251,21.580799,30.337165,34.382022,-8.198442,0.063306,17.287287,33.060936,33.774437,54.351045,54.722153,50.799804,52.573955,74.00483,72.020012,65.920948,64.093507,87.660675,87.602703,84.157166,68.258461,91.483087,96.366804,95.950161,31.951995,61.805809,84.281547,100.697502,62.534534,98.458877,108.221374,105.627914,48.92696,88.726547,99.721801,98.041328,34.402713,72.714386,84.047927,84.272941,20.794784,49.615848,62.487957,65.908916,-14.149205,-10.00763,5.099139,17.777178,16.037965,42.681811,45.462753,42.332649,35.896972,60.637015,59.325103,54.109021,50.296563,72.33673,70.027264,65.398095,59.218929,80.148441,79.81489,75.041126,-65.645988,355.724215,-68.776176,363.823646
14,5.141487,0.433796,-0.100605,0.196008,33.696258,60.130703,80.535782,92.966881,52.487606,86.718544,95.237938,96.684196,34.224941,68.832378,79.002479,80.022308,16.701347,41.398121,49.940414,51.37112,0.530513,11.309669,17.917614,20.701698,-5.844602,3.91941,21.119172,35.790082,36.285691,54.153963,53.463865,49.010376,53.797984,73.487869,71.627737,65.718296,64.124926,87.886027,88.191729,85.213124,67.563386,91.717468,97.639653,98.209684,32.006137,61.87706,84.441295,101.137584,62.106159,98.320049,108.209072,105.711971,48.517032,88.613124,99.833118,98.22005,34.135437,72.679447,84.206577,84.469722,20.833774,49.68037,62.660202,66.178985,-14.290404,-10.22966,4.821732,17.546898,15.697893,42.548677,45.38806,42.282187,35.501942,60.279715,59.019426,53.862242,49.905609,71.879122,69.589652,65.016107,58.83625,79.741605,79.515746,74.837066,-60.52585,356.103705,-68.89813,363.965348
15,-0.425537,-0.48658,0.149322,0.195539,33.528019,59.311557,78.989868,90.643592,53.128189,87.731552,95.659034,96.47676,35.279571,70.590179,80.482452,80.940902,18.058525,43.741344,52.450973,53.489524,1.984348,13.620597,20.205036,22.564235,-5.288874,5.228543,22.686249,37.248453,37.015395,54.642223,53.551883,48.920306,54.266904,73.940511,71.221714,64.696548,64.320587,88.033622,87.475238,84.032035,67.807065,91.946857,97.300642,97.494168,31.937039,61.820618,84.37183,101.185261,61.626309,98.083202,108.064533,105.700733,48.049038,88.318028,99.624355,98.013806,33.815048,72.457523,84.088955,84.409847,20.799969,49.608788,62.572449,66.147801,-14.422253,-10.32704,4.780433,17.586258,15.488745,42.567609,45.570149,42.542329,35.233464,60.088696,58.947561,53.834293,49.641737,71.58393,69.426494,64.920888,58.571884,79.485908,79.463839,74.927555,-60.97269,355.597355,-68.770111,364.141117
16,5.71384,0.393757,0.09042,0.21499,32.533985,55.42107,72.41827,81.567867,47.366902,81.478008,89.489582,90.430332,29.070385,61.885288,71.565754,72.315502,11.109249,32.717503,40.448639,41.032105,-5.869217,1.521767,6.100319,7.381371,-2.709447,9.3171,26.693283,40.328972,39.76419,55.505605,53.3168,48.020739,55.381327,73.9919,71.795265,65.809514,63.944985,88.350637,88.628168,86.017805,66.548086,91.696769,98.36275,99.850207,31.810993,61.691963,84.181549,101.101181,61.305427,97.906013,107.952782,105.677009,47.713978,88.124519,99.560921,98.033432,33.53112,72.295463,84.026779,84.397339,20.672951,49.579399,62.592293,66.243473,-14.626845,-10.523332,4.561256,17.387397,15.167927,42.27558,45.61645,42.821824,34.888193,59.76179,58.925652,54.037353,49.317312,71.256579,69.226559,64.83077,58.271493,79.17854,79.20403,74.701215,-55.28896,355.980281,-68.709801,364.345276
17,-0.215332,-0.200763,0.321487,0.25288,32.521626,55.371883,72.172588,81.109875,47.545429,81.94978,89.959568,90.767498,29.220085,62.45525,72.322048,73.179943,11.301464,33.373673,41.426136,42.221043,-5.581261,1.891903,6.47081,7.75985,-2.72922,9.340676,26.816895,40.531439,39.831968,55.77128,53.496581,48.194678,55.471297,74.202939,71.636011,65.463366,64.049615,88.609038,88.538927,85.737459,66.64927,91.952391,98.444001,99.766695,31.674271,61.502106,83.869492,100.677567,60.864968,97.604622,107.574669,105.143441,47.205677,87.813309,99.119202,97.287461,33.053341,71.865555,83.455971,83.567002,20.335968,49.093277,61.941983,65.339047,-14.859347,-10.873963,4.188025,17.131294,14.937129,42.312717,45.498828,42.53035,34.637289,59.691654,58.540725,53.422591,49.100976,71.185036,68.794282,64.152701,58.070113,79.084408,79.008924,74.39418,-55.559916,355.773643,-68.443938,364.592281
18,0.165779,0.192686,0.290337,0.311371,32.544102,55.389473,72.10841,80.997517,47.702271,81.750378,90.028324,91.318623,29.314087,62.365849,72.312641,73.275845,11.260277,33.209725,41.355297,42.326603,-5.796947,1.626091,6.327862,7.867424,-2.83406,9.220979,26.74582,40.361539,39.60133,55.458848,53.505065,48.619792,55.20871,73.954751,71.638209,65.638144,63.736466,88.318861,88.442954,85.739459,66.229911,91.581863,98.223404,99.62809,31.353939,61.153622,83.403397,100.198357,60.687881,97.3713,107.318413,104.84864,46.992565,87.580604,98.799751,96.859817,32.77874,71.457962,83.041992,83.125854,20.010681,48.315926,61.095589,64.544472,-15.073152,-11.251839,3.765824,16.603599,14.937548,42.185214,45.210243,42.144273,34.658406,59.561224,58.161836,52.929316,49.050575,71.068005,68.492989,63.760128,57.922207,79.000303,79.044059,74.557336,-55.448084,355.946788,-68.207548,364.884111
19,0.565476,0.445406,0.405006,0.262599,33.575065,57.402362,75.04549,85.221233,47.176048,80.120464,89.192196,91.346477,27.88377,59.181472,69.77045,71.727115,9.26865,29.365528,37.452381,39.038692,-8.012879,-1.708512,3.071674,5.151489,-3.906183,7.218586,24.404813,38.262741,38.994607,55.057285,53.593701,48.973041,54.825671,73.940067,72.710443,67.515999,63.601702,88.512929,89.787384,87.847606,66.035718,91.489769,98.944711,100.988415,31.014347,60.779057,82.897408,99.412079,60.769993,97.209504,106.914254,104.195435,47.047177,87.413887,98.332169,96.175644,32.687165,71.043915,82.312981,82.150544,19.724888,47.658142,60.195202,63.36533,-15.304086,-11.6525,3.273291,16.075522,14.997237,41.929172,44.71461,41.538799,34.767421,59.402081,57.664585,52.29472,49.125936,71.040515,68.033702,63.052642,57.97892,78.952002,78.669704,73.948996,-54.927686,356.380301,-67.84762,365.134817
20,-5.877159,-0.357275,0.305432,0.214534,34.741664,61.38343,81.355556,93.647586,53.235466,86.578708,95.605258,97.418186,34.166255,67.653144,78.341022,79.896526,15.96635,39.995338,49.080986,51.031414,-0.766343,9.245143,15.808742,18.799564,-5.877639,3.953434,21.307992,35.95162,36.112036,54.506211,54.042058,50.156154,53.38181,73.939795,72.146538,66.689876,63.533035,87.870169,88.211871,85.643548,66.840671,91.080128,97.084244,97.933189,30.755459,60.494728,82.520725,98.892116,60.700298,97.01176,106.5004,103.510631,46.894169,87.175312,97.857502,95.462391,32.354919,70.461925,81.471416,81.031597,19.214801,46.716659,59.108883,62.136829,-15.376952,-11.887646,3.018298,15.80934,15.007598,42.03411,44.541708,41.187105,34.716637,59.520259,57.413656,51.890798,49.007794,71.109909,67.648774,62.428691,57.83404,78.94516,78.656761,74.02837,-60.862924,356.005782,-67.600267,365.332107
21,0.463005,0.445232,0.128952,0.24258,35.115429,62.496254,83.416866,96.756122,52.895404,85.696964,95.008243,97.290584,33.430606,66.016765,76.877872,78.899082,14.896637,37.854549,46.500137,48.623966,-1.979428,7.118717,13.583438,16.872871,-7.082278,1.770965,18.686367,33.506688,35.551071,53.595665,53.379131,49.577912,53.176812,73.683222,72.43663,67.253066,63.735466,88.119715,89.294641,87.058584,67.055921,91.430698,98.160098,99.364997,30.709717,60.529884,82.573391,98.862545,60.669582,96.865368,106.335399,103.312122,46.790016,86.971218,97.594013,95.11346,32.156936,70.02927,80.951832,80.380657,18.934158,46.014221,58.229175,61.012127,-15.48478,-12.198609,2.67961,15.439826,15.049959,41.970668,44.246863,40.744095,34.787428,59.560607,57.118143,51.39551,49.051428,71.230718,67.443491,61.99445,57.86068,79.036563,78.59732,73.885405,-60.456024,356.436574,-67.52742,365.560247
22,-6.084355,-0.905397,-0.01363,0.181633,35.955998,65.58379,88.372719,103.163658,59.388508,92.914215,101.537522,102.865334,40.650089,76.003235,86.400353,87.274452,22.884201,50.453808,59.857201,61.714646,6.712155,20.490681,28.79908,32.632942,-8.323214,0.038977,17.387607,32.902127,33.798039,53.925166,54.174995,50.722592,52.610993,74.359575,71.943047,65.961828,64.263691,87.827327,87.365286,84.00037,68.441045,91.439504,96.132671,95.652562,30.613552,60.44442,82.507484,98.882583,60.744392,96.826034,106.343582,103.414581,46.913212,86.911583,97.670311,95.374969,32.276951,69.9963,81.043556,80.600029,19.006439,45.966385,58.216175,61.015766,-15.625683,-12.404744,2.413453,15.036398,14.963755,41.550518,43.899109,40.512938,34.741831,59.275776,56.942957,51.346813,49.016094,71.083208,67.398302,62.034723,57.85238,78.986582,78.522453,73.806649,-66.578396,355.517536,-67.579067,365.728239
23,5.619061,0.048524,0.199745,0.049116,33.237888,58.891926,78.035488,89.076919,53.197323,86.631878,94.879955,95.938945,34.92929,68.330646,78.309963,79.37376,17.206249,41.507789,49.78482,50.929287,0.81134,11.220703,17.67041,20.31031,-4.989396,5.444818,22.879207,37.612806,37.540163,55.545978,54.154136,49.60229,54.402162,74.560955,72.248785,66.598523,64.338223,87.959436,87.665936,84.738584,67.5272,91.129974,96.47252,96.71142,30.649384,60.339191,82.358322,98.680252,60.741554,96.66243,106.103577,103.077713,46.963371,86.680756,97.416847,95.042496,32.321468,69.772293,80.822433,80.360687,19.008717,45.939091,58.179348,60.879799,-15.643998,-12.457701,2.33708,14.921777,15.047736,41.589594,43.772792,40.255896,34.804706,59.294252,56.75678,50.980807,49.049896,71.097103,67.284644,61.805691,57.859358,78.947939,78.313243,73.413929,-60.997833,355.547337,-67.41782,365.758632
24,-0.101864,-1.118683,0.015438,0.078658,27.720131,50.100712,66.128334,73.630634,51.804863,85.907844,93.700264,94.180458,36.493355,71.368206,80.727928,80.97377,20.9263,47.484524,55.857399,56.354484,5.930626,18.331066,24.646145,26.396175,-1.672646,11.608386,30.515559,45.820794,39.953307,57.779972,55.864141,51.434438,54.966598,74.891332,71.643236,65.767721,63.469222,86.292187,84.657049,81.340767,65.958974,88.499641,92.780636,92.539205,30.607441,60.292294,82.356892,98.715832,60.661182,96.591213,106.089947,103.127461,46.942967,86.58038,97.437229,95.102726,32.353031,69.825588,81.03233,80.66074,19.081158,46.182678,58.625725,61.574249,-15.587373,-12.430852,2.375946,14.989776,14.90356,41.608934,43.929564,40.420535,34.609747,59.265501,56.893828,51.145668,48.847219,70.969427,67.335502,61.933971,57.673736,78.832613,78.464186,73.745899,-61.140346,354.39722,-67.443031,365.805856
25,6.420627,0.802261,-0.121307,0.02738,24.394078,43.069668,56.078625,60.230622,44.865658,77.562458,85.65057,87.186894,30.278355,61.754036,71.19524,72.373455,14.832493,36.883976,44.439492,44.820134,-0.445884,8.140446,12.475708,13.134922,1.443626,16.515988,35.309479,49.567797,42.85738,57.715122,55.474483,51.304367,55.953654,74.023665,72.095249,67.61659,62.930747,85.622529,85.359571,83.63934,64.712172,87.626824,93.537931,95.10407,30.684345,60.411163,82.587352,98.871654,60.916454,96.586818,106.32027,103.754642,47.340442,86.597454,97.758442,95.766575,32.889209,70.173145,81.682171,81.684597,19.683448,46.909343,59.457081,62.613899,-15.66771,-12.573496,2.149001,14.889938,14.709417,41.213732,43.944063,40.787555,34.542007,58.986142,57.013007,51.430337,48.838487,70.777803,67.652405,62.486168,57.669809,78.644374,78.25647,73.403517,-54.740834,355.162715,-67.585453,365.79647
26,0.034974,0.076719,0.091724,-0.055773,23.373527,41.428676,53.913883,57.078781,44.833923,77.488369,85.414913,86.997539,30.88821,62.584728,72.053135,73.201206,15.790889,38.458294,46.377937,46.706405,0.540721,9.850673,13.966312,14.136097,2.431719,18.282445,37.369373,51.261129,43.071073,57.798373,55.997077,52.498558,55.837304,73.701698,71.766971,67.603721,62.546634,84.854983,84.26171,82.799238,64.486771,86.826612,92.400353,94.191658,30.652187,60.297478,82.460014,98.6082,60.990887,96.394913,106.215019,103.865341,47.557572,86.450386,97.743004,95.882858,33.256794,70.320419,82.048737,82.352005,20.129654,47.419109,60.051041,63.445267,-15.671773,-12.546054,2.184433,15.077783,14.552003,41.254647,44.189484,41.233887,34.403686,58.935075,57.162282,51.619936,48.735401,70.654537,67.966282,62.999586,57.548494,78.489763,78.350775,73.619829,-54.701677,355.180981,-67.489546,365.682244
27,6.95113,1.687355,-0.024856,-0.034692,22.100841,37.721214,48.265983,49.896778,37.575393,68.115119,76.408515,79.219436,22.657058,49.144615,58.002021,60.05754,6.644382,22.713008,28.747066,28.94728,-9.314415,-5.213814,-3.215504,-3.721516,4.004316,20.406906,38.820866,51.639696,45.254851,57.285067,55.560526,52.263832,56.187046,72.786631,73.6562,71.861869,61.277836,83.655271,85.950769,87.072638,61.937787,84.600411,92.562707,96.846814,30.684917,60.334522,82.507049,98.557022,61.156379,96.309402,106.245071,104.157989,47.810955,86.350204,97.792854,96.178642,33.59135,70.396522,82.304878,82.918258,20.478996,47.766689,60.44094,64.060409,-15.649011,-12.563652,2.179506,15.213734,14.333062,41.21577,44.387135,41.629362,34.220609,58.877079,57.407926,51.994798,48.580692,70.557355,68.344504,63.619943,57.397737,78.313454,78.399349,73.803389,-47.730508,356.795026,-67.494363,365.574242
28,-4.871304,-0.450889,-0.019856,-0.209543,24.884582,44.105347,57.931744,63.379635,43.171303,73.659107,82.203312,85.194134,27.636749,55.865787,65.091007,67.026844,11.431263,30.356346,37.181683,37.902409,-4.462738,2.208538,5.465309,5.676407,1.14484,15.599068,33.826949,47.430294,42.462152,56.726225,55.946281,53.09992,55.16042,73.165259,73.529537,71.172327,61.76953,83.833606,85.707299,86.217172,63.204967,85.195092,92.291573,95.73769,30.78154,60.444019,82.602253,98.51556,61.271999,96.069225,106.086651,104.250927,47.925213,86.031727,97.649151,96.367115,33.75515,70.232426,82.304821,83.275875,20.645039,47.76107,60.376396,64.110317,-15.582754,-12.477857,2.300598,15.536366,14.281215,41.272765,44.712337,42.231292,34.211852,58.980659,57.89847,52.713436,48.611826,70.684943,68.993229,64.528439,57.431501,78.377278,78.691489,74.235147,-52.577848,356.269005,-67.490255,365.289567
29,0.407089,1.521653,0.179855,-0.167356,30.134319,52.370533,69.044323,77.822422,44.383255,73.526104,82.183834,85.940312,25.655136,51.000447,60.173687,62.8839,7.087452,22.681584,28.776192,29.880284,-10.386989,-5.924286,-2.806137,-1.928192,-1.649267,10.279443,26.964726,39.530601,40.356513,54.285714,54.78541,52.59973,54.333101,72.499405,74.937447,73.9559,61.916756,84.30296,88.437125,90.501824,63.818619,86.175109,94.618452,99.223489,30.671654,60.315457,82.340481,98.186589,61.310772,95.952198,105.882443,104.069035,47.999897,85.78497,97.299511,96.004864,33.869683,69.9734,81.954747,82.970158,20.712468,47.503407,59.780182,63.245671,-15.68484,-12.515191,2.399374,15.617976,14.292874,41.21073,44.697183,42.348617,34.335143,58.936248,57.91828,52.813077,48.807204,70.824351,69.439425,65.193936,57.61222,78.651339,79.039823,74.643638,-52.145365,357.719167,-67.285006,365.05072
30,-5.967613,-0.879165,0.05626,-0.008596,33.256702,59.028591,78.479588,90.615131,50.739578,80.92535,89.565571,92.870762,31.428669,60.003765,69.237637,71.239666,12.900158,32.68325,39.573154,40.97755,-4.174381,4.123135,9.29995,11.373413,-4.584276,5.702898,22.548175,36.26414,37.364075,53.980815,55.118554,52.991906,53.148357,72.996755,74.396847,72.173548,62.189828,84.791109,87.856547,88.350353,64.718322,86.813151,93.781055,96.488625,30.503231,60.172554,82.083034,97.979358,61.082977,95.885982,105.647518,103.539424,47.707729,85.641002,96.957744,95.428424,33.504089,69.661754,81.417034,82.152431,20.282535,47.015693,59.173038,62.40628,-15.702142,-12.527936,2.389321,15.443272,14.243881,41.179423,44.474141,41.975818,34.287954,58.886613,57.664955,52.497298,48.774613,70.798478,69.158584,64.779875,57.600327,78.721624,79.089397,74.637933,-58.094633,356.771925,-67.210401,364.974047
31,0.39085,-1.319026,-0.06379,0.04735,24.170643,45.99773,62.903927,72.617695,45.419186,75.815174,84.049667,86.619209,31.806473,61.915054,70.052582,70.858337,18.367367,40.986843,47.507183,48.065254,5.541962,17.669483,23.312668,24.724216,-0.333576,13.020779,31.33211,45.649017,40.574393,57.358809,57.793804,55.02951,53.241045,73.106671,73.866226,71.088668,59.837644,81.615643,83.260736,82.796398,60.61728,81.447497,87.179713,88.812024,30.351196,60.034092,81.884594,97.847981,60.87085,95.766987,105.546696,103.35101,47.480484,85.60017,96.771916,95.032276,33.227177,69.51305,81.061009,81.52541,19.980309,46.782601,58.868225,61.940243,-15.77576,-12.569284,2.339081,15.237841,14.256997,41.104619,44.437017,41.954626,34.323806,58.879537,57.502626,52.282481,48.808823,70.810741,68.859614,64.33894,57.632154,78.792624,78.948902,74.277755,-57.702644,355.40876,-67.273052,364.977258
32,-4.226624,0.699768,-0.171306,0.205394,23.940526,46.655034,64.167515,75.546582,49.657872,81.059521,89.532624,92.516076,37.551487,71.344826,80.508065,81.717865,25.056702,52.433796,60.896565,62.554242,12.5411,27.655507,34.164048,35.737668,-2.868479,9.247754,27.682574,42.361067,36.224101,53.847755,55.197804,53.605693,50.380383,70.337462,69.681265,65.605453,58.405751,79.438855,79.55208,77.403524,60.360522,80.819298,85.580736,86.124732,30.25383,59.97179,81.821159,97.834579,60.84439,95.893318,105.549705,103.105888,47.454711,85.800888,96.626609,94.481437,33.148384,69.539749,80.709343,80.750518,19.881546,46.773811,58.671363,61.437458,-15.908301,-12.65503,2.27969,15.011575,14.231161,40.991134,44.281307,41.769473,34.293302,58.793988,57.167235,51.837915,48.772761,70.650326,68.26944,63.554648,57.609343,78.724452,78.615006,73.751506,-61.933068,356.084634,-67.448158,365.158758
33,4.660882,1.044323,-0.246426,0.371701,23.069835,43.608913,59.307186,68.488872,44.676944,75.791553,84.360809,87.600448,32.182994,63.613998,72.816673,74.511817,19.179084,42.804096,50.584671,52.015972,6.121799,18.077579,23.331768,24.426338,-1.312455,11.830848,30.098225,43.828504,37.583141,52.967725,53.88651,52.037418,50.540514,69.213036,69.774347,66.641588,57.523819,79.249689,80.625414,79.544361,59.0164,80.429702,86.694454,88.542718,30.196758,60.054256,81.996883,97.961895,61.021236,96.370457,105.798695,102.963947,47.684292,86.348888,96.795238,94.186626,33.354069,69.950741,80.716839,80.252186,20.080891,47.238705,58.967457,61.344463,-16.224822,-12.957879,2.05104,14.741737,14.01559,40.825445,43.719687,40.930618,34.098936,58.526164,56.384968,50.846709,48.61232,70.362532,67.345925,62.374844,57.516112,78.487577,77.895415,72.754323,-57.245201,357.131254,-67.667599,365.532756
34,-5.494229,0.745155,-0.583798,0.01377,23.049717,45.42524,62.45874,73.168259,50.068119,82.736046,91.103863,93.651432,38.966767,74.72002,84.259449,85.247349,27.233711,56.423104,65.604218,67.187267,15.029297,31.847603,38.764973,40.036389,-4.123779,7.536008,25.988587,40.682925,33.187635,50.494312,51.601954,49.805807,47.930077,67.125835,65.58594,60.731258,56.537726,77.379379,76.247371,72.931361,59.265649,79.642668,83.261785,82.49014,30.384797,60.334088,82.387574,98.329308,61.123868,96.554604,106.161759,103.450219,47.748311,86.608704,97.18023,94.717164,33.377266,70.21653,81.107415,80.690941,20.142323,47.475552,59.374753,61.846962,-16.175298,-12.903267,2.071504,14.884357,14.051763,41.100173,43.996527,41.178559,34.082733,58.8064,56.621386,51.046719,48.533725,70.389863,67.22424,62.117506,57.375124,78.332608,77.689626,72.431196,-62.673311,357.884149,-68.185278,365.554266
35,5.167832,0.970222,-0.498367,-0.048869,21.681873,41.242263,56.127754,64.640213,44.294494,76.949638,85.516468,88.256389,33.125095,66.903453,76.756748,78.350154,21.071903,46.794468,55.621662,57.072567,8.374363,21.549968,27.004406,27.620876,-2.901096,9.518283,27.750018,41.570353,34.68207,49.795384,49.916687,47.372026,48.42744,66.178226,65.27646,60.777386,56.168657,77.342552,76.933727,74.296503,58.600264,79.981172,84.847672,85.264117,30.693844,60.680386,82.807457,98.513374,61.530602,96.947251,106.479996,103.713799,48.163113,87.039642,97.604325,95.201294,33.82116,70.76461,81.645378,81.220757,20.611988,48.170815,60.110642,62.525906,-16.248966,-12.85467,2.234278,15.253858,14.092951,41.070446,43.668471,40.688334,34.159167,58.759543,56.41099,50.827369,48.620138,70.361457,67.017253,61.856129,57.478,78.273908,77.356112,71.940551,-57.414625,358.862556,-68.592791,365.513582
36,-4.640728,2.803876,-0.562374,-0.015611,31.137508,56.1198,74.569267,87.72718,54.025428,87.519149,95.82122,98.286415,37.728172,72.490058,83.026634,84.965103,21.426544,47.88303,57.635948,59.94564,5.248615,18.712761,25.58551,27.542015,-10.558715,-3.137736,13.173957,26.876188,26.634238,42.915783,44.138182,42.385076,44.879607,62.978813,62.140613,57.499193,56.49255,77.451603,77.377071,74.488226,61.631691,83.244558,87.399693,86.725836,30.933254,61.034546,83.269238,98.890766,62.184563,97.564007,106.80962,103.778721,48.873436,87.570133,98.092083,95.75964,34.551842,71.403843,82.286282,81.892239,21.270893,48.93623,60.904347,63.291641,-16.336763,-12.899895,2.299351,15.365714,13.9674,40.94702,43.179618,39.936474,34.021365,58.471219,56.150342,50.63708,48.519757,70.052064,66.874363,61.853807,57.493475,78.069577,77.191189,71.92404,-61.941827,361.675216,-69.041639,365.506755
37,3.014362,-2.051731,-0.223766,-0.44254,31.559372,55.345756,72.812977,83.819035,50.660511,84.059132,92.281116,93.914486,33.362812,66.065769,76.284634,77.607296,16.452324,39.545208,48.01878,49.091125,0.046108,11.077766,17.135044,18.758079,-7.455103,1.501301,17.837446,31.390106,31.320525,47.529712,47.178241,43.639671,48.202507,66.703412,66.01949,61.504472,58.400551,81.150638,81.821395,79.701541,62.553155,85.607177,90.508703,90.518397,31.117321,61.277836,83.53862,99.113731,62.120315,97.597526,106.855522,103.846618,48.850937,87.479187,98.235145,96.174705,34.667003,71.485565,82.616272,82.541015,21.48341,48.977153,60.981136,63.394821,-16.124119,-12.650856,2.606028,15.878204,14.306348,41.171111,43.284877,40.007536,34.313135,58.608959,56.486807,51.060255,48.78516,70.102748,67.293944,62.429259,57.774587,78.275662,77.635619,72.542581,-58.809528,359.643421,-69.147468,365.084151
38,-4.590248,0.343715,-0.0458,-0.55069,31.61951,57.358143,76.422993,89.406177,55.005901,89.039005,96.927212,98.304554,38.661232,73.888973,83.871792,84.849232,22.663856,49.441669,58.47274,59.866264,6.937134,21.471062,28.585098,30.391617,-9.956525,-2.621194,13.591081,28.047222,27.886412,45.537298,46.100573,43.378232,46.090569,65.142091,63.864672,59.06154,57.687914,79.379451,79.141082,76.316025,62.743791,84.609834,88.083641,86.894859,31.187142,61.142453,83.309807,99.091256,61.837292,97.290276,106.735016,103.920205,48.563233,87.172989,98.215874,96.452683,34.449303,71.279,82.616982,82.774567,21.338688,48.644166,60.741841,63.292065,-15.823543,-12.383366,2.718228,15.88454,14.62272,41.130492,43.432066,40.232641,34.591914,58.619592,56.890704,51.677499,49.010499,70.071193,67.579478,62.869922,57.997777,78.44445,78.065735,73.156701,-63.310821,359.989341,-69.104313,364.535666
39,4.449302,-1.887401,0.084767,-0.174099,30.042973,52.598523,68.618535,77.88889,49.83553,83.437054,91.933285,93.689724,33.521966,66.873768,77.382786,78.695836,17.261525,40.938344,49.47947,50.540188,1.301537,12.183335,17.890584,19.265946,-5.787916,3.725464,20.279811,34.335958,32.383768,49.13484,48.759595,45.31575,48.668673,67.492014,66.760704,62.496715,58.481086,81.626066,82.472133,80.624499,62.354627,85.989437,91.336615,91.972286,30.980724,60.817554,82.971004,99.041759,61.666237,97.139522,106.605343,103.882313,48.514309,87.006008,98.131451,96.50497,34.487148,71.145183,82.514568,82.836948,21.384441,48.415352,60.470398,63.166374,-15.770611,-12.544473,2.290619,15.175485,14.559289,40.6644,43.03953,39.86672,34.490544,58.172198,56.715752,51.629853,48.885973,69.675682,67.457842,62.91926,57.940251,78.269314,78.06035,73.351993,-58.762883,358.08159,-68.92091,364.341217
40,0.147824,-0.532931,0.192718,-0.227748,30.023815,52.717815,68.385086,77.273163,49.989097,83.408226,91.670814,93.216225,33.374187,66.473213,76.238891,76.97113,16.694584,40.052284,47.515537,47.929527,0.267299,10.819645,15.830108,16.797535,-4.112837,6.125777,22.901314,37.009393,33.130961,50.414642,50.242358,46.856904,48.725064,67.88497,67.755306,64.23084,57.92322,81.310127,83.042979,81.983663,61.154014,84.87683,90.517101,91.713379,30.642975,60.448677,82.618046,98.744625,61.194569,96.630993,106.360302,104.024472,48.183289,86.486287,97.913052,96.634678,34.30243,70.784695,82.390126,83.144955,21.295842,48.014729,60.031723,62.915783,-15.608121,-12.722166,1.889982,14.775342,14.500096,40.289352,43.228956,40.374222,34.389274,57.983797,57.221315,52.367832,48.770105,69.365559,67.734076,63.432024,57.846489,78.150864,78.315478,73.839747,-58.521011,357.515764,-68.634144,364.080574
41,3.202595,-1.438673,0.44814,-0.077522,30.565864,51.871456,65.943409,72.54935,46.354396,79.715458,88.385479,90.252765,28.73022,60.672031,70.263004,70.957569,10.987243,31.807262,38.40485,38.341873,-6.252102,0.583854,3.736381,4.091869,-0.57707,11.526492,28.602556,41.988798,37.312451,53.555811,52.516181,48.337135,51.393608,70.008356,70.2858,67.348259,59.036394,83.281236,86.080469,86.059499,61.123904,85.998094,93.351345,96.419476,30.353038,59.945674,82.00344,98.228073,60.405349,96.065391,105.986206,103.878364,47.452159,85.813659,97.392128,96.259597,33.73003,70.144203,81.868217,82.852111,20.963676,47.368583,59.329879,62.290088,-15.57317,-12.947036,1.421631,14.309695,14.682408,40.086009,42.951623,40.080353,34.581207,57.903349,57.07398,52.170305,48.878378,69.272761,67.613268,63.272856,57.825568,78.042184,78.22704,73.738427,-55.181259,356.016002,-68.048847,363.941963
42,-0.022316,0.649182,0.327644,0.238172,31.158931,52.783733,66.802883,73.26717,46.264125,79.951412,88.406696,89.951717,28.281967,60.907894,70.227573,70.736538,10.39484,31.777061,38.501003,38.506416,-6.755814,0.588604,3.99654,4.513504,-0.844882,11.246059,28.490331,41.707228,37.325802,52.998983,51.521604,47.005821,51.418617,69.307032,68.811213,65.305,58.967543,82.494413,84.266267,83.520149,60.906493,85.426718,92.075298,94.387814,30.007027,59.371101,81.385918,97.921188,60.354996,95.755211,105.695801,103.731422,47.486721,85.636162,96.979866,95.654411,33.740421,69.898247,81.403496,82.18277,20.942745,47.198227,58.972252,61.801586,-15.881317,-13.436124,0.762901,13.181156,14.566798,39.675356,42.411022,39.466948,34.587418,57.55084,56.209066,51.036159,48.859964,69.105355,66.932963,62.342092,57.717418,77.832887,77.576005,72.793757,-55.07963,356.558284,-67.597258,364.073235
43,0.002151,-0.171827,0.190533,0.4448,31.305966,53.023899,67.173191,73.745854,46.234142,80.161572,88.750889,90.225277,28.317421,61.420612,70.687397,70.807766,10.662426,32.651699,39.2589,38.875855,-6.15041,1.981419,5.774277,6.364884,-0.693099,11.604743,28.893709,42.20012,37.595763,53.354962,51.604745,46.988223,51.73473,69.621329,68.803766,65.167779,59.373033,82.751023,84.154783,83.179892,61.42658,85.72638,91.874622,93.684675,29.638389,59.041442,81.068698,97.877895,60.347087,95.606632,105.563701,103.820148,47.590335,85.482112,96.779949,95.554401,33.899414,69.777683,81.380298,82.395069,21.118927,47.090171,58.808956,61.788677,-16.170469,-13.755213,0.476541,12.490441,14.481373,39.310498,41.872448,38.988025,34.655196,57.305543,55.665885,50.316039,48.92248,68.941322,66.781404,62.199856,57.652321,77.583193,77.336513,72.543137,-54.844448,356.265745,-67.173694,364.397323
44,0.737721,1.247099,0.433788,0.738622,33.062118,55.826614,71.002487,78.798957,45.923526,79.164413,87.441284,88.765251,26.70108,58.469524,67.178238,67.26194,8.339058,28.871498,34.950325,34.764209,-8.595475,-1.383362,2.209396,3.062118,-1.400722,9.905828,26.540562,39.377064,38.071278,53.140305,50.945596,45.894586,52.16844,69.640274,68.864899,65.151217,59.460324,82.136829,83.821763,82.936188,60.900035,84.381592,90.405839,91.971261,29.428722,58.766086,80.76487,97.667152,60.395679,95.531776,105.214165,103.30957,47.670982,85.411606,96.217781,94.725723,34.0177,69.617912,80.994072,81.863342,21.291263,47.191704,58.754631,61.506637,-16.515074,-14.003709,0.29513,12.149356,14.897052,39.137213,40.909734,37.753621,35.128191,57.04545,54.392986,48.63534,49.248522,68.785006,66.0814,61.268598,57.747416,77.260695,76.501535,71.403866,-53.916463,357.413561,-66.549642,365.036662
45,-3.828164,1.413776,0.293896,0.936333,33.345097,57.932637,75.210961,85.902489,49.859013,83.24009,91.650055,93.310593,31.623517,65.14452,74.366272,74.828431,14.40588,38.152119,45.68771,46.523106,-1.431907,9.418511,14.855336,16.343239,-4.873812,4.018037,19.828477,33.199763,35.23844,50.574958,48.751678,44.345811,50.962936,68.129451,66.079511,61.496556,59.584145,80.462207,80.420241,78.309686,61.810359,83.425745,87.509979,87.335312,29.239791,58.539081,80.511623,97.74599,60.281364,95.433597,105.140476,103.199878,47.713989,85.552814,96.058284,94.25362,34.27613,69.782581,81.041599,81.619571,21.775508,47.775741,59.305469,61.791034,-16.989119,-14.366146,-0.088438,11.434164,15.079328,38.796957,39.850728,36.422925,35.490185,56.659252,52.895786,46.657216,49.567982,68.737842,65.319821,60.146322,57.968052,77.046805,75.598597,69.99571,-57.52497,358.745561,-66.036089,365.891219
46,1.047078,0.97347,0.352043,1.093687,33.388916,58.259239,76.116359,87.132534,49.346088,81.448642,89.529041,91.053463,30.70285,62.432338,71.387638,71.881656,13.284816,35.358718,42.273491,43.048404,-2.452515,7.798679,12.967002,14.28376,-5.699044,2.191535,17.511355,31.236545,36.262991,50.682071,48.233296,43.382517,51.983905,68.790737,66.448458,61.636322,60.297931,80.851099,80.670034,78.429235,61.944111,83.127182,86.995413,86.494432,28.854595,58.223202,80.218609,97.509441,60.237442,95.453075,104.999576,102.939182,47.867328,85.875744,95.915806,93.774387,34.606647,70.016773,80.900539,81.114841,22.221405,48.126629,59.318813,61.363437,-17.415148,-14.85006,-0.603796,10.723305,15.233604,38.263828,38.604455,34.941372,35.849708,56.217846,51.492013,44.831243,49.902842,68.524543,64.461391,58.992033,58.231676,76.77588,74.76562,68.795257,-56.255785,359.658723,-65.461939,366.924598
47,-4.642365,0.478208,0.039516,1.142481,33.30447,59.864903,79.584973,92.78706,54.928288,87.973034,95.424351,96.177944,37.530842,72.024777,80.567471,80.173176,21.108193,47.490967,54.863571,55.415062,5.957932,20.294346,26.830776,28.310555,-7.853072,-1.216644,14.061791,28.599789,33.305047,48.975573,46.661661,42.179952,50.688492,67.727913,64.155961,58.788454,60.657874,79.896622,78.273476,74.9856,63.46853,83.038261,84.913695,82.719295,28.612644,58.144421,80.219353,97.31234,60.297009,95.558258,105.191414,103.390434,48.145661,86.163643,96.246002,94.422798,35.081623,70.42511,81.419632,81.854805,22.793404,48.59634,59.830342,62.003792,-17.608883,-15.120218,-1.022858,10.338341,15.252599,37.440967,37.661317,34.120573,35.96265,55.586128,50.810919,44.247727,49.989861,68.079101,64.12842,58.735004,58.284695,76.37701,74.355351,68.326028,-60.613592,360.097302,-65.137865,368.02745
48,5.194691,0.863246,0.449078,0.843535,33.17522,57.983036,76.091308,87.348335,50.116848,81.795914,89.135399,89.915108,31.158108,61.796837,69.852012,69.711456,13.225353,34.29023,39.870838,39.922108,-2.980808,6.417835,10.873947,11.757969,-5.786273,1.145803,15.98439,29.689166,37.516611,50.862715,47.061137,41.341913,53.240279,69.007036,66.153895,61.448835,61.102959,80.390984,80.302286,78.218913,61.834973,81.758694,85.26177,84.623666,28.49493,57.904438,79.922115,96.645183,60.179146,95.441105,104.83675,102.749462,48.170231,86.230144,95.923542,93.800846,35.240616,70.49152,81.279087,81.406345,23.034416,48.915161,60.118675,62.047668,-17.668793,-15.199444,-1.25893,10.22677,15.686384,37.272067,36.843767,32.991356,36.369857,55.285984,49.696769,42.804657,50.27395,68.007927,63.524798,57.840105,58.475936,76.239097,73.732215,67.337713,-55.246485,360.923529,-64.516371,368.833966
49,-5.368435,-0.64833,-0.174774,0.700472,33.462261,60.453792,80.998341,95.03841,55.286259,88.665607,96.136425,96.868915,37.567348,72.065277,80.408398,79.97398,20.653736,46.813694,53.629326,54.017841,5.046032,18.902069,25.036125,26.407059,-8.076151,-1.873928,13.194544,27.690984,35.173738,49.959739,46.600319,41.473775,52.772013,68.867443,64.538393,58.962591,62.366409,80.691906,78.740321,75.324091,64.330739,83.347569,84.975989,82.708366,28.410598,58.063041,80.151569,96.923618,59.8782,95.331333,105.33601,103.89719,48.004429,86.406978,96.671871,95.008289,35.321903,70.881397,82.064083,82.508228,23.401313,49.37788,60.781162,62.98051,-17.878942,-15.422498,-1.508167,9.987858,15.28939,36.605039,36.463149,32.813379,36.159424,54.869762,49.493054,42.637672,50.160675,67.735645,63.288356,57.540516,58.449507,75.94388,73.393724,66.859765,-60.452408,360.232168,-64.528633,369.491407
50,4.552586,-0.201875,0.162815,0.25971,34.392242,60.006042,78.859565,90.452384,51.079307,83.329971,90.031356,90.024238,31.219276,61.95354,69.058136,68.177043,12.623153,33.751075,38.428253,37.97763,-3.832959,5.779655,10.162788,11.354518,-5.442693,2.281666,17.594274,31.289663,40.21466,53.628714,48.352141,41.416138,56.003907,71.889373,68.172937,62.884422,63.67847,83.005386,82.210053,79.214466,63.962584,84.002346,87.100562,85.585046,28.3064,57.943508,80.020202,96.918594,59.66803,95.191177,105.276558,103.963417,47.761665,86.258194,96.627685,95.128784,35.036522,70.718467,81.955673,82.535705,23.081154,48.951313,60.354114,62.623741,-17.865295,-15.322549,-1.384506,10.026192,15.408593,36.683438,36.438955,32.729127,36.268821,54.891683,49.46129,42.612329,50.223364,67.629731,63.088087,57.34252,58.447939,75.901692,73.34956,66.844414,-55.789134,359.990893,-64.25513,369.711717
51,-5.326722,-1.451616,0.181972,-0.416222,34.605297,62.041855,82.840691,96.983345,55.416642,89.476708,96.946358,97.49897,36.700882,71.357094,79.428681,78.779515,19.266461,45.564926,52.014302,52.284485,3.697472,17.324547,23.672448,25.722714,-7.051662,0.285892,15.923418,30.16662,38.461219,54.126027,49.325118,42.764247,55.881801,72.286811,67.17878,60.954795,65.060568,83.288388,80.623302,76.300032,66.523694,85.705286,86.759576,83.58064,28.337448,57.948029,80.02367,97.0135,59.411408,94.850018,105.193875,104.137974,47.334137,85.866543,96.462857,95.143856,34.440628,70.249684,81.607579,82.304112,22.347782,48.134869,59.607788,61.997853,-17.547664,-14.815307,-0.82343,10.456012,15.687161,37.017161,37.264212,33.813155,36.567593,55.371409,50.221178,43.438414,50.50397,67.997392,63.435222,57.593127,58.680811,76.257523,73.77071,67.243123,-61.064913,358.522562,-64.022215,369.27878
52,4.199662,-0.131714,0.019455,-0.391967,34.287185,59.565513,77.932594,89.312393,50.765522,85.399498,92.581832,92.750656,30.967334,65.512321,73.147705,72.248416,12.655243,37.352943,43.272605,43.228283,-3.361187,7.79417,12.884571,14.491527,-5.200051,3.453281,18.941013,32.282338,41.700646,55.475953,49.847897,42.654332,57.720333,72.798586,67.840016,61.417281,65.147068,83.808586,81.735056,77.742954,65.193282,85.69222,87.888312,85.616984,28.315819,58.094204,80.249783,96.985371,58.934899,94.928616,105.07362,103.559979,46.729763,85.828137,96.474621,94.884991,33.832947,70.177494,81.54475,82.020344,21.881687,47.610329,59.2011,61.593235,-17.617331,-14.847985,-0.650874,10.922351,15.617754,37.440201,37.282849,33.527868,36.622811,55.688547,50.25908,43.338156,50.665361,68.138628,63.254356,57.245127,58.868384,76.542649,74.279188,67.947906,-56.866842,358.442897,-64.004351,368.938862
53,-0.03114,0.150671,-0.964611,-0.124538,34.285229,59.729885,78.036839,88.974049,50.008473,85.341671,93.104038,93.476475,30.206543,65.319535,73.274014,72.599327,12.150925,36.978779,43.326988,43.534973,-3.478718,8.148548,13.441063,15.107231,-5.136559,3.578523,18.738682,31.312708,41.017366,55.378573,49.798262,42.513714,57.159936,72.325998,67.641241,61.409254,64.784111,83.53334,81.751383,78.16834,65.052306,85.694345,88.354836,86.763491,28.418324,58.61491,81.084252,97.981018,58.735909,95.48774,106.234841,105.24511,46.576504,86.456658,97.728859,96.559593,33.857872,71.001457,82.776558,83.623329,22.231224,48.359036,60.244423,62.962212,-17.890107,-15.222366,-0.975966,10.783054,14.797436,36.748547,37.07906,33.644156,36.044888,55.288997,50.444603,43.845979,50.327351,67.714513,63.053815,57.177349,58.706931,76.309763,74.268319,68.111569,-56.897387,358.678463,-64.968367,368.899219
54,-0.212448,-0.181101,-1.027885,-0.20663,33.45179,58.531563,76.827541,87.836186,49.227791,84.94463,93.10413,93.893108,29.694889,64.907456,73.699413,73.896698,11.943729,36.697563,43.856094,44.983978,-3.420788,8.280613,13.900704,16.035416,-5.157654,3.338672,17.99528,30.391898,40.998667,55.358343,49.523917,42.009015,57.004485,72.116577,67.582874,61.215196,64.525216,83.128009,81.622509,78.116469,64.868153,85.437919,88.363654,87.065388,28.301548,58.656521,81.232956,98.182434,58.514156,95.964683,107.10466,106.433693,46.547985,87.00357,99.134216,98.734176,34.096767,71.802246,84.31414,86.006332,22.702045,49.034042,61.33374,64.556602,-17.974347,-15.512691,-1.594889,9.859355,14.454796,36.098896,36.462087,33.131011,35.867307,54.924769,50.569352,44.263375,50.293624,67.548751,63.42559,57.8302,58.651468,76.16985,74.641885,68.852167,-57.049725,358.667521,-65.936142,368.862748
55,-1.232288,-0.445196,-1.746586,0.286177,32.095562,55.340847,70.599277,78.539806,48.458954,85.745132,94.093734,94.626915,29.756653,68.60384,77.548301,77.366295,12.901176,42.205009,50.722652,51.738029,-1.785588,13.659084,20.139244,22.083744,-2.304896,8.654938,24.462883,36.995783,42.952389,56.824248,50.964048,43.862973,57.827952,71.418069,66.117278,59.365154,64.490043,81.358131,78.373228,74.588113,64.538134,84.125353,85.744918,84.010052,28.442482,59.235603,81.930324,98.11108,58.287163,96.83234,108.360775,108.177967,46.551647,87.758549,101.052601,101.830776,34.47385,72.330883,85.921955,88.877071,23.444378,48.604099,60.334934,63.446251,-18.230525,-16.165678,-2.559271,9.271367,13.66355,34.66531,34.68696,31.281313,35.319519,54.155679,50.614243,45.021435,50.03952,67.479837,64.841069,60.243689,58.455311,76.460076,76.507229,71.930449,-58.132616,358.424888,-67.533331,369.351488
56,3.65871,3.401904,-2.849373,0.767162,29.185879,51.310433,65.587326,70.697777,39.93433,78.037594,87.809544,88.184567,21.604248,60.326271,69.472607,69.177922,5.855393,34.771832,43.358448,43.996548,-6.402935,8.950951,14.821564,16.579113,-2.478562,8.6014,24.487015,37.045777,37.69922,53.056065,49.209521,43.346986,52.897441,68.646451,66.680368,61.181246,60.745239,79.292543,77.944606,74.8785,62.199054,82.052021,84.592594,83.493547,29.320301,60.991619,83.901249,98.949566,57.541397,97.372364,109.443386,110.001034,45.528431,87.330608,102.205021,104.70496,33.535961,70.988342,85.652172,89.950024,22.757366,46.292702,57.32238,60.171444,-18.018993,-16.163109,-2.64729,10.176505,13.133992,33.935309,33.894999,30.245525,35.114298,54.445758,52.982804,48.710528,50.0587,68.583083,68.367957,65.231134,58.44122,77.271996,79.092262,75.719269,-54.240864,362.071438,-70.149662,370.363296
57,2.149063,7.617408,-4.034843,0.750255,25.977722,47.28542,61.980332,67.636162,32.543084,67.980995,80.259144,83.577519,15.426968,51.810105,64.535992,68.726338,1.488087,30.931126,42.230885,46.278099,-8.852691,9.394959,17.867569,22.562039,-6.309855,1.80841,18.372291,33.238196,21.733378,39.67706,41.499944,40.095357,40.120156,58.968803,61.849682,59.153041,52.523912,71.418711,72.227332,70.188334,58.896765,76.583577,78.660354,77.321667,30.055423,61.670906,84.159198,99.609592,55.431106,95.3787,109.142429,111.977771,42.861785,84.671573,101.840023,107.041179,31.295768,68.557617,85.42242,92.34193,21.691062,45.679664,57.621688,61.827541,-17.531535,-14.686817,-1.207727,11.577017,13.599614,35.318,36.21842,32.968891,35.639769,56.993914,57.825655,54.67337,50.632596,71.327605,73.227566,71.018544,58.981561,78.832626,81.590807,78.665258,-51.799919,369.921913,-73.892623,371.346618
58,20.409943,3.698751,-5.074986,1.068529,14.502479,24.279636,30.365856,31.64756,12.203064,32.58886,39.527653,41.546905,0.748455,21.670395,30.120014,34.390549,-8.782837,8.640266,17.223507,21.739391,-15.817268,-5.102634,2.104168,7.357979,0.228229,10.407649,24.031827,35.142752,29.400791,40.562227,40.885799,40.018774,42.027836,53.551575,53.532123,49.858702,48.226207,59.261364,57.031457,54.239178,48.996617,60.169107,59.204825,56.734043,30.654247,61.851093,83.903366,99.794197,52.680084,91.889282,107.085251,111.757942,39.351059,80.682896,99.932213,107.260849,28.113258,64.83823,83.736717,92.929104,19.633026,43.756359,56.745529,62.582863,-16.473886,-12.029449,1.418555,13.844616,15.499033,38.673555,39.611679,36.265955,37.000526,60.732753,62.493171,59.758307,51.591877,75.027356,77.988436,76.148818,59.559508,80.861337,84.214693,81.530848,-30.99765,373.924856,-78.575283,372.719339
59,25.424515,2.368054,-7.462898,0.91482,4.870113,3.864017,0.62257,-5.385372,-5.453053,-0.781254,-0.806053,-2.00148,-14.982765,-11.880101,-11.735104,-10.97279,-23.585198,-22.176407,-21.060128,-19.912331,-30.01038,-30.757828,-29.020008,-26.162499,6.128753,18.810299,31.607874,40.173756,34.464201,44.906196,45.904848,45.298929,41.814637,53.709075,55.38576,52.584255,42.854032,53.889535,52.6948,50.613811,38.850555,48.882145,48.508641,47.011033,32.094406,63.00959,84.2994,99.686874,49.994682,88.059917,104.314831,110.29105,35.409839,76.488201,96.736885,104.917614,24.037651,60.539589,80.223335,89.853103,16.253906,41.070202,54.706123,61.019245,-14.816554,-8.029974,6.538801,19.821611,17.218806,43.284038,45.373585,42.548183,37.879358,64.707738,67.537858,65.319055,52.106208,78.565827,82.103113,80.231298,60.186311,82.905721,86.353086,83.539761,-5.091024,376.580303,-85.55607,373.921552
60,22.251194,1.190795,-9.515099,-0.085697,-6.884011,-16.33564,-23.756687,-29.80101,-21.744347,-31.154618,-33.233551,-33.001877,-24.735295,-37.084076,-38.979996,-36.302227,-27.988346,-40.198906,-42.058068,-39.532723,-30.199951,-40.692559,-41.939656,-38.846123,-0.006274,8.473033,19.521973,28.516192,22.871327,37.543806,40.314448,40.42051,32.632314,48.676911,50.760209,47.5307,36.655291,49.970298,48.942956,45.906886,35.438697,46.052975,44.826192,42.275666,33.140133,63.498482,83.81408,98.826267,45.989605,82.445492,98.992104,104.777825,30.012463,70.315613,90.848133,98.538357,18.364048,54.62249,74.366753,83.230534,11.143753,37.779408,52.480992,59.112076,-12.876826,-3.129758,13.057779,26.843201,20.288221,49.435564,51.346703,47.972067,39.71721,69.80064,71.86608,68.707559,53.098364,82.436145,84.392349,81.189022,60.813522,84.458854,86.187261,81.98685,17.760653,378.044495,-94.470686,374.109252
61,22.114769,-1.873989,-10.842384,-1.664631,-14.815796,-33.853249,-48.65054,-58.048119,-31.874314,-56.239598,-61.652527,-59.858734,-29.942128,-58.066372,-62.824162,-58.118695,-29.681774,-55.816853,-60.51614,-56.166069,-30.491879,-50.182045,-53.767079,-50.196911,-2.222027,3.23146,12.969142,21.61872,18.859143,31.935349,32.141571,30.838328,28.505805,42.543094,40.973287,36.491356,32.306704,43.52085,39.952207,35.859612,31.052701,40.092492,36.811964,33.391387,32.704891,61.665596,81.043419,95.858711,40.925102,75.55656,92.062672,96.980427,24.594051,64.23904,84.237465,90.152126,13.427181,49.91082,69.377266,76.428715,7.187107,36.093143,51.823849,58.260933,-11.550266,0.159403,17.246928,31.439506,22.026965,54.135697,54.470928,49.884626,40.175103,73.288823,72.326702,67.045152,52.921573,84.526076,83.081685,77.568769,60.708448,85.608252,85.074519,79.350626,40.549816,376.427316,-104.638676,372.701431
62,24.632057,-15.576987,-11.55423,-1.893526,-23.378243,-50.423012,-71.626522,-84.624642,-39.263111,-76.443535,-85.476494,-84.047539,-32.279984,-74.924114,-84.883221,-81.900364,-28.789581,-69.462422,-78.706055,-75.573853,-27.540791,-59.314167,-67.487434,-65.785938,-1.654861,4.147825,12.706568,20.315108,24.499131,37.425604,33.431031,28.657206,31.898435,45.170032,39.669972,32.983217,33.476825,44.470535,38.606692,33.397513,30.208574,39.828757,35.539092,31.654768,32.51722,59.847153,78.537197,92.094418,38.740597,71.530232,84.754086,86.323929,22.751496,61.012802,77.431286,79.361572,11.750347,46.870148,62.770844,65.595554,5.164856,33.254528,46.810238,50.369396,-11.408105,-0.855898,15.8219,30.93866,20.605927,51.168416,48.670155,42.832703,38.405063,69.864873,65.187711,58.117314,50.935074,81.692509,76.378553,69.06639,58.730471,83.209915,80.194099,73.392056,65.887522,361.09186,-115.487257,371.049436
63,5.791695,-17.711531,-12.378073,-10.770798,-22.746609,-46.828457,-65.579487,-77.253445,-31.175641,-65.058358,-71.119446,-67.569798,-23.671475,-61.979027,-70.062138,-66.073575,-19.322754,-56.082001,-63.894093,-59.932343,-16.893494,-46.692078,-55.070195,-53.338063,-11.869361,-10.573214,0.077164,12.419638,6.962452,25.642229,23.965514,19.787222,21.091656,40.184272,36.585496,30.380116,30.888637,47.062731,42.185004,36.625911,35.890507,49.072867,45.078024,40.507295,32.1971,58.782813,76.807354,88.436629,37.001501,68.739682,78.059767,75.890499,21.586476,58.980212,71.198542,68.981564,10.774636,45.339507,57.124936,55.257254,3.811718,31.637421,42.45072,42.302187,-12.305838,-3.46095,13.20879,29.709988,17.545386,46.579133,41.681065,34.813524,35.518763,65.304575,57.685568,49.578004,48.534206,77.949725,69.547334,61.277343,57.248462,80.856095,75.798205,68.370872,72.355254,343.53933,-127.189293,360.437639
64,6.83242,-20.123174,-12.014385,-19.249554,-22.683323,-44.775044,-61.736721,-71.518272,-29.597019,-58.545101,-60.188633,-53.24033,-20.034176,-52.410999,-55.697262,-48.044884,-12.762039,-44.286621,-48.073425,-41.184849,-6.884285,-33.268078,-39.711102,-36.546616,-20.256291,-24.301591,-14.820618,-0.842017,-6.303625,7.681541,5.396411,1.715,12.554229,25.65067,20.651678,14.84202,27.834078,39.106202,33.034358,27.970479,38.505266,48.590929,43.365783,38.485079,31.140696,57.408308,75.287453,85.413237,35.306711,66.34425,71.402235,65.303867,20.947769,57.344256,65.25915,59.084576,10.63353,44.960982,52.829212,46.877844,3.66211,31.460655,39.54368,36.133936,-14.217915,-7.677688,8.440077,25.594928,14.084151,40.744928,32.340772,23.846045,32.489164,60.267494,49.192329,40.187495,46.309338,74.147517,62.747279,54.192248,56.242485,78.944425,72.062057,64.395738,79.761206,323.546354,-138.630146,341.318283
65,9.782158,-28.263213,-7.593218,-27.551713,-19.536884,-38.991978,-55.070698,-65.163174,-24.151577,-51.758503,-52.671341,-45.700722,-16.551579,-46.663479,-48.720875,-41.015934,-10.901848,-40.106999,-41.732689,-34.269001,-6.098465,-30.462147,-34.813626,-30.798912,-21.98818,-28.627998,-21.662428,-9.5529,-11.299418,-2.934516,-4.357289,-6.605584,7.852565,15.988398,11.67323,7.37211,23.960821,30.858064,25.15834,21.494342,35.93136,42.480319,37.406868,33.5736,26.817444,50.5555,67.705668,77.04498,29.647511,59.223364,61.403155,53.396301,18.321007,53.063261,57.709723,49.399327,10.253397,43.54838,48.179158,39.835402,4.816681,31.411892,37.187502,31.910111,-16.021181,-12.813056,1.331419,17.969389,8.515981,31.021129,22.409213,14.817005,27.083299,50.853854,39.397961,31.317975,41.514117,65.67793,53.915668,46.149041,52.547045,73.203817,65.949459,58.750701,90.052403,295.540584,-145.714325,314.024013
66,6.419105,-32.858173,-3.453998,-35.237724,-17.711643,-32.861194,-44.209201,-50.442455,-21.988643,-39.7126,-39.369415,-34.12072,-14.038341,-32.705063,-33.357834,-27.896908,-7.147041,-25.53297,-26.318229,-21.491832,-0.381454,-16.819553,-20.401874,-18.068161,-21.069913,-29.381834,-25.991242,-17.493299,-17.361159,-15.509233,-15.557244,-15.611905,-1.840755,0.773566,-0.702985,-1.959884,11.982921,14.545285,11.745361,10.603522,23.084447,25.629706,22.95248,21.536667,19.822139,39.050411,54.496359,63.468819,20.295181,47.456056,47.440321,38.480106,13.449257,45.320692,47.701589,38.894794,8.932909,39.954443,42.077453,33.292608,6.266796,30.261325,33.889887,28.041446,-17.446294,-17.274128,-5.502857,9.175809,2.910525,19.190639,12.840665,8.105365,20.92388,38.281359,28.895265,23.161647,35.260072,53.470169,43.655886,37.774771,46.504001,63.534097,56.921264,50.61086,97.00415,263.330917,-148.635681,279.434795
67,3.893395,-30.080737,-3.633053,-47.893619,-16.089466,-27.343426,-33.946026,-36.588055,-21.514424,-28.864174,-27.26381,-23.681992,-13.190243,-20.337456,-19.595146,-15.892788,-4.636025,-12.395519,-12.130921,-9.302021,4.433006,-3.977062,-6.34148,-5.310402,-22.39241,-35.876594,-38.664446,-35.102121,-28.272531,-35.253564,-34.030239,-31.917121,-15.418201,-21.992385,-21.827826,-20.242749,-3.496413,-9.420952,-10.117577,-8.554285,6.637582,1.950461,1.0102,2.069738,13.2957,29.17622,43.420721,52.727543,10.57592,36.045828,37.495268,30.19107,7.461491,37.271696,40.516107,33.128483,6.51721,35.338835,38.16283,30.458925,7.247154,30.232349,34.557501,29.5154,-12.927832,-11.492549,0.29164,12.663866,3.952773,18.74233,16.453088,14.793552,18.605213,33.705789,28.093856,24.849112,30.058735,45.058046,38.665736,34.914714,39.382918,53.190903,47.762381,42.313481,101.430657,234.366554,-151.735622,232.65755
68,4.015136,-32.382861,-2.209906,-39.373169,-15.255409,-23.448692,-25.240814,-23.673728,-21.136962,-20.686958,-17.859901,-15.825576,-11.432418,-9.910217,-8.049476,-6.210136,-0.989158,-0.475547,0.277291,1.11374,9.893097,7.938973,6.28331,5.925591,-23.684025,-41.73015,-49.475177,-49.781367,-41.695867,-53.854171,-50.330847,-45.973219,-31.458161,-42.773701,-39.732704,-35.341002,-20.888114,-30.929516,-28.764219,-24.806592,-10.838111,-19.306482,-17.953136,-14.577556,8.367342,20.690558,33.455,42.509108,5.085863,27.606303,31.130768,26.635174,4.510312,30.675762,35.108609,30.055069,5.520602,30.691246,33.863114,27.647553,7.756165,28.208451,32.426022,28.114134,-13.726344,-16.185054,-8.235856,0.522711,-8.060627,0.484661,2.403005,4.386737,5.053716,14.530181,13.696878,13.932215,16.29867,26.288083,24.339253,23.72612,26.442861,36.196418,33.18729,29.831698,106.172887,203.448598,-153.218434,194.749286
69,5.627656,-34.555191,-1.152809,-37.250923,-14.807992,-21.594246,-20.699112,-16.317856,-20.958939,-17.626717,-14.570916,-13.456032,-9.624001,-4.892716,-2.962601,-2.370781,2.169754,6.26271,6.705528,6.368293,13.654998,15.73162,14.183784,12.728164,-22.385,-42.59071,-53.676762,-57.089744,-53.050366,-68.519171,-63.03445,-56.587182,-46.049129,-59.89798,-54.074305,-47.277301,-37.137204,-49.220951,-44.209392,-37.956589,-27.162345,-37.792679,-34.390799,-29.032592,3.565951,12.381197,24.379389,33.949511,0.519613,22.108938,27.301003,24.703079,3.100022,27.559033,32.8671,29.458786,6.814574,29.764366,33.106957,28.20504,11.306717,29.980179,33.467503,29.759669,-15.322877,-22.127396,-19.26117,-14.622615,-20.154149,-18.790052,-13.260796,-7.79344,-8.784842,-6.400239,-3.147783,0.299292,1.553584,4.767459,6.431497,8.277272,11.382978,15.433663,14.223707,12.628515,112.853669,170.581681,-153.318117,159.186637
70,3.450302,-27.338315,-4.849336,-31.036647,-16.268235,-21.109589,-17.226105,-12.226776,-18.063996,-12.451081,-11.202141,-11.214409,-5.909638,0.115974,-0.23584,-1.131455,6.198646,11.269569,9.235359,7.342964,17.511314,20.196899,16.908165,14.199783,-22.81842,-45.898489,-61.000447,-68.073469,-62.069186,-81.765759,-74.975714,-66.708594,-58.273932,-76.282692,-68.30281,-59.165898,-51.761808,-67.34771,-59.845554,-50.924812,-43.216588,-56.990511,-51.57295,-43.800228,4.489105,13.48907,25.81818,36.169269,1.798313,24.019214,31.47385,31.518539,4.67316,29.93787,36.338207,34.607093,9.184593,32.915599,36.623188,32.884883,14.621933,34.268909,37.89569,34.902385,-16.521897,-26.8458,-28.793988,-28.542571,-29.117165,-32.380841,-27.101354,-21.959076,-19.28419,-21.500295,-17.684984,-13.847196,-9.981336,-11.375796,-9.001678,-6.838216,-0.832352,-1.399659,-2.545191,-3.821905,117.445919,144.873763,-157.025505,129.780387
71,8.10038,-23.93383,-7.646748,-25.237041,-17.112328,-23.359978,-22.645295,-21.366944,-13.419777,-18.930794,-18.898728,-17.058724,-3.093934,-10.707825,-11.595246,-10.093918,5.49797,-2.088204,-3.830498,-3.117302,12.512031,5.576225,2.945777,2.662078,-25.791344,-51.546354,-68.839693,-77.40521,-69.798189,-88.208932,-78.534149,-70.102989,-64.301921,-80.995249,-71.004718,-62.626095,-55.827695,-70.55515,-60.769921,-51.781432,-45.414853,-58.443103,-51.393868,-43.814387,6.304001,17.443577,32.065018,43.451122,8.355446,35.639545,41.761848,40.826443,10.075836,40.395218,44.552994,41.572517,13.956207,42.250648,43.914539,38.939358,19.119644,42.924522,44.782173,40.365623,-20.012209,-35.089437,-39.806292,-39.256633,-41.952464,-47.560303,-40.48856,-35.508463,-31.215747,-35.409051,-29.637567,-25.592273,-20.446728,-24.124886,-19.865108,-16.976361,-9.613341,-13.92712,-13.717669,-13.767514,126.474335,122.250162,-163.744217,105.853575
72,4.501373,-18.850098,-4.960144,-11.743446,-14.162224,-21.189972,-24.726494,-27.433548,-6.18409,-22.595307,-23.638687,-19.726914,1.606819,-18.324623,-19.5737,-15.966225,6.065048,-12.345177,-13.63662,-10.559807,8.259315,-5.825523,-7.640007,-5.990914,-27.050311,-53.382354,-70.469693,-78.810624,-71.210704,-87.699077,-76.31692,-68.182192,-63.94567,-78.172359,-66.805708,-59.205226,-53.743458,-65.941999,-55.053073,-46.676982,-41.947091,-52.375896,-44.475024,-37.76825,7.179222,19.862137,36.466358,48.018516,13.49818,45.689415,48.921123,45.422893,14.603794,49.727074,50.96878,46.162502,17.97995,51.38229,50.100895,43.492195,22.710709,49.722359,48.521942,42.221214,-28.345712,-50.675081,-59.242209,-57.045074,-59.132108,-68.306108,-61.011371,-57.01796,-45.262095,-52.622195,-46.23827,-42.334835,-30.494256,-37.292698,-32.072701,-28.914019,-15.76727,-23.17866,-21.570315,-20.545116,131.812546,104.211745,-167.867523,94.92181
73,0.718986,-11.003904,-2.055817,-10.018999,-14.114799,-21.402603,-25.661705,-29.11013,-5.133796,-23.752281,-25.922241,-21.891174,2.353524,-20.298294,-22.464248,-18.653274,6.296608,-14.879196,-16.598053,-12.918411,7.86509,-8.088432,-10.168281,-7.958244,-24.293292,-48.9132,-65.587571,-73.852351,-66.896809,-83.332743,-71.630799,-63.353503,-61.047242,-74.514358,-62.640656,-55.491477,-52.175319,-63.931912,-52.291466,-43.898912,-41.604625,-51.562792,-43.184818,-36.651149,6.182694,19.791916,38.40287,51.246117,13.056187,49.435444,50.894566,45.010998,15.163388,54.738865,54.018528,47.207485,20.069893,57.663391,54.591694,46.829819,26.266983,55.44405,52.239727,44.978348,-29.746056,-53.238636,-62.394678,-58.957675,-60.610369,-70.381236,-62.546448,-59.066028,-46.331611,-55.307935,-48.473517,-45.034859,-31.320272,-40.050922,-34.540877,-31.993623,-16.368515,-25.245581,-23.368924,-22.731283,133.080814,93.737228,-169.374058,85.432198
74,-2.655159,3.50568,4.293721,-6.044686,-14.291023,-20.902366,-24.291786,-27.53347,-4.257858,-22.081253,-24.34996,-20.638366,3.188691,-18.996406,-21.08696,-17.491928,7.11554,-14.127327,-15.659401,-12.06842,8.746292,-8.073699,-9.948745,-7.330871,-24.571154,-49.353276,-66.172948,-74.012715,-65.245683,-80.240503,-67.77065,-59.445099,-59.451084,-70.90077,-58.381971,-51.502637,-50.669964,-60.985899,-48.790893,-40.903679,-40.366276,-49.297491,-40.476593,-34.201322,7.971691,20.610923,36.094013,45.953487,14.161685,46.153163,46.017951,39.915355,13.438854,48.616275,47.082641,40.426723,15.488822,48.686256,45.809143,39.010196,18.886585,44.868186,42.405658,36.140968,-24.364563,-45.258087,-52.033447,-47.363671,-54.452859,-58.860103,-49.311859,-45.583783,-43.024185,-46.717126,-37.8779,-33.99885,-30.588887,-35.762343,-28.041893,-24.718294,-17.827733,-24.294693,-20.375647,-18.710733,130.586387,97.629533,-164.919605,79.774137
75,-6.09655,12.155743,6.385791,2.710541,-12.89582,-18.809738,-20.753631,-21.194435,-5.775718,-19.199066,-19.684318,-16.365051,3.073929,-13.928718,-14.414909,-11.424247,8.940262,-7.57592,-7.985275,-5.189598,12.608414,-0.783783,-2.077194,-0.207801,-23.532094,-47.618497,-63.110737,-68.725411,-64.064916,-77.981841,-65.571688,-57.604039,-58.12097,-68.62574,-56.125394,-49.482464,-48.950064,-58.128009,-45.83365,-38.497745,-38.26991,-46.165812,-37.119222,-31.148402,4.318394,13.849652,27.320675,36.284775,9.001282,38.786522,37.595215,30.555863,9.585034,41.762524,39.7687,32.520836,12.548287,42.138268,39.591992,32.961102,16.803772,40.182736,37.605149,31.191914,-16.550345,-32.120385,-34.233255,-26.626197,-44.051355,-43.744949,-31.145451,-25.214453,-35.620404,-34.253744,-22.505987,-17.252565,-25.686764,-25.983968,-16.071718,-11.799368,-14.885974,-17.606654,-12.13655,-9.638653,124.195089,110.13295,-158.828562,82.832352
76,-8.026039,20.755993,6.335907,20.150289,-12.441261,-17.091568,-16.258644,-13.44429,-8.059685,-12.035957,-12.743316,-12.091942,2.952324,-3.240348,-4.622543,-4.66571,11.842003,5.072594,3.419861,3.470719,18.698113,12.365731,9.661858,8.846123,-22.068263,-44.798837,-59.034178,-62.300077,-60.878854,-76.275257,-65.079469,-56.373501,-55.95269,-68.018424,-56.523493,-48.59632,-47.681852,-57.649135,-46.521649,-38.42838,-37.66504,-45.897963,-37.819676,-31.044272,3.582573,11.821095,23.983944,32.675274,5.249531,29.679039,31.361538,27.009156,6.435562,32.585861,33.454823,28.228409,9.865483,33.79826,33.48444,28.293034,14.438748,33.153969,32.216103,27.083267,-13.821675,-26.937814,-28.692248,-23.100378,-37.020248,-37.935371,-26.284594,-19.177634,-30.123302,-31.111753,-19.947606,-13.614206,-21.939977,-23.704476,-14.53223,-9.82412,-12.755406,-15.729645,-11.343908,-9.242474,115.730278,130.956596,-152.931427,103.050294
77,-4.365371,21.457114,3.106373,21.144861,-12.160172,-16.827393,-16.384484,-13.450058,-9.052849,-10.575577,-11.678902,-12.11522,2.040252,-1.694733,-3.206154,-3.759201,11.42839,6.61267,4.436988,4.094513,18.973686,13.955978,10.253357,8.595886,-18.76637,-39.382412,-52.194721,-54.812148,-55.433209,-68.099763,-57.858272,-49.460549,-52.60488,-61.769444,-50.951167,-43.44591,-46.471903,-54.325419,-43.798147,-36.112654,-38.31891,-45.758303,-38.034006,-31.030805,5.414406,14.922409,27.622776,36.098271,4.708477,28.567143,29.54504,25.008556,4.55793,30.47675,30.539646,25.178925,7.044502,30.980255,29.65638,24.366016,10.848164,29.768372,28.59557,23.67033,-12.853651,-24.521361,-25.245428,-19.700278,-30.714223,-29.59157,-19.091906,-13.047227,-23.204447,-21.632071,-12.195948,-7.279973,-14.539246,-14.115336,-6.829713,-3.413347,-5.048776,-5.777906,-3.244003,-2.33411,110.77406,152.335377,-150.415901,124.116822
78,-6.34076,16.135759,0.422161,21.508625,-8.430244,-11.950584,-12.21167,-10.362831,-6.136368,-7.060592,-7.45079,-7.525337,3.076607,0.538582,0.100067,-0.014671,11.033364,7.771317,6.602051,6.406151,17.683983,14.369431,11.544251,9.834732,-17.965949,-35.766623,-45.451465,-45.680905,-44.5929,-55.561798,-47.037629,-40.00955,-40.558863,-48.91063,-40.575436,-34.297982,-34.419272,-41.540719,-33.865952,-28.025029,-27.17506,-34.02515,-28.444401,-22.937388,6.318238,17.54559,31.510472,40.314675,6.915104,31.050259,29.457642,23.243248,6.184777,31.569946,29.260414,23.086315,7.797146,31.167584,27.647976,21.655632,10.69439,29.80101,27.857311,22.752571,-13.141426,-25.285157,-25.939742,-20.160805,-28.46844,-26.306089,-16.931438,-11.756334,-19.506918,-15.932551,-8.922471,-5.265451,-9.793164,-8.281206,-3.211139,-0.463455,0.221999,-0.497035,0.265972,0.959416,103.739181,168.27631,-150.687859,145.430621
79,-5.567329,4.590978,-3.868435,22.699143,-4.836266,-7.414093,-8.934876,-8.785202,-1.669403,-2.633522,-3.503723,-3.934639,5.256546,2.033516,1.544731,1.865204,10.867432,7.132309,6.234367,6.351295,15.528458,12.429001,9.947601,8.167732,-16.155237,-31.175949,-39.145134,-39.077546,-32.00425,-40.512564,-33.792643,-28.213471,-26.916327,-34.064168,-28.318238,-23.729674,-21.342342,-27.258465,-22.317467,-18.6808,-15.560634,-21.767125,-18.493285,-15.073333,4.431965,17.413628,34.921028,47.410881,9.093464,35.932011,34.368817,27.579712,11.373677,38.824517,34.988961,27.693318,15.659603,41.304154,35.410652,27.72876,20.613991,41.444699,37.187176,30.50401,-19.119564,-34.493972,-37.994491,-33.637135,-32.398206,-35.380782,-29.594348,-26.037179,-19.689422,-21.666645,-17.93797,-15.770333,-6.728813,-9.139401,-7.708483,-6.620169,5.883956,2.68647,0.330309,-0.649016,97.38423,172.61727,-155.343916,167.879746
80,-1.293953,-0.601624,-1.509739,11.76819,-5.840126,-9.370148,-11.439652,-11.35849,-2.570206,-5.426285,-6.876709,-7.022072,4.364571,-0.743248,-1.794182,-1.131111,9.788452,4.686699,2.878715,3.154633,14.26783,10.258095,7.071648,5.347824,-15.150401,-30.629248,-39.719692,-40.96095,-31.48102,-42.029528,-35.467034,-29.651856,-26.762838,-36.124003,-30.789601,-26.125524,-21.683317,-29.532721,-24.886527,-20.83838,-16.29715,-24.152617,-21.121623,-17.383753,6.673096,21.439625,40.682625,53.83001,12.23576,40.328877,40.165661,34.056736,13.110295,41.70504,38.519223,31.445218,16.022782,42.95525,37.186684,29.219021,19.48185,40.73972,36.762326,30.082455,-27.642017,-49.962419,-58.518272,-56.611271,-47.089055,-57.055881,-51.413894,-47.323071,-30.679878,-39.318643,-35.491754,-32.337666,-14.037932,-21.68782,-20.026573,-17.845166,1.987721,-4.699367,-6.538344,-6.39386,95.513025,171.914474,-157.430907,179.546764
81,2.270554,-9.277307,-1.823856,-8.183807,-5.730355,-10.261231,-14.657914,-17.525048,-0.756546,-6.398346,-9.998131,-11.449013,3.601821,-5.255013,-8.449059,-8.635529,6.027328,-3.014328,-6.114922,-5.951523,7.534996,0.150466,-3.691773,-5.152428,-17.538686,-33.712842,-43.469116,-47.267582,-30.114837,-41.692131,-39.115231,-36.384751,-24.375302,-34.858886,-33.764267,-31.922283,-19.044025,-28.18618,-26.903735,-24.724211,-13.653788,-22.193216,-21.483506,-19.381621,7.331234,23.215427,43.571194,57.260365,14.709068,45.766937,43.994579,36.011398,15.323593,46.557083,41.677059,33.191483,17.871529,47.242973,40.313015,31.459511,20.898342,44.002842,39.25248,32.006184,-30.494601,-55.561576,-65.886683,-63.957502,-53.029858,-63.624179,-57.510783,-53.67783,-35.209233,-43.382703,-39.708887,-36.623601,-17.174093,-24.765219,-23.141486,-20.770202,0.214447,-6.948305,-8.282478,-7.387696,97.367066,162.920975,-159.671276,171.646765
82,1.45269,-16.415736,-0.376957,-15.760638,-6.371315,-11.470826,-16.055329,-18.442223,-1.160958,-9.931023,-12.162735,-12.243874,3.445358,-8.394265,-10.220673,-9.666916,5.650406,-5.799752,-7.300186,-6.47374,6.586555,-2.669724,-4.811989,-5.109536,-20.304709,-38.360381,-49.240581,-53.006121,-35.025704,-47.533985,-44.243719,-41.997981,-26.723763,-37.967488,-36.520694,-34.941878,-18.91751,-28.196245,-26.900468,-24.959733,-11.357648,-19.403134,-18.731321,-16.790888,5.521786,20.910793,41.598278,56.016689,14.154213,46.115822,45.549946,37.923969,15.806591,47.689304,43.641769,35.250389,19.414089,48.810883,42.72044,34.08942,23.357277,45.5812,40.754368,33.510532,-30.618219,-56.614007,-68.476174,-68.216921,-57.27368,-69.859587,-62.612473,-57.649864,-40.3225,-50.448716,-45.193638,-40.794064,-23.045729,-32.085946,-28.868836,-25.27009,-6.123017,-14.508667,-14.164063,-12.17867,98.551638,147.118245,-160.316351,156.499133
83,5.490348,-12.415032,1.0383,-18.329029,-6.069602,-13.112251,-21.612236,-27.04866,1.310029,-16.770401,-19.400871,-17.981712,4.930916,-17.900962,-19.576309,-17.211479,4.695214,-16.512451,-17.486183,-14.823898,2.553246,-14.330726,-15.676094,-14.126609,-24.029197,-46.482789,-60.589899,-66.445005,-46.843819,-59.323522,-54.174142,-51.536918,-35.795818,-46.97108,-43.516126,-41.293686,-24.722901,-34.064127,-30.896306,-28.014284,-13.939297,-22.369827,-20.600005,-18.189948,4.816703,19.379413,40.08126,54.292602,11.378231,44.747451,46.012024,39.339832,12.910858,47.10197,44.684234,36.599487,17.151203,48.577663,44.171173,35.908928,22.275936,45.938736,41.771587,34.312511,-30.231483,-56.415596,-68.802803,-69.466546,-60.378232,-71.870699,-64.293819,-60.014373,-44.082928,-54.07186,-47.078261,-42.586567,-27.0384,-36.132278,-31.086936,-27.560018,-10.374063,-19.106269,-17.140025,-14.932238,103.873695,135.542904,-159.446342,139.009795
84,1.828972,-8.729649,0.540516,-16.675588,-8.05101,-16.024841,-24.501663,-30.014694,-0.689163,-18.645515,-21.929008,-21.063171,4.025322,-18.112884,-20.271125,-18.628418,4.914574,-15.613037,-17.434936,-15.450439,3.50766,-13.217445,-15.055389,-13.692558,-25.82346,-51.803298,-67.906891,-74.141762,-56.218477,-70.74013,-64.466424,-61.03365,-45.020688,-57.151124,-51.713043,-48.259645,-32.426994,-42.92131,-37.525905,-33.151987,-19.486386,-28.1768,-24.491442,-20.517785,3.931182,18.89265,41.095287,55.908039,7.497093,45.633567,46.519603,38.806343,8.546264,47.832069,45.707519,37.409591,13.261585,48.944641,44.682506,36.33657,19.528198,45.647998,41.342994,33.700893,-29.719473,-56.373439,-67.711198,-66.200579,-63.672603,-72.839995,-62.456324,-58.128923,-46.854564,-54.374127,-45.554248,-41.57846,-29.176137,-36.632888,-29.550876,-26.186417,-11.822128,-19.829607,-16.098653,-13.491878,105.637344,127.675359,-158.971149,123.196311
85,-0.504547,-1.592333,3.068893,-17.692604,-8.15023,-16.015548,-23.869652,-28.913818,-2.226608,-19.19458,-20.974319,-19.802948,3.008332,-17.581009,-18.450783,-16.882988,4.627281,-14.630562,-15.049804,-13.002823,4.037979,-11.77375,-12.505691,-11.014068,-26.329839,-52.580773,-68.480688,-74.729935,-58.276439,-72.095446,-65.868912,-62.589261,-47.687244,-58.800824,-53.082075,-49.465514,-35.388785,-44.749042,-39.222034,-34.876831,-22.718619,-30.356528,-26.346085,-22.407625,1.996914,15.251507,35.362862,49.089558,5.327499,39.816971,38.882801,30.673187,6.961018,42.751957,40.128731,32.154121,12.072235,44.751698,40.367741,32.51128,18.653744,43.326153,39.107071,31.826054,-21.458491,-41.363298,-48.352456,-44.402072,-48.064403,-51.160266,-40.560085,-36.452047,-35.903339,-38.489526,-28.682764,-24.251375,-22.911175,-27.356094,-18.848251,-14.745585,-9.81332,-15.612511,-10.664049,-7.33033,105.055755,126.764068,-155.979298,106.184749
86,-4.425636,6.498669,3.843086,6.954171,-8.916904,-16.104767,-21.071388,-22.620254,-6.376785,-19.838505,-18.498619,-15.652256,1.509521,-13.888584,-11.830307,-9.248417,6.626804,-7.29681,-5.797016,-3.469654,9.890385,-1.452335,-0.952961,0.536602,-23.290873,-49.259814,-65.020739,-69.813689,-59.647724,-73.201683,-63.133186,-56.819287,-50.928813,-61.286506,-51.294107,-45.033603,-39.749364,-48.326571,-39.335819,-33.12763,-27.90432,-35.353856,-28.774692,-23.167054,1.819027,13.163326,30.641716,42.716995,3.199528,34.74836,35.458683,29.188809,4.857353,38.280007,37.717118,31.405323,10.040325,40.186215,37.992142,31.627693,16.734261,39.572628,37.136524,31.170857,-17.918476,-35.396047,-41.39203,-38.29731,-47.253423,-50.422651,-39.853025,-35.144154,-38.156488,-41.295076,-30.484752,-25.216843,-27.468887,-32.015811,-22.531762,-17.514653,-16.046123,-21.634887,-16.288654,-12.724574,100.318806,133.691498,-152.447525,113.567681
87,-7.955406,20.296736,6.449787,12.445122,-10.438625,-15.184777,-14.434685,-12.123825,-10.014565,-10.368473,-8.982857,-9.101818,-0.144905,-0.563564,0.36589,-0.417721,8.649959,8.143879,7.926075,6.950535,16.524135,14.681545,13.602413,12.3223,-22.61037,-47.765175,-63.090655,-67.958236,-58.514721,-73.899938,-64.790029,-57.248223,-51.864831,-63.918086,-54.124733,-46.612363,-42.351514,-52.500848,-43.323555,-36.161557,-31.766548,-40.59418,-33.749644,-27.310833,1.261071,10.329369,24.724818,35.288762,0.618908,26.430405,28.990385,25.018616,2.557726,29.722996,31.197716,26.654618,7.397725,31.803132,31.578221,26.539725,13.401072,32.593621,31.971606,27.127293,-13.636868,-27.191423,-30.809139,-27.501589,-39.863062,-42.285997,-32.008051,-26.104872,-33.433705,-36.005202,-24.972453,-18.475711,-25.249814,-28.760186,-19.016799,-13.057699,-16.046962,-20.252687,-14.750018,-10.709905,91.864409,154.052377,-146.496729,126.076946
88,-4.356594,23.098878,6.900776,12.478844,-13.254261,-18.081631,-15.21975,-10.278443,-14.15791,-8.634693,-6.06363,-6.903763,-2.423699,4.46085,5.869445,3.919258,8.980465,14.553508,14.479637,12.369838,19.577465,22.254032,20.843925,18.428352,-22.224177,-46.45041,-59.86682,-63.017166,-56.635378,-70.643153,-62.63704,-55.482902,-50.61664,-60.862719,-52.166893,-45.058982,-41.596732,-50.189975,-41.894175,-35.174396,-31.303272,-38.731288,-32.328421,-25.770864,0.30811,7.431828,19.059191,28.647183,-1.46759,18.787686,22.304266,19.989968,0.50453,21.174019,23.671543,20.498898,4.763089,23.235466,23.74498,19.404402,9.531641,24.561356,24.534582,20.22662,-8.093861,-15.419479,-13.992779,-7.686938,-24.318482,-23.543499,-13.240563,-5.945339,-20.259106,-18.798338,-7.957571,-0.795567,-14.913993,-14.116928,-4.78139,1.43248,-8.428073,-7.938469,-2.362601,1.654374,86.946905,176.592124,-140.156863,137.996659
89,2.293418,25.646582,2.335694,23.531687,-13.633746,-21.681301,-23.612479,-20.056022,-15.010448,-19.640315,-14.065933,-11.053688,-3.672225,-7.214549,-2.751251,-1.316917,6.3559,2.210209,5.451851,6.553494,15.205205,10.885243,11.728226,11.741204,-24.041633,-47.505212,-57.385738,-57.220716,-55.905692,-65.562051,-58.068947,-52.663106,-46.720386,-53.009641,-46.007073,-40.473933,-35.208133,-40.59748,-34.499995,-29.127085,-23.301159,-28.667798,-24.2601,-18.933235,-0.03162,7.395778,18.41308,27.737468,3.193004,18.023162,19.608678,16.640178,5.285722,19.731914,19.991958,15.928573,8.161548,21.09312,19.750316,14.645147,10.720407,21.765838,20.959379,16.325603,-6.726201,-12.884211,-11.167593,-5.677889,-19.171092,-18.590203,-10.340073,-3.177266,-15.143894,-13.707116,-4.930628,1.97576,-9.7885,-8.463283,-1.333537,4.437391,-3.683622,-2.103741,2.230085,5.732538,88.611505,201.109377,-138.449987,160.399017
90,-0.317276,17.271443,-2.733811,29.403484,-11.596126,-21.837215,-29.414359,-29.126426,-9.86214,-24.092456,-17.791053,-12.262001,-0.772979,-14.811549,-8.991439,-4.430099,5.971791,-8.115703,-2.956512,1.385113,11.03262,0.005276,2.119126,4.460953,-25.635696,-47.078993,-52.333802,-47.515911,-47.816463,-50.680135,-45.217101,-42.712455,-33.417075,-34.675858,-30.780886,-27.9412,-18.286088,-20.39865,-17.483317,-14.607249,-4.146553,-7.030201,-5.300625,-1.855313,0.094219,10.291523,24.088011,34.988056,10.403423,26.625343,25.617663,20.917797,13.02796,28.286053,24.079079,18.223046,15.349892,28.831547,23.01931,15.955736,16.544924,27.218033,23.019499,16.936764,-13.504507,-24.077054,-24.512216,-19.611962,-27.969291,-29.186419,-22.535279,-16.805335,-18.250594,-17.907854,-12.551099,-8.577515,-7.56898,-6.602355,-3.366738,-0.373424,2.811144,4.556201,5.744906,6.448688,87.702444,216.888699,-141.775583,188.31038
91,1.496888,11.718011,-2.476456,10.582279,-10.614212,-24.370594,-37.458138,-40.274529,-6.870976,-31.64843,-24.144402,-15.622845,0.689964,-25.094948,-17.986382,-9.934971,4.639343,-20.533676,-13.579457,-5.604813,6.248863,-12.514458,-9.327084,-4.372364,-26.098546,-45.423288,-46.409183,-37.634721,-39.81225,-36.443271,-32.918508,-33.103575,-21.012257,-17.668899,-16.84248,-16.530536,-2.878971,-1.750884,-1.935097,-1.39856,12.948691,12.709519,11.922109,13.483962,0.703721,13.67553,30.152075,42.644601,15.467583,32.677185,27.399611,20.319352,17.591155,33.930977,24.999493,17.365391,18.867417,33.76196,23.341405,14.464354,18.597891,30.243863,23.144171,15.921227,-14.35392,-24.17662,-22.88419,-16.118074,-21.87216,-18.331684,-13.731442,-10.636067,-8.897444,-3.288197,-0.941811,-0.059861,4.395959,9.801494,10.062038,10.293256,16.378846,22.175193,21.519172,19.971967,88.867018,226.957282,-144.584353,197.243231
92,4.071464,7.287697,-1.733036,10.359039,-10.736984,-29.015224,-48.264541,-54.129478,-6.18996,-42.676735,-34.084076,-22.575886,0.17498,-38.50827,-30.202766,-18.517238,1.674866,-35.532875,-26.776394,-15.021858,0.211235,-27.024147,-22.69907,-15.129627,-25.790868,-43.054962,-40.311601,-28.848304,-33.047666,-24.642767,-22.314382,-24.535976,-10.8514,-3.641181,-5.132354,-6.838487,9.651423,13.877652,10.991623,9.538883,26.809386,29.112442,26.198755,26.046935,3.173104,18.198212,36.473477,49.977734,17.3573,38.424717,31.338364,22.93023,18.1833,39.808983,28.320832,18.954484,18.723999,39.177659,26.323414,15.79382,18.515786,33.775979,25.403069,17.313035,-16.585889,-27.180839,-26.293004,-19.092585,-21.818397,-16.442529,-13.43416,-12.270165,-5.990864,1.609833,1.689639,0.202727,9.837013,16.665646,14.677431,13.015838,23.774551,30.779962,28.422554,25.335342,92.777326,232.726212,-146.478545,206.083503
93,1.981556,7.501626,-3.181034,9.933616,-10.187736,-29.800552,-50.855003,-59.536537,-10.109573,-45.012497,-35.439537,-23.562629,-5.24794,-41.86306,-32.702614,-20.656631,-4.227173,-39.624161,-29.950813,-17.876175,-5.62841,-31.344383,-26.051697,-18.109222,-25.372417,-40.181846,-35.485529,-23.234408,-26.537919,-15.631092,-14.508186,-17.668695,-3.062006,6.118613,2.788166,-0.27621,17.989142,23.755667,19.136823,16.374418,35.229758,38.440656,33.99144,32.665276,5.829174,23.979149,45.032421,59.152382,20.014824,46.380284,40.373783,32.098767,19.246445,47.694168,36.573018,26.580449,19.471127,46.486576,33.712155,22.639309,20.217419,39.98021,31.597905,23.48029,-20.595566,-33.6313,-34.487544,-29.022027,-28.456072,-23.776169,-21.136104,-20.909208,-10.114853,-2.893155,-4.202708,-6.843181,8.347087,14.691855,10.596469,7.520941,24.674909,30.47447,26.083065,21.76823,94.697405,239.024746,-149.721056,214.814027
94,0.829972,8.336503,0.511803,2.256187,-10.333764,-30.162987,-50.138215,-58.999764,-17.001458,-42.199471,-31.732728,-21.70356,-12.957665,-38.475197,-29.372727,-19.595948,-11.227616,-36.002839,-26.814881,-16.967377,-11.06408,-29.059754,-23.574143,-17.193375,-25.163133,-39.156406,-34.354212,-21.841331,-24.047179,-11.780015,-12.18201,-15.819122,-0.75685,9.150645,4.50636,0.697878,19.934663,25.733866,20.215257,16.834199,36.739383,39.544037,34.817229,33.395302,9.275631,28.672016,50.932194,65.412724,16.796814,48.110378,48.040741,43.674545,14.678753,50.211273,41.32172,31.642273,14.922821,48.723507,37.784832,26.936062,16.662838,41.783444,34.89616,26.838856,-21.068339,-32.626164,-31.654916,-24.707637,-28.697936,-22.434616,-19.081001,-18.753699,-9.6765,-0.202381,-0.903273,-4.246502,9.475193,17.433722,13.43111,9.496213,26.13585,33.016192,28.262423,23.267296,95.53267,246.533796,-149.20396,216.242761
95,1.529571,8.486359,-1.096836,2.716635,-9.709923,-29.364532,-48.173309,-58.311722,-24.829994,-39.768333,-27.962402,-19.485489,-21.812714,-35.600784,-25.73053,-17.851181,-18.803764,-32.844269,-23.394745,-15.761078,-16.199821,-26.467071,-20.129906,-15.082947,-24.381422,-37.34765,-32.067817,-19.882916,-20.867527,-8.683738,-9.118523,-12.396161,1.755379,12.542645,7.728694,3.393654,21.796821,28.427308,22.954221,18.934171,38.007033,40.907672,35.888475,33.787219,13.297085,35.892803,60.90731,76.068478,16.848404,54.66711,57.96983,54.968559,12.207138,55.42511,49.91407,40.105213,11.82375,53.02858,45.202881,34.323452,14.128281,45.009144,40.981613,33.301403,-22.523994,-33.154401,-29.781495,-21.968425,-29.185393,-19.415861,-15.273322,-15.024727,-9.730346,3.083631,2.869381,-0.431018,10.040309,20.240649,16.512221,12.443511,27.653169,34.945534,30.061348,25.346605,97.032823,254.431717,-150.330214,218.370958
96,4.002731,10.196487,-1.331852,1.554061,-11.319625,-31.507347,-50.353866,-61.115226,-29.302002,-43.13491,-31.570701,-23.612457,-26.238098,-39.398849,-29.519783,-22.194145,-23.180854,-36.0512,-26.673225,-19.795829,-20.393509,-30.51892,-23.774299,-18.415443,-23.984737,-36.69948,-31.64122,-19.085385,-18.287323,-6.903646,-8.754726,-12.151666,3.188063,13.775628,8.837793,4.641902,22.376065,28.873628,23.229752,19.069725,37.948839,40.638379,35.394015,32.89626,17.895264,43.078251,69.311028,85.35078,19.888069,60.247318,68.84428,68.911251,13.07872,60.398872,59.970497,51.632916,11.554436,56.564564,53.526581,44.055874,13.462486,47.706757,47.011333,40.349487,-22.805971,-32.302604,-28.4816,-21.277994,-29.012098,-17.804596,-12.550661,-11.143085,-9.264501,5.240522,6.072906,3.437855,10.823303,22.530984,19.455208,15.443988,29.013295,36.958078,32.607342,28.090768,100.966346,264.159707,-151.731274,219.456522
97,2.403557,8.817095,-2.448921,-0.465475,-12.774055,-33.177978,-51.813331,-63.693146,-31.775139,-44.527313,-34.31401,-27.266464,-28.344543,-41.146522,-32.749626,-26.763084,-25.361824,-37.609176,-29.927101,-24.48571,-22.867126,-33.184524,-27.551285,-22.697937,-23.13047,-34.629199,-28.927784,-15.24304,-13.421329,-1.581898,-5.370298,-9.547293,6.998483,18.116385,12.245748,7.761952,25.079855,31.500058,25.058564,20.58939,39.601922,42.12865,36.093214,32.967038,21.01062,49.263668,77.129711,94.149238,29.259956,69.555427,78.421051,78.487209,21.46162,67.809814,68.408329,60.439567,18.258327,61.859905,60.357673,51.866855,17.855678,51.784618,52.387207,46.604667,-23.130383,-31.824038,-27.584045,-22.710492,-29.200226,-14.978094,-10.216272,-9.727444,-9.452741,7.845143,8.561052,5.836241,11.124435,25.482234,21.977132,17.150288,30.001882,39.594253,34.875398,29.868637,103.287838,272.504467,-154.26226,218.518712
98,1.813774,7.008931,0.723266,-1.762344,-15.466484,-37.375831,-56.369842,-67.387367,-30.168205,-50.054992,-41.751205,-34.199798,-25.585647,-46.974884,-39.853065,-32.58078,-23.308914,-42.819008,-36.259735,-29.649696,-22.482856,-38.698928,-34.032646,-27.76886,-22.036092,-31.527007,-23.890889,-8.840794,-9.114262,4.77774,-1.376973,-6.375162,10.532224,23.363688,16.365538,11.806036,27.994376,36.15079,29.017877,24.529313,42.130552,46.625896,40.15076,36.606261,23.059479,51.63144,78.260502,95.9278,37.27771,70.724144,77.143513,77.282925,30.357571,68.646756,68.345616,61.20377,25.738278,62.373894,60.777661,53.38163,22.721581,52.255726,55.333157,52.438099,-20.486243,-27.685316,-25.098665,-23.718,-24.828816,-9.969271,-8.318781,-10.118769,-8.541157,8.597349,6.882725,2.342081,8.353743,23.200383,18.452171,12.408127,24.100407,34.269589,29.526465,24.257327,104.934934,279.131678,-153.705672,216.374648
99,-0.399284,4.917691,3.780785,-11.436325,-18.424507,-40.525429,-58.760834,-70.675369,-26.311844,-54.06958,-51.039757,-44.280327,-20.505455,-52.272285,-48.683647,-40.139214,-18.366325,-47.301704,-43.353355,-35.499001,-18.613701,-41.765213,-39.5438,-32.006905,-20.178676,-25.677291,-15.255933,0.040706,-1.962292,14.093173,7.674477,2.538597,17.123723,32.089195,24.180153,18.974692,33.644663,44.172589,36.390691,31.567132,46.771812,54.129411,46.885359,42.133467,26.323277,54.451939,78.941334,95.909328,40.276817,71.020432,74.773819,73.190128,31.156368,66.346081,68.405571,63.411381,24.433674,58.403229,60.056889,55.050968,19.574581,48.005184,54.649052,54.59222,-20.455009,-28.680609,-29.085259,-31.583181,-28.382107,-12.194434,-8.36418,-8.967197,-14.096001,5.205819,6.011106,3.438448,1.708696,18.648439,17.123612,13.258011,17.860899,29.169586,27.381812,24.25424,104.375422,283.733513,-150.085115,204.622467
100,0.178047,4.31071,7.71476,-20.615017,-22.149994,-45.420227,-63.410477,-75.452934,-23.562675,-60.095558,-62.87194,-57.528763,-15.930405,-58.623916,-60.309631,-52.26194,-14.08651,-52.306137,-52.736,-45.107483,-15.811706,-45.654785,-47.39772,-40.111496,-17.876015,-20.554106,-8.395327,7.57685,3.65644,22.325281,15.149105,8.956082,22.064447,39.506049,30.655659,24.495969,37.57189,50.749193,42.534388,37.128547,49.622841,60.526457,53.40824,47.502999,28.285389,53.715992,74.595875,90.247558,38.797508,64.536587,67.314377,65.263996,28.929725,59.588848,62.415539,58.513779,21.02861,51.054211,53.771473,50.103458,14.833729,41.202461,48.819797,49.693989,-20.054749,-30.514194,-35.357816,-41.393024,-32.837066,-18.669292,-13.484073,-12.938508,-20.423893,-2.161215,0.750212,-0.332637,-5.992112,10.680753,11.940764,9.685552,9.45024,20.628874,21.519796,19.904838,104.465109,287.828948,-142.458715,183.792175
101,-3.582321,2.218594,10.46672,-27.183698,-22.918007,-45.937683,-62.903412,-76.002342,-22.243469,-59.565674,-67.319458,-64.799881,-14.104431,-57.426796,-64.251801,-58.814873,-11.727699,-50.337204,-55.593086,-50.653221,-13.156677,-42.185463,-47.864868,-43.488167,-15.494278,-14.667094,-0.314903,15.786888,9.202095,30.835327,24.42824,17.536968,27.451207,47.947774,38.806626,31.133211,42.189375,58.671079,50.898913,44.69927,53.358111,67.924946,61.109825,53.935057,28.84227,50.792553,68.249749,81.361794,34.072632,58.467408,59.582142,55.898255,23.602799,52.381016,54.116845,49.401146,15.538571,44.114949,46.012539,41.814034,9.704213,35.376057,42.744473,43.122506,-21.571877,-36.394804,-45.531994,-54.421855,-42.905496,-32.770654,-25.7188,-24.308229,-32.641836,-17.706418,-12.349626,-11.515723,-19.43107,-5.215323,-1.073692,-0.891954,-4.196089,4.569221,7.905158,8.836348,100.800882,290.109793,-132.073901,156.670728
102,-3.741623,1.846152,12.109404,-29.161476,-23.358444,-46.214561,-62.332054,-76.061279,-21.333298,-60.211143,-71.976608,-71.62326,-12.897217,-57.775703,-68.150436,-64.179222,-10.047432,-49.651794,-58.11763,-54.765175,-11.086121,-39.774902,-47.992081,-45.257332,-13.643334,-10.331054,5.25759,21.405632,13.143624,36.818263,30.869846,23.293033,31.488103,54.156544,44.184111,35.105961,45.820102,65.168136,57.515606,50.581269,56.412348,74.267344,67.888736,59.72217,29.397024,47.692122,60.960009,71.158755,27.169276,49.04205,51.229718,48.14055,15.468191,42.224844,45.352343,41.513983,7.133377,34.29175,37.661423,34.332542,1.886574,26.802227,35.296419,36.13671,-22.671047,-41.749654,-55.341304,-66.191116,-54.076428,-50.714822,-41.407181,-37.587444,-46.003829,-36.499565,-28.231674,-24.747764,-34.230521,-23.761501,-15.579342,-11.842985,-19.446717,-13.877453,-7.063946,-2.961823,96.910755,292.221626,-120.113001,127.774933
103,-4.185036,1.819587,11.654248,-31.659736,-23.40731,-45.941208,-61.589538,-76.407943,-20.580391,-59.486435,-75.104278,-77.405594,-11.811218,-56.958,-71.741935,-70.476425,-8.530723,-48.328376,-60.979797,-60.281982,-9.195854,-37.053199,-48.752311,-48.90287,-12.180108,-8.030777,7.688185,24.028308,15.444939,40.011179,35.457235,27.267154,34.157055,57.923171,47.847368,37.420824,48.209362,68.869135,61.434756,53.516599,58.013598,77.698271,71.996213,62.904342,31.206521,47.112733,56.849311,64.00957,21.831547,45.615465,48.873871,45.056057,7.082124,36.357415,40.474061,36.583562,-2.541309,26.717395,31.889807,29.338576,-7.951723,18.302145,26.450002,25.997344,-25.968094,-50.070545,-67.027028,-78.762198,-70.622758,-73.211668,-61.007923,-54.233612,-61.679781,-56.561121,-43.898877,-36.553274,-47.393408,-39.765523,-26.067394,-17.739876,-29.459772,-26.230643,-15.67648,-8.296207,92.540811,294.80836,-108.643661,96.882344
104,-3.727523,0.708438,11.629264,-30.448239,-22.817574,-45.386857,-61.055535,-76.043976,-19.950234,-59.783112,-76.225697,-79.418759,-10.994294,-56.39589,-73.220925,-73.889878,-7.661362,-47.645234,-62.604722,-63.834115,-8.157189,-35.785424,-49.469582,-51.646775,-11.043098,-6.915935,8.424695,25.012226,16.474837,41.013265,36.590651,27.795428,35.306329,59.262265,49.485804,38.674455,49.20337,70.755314,63.82241,55.348104,58.750465,79.571556,74.765311,65.359871,30.338137,44.045126,50.459394,54.640092,19.94748,41.128879,43.311001,38.737044,4.412691,30.410887,33.396444,29.317587,-5.613213,20.760259,25.572667,23.632767,-11.001003,12.439312,19.437056,18.800584,-25.307418,-50.735556,-69.108124,-81.8331,-76.061608,-85.581404,-76.119859,-70.185124,-68.508285,-69.980849,-58.16049,-50.323376,-55.197627,-50.945158,-36.080831,-26.165296,-38.181145,-37.223039,-25.893497,-17.47284,88.517893,296.514682,-97.309792,67.431989
105,-3.129364,-0.036927,11.547677,-26.096983,-22.349328,-44.949555,-60.786919,-75.754258,-19.537812,-59.833855,-76.622281,-80.196076,-10.571961,-56.292046,-73.559372,-74.559357,-7.260499,-47.546677,-63.28267,-65.020089,-7.676354,-35.674736,-49.915238,-52.646691,-10.733432,-6.626388,8.591755,25.01834,16.536735,41.168876,36.657737,27.703124,35.629345,59.731717,49.859147,38.918357,49.719875,71.858189,64.829411,56.098508,59.357608,80.486672,75.960602,66.59919,29.581506,41.637399,44.651854,46.109374,20.402821,38.724085,39.251518,33.72121,3.260781,24.922788,26.618802,22.996633,-8.127365,14.222587,19.485773,19.339747,-14.317384,5.447649,12.514531,13.273299,-23.712383,-49.324928,-68.467821,-82.01965,-81.234079,-97.655551,-91.362703,-86.242655,-75.223951,-82.75171,-71.545077,-63.134508,-62.503132,-60.738733,-44.012324,-32.162266,-45.896695,-46.339406,-33.48945,-23.607562,84.446892,297.50556,-86.703752,42.362811
106,-1.689927,-0.438626,11.617462,-22.952311,-22.258575,-45.055389,-61.538955,-76.930778,-20.118667,-61.10495,-77.635357,-80.982387,-11.260574,-57.704246,-74.428413,-74.876815,-7.976509,-48.922577,-64.47155,-65.764457,-8.303238,-37.069336,-51.415443,-53.963447,-10.887178,-7.389548,7.551261,23.670205,15.817677,40.234951,35.550787,26.646748,35.362522,58.989131,48.590201,37.755301,49.873264,71.840133,64.162544,55.348871,59.791887,80.671726,76.078842,66.849329,28.398652,39.485803,39.251322,38.235144,23.137133,35.303772,32.77565,25.780808,4.283262,17.974286,17.708497,14.850965,-9.403839,5.648264,11.039134,13.411494,-18.067597,-4.109067,3.005128,5.917143,-20.665159,-44.621319,-63.307422,-77.469835,-82.369787,-103.916945,-101.977369,-98.061246,-77.970794,-89.854835,-79.979118,-71.501329,-65.914138,-64.863032,-46.107498,-32.670268,-50.011244,-50.685514,-36.208417,-25.216411,81.522079,297.990964,-76.321176,20.33453
107,-0.200271,-0.302194,11.617461,-22.95231,-22.75367,-46.029213,-63.193611,-78.705059,-21.163124,-63.376854,-78.862713,-81.215458,-12.41034,-59.8759,-75.389626,-74.769814,-9.33078,-51.263855,-65.977844,-66.293495,-9.856316,-39.739929,-53.61715,-55.426209,-11.522676,-8.739684,6.015071,21.926732,14.162951,38.033734,33.056021,24.507047,34.084338,56.978402,46.441188,35.905728,49.014772,70.380662,62.426122,53.842741,59.347135,79.638988,74.635117,65.607553,27.2158,37.334208,33.85079,30.360914,25.871446,31.883461,26.299782,17.840408,5.305743,11.025786,8.798194,6.705298,-10.680313,-2.926058,2.592496,7.483243,-21.817809,-13.665782,-6.504274,-1.439013,-17.617935,-39.917712,-58.147024,-72.920021,-83.505497,-110.178341,-112.592036,-109.879839,-80.717638,-96.957961,-88.41316,-79.868151,-69.325146,-68.987331,-48.202672,-33.178272,-54.125793,-55.031624,-38.927385,-26.825262,80.08643,298.635329,-65.939093,-1.671221
108,0.402923,-0.353249,11.617462,-22.952311,-22.989647,-46.721901,-64.48693,-80.289859,-22.268142,-64.716911,-79.886913,-81.85635,-13.530944,-61.105751,-76.804298,-76.072254,-10.527649,-52.716453,-67.676971,-68.000885,-11.16925,-41.535713,-55.496498,-57.25209,-12.499568,-10.462138,4.200362,19.636841,11.922041,35.500744,30.871908,22.777096,32.342544,54.815668,45.042899,34.724084,47.674467,68.662987,61.156187,52.908185,58.327858,78.199511,73.014107,64.17661,26.032946,35.182612,28.450257,22.486684,28.605758,28.463148,19.823913,9.900006,6.328223,4.077285,-0.112111,-1.44037,-11.956787,-11.50038,-5.854144,1.55499,-25.568022,-23.222498,-16.013677,-8.795169,-14.570711,-35.214103,-52.986626,-68.370206,-84.641206,-116.439735,-123.206702,-121.698431,-83.464481,-104.061086,-96.8472,-88.234972,-72.736152,-73.11163,-50.297845,-33.686274,-58.240342,-59.377732,-41.646352,-28.434111,79.320636,298.915729,-55.490348,-23.989883
109,0.661835,0.251274,7.95946,-17.889453,-23.141785,-47.032883,-65.292709,-81.432438,-23.208984,-66.113182,-79.807457,-80.182068,-14.467415,-62.658005,-76.867218,-74.629291,-11.511841,-54.361999,-67.747101,-66.490974,-12.215584,-43.301124,-56.115623,-56.523331,-13.921704,-12.599788,1.785934,16.89637,9.372145,32.467651,27.545291,19.859168,30.045973,52.035356,42.339862,32.422079,45.667184,66.019416,58.395364,50.654901,56.592154,75.680243,69.847176,61.365658,25.111034,33.483257,24.507537,16.70834,30.415488,25.992528,15.346154,4.495789,7.113703,-0.598199,-6.19066,-7.044722,-12.683098,-17.175659,-11.546199,-2.51181,-27.939446,-29.643336,-22.291205,-13.425805,-12.413253,-31.942691,-49.395976,-65.191923,-85.241256,-120.635135,-130.074395,-129.123868,-85.206505,-108.972291,-102.353992,-93.451185,-75.050519,-76.150486,-51.761418,-33.934781,-61.210134,-63.013203,-44.652914,-31.024893,78.950432,299.808503,-48.562927,-41.237836
110,0.863525,0.627409,4.301458,-12.826596,-22.929565,-46.801345,-65.417381,-81.796474,-23.362701,-66.3712,-79.422386,-78.949253,-14.740676,-63.1707,-77.158905,-74.414897,-11.970909,-55.252738,-68.174629,-66.373603,-12.880577,-44.251625,-56.651275,-56.584648,-15.377964,-15.059616,-1.201724,13.790621,6.614828,28.942628,24.382237,17.051574,27.590381,48.924951,40.202655,30.69776,43.568251,63.090112,56.071091,48.814393,54.828451,73.328219,67.191253,58.93736,24.450064,32.236143,22.02263,13.025883,31.300635,24.471601,12.866504,1.627758,7.662184,-3.000665,-9.437452,-10.107759,-12.859246,-19.951892,-14.483672,-4.717158,-28.932082,-32.928294,-25.336858,-15.330921,-11.145561,-30.103474,-47.375073,-63.385171,-85.305648,-122.764539,-133.195115,-132.156151,-85.94371,-111.691576,-104.933534,-95.51679,-76.268246,-78.103899,-52.59339,-33.92379,-63.035168,-65.938037,-47.94707,-34.597606,79.345939,301.158442,-44.729487,-53.341902
111,0.89605,0.001025,0.643456,-7.763737,-22.923088,-46.771156,-65.396278,-81.424541,-23.017113,-65.636513,-78.368156,-77.393784,-14.449081,-62.832962,-76.453239,-73.103176,-11.857979,-55.348778,-67.45047,-64.775665,-12.952652,-44.581078,-56.2248,-55.170456,-16.345766,-16.454385,-2.782634,12.359913,4.983703,26.943397,22.609617,15.522658,26.089228,47.296629,38.797216,29.432741,42.211631,61.376785,54.334583,47.35775,53.582414,71.651313,64.986887,56.922456,24.050035,31.441271,20.995534,11.439313,31.261201,23.900367,12.384963,1.295912,7.973665,-3.130114,-9.852488,-10.629481,-12.48523,-19.829081,-14.666561,-5.061054,-28.545929,-33.077373,-25.150637,-14.510516,-10.767637,-29.696454,-46.92392,-62.949952,-84.834382,-122.827949,-132.568862,-130.79528,-85.676097,-112.218941,-104.585827,-94.431788,-76.389335,-78.971871,-52.793761,-33.653305,-63.715447,-68.152235,-51.528821,-39.152253,80.08774,301.904217,-44.24028,-60.360889
112,0.678314,-0.599448,-3.014546,-2.700881,-22.5569,-46.097763,-64.580887,-80.480484,-22.040474,-64.136398,-76.722633,-75.682342,-13.495697,-61.67466,-75.175186,-71.754558,-11.051079,-54.50489,-66.201919,-63.351951,-12.315513,-43.937897,-55.227264,-53.928451,-16.860258,-17.175469,-3.477141,11.794662,4.021076,25.803534,21.931857,15.153934,25.282101,46.42827,38.297606,29.035785,41.554149,60.694776,53.825698,47.08811,52.997402,71.00097,64.264877,56.395108,23.910948,31.098639,21.426252,11.94863,30.297184,24.278825,13.901532,3.500252,8.048146,-0.986544,-7.435767,-8.609886,-11.561051,-16.807226,-12.094867,-3.543498,-26.780987,-30.090574,-21.73254,-10.964591,-11.279477,-30.721629,-48.042513,-63.886262,-83.827457,-120.825363,-128.195635,-125.041253,-84.403663,-110.554385,-101.31087,-90.196176,-75.413783,-78.754398,-52.362531,-33.123322,-63.250967,-69.655795,-55.398164,-44.688831,80.771272,301.922029,-47.249608,-62.44451
113,0.80793,-0.981572,-6.672548,2.361978,-22.272217,-45.435928,-63.706123,-79.279381,-21.093956,-63.321464,-75.194526,-73.602562,-12.629906,-61.121589,-73.367111,-69.172623,-10.341614,-54.130394,-64.588005,-60.777214,-11.700645,-43.544586,-53.993385,-51.766983,-16.639044,-17.223857,-3.640187,11.968687,4.021656,25.457299,21.267274,14.468072,25.216682,46.055742,37.389331,28.203315,41.507651,60.338995,52.950991,46.263717,53.024498,70.773407,63.790905,56.03919,24.032803,31.208248,23.314781,14.553833,28.408585,25.606976,17.41621,8.240776,7.885628,3.430042,-2.18729,-4.048977,-10.086708,-10.886326,-6.768589,-0.16449,-23.637256,-23.967895,-15.082569,-4.693146,-12.681085,-33.179001,-50.730856,-66.194106,-82.284874,-116.756784,-120.075436,-114.894072,-82.126412,-106.697909,-95.108664,-82.809958,-73.341592,-77.451484,-51.2997,-32.333844,-61.641732,-70.448719,-59.555103,-51.207342,81.670807,301.385696,-53.830551,-59.637293
114,1.207398,-1.259177,-6.672548,2.361977,-22.013443,-45.003273,-63.080544,-78.129433,-20.40477,-62.179093,-74.648713,-73.87088,-12.069718,-59.953835,-72.964577,-69.740342,-9.90976,-53.199921,-64.68702,-61.956894,-11.460526,-42.781769,-53.902703,-52.483063,-15.877921,-16.701177,-3.214048,12.575792,4.886557,25.962392,21.985629,15.113981,25.980312,46.539173,38.055136,28.696281,42.147212,60.78482,53.727588,46.85946,53.512734,71.400087,64.88648,57.023689,24.154657,31.317858,25.203311,17.159036,26.519986,26.935126,20.930888,12.981301,7.723109,7.846629,3.061187,0.511933,-8.612365,-4.965426,-1.442311,3.214519,-20.493526,-17.845217,-8.432598,1.5783,-14.082693,-35.636372,-53.419197,-68.501948,-80.74229,-112.688203,-111.955236,-104.746891,-79.849159,-102.841433,-88.906458,-75.423739,-71.269401,-76.148569,-50.236869,-31.544364,-60.032495,-71.241642,-63.712041,-57.725853,83.070322,300.423313,-60.310982,-56.978522
115,1.161049,-1.063145,-6.672547,2.361977,-21.93306,-44.693047,-62.538323,-77.169297,-19.749939,-61.445481,-73.937005,-73.458664,-11.554459,-59.202668,-71.902886,-68.911217,-9.572114,-52.545365,-64.073594,-61.692032,-11.348282,-42.356186,-53.517151,-52.319985,-15.105781,-16.024615,-2.56053,13.463467,5.811912,26.721429,22.555462,15.722235,26.69863,46.965671,38.021384,28.63931,42.745142,61.146505,53.935058,46.962757,54.075737,71.820607,65.588879,57.726558,24.276511,31.427466,27.09184,19.764239,24.631386,28.263276,24.445565,17.721824,7.56059,12.263215,8.309663,5.072841,-7.138024,0.955473,3.883966,6.593526,-17.349796,-11.722539,-1.782627,7.849744,-15.4843,-38.093743,-56.107539,-70.809791,-79.199706,-108.619623,-103.835036,-94.59971,-77.571907,-98.984956,-82.704251,-68.03752,-69.197209,-74.845653,-49.174038,-30.754885,-58.423258,-72.034565,-67.868979,-64.244363,84.535613,299.596786,-66.679287,-54.379927
