takenoko1/special-research/HandMotion_SimilarSearch_自分用/NewProject/handData/tgt/d4_feature_d3/15.csv
,vel_0x_L,vel_0y_L,vel_0x_R,vel_0y_R,posFromWrist_1x_L,posFromWrist_2x_L,posFromWrist_3x_L,posFromWrist_4x_L,posFromWrist_5x_L,posFromWrist_6x_L,posFromWrist_7x_L,posFromWrist_8x_L,posFromWrist_9x_L,posFromWrist_10x_L,posFromWrist_11x_L,posFromWrist_12x_L,posFromWrist_13x_L,posFromWrist_14x_L,posFromWrist_15x_L,posFromWrist_16x_L,posFromWrist_17x_L,posFromWrist_18x_L,posFromWrist_19x_L,posFromWrist_20x_L,posFromWrist_1y_L,posFromWrist_2y_L,posFromWrist_3y_L,posFromWrist_4y_L,posFromWrist_5y_L,posFromWrist_6y_L,posFromWrist_7y_L,posFromWrist_8y_L,posFromWrist_9y_L,posFromWrist_10y_L,posFromWrist_11y_L,posFromWrist_12y_L,posFromWrist_13y_L,posFromWrist_14y_L,posFromWrist_15y_L,posFromWrist_16y_L,posFromWrist_17y_L,posFromWrist_18y_L,posFromWrist_19y_L,posFromWrist_20y_L,posFromWrist_1x_R,posFromWrist_2x_R,posFromWrist_3x_R,posFromWrist_4x_R,posFromWrist_5x_R,posFromWrist_6x_R,posFromWrist_7x_R,posFromWrist_8x_R,posFromWrist_9x_R,posFromWrist_10x_R,posFromWrist_11x_R,posFromWrist_12x_R,posFromWrist_13x_R,posFromWrist_14x_R,posFromWrist_15x_R,posFromWrist_16x_R,posFromWrist_17x_R,posFromWrist_18x_R,posFromWrist_19x_R,posFromWrist_20x_R,posFromWrist_1y_R,posFromWrist_2y_R,posFromWrist_3y_R,posFromWrist_4y_R,posFromWrist_5y_R,posFromWrist_6y_R,posFromWrist_7y_R,posFromWrist_8y_R,posFromWrist_9y_R,posFromWrist_10y_R,posFromWrist_11y_R,posFromWrist_12y_R,posFromWrist_13y_R,posFromWrist_14y_R,posFromWrist_15y_R,posFromWrist_16y_R,posFromWrist_17y_R,posFromWrist_18y_R,posFromWrist_19y_R,posFromWrist_20y_R,posFromBody_0x_L,posFromBody_0y_L,posFromBody_0x_R,posFromBody_0y_R
7,-0.703881,-0.0546,1.252933,1.580292,-37.891983,-66.252559,-81.293975,-86.05775,-60.706226,-89.460868,-103.395664,-109.625015,-47.502159,-75.286777,-86.426136,-90.610588,-36.267059,-61.066509,-70.097969,-70.681411,-27.397773,-46.229667,-54.54626,-56.419921,-2.671421,11.220013,20.300634,18.855736,55.41151,61.978518,56.657893,51.575402,59.961725,62.315688,52.43451,44.421098,56.667316,54.660983,45.864304,38.987704,50.060368,48.696882,41.849354,35.711931,38.282375,61.568916,71.092426,66.538811,59.874939,77.705784,77.525848,71.388588,44.759399,63.983803,66.196037,60.848099,29.914158,48.063068,50.637302,44.838203,16.813957,33.981457,37.129532,32.858528,-3.747658,8.914153,25.508403,33.834792,50.358597,52.173726,40.282016,32.883984,62.959411,63.153208,51.325979,42.900357,66.932642,68.535176,58.028344,50.210964,66.15208,70.241538,61.118063,53.026116,50.163774,472.888292,-102.702776,460.040082
8,-0.798889,0.116696,2.565868,1.807854,-37.213669,-65.297058,-80.115772,-84.853786,-59.579635,-87.867943,-102.402694,-109.636253,-46.421951,-74.329616,-86.056995,-90.911945,-35.207725,-60.017235,-69.316143,-70.407737,-26.310127,-45.302261,-53.95713,-56.206798,-2.922622,10.687169,19.991807,19.043975,54.62318,61.73022,57.34762,52.770951,59.486049,62.672124,53.584538,46.048209,56.425859,55.510261,47.130582,40.395465,49.93767,49.727311,43.263809,37.161398,36.618588,58.833149,67.961678,64.033699,57.906887,73.615757,72.554066,66.323239,43.116154,60.097218,61.597264,56.042885,28.250954,44.556473,46.722805,40.886433,15.002873,30.544487,33.461289,29.389779,-4.615226,7.378186,23.597648,31.6902,48.030656,48.949688,37.877789,31.110129,60.699852,60.319112,49.180288,41.338604,64.881059,66.445172,56.505209,49.192342,64.240745,68.44612,59.740461,52.036418,49.907415,472.591328,-99.594378,461.434276
9,-1.048256,0.418013,2.688275,1.999553,-36.575935,-64.384197,-78.780395,-82.875446,-58.490352,-86.427223,-101.389331,-109.365383,-45.4934,-73.434539,-85.280285,-90.319255,-34.381759,-59.21418,-68.287674,-69.357433,-25.516914,-44.519119,-53.119846,-55.336303,-3.310192,10.047336,19.673731,19.172046,53.68697,61.196832,57.589065,53.45732,58.879302,62.570618,54.004243,46.819249,56.107462,55.833896,47.661982,40.985725,49.828853,50.175112,43.904963,37.871985,35.086132,56.527908,65.498943,62.445019,55.830745,70.39825,68.658565,62.332775,41.40818,57.239342,58.133446,52.259079,26.658806,42.204998,43.994373,38.017227,13.355587,28.315887,31.084545,27.049621,-5.863832,5.442261,21.434395,29.587648,45.221592,45.301843,34.680859,28.326457,58.041991,57.213769,46.497541,39.04786,62.678866,64.093901,54.547572,47.617212,62.578942,66.682553,58.277741,50.913091,49.230091,472.86102,-96.535171,463.285508
10,-0.840889,0.428734,1.598977,1.108941,-36.103843,-63.686428,-77.670971,-81.110035,-57.265503,-84.809795,-99.936779,-108.165687,-44.484031,-72.464195,-84.696601,-90.04319,-33.493492,-58.40023,-67.789466,-69.299228,-24.667923,-43.784202,-52.751896,-55.337619,-3.593121,9.421976,19.610029,19.973207,52.466657,60.439179,57.148129,53.039491,57.905053,62.504816,54.506656,47.504122,55.421513,56.312744,48.542986,41.866618,49.314274,50.704868,44.819968,38.835587,34.379891,55.617259,64.661287,62.681619,54.296551,69.163424,67.509367,61.377628,40.09362,56.43956,57.278495,51.235674,25.58333,41.669841,43.411397,37.324465,12.432572,27.706306,30.482125,26.373573,-6.514545,4.633066,20.335646,28.238393,43.925699,43.374879,32.673418,26.515976,56.654163,55.629786,44.673682,37.363961,61.491199,62.907251,53.022603,46.200025,61.666543,65.54022,57.05161,49.916511,48.640205,473.286938,-94.685191,464.391633
11,-0.703651,0.693889,0.42267,0.455601,-35.568718,-63.050056,-76.633781,-79.085232,-56.170761,-83.54528,-98.745632,-107.199394,-43.529228,-71.440956,-83.614334,-88.956333,-32.678604,-57.572948,-66.833279,-68.3936,-24.017143,-43.291946,-52.256023,-54.846279,-4.193582,8.628459,19.392149,20.524503,51.381666,59.605289,56.437098,52.257188,57.183821,62.216763,54.432457,47.446213,55.024619,56.334617,48.73734,42.020637,49.154538,50.787343,44.982075,39.036264,34.760001,56.300454,65.46686,64.277304,54.198349,70.518892,69.235754,63.270493,40.034569,58.053406,58.932355,52.562273,25.675204,43.249807,44.896194,38.46258,12.685493,28.953015,31.702094,27.322392,-6.703662,4.746378,20.350367,27.939687,43.835222,43.034165,31.572365,25.126487,56.314153,55.13309,43.442687,35.938039,61.196495,62.470243,51.652151,44.557804,61.533717,64.858335,55.887522,48.800341,48.151171,474.06213,-94.047904,464.928537
12,-0.974121,0.914487,-0.301915,-0.434726,-35.246155,-62.422028,-75.440403,-77.059193,-55.268578,-82.491863,-97.67276,-106.169117,-42.752861,-70.536884,-82.149078,-86.996475,-31.974999,-56.807774,-65.480072,-66.64048,-23.335785,-42.681976,-51.264553,-53.441231,-4.756696,7.805499,19.204835,21.071006,50.306269,58.738548,55.441656,50.977472,56.322167,61.449094,53.466865,46.260951,54.367779,55.836303,48.130975,41.191538,48.685037,50.39393,44.520935,38.481819,36.006506,58.241278,67.441933,66.641659,54.640205,73.732538,73.454086,67.941765,40.234417,61.500126,62.911989,56.300629,25.938034,46.343725,48.265669,41.473824,13.16839,31.269459,34.21443,29.473206,-6.049737,6.387907,22.023235,29.113646,45.570335,44.695553,31.862564,24.814792,57.557547,56.087294,43.058439,35.014046,62.173285,63.160273,50.74434,42.955309,62.285059,64.841391,55.008236,47.739336,47.304417,474.991194,-94.222452,464.508388
13,-1.074806,0.984672,-1.429287,-1.057081,-35.182824,-62.040985,-74.180397,-74.862042,-54.785145,-81.541169,-96.391903,-104.533265,-42.295418,-69.499306,-80.311764,-84.394123,-31.415085,-55.757927,-63.894402,-64.53423,-22.597184,-41.787392,-50.009228,-51.746018,-5.292035,7.132407,19.188681,21.391787,49.377963,57.838486,54.285849,49.537773,55.694512,60.450034,52.065588,44.56463,54.001501,55.356675,47.486919,40.30437,48.51552,50.193019,44.317937,38.198335,38.042765,61.562262,70.998345,70.28492,56.188145,79.223929,80.284996,75.228767,41.315117,67.051277,69.125891,62.197323,27.060185,51.195459,53.450689,46.1903,14.614763,34.999752,38.18141,33.020153,-5.054518,8.808203,24.491696,30.851957,48.714098,47.648286,32.834269,24.832651,60.065244,58.087934,43.087956,34.149676,64.150497,64.540728,49.892851,41.125806,63.751743,65.215105,54.122106,46.556137,46.318714,475.964226,-95.562636,463.439667
14,-0.83741,1.214321,-1.907158,-1.957537,-35.05053,-61.687924,-73.014645,-73.183342,-54.698868,-81.027718,-95.772206,-103.917618,-42.152756,-68.845276,-79.013684,-82.653694,-31.076157,-54.921719,-62.712765,-63.150078,-21.957047,-41.108025,-49.064438,-50.505169,-5.967004,6.259257,18.711956,20.982321,48.195024,56.778183,53.193781,48.374051,54.80601,59.217658,50.533784,42.784119,53.33472,54.629713,46.713965,39.38965,47.994557,49.719518,43.908742,37.752325,39.518229,63.767138,73.18182,71.424477,57.613747,82.248637,84.013676,79.01397,42.156475,69.289753,72.078455,65.621304,27.798947,52.800654,55.495062,48.546593,15.572554,36.801476,40.201018,35.019917,-4.215787,10.615575,26.759578,33.118617,51.452308,51.791602,36.261379,27.599773,62.589415,61.85745,46.265953,36.698745,66.226212,67.155734,52.117298,42.839898,65.418671,67.169517,55.760715,47.706781,45.53203,477.140863,-97.419068,461.444446
15,-0.992569,1.309233,-1.42442,-1.201432,-34.900269,-61.358036,-72.131001,-71.989758,-54.850788,-80.935273,-95.702763,-104.12241,-42.078713,-68.22654,-77.445362,-80.497948,-30.695824,-54.047402,-61.103749,-60.990681,-21.234101,-40.384186,-47.768109,-48.618897,-6.777874,5.239942,18.008297,20.390702,47.146242,55.920247,52.479267,47.788026,54.106538,57.924677,48.699289,40.637625,52.886115,53.617907,45.38906,37.836342,47.762004,49.00567,42.978768,36.701604,40.065659,64.570567,74.045866,71.618906,58.381943,83.346763,85.246931,80.181038,42.53326,69.902401,73.156371,67.177751,28.061216,53.05931,56.138062,49.612169,15.908177,37.186317,40.824391,35.912018,-3.755092,11.243818,27.472549,34.14519,53.157806,53.788827,38.162919,29.37812,64.20798,63.627662,48.218168,38.555312,67.375891,68.377251,53.578196,44.136932,66.071064,68.28741,56.896901,48.44616,44.590262,478.395475,-98.792687,460.188393
16,-0.847893,1.226042,-0.406134,-0.326443,-34.940758,-61.199936,-71.498806,-71.412346,-55.476574,-81.065849,-95.693195,-104.205483,-42.405808,-67.786034,-76.170467,-78.783932,-30.576096,-53.26078,-59.790539,-59.304955,-20.604034,-39.443161,-46.357693,-46.750534,-7.438208,4.044306,16.698126,19.16408,45.98789,55.053666,51.594013,46.934203,53.011889,56.556696,46.902846,38.501135,51.818525,52.375563,43.949102,36.161893,46.775369,47.844021,41.707796,35.280073,39.628867,63.905889,73.394995,70.394457,58.051129,82.454667,84.039442,78.671231,42.15374,68.655029,71.992192,66.330374,27.682543,51.827703,55.094047,48.915888,15.631248,36.347592,40.079238,35.490063,-3.835182,10.929224,27.124795,34.192262,53.202438,53.859506,38.749097,30.174052,64.445546,63.882036,49.152809,39.645126,67.468929,68.622807,54.600449,45.27459,65.906474,68.710202,57.707307,49.103264,43.771219,479.533887,-99.169971,459.77432
17,-0.356575,0.951784,0.366552,0.56187,-34.795189,-61.142716,-71.281254,-71.24136,-56.019104,-81.490643,-96.257584,-105.301071,-42.707932,-67.826832,-76.013157,-78.849072,-30.605827,-52.971245,-59.308548,-58.834683,-20.40358,-39.133553,-45.901531,-46.248562,-8.052761,3.047382,15.359575,17.64828,45.055669,54.370966,51.461978,47.325441,52.278862,55.579446,46.026064,37.623673,51.167354,51.287755,42.799568,34.869729,46.178366,46.771849,40.529141,34.045188,38.412666,61.930297,71.287834,67.970043,57.08432,79.6459,80.451427,74.665889,41.437351,65.71883,68.85213,63.53421,27.042697,49.280101,52.568069,46.818271,14.984619,34.555,38.317955,34.144443,-4.742407,9.029392,25.000469,32.647776,51.311394,51.949325,37.95021,29.990743,63.036587,62.681571,49.273717,40.315115,66.343963,67.963368,55.393466,46.587425,65.010772,68.837457,58.583172,49.95428,43.424372,480.40124,-98.793691,460.251759
18,0.008835,0.437365,1.338398,1.053264,-34.760536,-61.169518,-71.529087,-71.827,-56.235123,-81.960709,-96.791691,-106.104103,-42.712029,-67.884453,-75.832833,-78.660347,-30.458702,-52.938057,-59.128578,-58.588658,-20.175362,-38.989426,-45.63802,-45.865345,-8.344456,2.423852,14.317216,16.542355,44.648512,54.117851,51.28494,47.349339,51.877608,55.103771,45.441351,36.885102,50.757629,50.473194,41.835991,33.750145,45.83806,45.790821,39.298061,32.741452,36.395885,58.659187,67.882679,64.528335,55.151298,74.299392,73.814495,67.545879,39.847652,60.32975,63.006168,58.076133,25.505401,44.669815,47.812271,42.600963,13.334598,31.02523,34.663799,30.967037,-5.810676,6.577234,22.307448,30.771984,48.483139,48.88769,36.673805,29.86408,60.669694,60.486307,48.987393,41.005053,64.305336,66.380372,55.957989,48.108079,63.25958,68.189486,59.169035,50.776833,43.416115,480.756736,-97.472385,461.223154
19,0.308784,0.049462,1.829383,2.026525,-34.874359,-61.324253,-72.050766,-72.650196,-56.712581,-82.727531,-97.26432,-106.316334,-43.039238,-68.279262,-75.688499,-78.063572,-30.689254,-53.392776,-59.159374,-58.220043,-20.418434,-39.366531,-45.694519,-45.57716,-8.532857,2.018239,13.834637,16.325278,44.603472,54.105045,50.69762,46.456453,51.960243,54.915605,44.736124,35.886783,50.909967,50.143212,41.129887,32.822222,46.128583,45.509844,38.636813,31.894175,34.932301,56.424408,65.64227,63.294491,53.759457,71.207531,69.878918,63.481224,38.930901,57.845318,59.746525,54.376122,24.706913,42.797184,45.478638,40.019841,12.367905,28.964653,32.386185,28.843758,-6.670514,4.608014,19.704285,28.22394,45.90496,44.589516,33.068865,27.024488,58.208446,56.480818,45.616833,38.302077,62.100883,63.45092,53.476499,46.097733,61.222236,65.897706,57.251117,49.272754,43.696855,480.739162,-95.671046,463.182643
20,0.518853,-0.056884,-0.259323,-0.133158,-35.036797,-61.541932,-72.439671,-73.245472,-57.255398,-83.545006,-97.964688,-106.904355,-43.474618,-68.916928,-76.343194,-78.805069,-31.074372,-53.958573,-59.742646,-58.828217,-20.820786,-39.796875,-46.163453,-46.109402,-8.54559,1.921883,13.337546,15.725508,44.905245,54.304041,50.554828,46.120172,52.148495,54.977614,44.667247,35.71282,50.881845,49.888133,40.773871,32.358327,45.906627,44.948347,37.957151,31.141153,36.323971,58.507222,67.704838,65.583264,54.524037,74.04086,73.328636,67.126454,39.561299,60.901818,62.625664,56.467232,25.367569,45.426155,47.89864,41.724633,13.107273,30.862267,34.095074,29.933659,-6.152947,6.114476,21.339077,29.067179,47.06583,45.833045,33.059664,26.540858,59.037,57.196764,44.910309,37.190124,62.984432,64.148082,52.641213,44.865009,62.146195,65.865879,56.303297,48.441963,44.177891,480.625109,-95.968186,462.992316
21,0.644989,-0.402366,-1.040188,-0.948882,-35.244736,-61.869313,-73.15115,-74.311478,-57.463807,-84.147435,-98.52388,-107.358765,-43.600411,-69.487061,-77.295079,-80.040024,-31.222504,-54.477528,-60.618439,-59.965886,-21.07734,-40.259469,-46.964528,-47.212189,-8.324116,2.140393,13.335039,15.709231,45.418824,54.688376,50.608316,45.977258,52.536979,55.322812,45.030401,35.988103,51.080139,49.96647,40.913711,32.42298,45.946765,44.858785,37.889547,31.035547,37.262112,59.906273,69.214646,66.999848,55.564316,75.437394,74.904477,68.776051,40.310372,62.118176,64.086205,58.162869,26.029267,46.453984,49.057103,43.039788,13.785553,32.090928,35.379708,31.087704,-5.922865,6.695363,22.289108,30.142241,48.107807,47.684521,34.672597,28.009938,59.98151,59.015993,46.551598,38.713248,63.845023,65.440703,53.859364,46.030919,63.041157,66.91618,57.273779,49.28661,44.783598,480.188419,-97.047656,462.00911
22,0.483695,-0.65921,-1.052627,-1.277517,-35.395271,-61.971107,-73.66341,-75.419563,-57.488582,-84.345188,-98.667903,-107.280715,-43.700134,-69.786243,-77.917556,-80.784931,-31.393363,-54.826412,-61.471893,-61.171497,-21.345886,-40.624053,-47.768508,-48.411941,-8.008732,2.549835,13.671615,16.082808,46.11606,55.176883,50.703547,45.856782,53.109763,55.95027,45.597356,36.49206,51.564743,50.719615,41.822282,33.390708,46.356491,45.666788,38.878615,32.027493,37.965099,60.987625,70.431358,67.979622,56.32584,76.452976,76.313976,70.465919,40.779121,62.937389,65.441837,59.914398,26.368263,47.043812,49.987987,44.214374,14.049065,32.528126,35.969799,31.730884,-5.021,7.950427,23.778404,31.727596,49.918095,49.652877,36.5671,29.874578,61.628603,60.663247,48.054714,40.123701,65.143758,66.625743,54.94648,47.010465,63.940489,67.732829,58.033025,49.949526,45.237293,479.505083,-98.130283,460.707467
23,0.387978,-0.321979,-1.099915,-0.827258,-35.41999,-62.048447,-74.068783,-76.148895,-57.435287,-84.611092,-99.093979,-107.811539,-43.726364,-70.269344,-78.774353,-81.862667,-31.574798,-55.33065,-62.312347,-62.252563,-21.769134,-41.345192,-48.880405,-49.881512,-8.028764,2.69932,14.088937,16.773919,46.503087,55.594983,51.150966,46.334039,53.58471,56.515854,46.237128,37.191791,52.03296,51.476181,42.734027,34.343196,46.709876,46.492564,39.904092,33.058602,38.491471,61.845017,71.445557,68.659893,57.19883,77.923771,78.001763,72.128735,41.555409,64.274254,67.013947,61.55999,27.106202,48.075096,51.203682,45.473729,14.815899,33.402146,36.928872,32.707547,-4.543632,8.689938,24.694484,32.751863,51.037284,50.799075,37.565036,30.65861,62.81594,61.777027,49.025752,40.880786,66.199381,67.645403,55.806083,47.652015,64.760757,68.546712,58.659853,50.388287,45.601164,479.169871,-99.254305,459.866976
24,0.383217,-0.305195,-0.76958,-0.817328,-35.572334,-62.245331,-74.470505,-76.696301,-57.329762,-84.713791,-99.367607,-108.147068,-43.637558,-70.43597,-79.39064,-82.785496,-31.553146,-55.514877,-62.945927,-63.188782,-21.845192,-41.479317,-49.317902,-50.59148,-7.780293,2.872518,14.105708,16.812587,46.930547,55.849419,51.385469,46.507693,53.839999,56.870585,46.741702,37.633084,52.112605,51.720095,43.201848,34.794121,46.585832,46.582744,40.195875,33.369737,38.922122,62.528343,72.12038,68.820304,57.819969,79.084304,79.34991,73.482959,42.009601,65.291061,68.227283,62.886051,27.458873,48.790271,52.126567,46.503627,15.196826,33.991836,37.607929,33.419517,-4.179898,9.430412,25.555173,33.536797,52.126647,52.117224,38.644396,31.500565,63.899474,63.107056,50.205962,41.869978,67.170715,68.863973,56.909624,48.603996,65.565192,69.51008,59.443083,51.008137,45.963713,478.859653,-100.044553,459.044625
25,0.326019,-0.283398,1.820812,1.472648,-35.550018,-62.398304,-75.046245,-77.81258,-56.830456,-84.549591,-99.59856,-108.711879,-43.201698,-70.617817,-80.497055,-84.486889,-31.277275,-55.730152,-63.851841,-64.61087,-21.810219,-41.879905,-50.345718,-52.161987,-7.839523,3.054855,14.447843,17.131738,46.8799,55.977515,51.934443,47.269212,53.947371,57.407172,47.876577,39.03109,52.376169,52.471833,44.258386,35.986819,46.934241,47.454389,41.321585,34.57928,36.634289,58.956905,68.421055,65.25309,56.612262,74.237514,73.103737,66.795456,41.227226,60.349605,62.608074,57.627239,26.596493,44.603508,47.592098,42.469597,14.018394,30.575432,33.986778,30.382873,-5.305385,6.647358,22.259702,30.797957,49.078499,48.176066,36.404659,30.041946,61.289347,60.223633,49.039053,41.320375,64.836636,66.5325,56.577481,49.075572,63.520648,68.150077,59.310332,51.154918,46.266992,478.569947,-98.246481,460.510965
26,-0.05738,-0.116906,-0.335049,-0.103246,-35.504059,-62.364933,-75.045227,-78.023781,-56.365506,-84.332005,-99.696442,-109.083493,-42.766686,-70.515461,-80.586377,-84.575043,-30.925782,-55.654278,-63.813504,-64.500172,-21.560097,-41.945366,-50.567585,-52.437916,-7.94829,3.32999,15.148043,17.893504,46.852273,56.124407,52.305773,47.726202,54.100611,57.759496,48.24598,39.398776,52.68229,53.135131,44.865614,36.549649,47.299371,48.242819,42.171061,35.383456,37.654873,60.350544,69.827408,67.156002,57.045834,76.508492,75.848248,69.731495,41.636993,63.052803,65.162361,59.374535,27.103569,47.027458,49.87302,44.031303,14.545189,32.114159,35.399265,31.309868,-4.913654,7.992689,23.515322,31.27788,50.595792,48.96573,36.178541,29.611385,62.373177,60.212728,47.794683,39.781418,65.756334,66.641798,55.212636,47.272694,64.24866,67.860393,58.099628,49.894505,46.187949,478.447524,-98.603193,460.402202
27,0.142685,0.227477,-1.0009,-0.366514,-35.680436,-62.701104,-75.46296,-78.486157,-56.235329,-84.577275,-100.161679,-109.664452,-42.574952,-70.720036,-80.890698,-84.805516,-30.7641,-55.833298,-63.930131,-64.451924,-21.462502,-42.206017,-50.796456,-52.524113,-8.110003,3.394062,15.554484,18.40886,46.588635,55.929904,51.925229,47.124543,53.942443,57.663201,47.925421,38.858274,52.562296,53.113122,44.679399,36.241687,47.172905,48.113068,41.959528,35.092759,38.368561,61.585579,71.277145,68.472027,58.34127,78.257847,77.486755,71.107704,42.832317,64.777302,66.538513,60.40805,28.258049,48.72932,51.281021,45.147949,15.750492,34.010341,37.1338,32.737152,-4.926374,8.205593,24.012512,31.835425,51.15766,50.103766,36.920176,29.933179,62.91237,61.233166,48.536923,40.238928,66.272173,67.159847,55.574494,47.501566,64.839402,68.170961,58.328167,50.146596,46.31008,478.664945,-99.624647,460.025632
28,0.074661,0.118449,-1.072804,-0.628372,-35.702202,-62.749661,-75.55204,-78.718964,-56.424374,-84.758091,-100.402279,-109.905361,-42.701317,-70.843266,-81.344799,-85.562084,-30.794174,-55.836628,-64.114449,-64.82238,-21.371819,-42.112976,-50.771244,-52.593373,-8.200343,3.353801,15.432416,18.216458,46.247873,55.609321,51.603276,46.730662,53.664023,57.504849,47.961854,39.011379,52.364905,53.077295,44.692972,36.311811,47.043959,48.095445,41.955935,35.08304,39.23061,62.769665,72.41684,69.308384,59.678604,79.877896,79.306721,73.077015,43.955979,66.199528,68.062775,62.017273,29.190674,49.999913,52.524742,46.315007,16.469078,35.145459,38.249897,33.714924,-4.594095,8.643539,24.474405,32.181067,52.138071,51.267007,37.76055,30.581188,63.850259,62.101426,49.106348,40.686667,67.054303,67.6384,55.865906,47.732303,65.538479,68.690071,58.77897,50.601449,46.366425,478.772711,-100.715767,459.386577
29,-0.063744,0.134604,-0.719307,-0.697249,-35.527107,-62.630527,-75.324783,-78.489052,-56.480404,-84.759464,-100.604484,-110.388794,-42.790352,-71.087986,-82.158394,-86.922924,-30.892547,-55.884727,-64.423576,-65.436355,-21.468864,-42.275276,-51.218536,-53.350056,-8.557434,3.279107,15.502712,18.103084,45.609632,55.466529,52.029773,47.501862,53.35548,57.787579,48.869523,40.376841,52.389926,53.673124,45.434212,37.186468,47.321354,48.888209,42.840003,35.992203,39.91816,63.667866,73.317433,69.680935,60.72939,80.941315,80.423252,74.228543,44.702591,66.945568,68.839898,62.80354,29.635781,50.374649,52.880185,46.644722,16.693795,35.311867,38.372303,33.765667,-4.03303,9.33502,25.264305,33.169827,53.177664,52.506388,38.927411,31.645469,64.846578,63.049246,50.057947,41.542602,67.829889,68.194488,56.478891,48.260319,66.080327,69.063859,59.18183,50.962443,46.29233,478.888438,-101.445425,458.670451
30,0.210205,-0.059873,-0.443435,-0.684355,-35.57032,-62.649559,-75.109668,-77.925647,-56.534202,-84.696762,-100.258816,-109.647995,-42.905365,-71.099602,-82.046253,-86.683719,-31.058738,-55.945781,-64.505939,-65.502514,-21.687263,-42.42659,-51.313957,-53.341678,-8.610268,3.245021,15.505701,17.843102,45.539002,55.41514,51.681118,46.976292,53.378488,57.978412,49.059652,40.646023,52.528519,54.004304,45.78015,37.553574,47.559414,49.303282,43.279394,36.439029,40.246536,64.178043,73.805946,69.775486,61.23769,81.635696,81.332027,75.241699,45.074089,67.469215,69.485412,63.532905,29.863105,50.587566,53.201568,47.043663,16.845062,35.466591,38.641182,34.096401,-3.592009,9.998096,26.117337,34.234206,53.768789,54.066697,40.531291,33.072014,65.491833,64.34283,51.450678,42.873509,68.44659,69.287112,57.602328,49.206261,66.615332,70.040183,60.168972,51.785131,46.493196,478.805711,-101.898199,457.963242
31,0.399651,0.2028,2.480529,1.607117,-35.582154,-62.788181,-75.166741,-77.424053,-57.100994,-85.021317,-100.555287,-110.066391,-43.522453,-71.507664,-82.540833,-87.486202,-31.669281,-56.288899,-64.742031,-65.860314,-22.280113,-42.774147,-51.51685,-53.606255,-8.66872,3.066822,15.285759,17.664101,45.337326,55.186702,51.717119,47.215452,53.247578,57.754407,49.106929,40.985688,52.460903,53.684117,45.580758,37.504286,47.524711,48.98554,42.964653,36.233388,37.870617,60.534359,69.798157,65.610283,59.601666,76.289109,74.898365,68.563958,43.771706,61.873753,63.423192,57.973996,28.406823,45.556641,47.925408,42.37793,15.09565,31.194535,34.283638,30.429406,-4.417699,7.363452,23.014082,31.846033,50.111941,50.524224,38.610914,31.760719,62.300003,61.898205,50.797469,42.916067,65.621915,67.264711,57.66929,50.088612,64.191381,68.746783,60.24196,52.252272,46.877684,478.997334,-99.432833,459.559182
32,0.146828,0.125391,3.344811,1.889525,-35.414338,-62.641377,-74.954499,-77.117753,-57.739872,-85.455483,-101.097806,-111.052014,-44.10006,-71.924653,-83.188374,-88.788449,-32.178383,-56.538655,-64.889935,-66.168972,-22.721787,-42.969887,-51.649041,-53.89333,-8.698694,2.935182,14.791175,17.010485,45.309019,55.251008,52.539177,48.605478,53.30666,57.65011,49.563758,42.117609,52.573708,53.632493,45.555625,37.630651,47.64789,48.963482,42.898369,36.247158,36.040764,57.385357,65.987892,62.155312,56.8694,71.613773,69.691681,63.474312,41.322201,57.411816,58.69709,53.336414,25.965248,41.365128,43.574158,38.251488,12.410053,26.943592,29.978828,26.531307,-5.277264,5.568059,20.540707,29.2055,47.121097,46.754053,35.606152,29.39532,59.229624,58.742364,48.410347,41.170445,62.762662,64.858878,56.032373,49.040016,61.58255,66.700078,58.771251,51.134923,47.009978,479.124834,-96.102556,461.450816
33,1.056495,-0.017253,-0.58112,-0.910287,-35.442901,-62.932594,-75.783336,-78.780132,-58.293182,-85.891228,-101.712776,-112.065719,-44.689796,-72.553425,-84.701031,-91.291168,-32.860794,-57.157997,-66.051212,-67.971908,-23.527313,-43.598511,-52.628986,-55.406158,-8.512826,3.133685,14.221762,15.913538,45.616635,55.301075,53.279626,49.967951,53.428556,57.705056,50.414444,43.759355,52.610869,53.650931,45.634703,37.864957,47.563316,48.857383,42.744438,36.091016,37.143986,59.112786,67.975422,65.110291,56.985215,74.008622,72.684151,66.406495,41.036259,59.718396,61.684388,56.091122,25.745751,43.269196,46.188229,40.728939,12.270642,28.411652,31.942772,28.236672,-5.142192,7.019836,22.87975,31.362231,48.406802,49.657544,37.504532,30.832437,60.197734,61.311366,49.943078,42.260549,63.640555,67.120734,57.14514,49.571687,62.383724,67.887995,59.281247,51.342886,48.038841,479.126767,-96.711308,460.559715
34,2.47879,0.289572,-2.858642,-1.767977,-36.030326,-64.247955,-78.822486,-83.965049,-58.798564,-86.941028,-102.700355,-112.988033,-45.312217,-73.733665,-86.367221,-93.43095,-33.767028,-58.511856,-68.273883,-71.173381,-24.773094,-44.890342,-54.281902,-57.661434,-7.655594,3.690118,14.381053,17.003668,46.602209,54.871601,51.625345,47.626129,53.598938,56.771711,48.751271,41.44327,52.285482,52.487492,44.233179,36.235451,46.969661,47.605937,41.186401,34.224894,36.824787,59.620159,69.983379,68.870888,54.878872,75.005207,76.208668,71.464931,39.195659,61.213245,65.554687,61.672085,24.763996,44.996841,49.716659,45.673084,12.259369,30.218971,35.141498,32.497398,-5.067349,7.960543,24.486571,33.465142,48.502887,54.101364,42.523755,35.585726,60.251285,65.759076,54.71835,46.892782,63.790041,70.75545,60.918165,53.040801,62.681695,70.111159,61.883546,53.881088,50.431314,479.546657,-99.656267,458.922056
35,3.378777,0.106347,-7.122196,-2.88656,-37.113235,-66.377541,-83.06012,-91.392494,-59.635128,-87.27776,-102.522469,-112.304409,-45.883987,-73.415783,-85.176613,-91.184887,-34.012436,-58.059242,-67.545673,-69.976616,-24.803284,-44.054672,-52.991821,-55.91906,-6.353624,5.000153,16.10794,20.863179,47.516966,54.623142,50.62752,46.467839,53.936391,56.116847,47.503591,39.763214,52.530124,51.995662,43.198661,34.692023,47.276436,47.583719,40.878562,33.379531,36.245716,60.198818,72.73534,75.262619,52.590305,75.247902,80.159477,78.428249,36.904815,62.557399,70.57212,69.501045,23.521579,46.983181,54.72504,53.243877,12.284156,32.378883,39.898979,39.713699,-4.707382,9.664446,26.657925,36.377798,49.420609,60.298648,50.527905,43.720515,60.670929,70.893574,60.61155,52.599668,63.967005,74.488683,65.117317,56.734636,62.816373,72.654893,65.629437,57.642553,53.598204,479.8608,-106.99035,456.243292
36,2.586708,-1.705547,-9.163193,-4.368607,-38.140022,-67.832016,-86.101078,-97.607082,-57.897034,-84.918606,-99.187958,-107.80434,-43.718262,-70.65184,-81.623772,-86.199623,-31.613708,-55.201847,-64.852959,-66.883655,-22.313988,-41.171883,-49.818672,-51.96143,-4.307252,7.873388,20.112134,26.411689,50.437391,56.601181,51.075322,46.250293,56.413139,57.484175,48.002436,39.900091,54.825474,53.713361,44.620169,35.69658,49.501168,49.927407,43.046472,35.092191,35.48196,58.652836,72.478969,77.615364,48.834183,73.535763,81.723038,82.827129,33.427872,60.8176,71.690964,73.410587,20.988315,45.244869,55.459282,56.831371,10.795372,30.944355,40.116817,42.084549,-2.279257,13.702689,31.0652,41.32802,51.353459,66.764373,59.646761,53.979333,61.258867,75.852873,67.775709,60.600212,63.555229,77.80757,70.494135,63.031635,61.612166,73.724324,68.862146,62.075837,55.935825,478.497218,-116.40263,452.21665
37,-0.176674,-2.872542,-16.277653,-13.802643,-38.772148,-68.542064,-88.014324,-102.124775,-56.053791,-81.943519,-95.040836,-102.540859,-41.292526,-67.597,-77.819492,-81.305225,-28.749962,-51.782844,-61.238193,-63.073849,-19.14022,-37.626777,-45.789676,-47.311489,-3.343254,9.345504,22.989258,31.162073,52.106343,58.936396,51.885573,45.748657,58.323523,59.473056,48.909191,40.088034,56.980612,56.493759,46.910997,37.712964,51.92886,53.660231,46.673826,38.305435,34.489254,56.980362,71.728964,78.904982,42.196467,68.859404,81.112942,85.394583,27.205713,56.486899,70.90658,75.595087,16.297772,41.794018,55.108366,59.468731,8.059307,28.717324,40.056776,44.343258,1.69377,20.657402,39.664253,51.388112,54.939891,76.504555,72.045521,67.042095,63.329703,83.741142,77.611499,70.774074,64.732154,83.664268,77.964736,70.683134,62.260637,77.286377,74.336924,68.299543,55.416858,476.030024,-133.022576,438.819355
38,-4.060547,-4.569753,-19.360165,-20.537841,-38.020866,-66.459011,-85.26717,-99.660392,-53.364235,-79.035793,-90.988437,-96.828323,-38.78881,-64.227756,-73.283111,-75.052917,-26.197014,-48.536441,-57.545482,-58.425453,-16.513275,-34.270546,-42.156028,-43.05431,0.216929,13.574247,28.899044,39.237484,51.26208,59.886537,51.745215,44.300202,57.302727,61.003812,49.640761,39.746418,56.370555,58.872386,49.171902,39.70281,51.869358,56.39612,49.87887,41.324215,30.387967,50.582863,64.989607,73.004557,29.492804,54.212489,70.29332,78.23041,15.733458,43.103137,60.924082,69.169058,7.026478,30.950879,47.158717,55.088906,1.474423,20.673455,34.256545,41.668843,5.863924,26.920018,47.454018,61.609102,55.656332,83.05063,82.876259,78.918601,62.496814,89.2073,86.61198,80.604505,63.432814,87.532265,84.968443,78.326797,61.12911,79.993638,80.022988,74.978406,50.796226,472.13134,-152.942826,418.952583
39,-10.219345,-17.150461,-21.282886,-29.412228,-40.793358,-70.185917,-89.582554,-103.091915,-55.492355,-83.341392,-90.963192,-92.057636,-40.456936,-68.481903,-74.133064,-71.420963,-27.464378,-52.589561,-58.77103,-55.827289,-17.330108,-37.757046,-43.659164,-41.554195,0.29592,14.820185,32.245917,43.701483,52.017275,62.765478,52.975802,45.589292,60.027292,66.233813,53.94143,44.761738,61.253926,66.30884,55.732427,46.635961,58.530993,65.324205,58.380383,50.230045,27.442818,43.991615,55.21522,62.66958,18.812399,38.794722,55.012047,62.869577,5.709406,27.903253,45.590166,53.435675,-1.915546,17.354439,33.454142,41.40128,-6.273251,9.083656,22.364118,30.000332,10.233334,32.13547,53.336252,68.615885,56.090981,85.480188,85.336816,80.568548,61.070948,89.750704,87.246083,80.760561,61.440734,87.126762,84.865036,78.025159,59.280822,79.358165,79.968673,74.99724,39.791782,455.759055,-175.010811,390.318531
40,-17.621029,-25.719195,-19.625862,-40.363824,-43.559944,-73.517372,-93.226112,-104.864868,-60.218353,-91.312019,-95.552536,-92.96339,-45.528087,-77.615993,-80.762363,-75.003559,-32.8801,-62.397308,-66.119281,-60.112438,-22.722839,-47.227317,-51.548309,-46.937175,-1.02576,13.24434,31.051133,42.440169,48.484114,61.81856,50.840757,42.698644,59.127514,67.411851,54.29841,44.987757,62.947358,69.737655,58.546295,49.415829,62.512672,70.775729,62.844099,54.667578,23.773018,35.426616,41.576986,44.936067,8.989157,21.567541,35.159374,42.081762,-3.734762,10.24225,25.432588,32.56362,-11.354096,0.468956,14.244684,21.546352,-15.773186,-6.194172,4.867178,11.619976,13.648354,35.813152,56.725411,71.984148,57.867071,84.62082,82.927154,77.468294,60.625061,87.81515,84.314211,77.502634,59.367909,84.156568,81.046922,74.054028,55.824602,74.814521,74.745428,70.051304,21.518463,430.84536,-195.288963,350.760207
41,-23.330166,-33.804868,-18.222433,-44.629295,-40.82024,-70.948734,-92.448383,-103.764953,-65.382808,-98.551322,-98.851249,-92.999336,-54.55933,-88.420623,-87.923515,-79.735954,-44.357276,-74.958011,-74.592796,-66.096611,-35.395122,-60.145626,-61.108669,-54.447406,5.867018,19.292225,32.864817,40.067237,47.685151,57.890061,46.728748,39.156221,53.509474,59.757714,47.606542,39.803365,53.437535,58.607415,48.609357,41.787665,49.805573,56.915071,50.566746,44.686748,17.640049,25.431633,27.739574,28.144621,-0.146164,6.293134,17.324569,23.026405,-10.497677,-1.968819,10.846247,16.806295,-16.101145,-8.341908,3.088829,8.948547,-18.71529,-12.08127,-2.922198,2.627815,12.561924,31.09447,48.906648,61.870659,49.371635,71.100592,66.756339,59.463097,51.160871,73.348813,67.20067,58.954193,49.955571,69.908475,64.043193,55.383537,47.006958,62.183097,59.947257,54.152135,-2.399409,397.933761,-214.099102,307.024181
42,-29.445098,-45.947487,-11.698689,-40.746756,-38.118153,-68.06975,-90.275111,-100.927374,-70.627739,-104.219399,-101.776326,-93.850102,-63.491959,-96.765827,-93.454308,-83.200619,-55.379471,-85.525807,-82.215472,-71.730189,-47.198102,-70.947155,-69.356741,-61.132651,9.037315,19.730405,28.908585,32.565821,40.527839,44.205891,31.236057,22.768893,43.311529,44.408037,31.277411,22.778304,41.569118,41.975188,30.90836,23.792545,36.896439,39.80552,32.846884,27.325477,9.029938,11.960392,11.238459,9.752117,-7.35676,-6.22134,1.053555,4.657625,-13.160837,-9.466478,-0.436351,3.5732,-15.322557,-11.178131,-3.275568,0.40194,-15.19281,-11.376989,-5.315449,-1.828125,7.513216,17.563781,28.13928,35.477655,29.960719,41.966234,34.675437,26.01898,31.322736,43.275967,34.410843,25.150411,30.977384,41.362834,32.800794,23.073949,29.652838,37.366835,32.669555,26.071363,-32.410034,353.066953,-226.363318,267.358104
43,-35.37727,-57.475085,-5.944805,-49.893963,-36.219177,-66.487169,-89.398859,-100.44179,-76.633782,-107.830319,-103.676239,-95.659458,-71.976173,-102.623978,-97.19149,-85.957157,-64.918041,-93.160423,-87.252199,-75.678217,-56.563133,-78.565636,-74.433043,-64.895205,4.624136,10.197327,15.044185,16.027924,28.102582,22.714636,6.007395,-5.434268,30.989926,22.337958,5.448436,-6.052451,30.163656,21.330519,6.072048,-3.958597,26.77819,21.979732,11.583772,4.254931,1.36591,0.141037,-1.557398,-2.12693,-12.354761,-14.587349,-10.922733,-9.672609,-13.988886,-14.770689,-9.874546,-8.223781,-13.382921,-13.765652,-9.659757,-8.301189,-11.546848,-12.103472,-9.418156,-8.531982,3.568476,6.259899,11.514217,16.048321,7.614913,16.012907,11.866268,6.078032,7.263559,16.569945,11.733857,5.514448,7.63789,15.59277,10.797257,4.184412,8.454793,14.033442,11.48877,6.937912,-68.426857,296.57353,-232.947676,218.445803
44,-34.043633,-54.533147,0.738522,-43.27412,-31.402244,-58.725729,-78.610342,-88.381307,-76.996604,-102.89653,-98.495384,-91.456707,-74.633674,-99.270618,-92.289882,-81.374748,-68.248787,-90.620189,-82.940134,-71.517316,-59.151993,-75.928917,-70.502695,-61.332864,-1.62282,-5.634911,-9.668306,-14.36435,5.819939,-9.328024,-26.605153,-39.06098,8.283768,-11.020374,-29.811123,-42.380028,7.977535,-10.530039,-28.368942,-39.412658,5.79924,-6.923753,-19.755482,-28.126591,-3.392453,-7.09219,-9.193445,-9.169155,-17.013926,-19.826214,-16.783963,-15.460745,-17.743956,-18.146159,-13.704495,-11.681683,-16.252493,-16.283295,-12.242174,-10.592755,-13.436291,-14.063181,-11.256764,-9.917828,-5.336909,-10.936776,-13.752817,-14.392762,-13.705115,-16.00039,-17.30974,-20.003608,-14.91115,-15.983607,-17.931344,-20.823345,-14.944619,-16.105242,-18.674628,-22.09762,-14.298191,-15.964878,-17.518913,-19.461303,-102.803879,242.462021,-232.542543,175.593321
45,-32.09048,-53.559208,6.093343,-36.913674,-25.599049,-47.580351,-61.308707,-67.056044,-73.371415,-85.0108,-79.022175,-74.85822,-72.044129,-81.923733,-73.832577,-66.255604,-65.090607,-73.788517,-65.092501,-57.528654,-54.615727,-60.999184,-54.566134,-48.305758,-7.22339,-20.763557,-32.927475,-41.654611,-18.343182,-46.781346,-58.649658,-66.407934,-18.384925,-50.871817,-64.311998,-72.021145,-19.828878,-50.051512,-62.963147,-69.298115,-21.963127,-44.49077,-54.036563,-58.617505,-6.726545,-11.871328,-13.043008,-11.60717,-23.758375,-22.577316,-17.732311,-16.649791,-22.65109,-18.641699,-12.754857,-11.08786,-18.738018,-15.107168,-9.489252,-7.975153,-13.128673,-11.677516,-7.91193,-6.625528,-14.042068,-28.515439,-38.584418,-43.649187,-38.167889,-49.366111,-47.408527,-46.843153,-38.943679,-49.819717,-48.177536,-47.061409,-37.538502,-47.614282,-47.169599,-46.717385,-34.680415,-43.337511,-43.609521,-42.875494,-135.151193,189.217659,-226.706034,138.994493
46,-22.175045,-47.264272,9.733973,-36.751437,-25.773858,-45.859137,-56.399924,-60.840849,-70.436234,-75.818814,-69.166729,-64.618481,-66.718106,-70.814141,-62.033341,-54.013333,-57.097722,-61.101437,-52.284915,-44.849379,-43.657506,-46.491864,-40.888636,-36.008818,-17.502709,-37.171648,-51.611519,-60.480607,-43.973789,-76.83366,-89.5373,-97.348601,-41.744445,-79.519969,-94.321111,-102.327642,-39.367419,-74.939756,-90.056393,-97.995798,-36.714034,-64.057827,-77.330633,-85.126635,-7.289846,-12.930204,-13.362797,-11.4589,-30.679493,-25.429436,-17.789337,-16.278356,-29.485542,-21.326042,-12.879896,-11.165016,-24.493464,-17.801748,-9.613827,-7.641935,-17.064274,-14.190508,-8.775238,-7.033201,-20.815107,-41.406269,-56.196426,-63.421038,-54.771291,-73.079504,-67.276981,-62.860018,-54.890309,-73.891886,-68.216631,-62.298144,-52.303908,-69.433914,-65.536481,-60.626592,-47.639467,-61.595002,-60.184721,-56.344531,-157.445652,142.128413,-217.091475,102.418082
47,-12.839997,-36.167833,12.749737,-34.779845,-26.857509,-45.112415,-53.875786,-57.879787,-63.019501,-64.361606,-56.406212,-50.088524,-57.527744,-58.993435,-49.304272,-39.804508,-47.281677,-49.423324,-40.154629,-32.071976,-33.812015,-36.058067,-31.580635,-27.583671,-25.324826,-50.167208,-66.830427,-75.562176,-66.482989,-100.160441,-112.25705,-119.111389,-63.45058,-102.648587,-117.06272,-123.948033,-58.216992,-95.202957,-110.04268,-117.666979,-51.335538,-79.261798,-92.384242,-100.049191,-5.099722,-10.462332,-10.987988,-9.571747,-34.060284,-28.654095,-18.709843,-14.94686,-35.958985,-28.446946,-17.523817,-13.356514,-33.636492,-29.216852,-18.707199,-13.972006,-28.389782,-29.704096,-23.645954,-20.309023,-24.82374,-47.612445,-63.714878,-70.354955,-62.397096,-81.532197,-73.83795,-67.28299,-60.881186,-80.336882,-72.879467,-64.504196,-55.948992,-72.924455,-67.346194,-60.162889,-48.194492,-60.776265,-58.102973,-53.02712,-170.237286,106.234613,-204.293375,67.91227
48,-4.53503,-33.902218,15.433513,-18.951597,-20.197712,-33.714764,-40.15543,-43.780552,-51.340748,-47.15577,-37.845989,-31.5313,-48.305134,-44.941567,-34.039387,-25.240483,-41.123841,-39.255902,-28.956379,-21.411415,-30.852219,-32.374111,-27.5644,-23.795689,-31.333456,-60.634125,-80.434012,-90.030161,-80.854303,-114.32462,-118.03359,-118.272917,-76.645043,-115.131642,-120.353208,-120.15744,-69.045896,-104.408621,-110.636706,-111.869133,-58.597436,-83.064974,-90.010228,-92.959867,-8.043714,-16.627973,-21.729114,-24.501514,-35.557891,-34.118534,-23.97694,-18.324193,-39.251895,-37.163097,-25.346895,-18.746635,-39.488393,-41.132967,-29.525997,-22.37285,-37.21479,-43.739668,-36.666732,-30.570264,-28.725513,-53.690205,-71.33591,-78.780953,-69.153703,-93.670049,-88.368625,-83.203036,-65.516017,-89.938508,-84.810121,-78.162411,-58.946153,-78.977977,-75.031428,-69.491332,-49.638593,-64.46324,-62.772674,-58.336636,-174.409893,72.90395,-188.497439,49.532228
49,0.61314,-25.991829,11.958985,-17.479775,-15.147125,-24.781277,-29.437546,-34.147385,-40.576904,-36.439568,-27.867771,-22.089317,-39.653996,-37.760536,-27.994114,-20.206284,-36.052368,-37.050236,-27.349297,-19.893597,-30.502739,-35.987263,-31.250084,-26.776943,-31.477513,-60.66915,-80.405736,-88.617232,-86.455381,-115.925567,-112.776012,-109.188103,-82.886225,-115.471535,-111.952039,-107.628763,-74.615128,-102.805167,-100.767021,-98.780349,-62.225859,-80.144779,-80.395418,-80.528873,-13.64625,-25.432017,-33.853878,-39.708596,-36.228081,-41.10038,-32.36285,-24.813978,-38.345318,-45.518452,-35.19718,-26.98074,-38.736231,-49.548872,-39.129971,-30.194853,-38.145184,-51.971049,-46.007366,-38.653902,-27.355038,-51.646822,-67.261896,-73.498805,-73.351743,-94.600863,-88.576829,-83.032494,-68.794063,-89.334948,-83.060041,-77.139356,-60.106857,-76.125362,-70.263123,-65.333251,-47.793745,-59.44397,-56.058966,-51.775328,-173.440504,48.01109,-176.182205,33.151422
50,3.864944,-18.418277,7.991621,-13.200448,-10.759929,-19.35078,-25.571617,-34.280811,-31.083881,-36.563804,-29.932949,-22.264835,-32.729793,-42.160892,-33.593994,-23.764972,-33.442005,-45.519298,-36.387989,-25.886535,-33.19305,-47.510147,-42.788074,-35.507022,-30.775868,-58.120982,-77.33603,-85.976698,-85.03522,-107.578511,-104.649145,-102.506523,-81.215414,-105.079404,-100.660359,-97.610074,-71.623438,-89.869641,-87.064573,-87.017099,-57.156218,-66.458609,-65.220031,-66.695131,-19.349705,-34.150841,-45.875336,-54.358017,-35.024792,-47.80957,-40.997132,-31.705776,-35.95451,-53.882916,-45.197045,-35.077355,-37.12262,-58.31044,-49.413929,-38.79142,-39.162689,-60.697666,-55.987953,-47.445637,-24.543306,-47.193314,-60.342237,-65.170477,-75.0983,-91.232701,-84.45237,-79.396006,-70.111955,-84.476107,-76.948868,-72.540981,-59.905581,-70.237864,-62.454737,-58.749268,-45.489361,-52.872648,-47.718606,-44.048489,-169.259669,30.775599,-167.874693,21.13376
51,-0.481121,-14.955165,2.829368,-7.728712,-6.537391,-12.596912,-17.353946,-26.563179,-23.156261,-31.548958,-26.606712,-20.243637,-27.129959,-41.452755,-34.586883,-25.949421,-32.079242,-50.242847,-42.246391,-31.799846,-37.71278,-58.107238,-53.573959,-44.967235,-33.976547,-63.225222,-83.406282,-91.408653,-85.984139,-105.619628,-97.762104,-93.65953,-78.776859,-98.165303,-88.143465,-83.092905,-65.896779,-77.768068,-69.497952,-67.379672,-48.20302,-51.911929,-44.989047,-43.04578,-23.842884,-41.912658,-57.014923,-67.888034,-31.667541,-50.587886,-46.475521,-36.300224,-31.87754,-59.260482,-52.98452,-41.316822,-34.747615,-66.097297,-59.530975,-47.537601,-40.401363,-69.470363,-66.015987,-56.150848,-20.95399,-40.861372,-50.787337,-53.869071,-74.069496,-85.355304,-80.714353,-77.783777,-69.192757,-77.215562,-70.024659,-67.901321,-58.065753,-61.438702,-52.346281,-50.479023,-42.430517,-44.275725,-37.316719,-34.585825,-169.571978,16.972765,-164.876513,14.557379
52,-2.377647,-12.316682,-0.791061,-3.901058,-4.183571,-9.85849,-14.309761,-23.458363,-20.441746,-32.48204,-29.874596,-25.07579,-25.759289,-43.87191,-39.198807,-32.118565,-32.700371,-55.94117,-49.656441,-39.571312,-41.110725,-66.21246,-61.83577,-52.214699,-33.967314,-62.880951,-82.356209,-89.061625,-81.759898,-99.661639,-86.68177,-79.761099,-72.029898,-88.170647,-72.820087,-65.186995,-57.253821,-63.654776,-50.157513,-45.649498,-37.915296,-37.906812,-27.639206,-24.046703,-27.515579,-48.990932,-67.171852,-79.997349,-30.313671,-53.129917,-52.139683,-43.574741,-29.083969,-62.246452,-59.033272,-48.598869,-32.049511,-69.723827,-65.590576,-54.179054,-39.187374,-71.275463,-68.103607,-57.747116,-17.818495,-34.70617,-40.69136,-40.742483,-71.230187,-81.088652,-76.065522,-72.861787,-67.588425,-73.784381,-65.102946,-62.678051,-57.396872,-57.630708,-46.043157,-43.514471,-42.717508,-43.437506,-34.822094,-31.29722,-171.959192,5.238389,-165.677141,11.238627
53,-8.459404,0.163423,-6.453793,-0.57978,-7.872265,-14.7132,-18.820496,-26.604229,-23.610638,-36.767441,-34.123501,-29.033398,-26.409908,-45.788498,-41.653473,-34.744629,-30.912804,-55.057732,-50.047451,-40.766579,-37.106552,-62.17234,-59.005097,-50.589867,-32.73666,-61.050515,-80.850741,-88.1153,-75.678965,-94.393298,-82.272563,-75.12205,-66.11884,-82.996395,-68.838162,-60.78705,-52.318883,-60.0148,-47.158172,-42.208889,-34.506625,-37.020169,-27.44155,-23.742886,-24.746566,-44.598564,-60.423225,-71.665031,-32.02407,-53.433631,-53.042953,-45.552623,-30.243747,-60.715232,-58.395412,-49.309021,-31.901516,-66.260788,-63.34917,-53.319854,-37.009117,-66.199859,-64.550457,-56.201282,-20.875925,-39.581996,-47.853013,-49.833855,-66.506034,-78.074616,-74.385843,-71.178175,-60.506734,-70.411161,-63.720955,-61.051812,-49.077684,-53.24257,-43.689244,-40.730875,-33.974435,-36.680282,-30.35294,-27.597235,-180.555611,5.43672,-172.267949,10.693755
54,-13.031456,2.018355,-12.544189,3.356987,-5.997562,-13.152214,-19.650215,-28.056748,-22.542309,-33.630169,-31.570965,-27.522343,-26.064652,-42.242363,-38.262703,-32.390911,-30.876309,-50.452217,-45.875267,-38.508282,-36.887844,-56.917591,-53.642738,-47.099247,-30.816815,-57.868151,-75.512245,-81.548415,-71.500956,-90.73637,-78.021275,-69.600174,-61.785301,-79.560904,-65.271118,-56.458809,-48.265857,-58.043837,-44.978753,-38.598768,-31.282697,-36.233048,-27.113463,-22.571498,-18.677341,-35.655682,-50.768097,-62.403019,-31.21907,-46.385044,-45.17886,-39.856922,-31.498226,-53.29604,-49.784203,-42.740238,-34.347393,-59.451473,-55.455997,-47.635769,-39.449043,-60.925587,-57.953064,-51.395439,-24.531179,-45.34418,-55.440854,-58.3368,-65.921183,-80.906977,-76.591828,-71.960479,-58.254709,-72.192284,-64.910224,-60.296647,-46.091712,-54.699719,-45.00953,-40.101959,-30.984264,-37.48439,-31.190245,-26.887118,-194.011757,7.18245,-185.236828,13.778117
55,-14.492077,-1.22871,-11.860765,12.701133,-5.35627,-12.674847,-19.920341,-27.309837,-21.750847,-30.478832,-29.967533,-27.595608,-24.191574,-35.858826,-33.871639,-30.086128,-26.890137,-40.911873,-38.898571,-34.545708,-30.387806,-44.687851,-43.487972,-39.923447,-25.225179,-47.293325,-59.952993,-62.333582,-59.862751,-73.94437,-61.063259,-51.36574,-51.160438,-64.324552,-49.688734,-39.457185,-38.718934,-45.665596,-31.623528,-23.50982,-23.680035,-26.431461,-16.861536,-10.895884,-14.255036,-29.144526,-43.090863,-53.891482,-32.909484,-41.582217,-39.684214,-36.268731,-34.956974,-47.742646,-43.440543,-37.987015,-38.194302,-54.216157,-49.524891,-43.366791,-42.099816,-56.539776,-52.814038,-47.712828,-27.240274,-49.317695,-61.579027,-66.129634,-61.804419,-82.156851,-79.821905,-74.965145,-54.115863,-74.385738,-69.113275,-63.530806,-43.406896,-58.065154,-50.47566,-44.625565,-30.549692,-41.85232,-37.087884,-32.014967,-209.247419,5.270885,-197.841178,25.796395
56,-1.374435,22.975618,-9.982453,20.852873,-10.827187,-21.525799,-30.674916,-37.804264,-32.055245,-40.883583,-41.809559,-41.341519,-32.637669,-42.736061,-42.449696,-40.413025,-32.032734,-43.513642,-43.454922,-41.30951,-30.651993,-41.838261,-42.795113,-41.902806,-23.817115,-43.931991,-55.992816,-59.658969,-49.321338,-65.148074,-58.619586,-53.629708,-41.153512,-57.883076,-51.451511,-46.29245,-30.925285,-43.029762,-37.378339,-33.780149,-19.615339,-27.035207,-23.522103,-20.816304,-12.790844,-25.936884,-38.170086,-46.692163,-37.375791,-42.683367,-39.963278,-37.487411,-40.821922,-47.051056,-41.7264,-36.769009,-43.342186,-51.87521,-46.402748,-41.137871,-44.827377,-53.491585,-49.725883,-45.948068,-28.339542,-50.970852,-66.057129,-73.139256,-54.479622,-80.034502,-79.356973,-74.701971,-48.367134,-75.13795,-72.782052,-67.220257,-41.299811,-63.215656,-59.347626,-53.562054,-32.965645,-50.257626,-48.480736,-43.55108,-211.629501,27.465172,-208.831278,45.867937
57,7.25572,30.717706,-4.596725,30.127273,-14.781796,-28.305056,-38.778763,-46.153782,-43.101488,-52.026472,-53.90252,-55.556214,-42.10603,-51.849547,-52.776158,-52.70125,-38.596779,-48.138228,-49.804442,-50.154894,-33.106539,-41.393904,-44.024071,-45.536648,-21.695446,-39.805301,-52.169243,-58.389313,-36.602187,-53.905013,-53.501264,-52.861141,-29.320918,-49.244089,-49.904748,-49.236528,-21.817261,-39.198257,-40.840624,-41.131857,-14.735186,-26.51802,-27.975882,-27.908321,-12.255392,-23.536429,-33.870512,-40.502186,-42.935223,-44.979115,-40.093741,-37.355456,-47.169594,-48.058605,-40.442499,-35.168238,-48.339438,-50.063679,-42.973898,-38.411665,-46.828629,-50.1904,-45.865895,-43.084591,-28.277465,-51.433187,-69.941052,-80.707677,-48.403187,-76.925959,-77.840924,-74.106308,-43.842521,-74.462167,-74.079382,-68.95587,-39.936467,-66.966074,-65.592248,-60.242683,-35.638234,-56.724243,-56.717843,-51.869275,-205.355455,57.651327,-214.409677,75.463659
58,21.101188,37.448994,3.933151,39.081138,-21.698593,-41.060354,-55.431312,-65.112831,-53.999742,-69.98652,-74.754146,-77.704639,-50.972442,-68.349191,-72.233299,-72.867227,-45.493492,-61.840444,-66.263082,-67.301244,-38.258817,-50.331934,-54.820987,-56.71915,-16.227965,-30.06702,-39.967534,-46.214082,-23.405302,-37.963502,-43.619191,-48.172599,-17.376628,-35.632655,-43.084124,-48.119592,-12.102241,-28.118541,-36.180764,-41.625156,-8.0562,-19.340695,-25.138994,-28.552254,-13.805586,-25.698137,-36.673468,-43.901184,-47.157612,-49.992783,-44.27009,-41.532641,-51.884914,-53.212234,-44.417112,-38.62678,-52.626967,-54.20438,-45.914022,-40.968893,-50.164478,-53.005795,-47.686192,-44.254143,-23.723638,-44.332989,-62.326861,-73.704921,-43.521644,-73.038653,-75.298419,-72.481136,-42.887446,-74.319319,-74.613091,-69.497316,-42.87026,-71.068772,-70.110488,-64.686286,-42.342804,-65.01565,-64.849045,-59.270537,-185.103476,95.029608,-211.325735,114.474084
59,20.474568,42.933629,22.328545,38.490166,-25.872231,-47.343619,-61.986614,-70.908348,-62.696371,-79.183119,-81.702473,-82.8032,-59.399529,-76.165678,-79.133812,-78.37052,-52.21843,-68.624399,-72.186361,-71.463713,-43.114374,-55.430323,-59.170006,-59.806446,-17.394239,-30.384423,-40.28663,-46.230644,-19.191071,-32.337558,-39.713935,-45.531589,-11.01126,-28.17667,-38.430595,-45.316815,-4.788374,-20.225511,-30.826559,-38.100999,-0.739943,-11.160767,-18.883023,-23.751852,-18.067286,-32.300264,-42.886724,-49.067853,-53.535897,-61.019273,-55.816032,-52.349182,-56.230593,-62.924794,-54.805757,-47.783358,-54.227064,-61.125973,-53.613899,-47.404957,-48.911644,-56.041379,-52.314897,-48.413448,-19.412854,-36.963222,-53.732964,-65.097366,-35.471904,-63.197641,-68.934648,-68.943294,-36.646288,-66.606209,-70.713864,-67.890472,-38.679964,-65.142452,-67.646387,-64.609353,-40.221489,-60.863108,-63.164636,-59.830427,-164.80422,138.063266,-189.172502,153.064279
60,45.318638,49.146443,34.351884,32.122565,-34.668103,-62.619307,-80.682518,-90.768002,-73.660326,-95.795729,-99.889676,-101.748688,-66.642082,-90.619555,-95.704262,-95.232954,-56.349415,-79.412093,-84.221781,-82.861983,-44.694735,-62.310603,-66.842274,-66.848042,-18.168657,-30.777304,-41.004843,-47.819723,-8.08387,-24.526687,-38.473301,-50.464632,2.659546,-17.9283,-36.351539,-49.960527,8.880042,-9.75505,-28.307408,-41.326106,11.836535,-1.11466,-14.652645,-24.223508,-20.335493,-36.393102,-47.609004,-54.097156,-56.947649,-69.66737,-65.536805,-61.839453,-58.030524,-70.605597,-63.683439,-56.320764,-54.255206,-66.355144,-59.608391,-52.634249,-47.359368,-58.293562,-55.613745,-51.334376,-17.123198,-32.139883,-46.40323,-56.08308,-30.914933,-53.727902,-60.418093,-61.835327,-31.278074,-56.04022,-61.663194,-60.409835,-32.426216,-53.964532,-57.958056,-56.586951,-33.145585,-49.534245,-52.890034,-51.175446,-118.617061,187.567843,-153.952097,185.544978
61,25.801826,26.795553,46.375225,25.754966,-28.264274,-50.785841,-64.674442,-71.257564,-66.052534,-78.414007,-77.860153,-77.372852,-60.52589,-73.557077,-74.698608,-73.072065,-51.126571,-63.932756,-65.402361,-63.494619,-40.654581,-50.689974,-51.709019,-50.447227,-16.641186,-25.547544,-29.564146,-30.492347,-2.07653,-13.231751,-22.749256,-30.946555,11.519002,-2.49718,-15.572073,-25.345694,20.13986,7.72209,-5.48196,-15.082921,24.973355,17.583606,7.971472,0.69297,-20.610208,-37.976653,-50.84031,-58.989096,-57.39287,-75.937075,-73.432409,-70.003455,-57.284708,-76.254643,-71.050158,-64.239,-52.711396,-69.891895,-63.897501,-56.656772,-45.507655,-59.762345,-57.582737,-53.01693,-16.85467,-29.862974,-40.33766,-46.662065,-29.850733,-44.629437,-49.748757,-51.157239,-26.782808,-42.621355,-47.461082,-47.055407,-24.109016,-37.535015,-41.045498,-40.619083,-21.115093,-31.029061,-34.02524,-33.305596,-91.148667,214.635098,-105.910304,211.571646
62,48.509257,21.760228,53.974194,18.099431,-29.297013,-53.254738,-67.817471,-71.500397,-61.941342,-81.10215,-77.450535,-73.268681,-54.567982,-74.103562,-73.003968,-68.502469,-44.934597,-63.736828,-63.246975,-58.586026,-35.419934,-50.564118,-49.736813,-45.69484,-15.655038,-20.720487,-18.128007,-11.986162,0.091662,-5.037907,-12.785657,-18.99954,16.619284,9.63136,-0.691111,-8.144892,28.137304,22.468591,11.802233,4.35128,35.364881,33.727791,25.355732,19.243973,-20.513649,-39.080269,-53.981506,-63.50045,-56.113987,-80.571659,-80.32869,-77.42086,-55.23539,-80.191544,-77.187321,-71.112957,-50.491287,-72.436981,-67.396133,-59.885307,-43.686745,-60.950077,-59.233177,-54.331924,-17.759666,-28.944604,-35.250161,-37.697775,-27.976271,-35.004605,-38.657154,-40.078908,-20.644386,-27.968528,-32.298331,-32.807994,-14.044699,-19.775903,-23.265567,-24.044882,-7.604465,-11.500397,-14.39396,-14.778467,-40.536306,236.534271,-49.833006,229.810022
63,46.077841,9.010378,61.573162,10.443896,-27.615946,-50.535192,-64.038531,-64.501538,-54.092453,-76.049984,-68.87945,-61.048812,-45.956653,-67.678526,-63.671521,-56.537394,-36.768357,-57.621142,-54.467002,-47.242392,-28.36046,-45.563842,-42.417792,-35.902433,-14.805906,-16.504304,-8.25356,3.756868,0.551318,0.499405,-5.512857,-9.782426,18.649741,17.9045,10.424786,5.413229,31.96948,32.248318,24.193624,18.921947,40.768758,44.064647,37.179496,32.34492,-20.045814,-39.703949,-57.032593,-67.631218,-53.111,-83.571121,-86.225647,-84.091667,-51.882568,-82.416298,-82.094925,-76.942634,-47.594879,-73.990402,-70.104286,-62.319855,-41.896637,-61.856758,-60.565063,-55.279358,-19.838184,-29.384773,-31.140732,-29.19021,-25.291548,-24.853404,-27.143282,-28.600333,-12.862808,-12.08174,-16.17494,-17.667595,-2.233265,-0.687195,-4.618264,-6.864348,7.386301,9.051746,6.003808,4.405942,8.064883,245.291043,14.263504,240.000312
64,54.162121,-1.507997,46.67704,2.766755,-29.515979,-54.088327,-67.248225,-65.842932,-50.276845,-76.062515,-70.014605,-62.888074,-38.01053,-64.45393,-61.549852,-55.36509,-26.546562,-51.750327,-50.077407,-44.080462,-16.644383,-37.272807,-35.719752,-29.815191,-7.758796,-3.087805,11.072355,26.596846,12.12912,15.76487,6.938072,0.672734,27.260117,30.225631,21.008217,15.186188,37.835389,41.74748,32.155384,26.113145,43.997206,49.932401,42.175732,37.020844,-15.969085,-31.394787,-45.920567,-54.952396,-36.922279,-65.553927,-70.130369,-69.713804,-35.62327,-63.617839,-65.806462,-63.568954,-32.229817,-56.026336,-54.075778,-49.071432,-28.334271,-45.264148,-44.870563,-41.447575,-19.663246,-26.830465,-23.834832,-17.530453,-22.36758,-15.221314,-13.944308,-13.644675,-7.096822,1.353319,0.776859,0.26649,6.148254,14.50568,13.144691,11.130507,17.942461,25.233725,23.99311,22.153755,64.618733,243.464374,63.332273,242.448395
65,36.605022,-8.655194,37.821156,-2.225838,-23.421858,-43.513177,-53.45714,-49.733121,-41.869876,-62.860909,-53.005717,-43.987914,-31.674243,-51.691003,-44.784146,-37.555582,-22.339325,-42.144987,-37.407591,-30.973288,-14.117715,-31.027041,-27.123118,-20.506936,-3.962546,3.617265,20.621574,38.083934,9.583686,15.906762,10.302646,7.195948,21.324818,26.991838,22.038655,20.048829,29.833842,36.068902,30.239853,27.469253,34.878843,42.216284,37.056414,34.460797,-11.926529,-22.258452,-31.154082,-36.580111,-17.744763,-42.732443,-49.171321,-50.487735,-13.545804,-38.49933,-43.780177,-44.588871,-9.830031,-31.028778,-32.591776,-30.816921,-7.211142,-21.765516,-24.199503,-23.503775,-20.972626,-28.582295,-24.412544,-16.096483,-22.565923,-11.015044,-7.642189,-6.856492,-5.006462,9.390513,10.578482,9.831863,10.550996,24.581537,24.348412,21.783999,24.087978,35.806136,35.499027,33.118255,103.471735,234.678158,103.401409,240.091535
66,48.683302,-15.15941,21.925621,-6.330386,-23.898148,-45.784195,-57.036004,-54.480675,-38.095276,-64.470578,-57.653813,-50.247414,-26.490624,-51.860253,-47.725113,-42.211854,-16.869622,-41.552605,-39.15873,-33.863549,-8.917786,-29.581284,-27.407593,-21.579712,2.654675,13.714704,30.729042,47.016986,13.590253,21.679198,15.954429,12.709408,19.130697,26.72254,22.281475,20.61367,22.742009,30.807083,25.984178,23.739106,24.308605,32.342432,27.388024,25.161119,-3.028519,-4.068196,-4.936986,-4.715076,3.443859,-9.82508,-12.309989,-11.198767,7.559729,-5.335231,-6.819596,-6.244343,9.901492,-0.641007,0.509495,2.85785,10.438495,4.134171,3.709057,4.566829,-21.341374,-28.117912,-23.706267,-16.478411,-19.250888,-7.421928,-4.000676,-3.38409,-1.718941,12.672368,13.934786,12.561788,13.540371,27.46729,26.82289,23.424927,26.643021,38.51661,38.142279,35.226194,154.838671,220.007885,128.010664,234.250286
67,23.544456,-22.873934,19.552311,-16.776391,-14.224068,-28.564407,-34.541794,-32.233269,-27.08638,-38.270073,-32.520538,-28.119553,-18.4953,-27.44902,-23.717262,-21.881355,-10.394783,-19.757057,-17.621246,-15.860001,-3.087524,-11.766335,-9.184204,-5.964043,9.676203,23.603972,39.279376,52.008074,19.727429,27.896193,24.67586,23.064026,17.625927,25.90042,24.65773,24.949859,14.747283,23.309126,22.376954,21.954408,11.496013,19.215333,17.398994,16.776858,4.749641,11.772285,18.479942,23.506439,21.526428,21.754463,18.331032,16.939384,26.443496,25.318496,22.371277,19.849777,28.957626,28.295013,26.906913,25.643165,29.762672,31.728332,29.048927,26.544639,-23.066496,-31.828052,-29.153926,-21.707271,-21.308252,-8.632374,-5.01653,-4.886508,-3.103798,13.064164,14.135916,11.933082,12.844431,29.077478,28.190755,23.712627,26.088289,39.974919,39.667773,35.811126,181.039072,198.092842,150.21892,218.432786
68,10.865327,-17.87891,6.101097,-20.814026,-4.085183,-7.34685,-4.666131,-0.82619,-9.321995,-3.447326,-1.538919,-1.990246,-2.799183,4.793436,5.231168,2.311327,4.021889,9.483893,8.848678,6.302985,10.543726,13.715415,14.164939,13.579519,3.696204,11.525455,22.324923,33.029853,10.050141,15.919621,14.767107,14.122578,10.252885,16.197646,16.369088,17.620391,9.71122,15.642585,16.393143,17.296831,8.551802,13.755462,13.718232,14.498325,13.039924,29.257553,44.832298,55.438247,41.847633,56.68943,52.749756,49.096412,47.207245,60.162437,56.139816,50.919365,49.716934,61.42852,57.762428,52.741859,50.389961,62.663292,58.443924,52.268692,-24.715035,-35.418678,-35.731197,-31.467714,-21.753942,-14.893274,-11.89823,-11.028315,-4.038601,5.877083,6.756186,5.301668,11.094202,21.985937,20.960893,17.679439,22.963286,33.607637,33.145497,29.979108,194.403789,181.491289,158.819407,198.896117
69,6.758579,-15.37359,10.123009,-17.285102,4.079608,10.037238,20.18632,26.643896,6.827577,25.457348,24.286727,20.018335,12.218408,31.575124,29.130423,22.760243,18.168686,34.238681,30.901355,24.766956,23.973248,36.016772,34.129207,29.745497,-4.001546,-2.262511,3.363674,10.790175,-0.324615,1.73338,2.387908,3.20697,3.521561,5.587742,6.88395,8.867043,6.443324,8.71177,10.497923,12.224585,8.179694,10.785359,11.847283,13.344508,16.404441,36.693695,56.759491,70.662048,48.025039,71.105346,66.508369,61.353858,54.199218,74.250549,69.38047,63.240257,57.121719,75.228309,69.982452,63.968147,58.212913,75.608757,70.054184,62.099304,-28.75382,-42.526928,-47.301618,-47.237614,-23.816393,-24.741401,-25.254831,-25.208309,-5.546533,-4.578064,-7.389486,-9.502906,9.187819,12.366051,8.185129,5.022161,19.897552,25.031827,22.710431,19.971454,203.647223,167.532926,171.427271,183.026242
70,3.067616,-11.937185,8.056251,-16.021799,9.089507,22.669286,39.448691,48.985822,19.92432,49.011921,44.43693,36.654758,24.87833,53.045343,47.407292,38.366258,30.290886,54.301268,48.23741,39.357321,35.487383,54.119879,49.768149,42.234197,-13.143936,-18.347863,-17.575044,-11.884476,-12.212327,-14.164611,-12.459847,-10.452653,-2.984452,-5.48133,-3.985873,-1.478085,4.78381,2.698463,4.583501,7.011522,10.506512,10.067061,11.611308,13.857553,18.981606,42.889092,65.687759,81.177086,48.619331,81.048752,76.162834,69.469986,52.795349,81.929787,77.397972,70.847488,55.451889,81.612373,76.654701,70.028389,57.32428,80.667961,75.603355,66.934158,-31.381917,-46.538797,-52.818671,-53.069069,-26.387606,-33.152573,-34.439211,-33.361314,-7.042165,-13.886914,-17.624197,-18.827947,8.137766,3.863662,-0.891688,-2.778571,19.060278,18.715081,16.010363,14.451054,208.629224,156.990037,181.397907,168.398739
71,-1.719072,-6.48138,11.656403,-13.224147,11.92788,31.96138,54.604386,67.046219,30.274224,67.188378,59.445946,48.952332,35.169571,69.684952,60.799462,49.49469,40.206665,69.764168,60.825943,49.753166,44.859581,67.732064,60.681015,50.926758,-23.545049,-36.760527,-40.204724,-34.709919,-26.722824,-31.719556,-29.179589,-26.782994,-10.805803,-16.884588,-15.622039,-13.026731,3.260891,-2.581958,-0.943484,2.167094,14.247487,10.871531,12.611917,15.723767,16.719864,40.497802,64.427925,79.546806,46.059448,81.591728,70.833435,58.60675,50.888946,82.162422,71.065864,59.221733,54.835212,82.593429,71.689705,60.270813,58.353721,82.620781,73.24221,61.267479,-34.3016,-52.973128,-60.633341,-58.648442,-34.416221,-42.40457,-42.483795,-40.545197,-12.645731,-20.980567,-23.628313,-23.41793,5.302113,-0.888798,-3.977924,-3.622192,18.532472,16.237481,14.684409,15.060296,207.794197,151.466872,193.938355,156.132807
72,-7.593017,-0.103247,0.989547,-2.790118,13.341179,38.207313,65.376548,80.165748,37.510276,79.834259,69.841987,57.309814,42.719833,81.572456,70.080459,57.269783,47.762901,80.948547,69.419883,56.891441,52.191353,77.599159,67.94815,56.455879,-34.366352,-56.136299,-63.928398,-58.632485,-41.734435,-49.190625,-46.549263,-44.487207,-17.749316,-26.842385,-26.539265,-24.475825,3.646053,-5.341336,-4.866945,-1.742263,20.45354,14.687175,15.886208,19.18573,15.313157,40.299477,66.214669,81.775017,44.71074,83.277146,72.62011,60.141701,49.435891,85.176018,73.743943,61.50911,53.642075,85.302178,74.056137,62.181931,57.059922,82.967469,73.660881,61.766602,-34.845165,-54.656654,-62.840208,-61.263794,-36.559504,-48.079778,-47.709782,-44.841581,-14.127074,-27.395607,-29.115134,-27.213641,4.498233,-7.318758,-9.222288,-6.28902,18.351099,11.253432,10.478415,13.118937,200.674673,151.99708,195.401395,153.976144
73,-1.579514,0.901877,-0.225746,0.102864,12.83281,37.818123,65.064446,79.95726,37.082405,78.726906,68.220612,55.76722,41.597008,80.332512,68.75679,56.52079,45.991539,79.939041,67.987015,55.423096,49.849732,75.714523,65.839485,54.133965,-34.688392,-55.9488,-62.419959,-56.530674,-40.144004,-48.191256,-46.608926,-44.57898,-16.132702,-26.440093,-27.467904,-25.275283,4.911875,-5.396924,-6.307051,-2.940517,21.145775,13.6554,13.432629,16.949217,14.249153,40.226898,67.269654,81.630432,41.930741,82.787064,71.313126,58.1502,45.770027,84.275139,72.306565,59.698197,49.427834,83.834427,71.853928,59.454003,52.540421,79.566376,69.744416,57.90493,-35.476439,-55.980855,-62.508954,-57.316868,-38.458379,-48.328905,-48.262733,-46.019803,-14.992123,-27.464595,-29.860202,-27.655972,4.889916,-7.159466,-9.526557,-5.983158,19.910395,11.143319,9.87625,13.45124,199.41445,153.242412,195.49494,154.422463
74,-1.520073,8.658721,-2.565307,1.694147,9.304291,31.658989,56.742043,69.383171,32.585968,70.384766,59.41745,47.874474,37.109062,72.442467,61.055306,50.108513,41.213036,72.617996,60.889511,49.582375,44.634003,68.20665,58.62793,48.348755,-32.428414,-51.014835,-53.707509,-44.527691,-35.486854,-39.73124,-40.042421,-39.540036,-12.123059,-19.180258,-22.288667,-20.981538,8.180884,0.387435,-2.416585,0.441203,23.803442,17.292178,15.51417,18.663544,12.409607,37.514396,64.352554,78.032638,36.526725,78.007049,66.126617,53.088089,39.624389,79.216621,67.264778,54.717086,42.741783,77.808586,65.978096,53.494514,45.722053,71.997894,64.041824,54.32666,-34.543786,-54.975817,-60.008914,-50.925941,-37.2096,-44.522757,-44.844267,-43.378862,-13.4113,-23.04429,-26.132268,-24.095826,7.072756,-3.200314,-6.085873,-2.525839,22.869043,15.949551,15.684012,20.59932,197.905231,162.044302,192.940487,156.259779
75,-1.876419,15.48448,-16.097432,-0.411196,3.936425,20.648483,40.976212,49.634651,25.458985,54.239868,43.951973,34.883011,30.935143,57.753021,47.549217,39.132088,35.182114,59.191452,48.42675,39.543869,38.257828,56.093399,47.253937,39.399948,-27.859525,-40.746466,-37.820373,-25.450018,-26.947497,-24.308494,-26.851635,-28.600518,-5.303977,-5.510841,-10.813361,-11.426691,13.612866,11.829959,6.912243,8.129047,28.29972,25.835471,22.305669,23.786568,11.806687,36.247467,62.645062,76.018261,36.955067,77.527142,65.33257,52.43779,39.943474,79.093518,66.68945,53.826256,42.426487,77.110188,64.877999,52.09655,44.586251,70.444405,63.317482,54.60204,-34.595304,-55.264785,-60.019989,-50.256811,-37.03304,-43.94866,-45.580897,-45.109963,-13.911546,-22.895293,-27.07537,-25.002689,6.059648,-4.05715,-7.946123,-4.114121,21.612898,14.697012,14.154488,19.706866,195.557859,177.33717,176.372102,155.656971
76,-1.137039,20.29084,-28.256813,-4.938934,-4.254158,3.374519,16.283546,19.865067,15.395462,30.320229,21.289925,15.759522,23.086258,35.783318,27.500839,23.226196,28.080597,39.566895,30.629631,25.628494,30.947754,39.667442,32.118256,27.406402,-21.167646,-25.113769,-15.045062,0.418161,-13.416105,-1.977816,-7.633142,-11.833726,5.86519,14.443174,6.339668,3.000996,22.679605,29.11527,21.272794,19.613561,35.919375,40.014316,34.205517,32.63198,11.602318,35.545304,61.540203,75.224568,41.764515,80.993672,68.772183,55.822655,45.62407,83.218014,70.510563,57.786988,48.057164,81.369793,68.481331,55.497711,49.537606,74.630997,67.159676,58.222058,-36.353671,-57.851262,-63.358797,-54.033003,-39.615745,-49.141499,-51.676446,-51.006936,-17.245414,-28.729027,-33.713996,-31.165349,1.927113,-10.289323,-15.228929,-11.177368,17.240783,8.057991,6.027844,11.204736,193.921183,196.71872,147.615652,149.808747
77,-4.893562,25.867025,-36.69088,-15.365151,-13.413002,-15.133187,-9.912758,-10.781365,5.450958,5.390281,-3.260331,-5.164787,15.509742,12.370674,5.136772,5.370483,21.230461,18.490471,10.974792,10.315063,23.826301,22.471183,16.053772,14.941955,-14.587757,-9.7331,7.630462,26.724232,1.099775,20.55938,11.758217,5.565787,18.198921,34.712142,23.648691,17.745463,32.897792,46.688795,35.970442,31.819555,44.576202,54.886792,46.595021,42.336737,5.587098,25.390446,48.386387,61.05019,34.894181,68.899991,60.814374,51.474679,42.089585,76.517888,67.543202,57.691933,47.240948,79.040509,67.176224,54.891312,50.988785,75.17791,67.620209,58.587628,-39.809762,-64.055505,-72.484452,-66.319921,-49.205096,-65.958755,-73.363963,-75.860508,-28.160571,-44.772642,-51.432999,-50.620644,-8.785737,-23.817961,-27.224256,-22.936486,7.8466,-2.270136,-3.952616,0.826498,188.444865,221.425523,110.342016,133.283374
78,-6.663941,30.127322,-40.316917,-18.535729,-23.797622,-35.782288,-38.615753,-44.059753,-7.403892,-21.829765,-28.961746,-26.866401,5.796112,-12.686325,-19.086799,-14.879104,13.072838,-3.907654,-10.313988,-6.944069,16.10186,4.240036,-1.79187,0.269508,-7.023578,6.261233,29.659785,50.906719,14.052615,42.713625,32.358019,24.214473,28.935255,55.511039,43.351865,34.643426,41.839251,65.268284,53.561937,46.656598,52.376823,71.21538,62.492541,55.431888,-2.317057,11.370077,30.721464,43.690132,24.95335,53.650978,50.095225,44.132795,36.749348,67.334685,61.626915,53.741312,45.995013,74.248169,64.365566,53.351172,53.125133,74.555283,67.794182,59.726818,-41.133089,-68.369318,-81.880373,-80.604761,-61.147151,-85.45123,-96.203286,-101.201543,-43.467165,-64.59806,-69.580951,-68.358873,-25.367184,-42.815856,-43.120961,-37.848665,-8.420928,-19.877822,-19.609977,-14.566978,180.627514,250.264333,68.871689,113.459133
79,-10.630142,29.242595,-45.395691,-20.294026,-31.522652,-51.238457,-60.264374,-69.367584,-18.254807,-43.818451,-49.580658,-44.306984,-2.911118,-32.919632,-38.339333,-30.957832,5.640541,-22.137169,-27.550171,-21.080246,9.357048,-10.360909,-15.918694,-11.496147,-1.905716,16.91343,44.25769,66.505046,24.263161,58.23648,46.292539,36.816917,37.926012,70.361927,56.88131,46.293749,49.522703,78.66059,65.829097,57.078578,58.926376,83.271407,73.856844,65.016453,-9.162901,-0.989061,14.98324,27.833519,16.331452,40.218888,39.846182,36.210955,32.615605,59.834399,56.160141,49.527838,46.359106,71.388085,63.511265,53.97262,57.355007,77.013726,69.946061,61.8559,-41.761918,-72.119952,-90.51016,-94.443566,-75.355964,-107.192228,-120.568843,-127.809333,-61.955998,-88.207601,-89.532429,-85.652366,-45.881041,-66.771168,-63.891379,-56.60379,-29.41542,-46.054377,-45.476854,-40.322525,168.489681,278.329245,21.968307,91.987424
80,-12.289352,25.18076,-40.589178,-18.817107,-37.104332,-61.868752,-75.443963,-87.616082,-29.119652,-60.064614,-64.709313,-57.850686,-12.620797,-47.993821,-52.917778,-44.305939,-2.840699,-35.624405,-40.999627,-33.57724,1.863006,-22.116166,-27.982705,-22.890152,1.58601,23.103509,52.01935,74.809402,33.349237,68.087721,55.516906,45.228583,46.357714,79.798699,66.389535,55.415388,56.694202,87.217505,74.663115,65.087182,64.616669,90.629413,81.750407,72.178723,-14.210678,-10.393118,2.46016,14.728655,6.766977,27.209988,30.90263,30.512924,25.460707,50.187636,48.676775,43.235544,42.109028,64.91886,59.35223,51.289501,55.986002,74.546471,68.55395,61.259239,-41.482612,-73.473327,-94.47806,-101.39854,-85.169935,-121.624989,-137.443885,-146.834734,-75.060951,-102.467155,-101.185837,-95.906686,-60.557518,-81.795523,-76.620226,-68.273081,-44.67224,-62.778066,-61.288643,-55.9488,154.648013,302.615202,-20.173187,72.275514
81,-17.635415,23.056703,-35.782665,-17.340189,-39.427276,-66.098671,-81.402145,-94.249649,-35.662353,-68.621681,-71.587211,-63.373718,-18.928802,-55.764267,-59.950973,-50.427223,-8.298225,-42.723793,-47.588401,-39.201553,-2.47863,-27.796096,-33.284454,-27.432838,2.162437,23.799201,52.691984,74.445333,38.724387,70.870737,57.157045,47.154565,51.86322,82.919428,68.894156,58.260846,61.509153,90.086194,77.173022,67.854502,68.11347,93.282234,84.06601,74.800163,-17.460388,-16.842093,-6.847778,4.37554,-3.740072,14.624279,23.264568,27.038704,15.284655,38.394396,39.176817,34.864431,33.244778,54.840494,51.888462,45.301815,49.018118,67.153519,63.617849,57.936836,-40.29517,-72.429442,-93.784071,-101.469682,-90.589065,-128.74951,-146.82841,-158.277745,-82.782025,-107.37672,-104.541175,-99.121833,-69.396614,-87.888917,-81.307502,-72.856536,-54.191387,-70.048886,-67.045343,-61.445803,135.060133,325.844432,-57.908317,55.107852
82,-13.720298,16.87488,-31.543121,-11.307946,-41.673317,-70.009095,-86.673878,-101.053437,-43.380799,-77.130204,-78.050629,-68.519142,-26.278336,-63.488617,-66.22522,-56.305344,-14.620858,-49.493409,-53.535576,-44.938294,-7.543671,-33.830384,-38.996956,-32.960518,1.67314,23.395218,52.211443,73.405222,42.272665,71.840282,57.555188,47.307312,55.86834,83.914191,69.797553,59.920303,65.25896,91.313854,78.390741,69.292262,71.144132,94.418591,85.523382,76.550245,-13.323418,-10.073084,1.6707,14.177335,4.556722,25.846595,35.661941,40.250873,22.332098,42.910348,40.25239,33.491769,38.133247,56.257021,52.342929,45.067623,51.59844,67.248081,63.645074,58.175434,-38.872724,-68.241108,-85.946498,-91.076216,-89.0528,-122.188522,-137.392897,-146.75986,-82.023649,-99.885407,-93.790453,-85.976818,-69.661028,-83.31599,-77.400806,-68.897197,-55.622143,-69.27054,-66.064518,-59.988512,118.851019,343.93005,-91.940254,45.010644
83,-11.586113,12.080048,-30.35709,-13.348157,-43.126602,-72.676117,-90.600792,-105.471703,-49.53756,-83.661358,-82.718365,-72.06823,-32.262497,-69.3918,-70.401055,-60.042321,-19.732704,-54.729081,-57.417298,-48.331124,-11.482338,-38.373986,-42.574768,-35.819252,1.213915,22.45224,50.436502,70.896229,45.123299,71.301805,56.175153,45.74657,58.910116,82.958628,68.468326,59.422928,67.97231,90.46265,77.359015,68.608635,73.217612,94.009346,84.986388,76.275023,-5.150111,3.752769,18.115842,31.39425,20.494039,47.054683,59.060285,65.104448,35.66831,54.360191,48.437307,39.96548,47.756864,63.039144,57.245853,49.026311,57.392297,70.601989,65.677614,59.594753,-38.052206,-63.753475,-76.195852,-78.090179,-83.814717,-108.912826,-120.212784,-127.055928,-75.050565,-84.522982,-77.616946,-70.58831,-61.805614,-68.833657,-63.912226,-57.192583,-47.471176,-56.459084,-53.443734,-48.377903,104.97741,357.779954,-124.58484,33.432343
84,-9.863182,8.004941,-27.948178,-16.325487,-44.000588,-74.061745,-92.629372,-107.558693,-54.46859,-87.477219,-85.097283,-73.800877,-37.194764,-72.773186,-72.790032,-62.572541,-23.982857,-57.728875,-59.640496,-50.53022,-14.771073,-41.334687,-45.089928,-38.057671,0.868334,21.77117,49.123132,69.386233,47.081342,71.006564,55.744221,45.131153,60.888388,82.135285,67.881931,59.549034,69.663208,89.674813,76.880473,68.460965,74.390906,93.142506,84.473724,76.019252,7.10301,24.120014,41.682524,55.193419,42.071314,75.07275,90.140379,98.552851,52.718668,71.228073,62.660494,53.427258,59.416495,74.065195,65.61834,56.042296,63.912638,76.556969,69.519808,61.971943,-36.096028,-56.253023,-61.571805,-58.997595,-73.4673,-86.997334,-92.517441,-95.776257,-61.25816,-60.127081,-54.625625,-51.461127,-45.735891,-43.96006,-40.76414,-37.698578,-29.721403,-31.432921,-29.411055,-26.953802,93.120953,367.71286,-154.526293,19.034821
85,-10.686242,6.984552,-23.617338,-18.585433,-43.529182,-73.54914,-91.80186,-105.701934,-55.919151,-88.356868,-85.243629,-73.483566,-38.561279,-73.481998,-72.757312,-62.350479,-24.858741,-58.248069,-59.128074,-49.431701,-14.829803,-40.880104,-43.98072,-36.476966,0.140976,20.746187,47.804575,67.63141,46.085394,70.138193,55.002524,44.462816,60.057549,80.94323,66.234455,57.920256,69.013977,88.30593,74.991293,66.709649,73.882836,92.244482,83.114486,74.847254,18.227486,41.976837,61.88094,74.518856,62.268608,98.494617,110.112099,115.518906,68.110279,87.916832,77.302368,67.183479,69.445507,85.253529,74.407059,63.64991,68.571213,81.935452,72.997948,64.203896,-32.156452,-45.544189,-43.683217,-37.083938,-59.123623,-60.502893,-61.299708,-62.804837,-44.370777,-33.653567,-29.466178,-29.319101,-27.268951,-17.417932,-16.216584,-16.427517,-10.251599,-5.554937,-5.096039,-5.159419,80.826765,376.870375,-179.751577,2.622351
86,-7.169014,3.817978,-19.003578,-19.792507,-43.315269,-73.396133,-91.640476,-105.341594,-57.891265,-88.57378,-85.954502,-74.915851,-40.644607,-73.917366,-73.489437,-64.010684,-26.613052,-58.401786,-59.507537,-50.722206,-15.999938,-40.919792,-44.598381,-38.12075,0.134382,20.293075,46.9047,67.354719,45.538336,69.846225,55.977836,45.141762,59.751897,80.346882,66.363971,58.159984,68.779104,87.504447,74.738624,66.375222,73.697067,91.426932,82.934311,74.718518,27.357582,56.640255,78.494819,91.03046,78.542599,116.487053,128.224354,133.403824,79.609176,100.168865,87.17506,76.79211,75.86087,92.847313,79.262249,67.878181,69.99559,84.457191,73.50563,63.773632,-25.159082,-30.448381,-21.894541,-12.725395,-42.224203,-32.023961,-26.96178,-24.790561,-26.900005,-7.943017,-5.304107,-8.396327,-9.673764,7.684981,6.654391,2.946328,7.285418,17.745376,16.346427,13.509588,72.472543,382.334502,-199.940363,-15.524007
87,-6.982933,3.072429,-15.137055,-13.880604,-42.464744,-72.480548,-90.438858,-103.531414,-58.06977,-87.929592,-86.099716,-75.936687,-40.933479,-73.206459,-73.462268,-64.872562,-26.68872,-57.576095,-59.103961,-51.033714,-15.657554,-39.755928,-43.980606,-38.33377,-0.146138,19.853141,46.385983,66.770264,44.52017,69.458358,56.748666,46.24681,58.732855,79.908281,66.323438,57.926654,67.775091,86.82019,74.279497,65.818801,72.729389,90.802487,82.629425,74.532291,35.397435,67.627156,89.59655,101.898663,82.405335,118.028962,127.793187,131.09784,76.038918,98.757328,88.808899,79.881913,66.164463,86.195778,76.236889,66.733361,55.236237,72.385827,65.948491,58.818844,-15.445395,-15.450564,-4.069346,6.572758,-32.234369,-16.07236,-6.039789,-0.914696,-20.491874,2.292843,6.850239,4.131819,-5.772082,15.485936,16.842728,13.178545,9.926046,23.703007,24.254451,22.104542,64.937599,386.165908,-215.629429,-28.645634
88,-6.131012,2.257299,-11.751239,-12.725457,-41.37355,-71.04634,-88.401844,-101.339813,-58.325912,-86.904956,-85.694572,-76.547046,-41.307334,-72.063869,-72.523395,-64.847362,-26.78675,-56.404243,-58.089626,-50.808197,-15.23529,-38.313262,-42.86515,-38.122947,-0.275555,19.58954,46.084913,66.396328,43.767556,69.512883,58.258685,48.201705,57.894864,79.704369,66.591904,58.033062,66.82842,86.278639,74.030383,65.41851,71.797611,90.171817,82.494191,74.528425,39.423317,71.370918,91.402187,99.679973,77.780193,110.36903,114.906623,114.644256,65.138008,91.28714,82.311687,73.711326,51.331192,75.770015,67.006199,58.17873,37.905189,58.898655,54.161464,47.530712,-8.995756,-5.868999,6.003277,16.45488,-27.635291,-3.687141,7.887504,11.3514,-19.090498,11.660522,15.414274,9.770966,-6.065415,22.787928,23.093197,16.245972,8.908418,28.286728,28.084594,23.239188,58.221279,388.426915,-227.965976,-41.367383
89,-4.954261,1.443811,-7.806118,-7.464312,-40.333741,-69.631989,-86.491883,-99.34964,-58.381382,-85.463299,-85.546875,-78.186035,-41.490944,-70.882714,-71.862316,-65.387112,-26.692681,-55.067528,-57.011971,-50.640553,-14.639237,-36.669136,-41.472679,-37.532708,-0.174717,19.519898,45.83475,65.833868,42.975063,69.513439,60.463126,51.330586,57.113339,79.669851,67.279062,58.626804,66.007819,85.900739,74.117414,65.400467,71.009405,89.709504,82.527425,74.640959,38.46385,67.20441,82.991094,86.632009,66.707817,92.207685,91.167869,86.979068,49.807691,74.310779,68.180437,61.789775,33.430177,57.567478,51.872972,45.666406,18.479896,38.920074,37.006038,32.622224,-6.049972,-4.242575,4.519587,12.393956,-31.350172,-9.362026,-0.71415,-0.95788,-26.33355,6.199127,11.734542,5.91932,-15.340504,15.808291,17.842182,10.564353,-1.786856,19.643436,20.937363,15.654084,52.432989,389.596687,-236.606123,-49.105734
90,-3.530045,1.085152,-4.427216,-2.87807,-39.896347,-68.979572,-85.611637,-98.629097,-58.097832,-84.482963,-84.860676,-78.083896,-41.365723,-69.933929,-70.912342,-64.816498,-26.526878,-54.239296,-56.14912,-50.127834,-14.27195,-35.917099,-40.584572,-36.809051,-0.168479,19.423333,45.75219,65.455746,42.849192,69.263684,61.012359,52.293781,56.998965,79.565233,67.350113,58.680478,65.809168,85.710696,74.055405,65.38309,70.697244,89.366308,82.241533,74.370566,34.480219,58.097386,67.465353,66.642706,51.649532,67.920622,66.83218,63.335461,32.416391,48.51796,46.583479,44.928291,14.66371,31.891674,30.895723,29.305647,-0.621677,13.942074,15.73962,15.111391,-5.184471,-8.291079,-6.093839,-3.166456,-42.454105,-31.423077,-27.807309,-31.037095,-41.461258,-12.977216,-3.195145,-7.314527,-33.026562,-4.427424,1.910361,-3.910647,-21.324643,-1.138788,3.852062,-0.158757,47.818193,390.090246,-242.11809,-52.575397
91,-2.535782,0.957663,-2.065487,0.837972,-39.306381,-68.009891,-84.354206,-97.856529,-58.237861,-84.12236,-84.803638,-78.540641,-41.646354,-69.510944,-70.538097,-64.979164,-26.674553,-53.85878,-55.67157,-49.967823,-14.130089,-35.544456,-39.974098,-36.198211,-0.450222,18.967244,45.104267,64.149045,42.140408,68.723095,61.394519,53.175885,56.304248,79.022953,67.176482,58.669671,65.15838,85.180988,73.760608,65.230702,70.100549,88.757325,81.779318,74.067754,30.623915,49.431313,52.561552,46.361544,38.211571,45.031088,39.668186,33.275562,17.410635,25.655537,28.648539,31.038254,-1.017408,9.236641,13.417574,15.756449,-16.10178,-7.777576,-2.137768,0.585394,-6.404678,-15.782146,-20.609953,-22.648618,-56.171948,-56.749848,-60.22036,-69.181297,-58.452878,-34.579696,-19.898113,-20.953458,-51.744496,-26.422316,-15.314806,-18.872192,-41.0719,-22.307213,-13.220099,-15.481171,44.049637,390.521807,-245.416351,-52.263527
92,-1.928604,0.754812,0.102287,-1.486765,-39.165069,-67.46236,-83.689075,-97.009014,-57.998886,-83.048584,-83.822697,-77.924091,-41.535896,-68.521213,-69.52129,-64.225536,-26.546585,-52.986523,-54.669319,-49.121715,-13.84584,-34.74971,-38.83612,-34.966095,-0.064047,19.093697,44.933058,63.718348,42.397796,68.801222,61.84494,53.825747,56.311905,78.945629,67.32971,58.898247,64.946045,84.837928,73.642899,65.228763,69.721501,88.306127,81.304705,73.569231,26.527399,40.784901,37.745825,25.691946,30.842984,31.061549,22.750889,14.636673,10.111342,11.61953,15.260497,20.288887,-7.505865,-3.759979,0.626524,5.054472,-21.433674,-18.656559,-13.754631,-10.188795,-8.956872,-22.313375,-31.751777,-37.922755,-63.338231,-71.877779,-82.157746,-96.422331,-65.683147,-42.616407,-26.539691,-27.511265,-58.714505,-34.378627,-23.104342,-27.318672,-48.278654,-30.494026,-21.326174,-24.707892,40.696775,390.791314,-246.738322,-54.235597
93,-1.633003,0.937915,3.536442,3.273013,-38.95118,-66.942867,-83.089279,-96.373238,-57.660725,-81.927578,-82.536507,-76.766728,-41.256088,-67.548397,-68.331242,-62.983921,-26.171425,-52.100773,-53.608978,-48.074467,-13.291123,-33.875153,-37.683563,-33.668152,0.06858,19.261645,45.013469,63.667268,42.386767,68.876422,61.867812,53.827451,56.070905,78.864909,67.301687,58.949166,64.533639,84.536623,73.429045,65.172039,69.130179,87.784608,80.741714,73.075511,23.543169,34.445011,27.485842,13.375311,25.409855,18.869414,10.745179,2.864937,4.724528,-0.764122,6.06914,14.657925,-12.873876,-15.918583,-8.72283,-1.349676,-26.818382,-29.615398,-22.278271,-15.735998,-9.071302,-25.232009,-36.861692,-44.967761,-67.355768,-88.264158,-102.309524,-117.118507,-70.745502,-53.017937,-32.177769,-28.080413,-64.1329,-45.216714,-30.169504,-29.998887,-54.301352,-40.6402,-28.69458,-28.575241,37.729374,391.577153,-244.536278,-51.11466
94,-1.521652,1.298117,5.445694,2.912647,-38.916298,-66.82338,-82.93079,-96.318363,-57.497177,-81.731827,-81.414894,-74.850037,-41.042382,-67.184418,-67.381806,-61.596131,-25.873055,-51.755837,-52.842808,-47.054203,-12.928093,-33.514206,-37.003853,-32.786339,-0.088612,19.085027,44.880385,63.421267,42.272986,68.531608,60.692047,52.264573,55.774689,78.422801,66.732052,58.463191,64.119355,84.027194,72.828806,64.682544,68.670867,87.25889,80.077391,72.464924,21.854096,30.984055,24.323719,12.055733,21.705586,13.463322,7.269619,0.866924,1.215878,-5.91362,2.858025,12.531796,-15.856052,-21.0825,-11.991794,-3.684997,-29.268871,-34.277813,-25.505413,-17.814972,-8.28459,-23.870622,-34.267638,-41.467829,-64.383505,-89.899788,-104.047935,-116.718486,-67.033673,-53.373524,-31.017708,-23.369975,-59.773491,-45.013513,-28.106262,-24.123676,-49.860142,-38.795357,-25.730211,-22.741207,35.180386,392.901153,-240.11792,-48.17613
95,-1.608513,1.095391,4.054093,18.591122,-38.668671,-66.388779,-82.423485,-95.989586,-57.954392,-81.955193,-81.212586,-74.431755,-41.589306,-67.219734,-67.134796,-61.332768,-26.257462,-51.667637,-52.563778,-46.751209,-12.992432,-33.268753,-36.572479,-32.312233,-0.528078,18.675201,44.289309,62.427443,42.225833,68.266994,60.117953,51.631989,55.643419,78.030377,66.354374,58.116955,63.846937,83.622099,72.387723,64.198408,68.296844,86.799491,79.569123,71.89062,24.572147,35.45454,33.401367,24.711719,23.288795,19.2984,16.116851,12.069328,3.348404,6.618713,14.507183,20.317188,-11.628903,-6.613701,0.440094,4.53154,-22.728642,-18.85825,-11.295754,-7.206047,-12.209341,-28.757667,-38.804811,-45.586037,-67.902519,-91.756178,-104.486097,-115.154839,-68.683217,-53.914519,-33.052124,-25.589686,-59.03164,-43.86824,-28.068489,-24.288462,-46.622654,-35.070665,-23.36291,-20.880389,32.93446,394.375963,-236.70124,-29.205589
96,-1.431038,0.208765,6.491718,20.242643,-38.630425,-66.310822,-82.630074,-96.305775,-58.460198,-82.360222,-81.114578,-74.12059,-42.165711,-67.586083,-67.071613,-61.057892,-26.726555,-51.905972,-52.523037,-46.455597,-13.27169,-33.527481,-36.491386,-31.881775,-0.658889,18.476576,43.826478,61.663641,42.322584,68.239306,59.417222,50.705227,55.658524,77.7175,65.749171,57.440357,63.822744,83.317102,71.889015,63.561824,68.301501,86.705322,79.178219,71.294741,25.051289,37.859825,40.926063,37.46109,23.855461,26.254932,27.387382,26.379478,6.954838,21.984718,29.421856,31.584984,-4.18063,11.54393,16.985046,16.894318,-11.753071,0.964989,7.245277,8.072262,-17.210333,-35.023327,-45.530239,-51.961662,-69.747689,-92.9586,-103.258183,-110.473172,-67.446973,-54.859448,-35.940061,-28.04834,-55.344276,-42.733718,-27.748375,-23.256989,-40.838276,-31.750573,-20.95728,-17.844337,31.184933,395.062905,-230.528011,-8.484769
97,-1.367683,-1.365005,9.085316,22.079212,-38.460068,-66.129536,-82.711361,-96.840535,-59.191498,-83.381001,-81.537552,-74.354737,-43.018239,-68.634156,-67.640397,-61.529126,-27.515053,-52.86224,-53.089772,-46.689251,-13.906586,-34.254593,-36.981308,-32.149704,-1.104221,17.820885,42.853514,60.486653,41.465525,67.912733,58.581776,49.62478,55.052654,77.264302,65.297627,56.922777,63.621227,83.148758,71.742555,63.311487,68.599051,86.969873,79.419342,71.491885,22.127678,36.117199,44.81995,47.296154,23.051822,31.978088,37.265956,40.110752,11.042415,36.133037,45.751087,47.521453,4.811931,30.01506,36.957653,36.038658,1.80717,21.751442,29.522266,30.529712,-22.375854,-41.954051,-52.555658,-58.432704,-71.094002,-94.30789,-103.490158,-109.012553,-65.342575,-59.549763,-44.385844,-36.306395,-50.767545,-44.558961,-32.097543,-26.8031,-34.079033,-29.702714,-22.038185,-19.467144,29.867615,393.885667,-221.39233,13.78221
98,-0.963501,-3.297694,9.436248,23.041407,-38.753483,-66.55457,-83.393509,-97.764164,-59.675435,-84.725853,-82.157341,-74.413708,-43.517956,-69.965435,-68.638024,-62.228108,-28.096711,-54.163891,-54.043637,-47.066403,-14.640633,-35.439538,-37.830815,-32.588082,-1.39262,17.34553,42.186325,59.668373,40.665412,67.460596,57.058208,47.813455,54.546226,76.738398,64.57863,56.284191,63.625414,82.980203,71.411461,62.979097,69.245158,87.411302,79.601233,71.554253,18.589234,33.593079,46.947796,55.630085,22.866372,37.141858,45.850171,51.972451,16.554486,48.959256,61.563813,65.366055,15.561459,47.992688,57.592347,58.329781,17.577507,43.170891,52.732441,55.194569,-27.477933,-49.278965,-60.948879,-67.059638,-72.930664,-96.896758,-106.952053,-113.021396,-64.243221,-68.235582,-59.406879,-54.214046,-48.180493,-50.656166,-42.821774,-39.380776,-29.797248,-30.995588,-27.299017,-26.933566,29.258109,390.316419,-211.602087,36.552063
99,-0.5159,-5.725363,10.283558,24.802498,-39.079479,-67.502953,-84.949677,-99.475067,-60.211098,-86.21703,-82.758671,-74.312393,-44.16235,-71.537853,-69.671883,-62.466637,-28.921166,-55.806587,-55.223831,-47.365711,-15.706993,-37.245918,-39.326077,-33.527229,-1.689627,16.895469,41.526374,58.899766,39.371866,66.749454,55.265841,45.747163,53.597172,76.164613,63.934389,55.659265,63.381031,83.118192,71.317466,62.738629,69.810484,88.286071,80.138882,71.841801,14.789292,30.341172,46.679089,58.509373,23.15474,39.992134,49.80296,56.986393,23.169274,60.356449,74.250767,79.278878,27.419243,65.079415,75.353485,76.935688,33.706215,64.438877,74.811367,78.212437,-33.068229,-58.493233,-72.517017,-79.972101,-78.36872,-105.237689,-118.179378,-127.111729,-68.202281,-80.206129,-78.90309,-78.6855,-51.218392,-61.039801,-59.833871,-61.002541,-31.301068,-37.444685,-37.75009,-40.503541,29.275881,384.148534,-200.784857,60.912039
100,-0.363236,-8.694791,14.140034,10.408538,-39.076435,-68.047359,-86.375198,-101.212234,-59.912693,-87.092147,-83.050335,-74.25357,-43.972091,-72.709774,-70.342048,-62.39637,-28.932472,-57.090568,-55.985035,-47.245639,-16.050384,-38.406086,-40.169094,-33.892593,-1.747092,16.255956,40.271754,57.043129,36.466101,65.92679,53.804875,43.891551,50.883414,75.736547,63.461553,54.93986,61.540226,83.422682,71.41855,62.598949,69.057165,89.059136,80.712617,72.313252,7.655972,22.418324,40.231785,54.381775,19.503754,35.969021,45.486328,52.549004,25.56015,58.344303,73.452255,81.518875,34.035542,67.539219,80.076096,85.073444,43.201916,71.10854,83.389835,90.442268,-33.150184,-58.634184,-71.792338,-78.336023,-74.452009,-104.222426,-119.582063,-130.718083,-63.823812,-85.395769,-91.16335,-94.299548,-47.26111,-65.283184,-69.607263,-72.782253,-27.814893,-39.066367,-41.889948,-45.10055,29.63717,374.702148,-185.920298,70.568982
101,-1.745887,-11.522763,14.205231,8.976805,-38.381699,-67.623024,-86.525219,-101.472142,-59.065922,-86.933487,-84.036244,-76.131306,-42.946244,-72.818917,-72.000206,-64.574456,-27.445244,-56.166252,-57.259804,-50.095059,-13.985894,-35.715763,-39.462307,-35.471386,-2.306933,14.747345,37.090027,52.372945,33.044251,65.092505,54.812284,45.120619,47.343485,76.268922,66.115981,57.512827,58.4542,83.984167,74.572577,66.423609,66.573366,88.971488,83.138557,75.953489,1.934921,15.202629,33.855926,48.949722,15.839504,29.70512,37.220077,43.468425,26.212166,51.546295,66.512581,77.187069,37.59851,65.30183,79.589344,88.056186,48.572582,73.070537,86.87249,96.774513,-32.10068,-57.520163,-69.345033,-74.777149,-72.032454,-104.835094,-123.881027,-138.584603,-62.044084,-91.417039,-104.304899,-111.948705,-46.270979,-70.669839,-81.089653,-87.310556,-27.413107,-41.867934,-47.327016,-51.30754,28.882038,362.316142,-170.724312,78.682544
102,-3.610932,-14.407371,12.035934,5.416092,-36.833919,-65.481445,-84.385837,-98.64592,-57.898555,-85.541736,-85.343582,-79.881065,-41.856857,-71.903892,-73.98246,-69.173961,-25.588302,-53.16901,-56.733467,-52.770401,-10.816543,-29.887584,-34.982013,-33.860149,-1.709709,14.93656,35.318395,48.468948,29.703183,60.359718,54.638148,48.506863,43.118695,72.469369,67.376838,62.687734,54.000982,80.976118,76.470821,72.371643,62.540978,86.616241,85.107382,81.995087,-0.01522,12.636486,31.088986,46.183239,14.665009,25.304466,31.078446,35.994633,27.12442,45.687767,57.893669,68.219536,40.033219,62.659092,75.98473,85.271576,51.765598,74.600235,88.046299,98.822754,-31.986479,-57.577887,-69.388296,-74.676471,-71.003946,-105.704423,-127.36874,-144.323421,-61.851343,-94.576869,-112.904311,-125.207241,-47.01982,-74.114197,-88.755948,-98.289693,-28.836794,-43.775787,-50.252714,-55.035827,26.277729,347.211378,-157.681755,83.401243
103,2.058014,-22.500702,11.218552,2.299345,-37.667587,-67.612198,-88.057102,-102.425194,-61.922722,-90.553814,-91.997429,-87.91896,-46.315521,-76.493534,-79.490295,-75.616482,-29.613647,-56.009914,-60.407638,-58.097259,-13.627487,-30.457661,-35.738205,-36.058994,-1.63294,13.934228,32.695423,44.1357,23.961111,53.490479,52.764887,49.112869,37.171673,68.374848,67.975582,64.508828,48.555078,78.983458,79.177194,76.50098,57.708267,84.976446,87.921274,87.252851,-1.632752,10.587925,29.1045,44.008152,13.183868,21.615371,26.473079,30.56718,26.936199,41.864822,50.795173,58.452163,40.894752,61.57473,73.406387,81.584862,52.802433,75.762279,88.739708,99.316532,-32.477568,-58.397624,-71.332273,-77.519121,-71.099598,-106.941334,-130.093657,-147.900641,-62.212651,-96.294161,-117.286726,-131.765629,-47.746963,-75.773808,-92.166029,-103.037442,-29.98886,-44.635075,-50.869866,-55.226481,29.458935,324.17843,-145.340011,85.168342
104,2.055885,-26.026032,9.15152,0.690956,-38.498542,-70.231716,-93.430126,-109.277057,-63.281742,-90.729606,-95.507366,-94.648075,-47.797954,-76.316917,-82.297473,-81.559238,-30.823287,-54.952686,-61.811405,-62.720512,-14.169982,-28.144191,-34.523986,-37.175159,-1.615107,11.446426,26.580329,35.457938,15.337765,39.713554,43.959118,44.301425,27.405067,55.729487,60.581748,60.713807,38.894213,68.479749,73.998285,74.918959,49.153019,77.138231,84.74482,87.939292,-2.803208,9.230781,27.199184,41.383197,11.290294,19.506156,24.642253,29.12503,25.291248,38.232833,45.256004,51.283104,39.91436,59.785583,71.210678,79.034488,52.416378,76.098415,89.528274,100.57442,-32.971126,-58.730286,-72.789787,-80.428158,-71.31268,-107.35232,-131.154936,-149.336406,-62.571193,-97.158481,-118.666897,-133.854009,-48.275515,-76.708474,-93.100467,-103.723841,-30.839694,-45.490553,-51.62001,-55.605913,32.591039,297.727383,-135.112272,85.434283
105,3.310616,-28.139354,7.074989,-0.857713,-39.195671,-72.476189,-97.421974,-113.817982,-65.028236,-91.77705,-100.322079,-103.167709,-49.867298,-77.809158,-86.80188,-89.065166,-32.810921,-55.74432,-63.338848,-66.238415,-15.792915,-28.619499,-35.199898,-39.170025,-3.042171,6.771636,17.87378,24.556422,5.469703,22.214599,30.833746,34.675499,16.013697,38.756991,48.26937,51.363869,27.59716,54.600294,64.657473,67.936346,39.302927,66.482346,77.882299,83.415692,-3.039917,8.393692,25.548294,39.285381,10.454956,19.237026,25.185058,30.536339,24.086483,36.796543,43.395447,49.055225,38.724953,58.605698,70.274506,78.426613,51.628429,76.320316,90.575283,102.507236,-33.478863,-58.938447,-74.17998,-83.194274,-71.519568,-107.149513,-131.162278,-149.458962,-62.760816,-97.161903,-118.762579,-134.384335,-48.572887,-77.407044,-93.911009,-104.618771,-31.205818,-46.356695,-52.861725,-57.14272,36.741291,269.144864,-127.197647,84.133405
106,5.32267,-25.190142,5.503921,-1.991278,-39.941219,-72.891552,-97.188446,-113.988991,-68.504745,-94.512039,-105.74675,-112.462933,-54.355682,-81.406723,-92.871037,-99.711857,-38.089485,-59.803253,-67.96788,-73.516766,-21.679779,-33.278549,-37.594093,-40.500824,-1.790812,4.680792,12.742074,17.274183,-3.735332,3.681028,11.571619,16.427178,4.081764,16.423349,25.4067,29.386366,14.093432,32.514444,41.026714,43.863973,25.621826,48.224651,60.147235,66.723036,-2.82526,8.018349,24.474667,38.081898,10.230915,20.0308,27.318684,34.019738,23.424076,36.662064,43.722371,49.725174,37.876339,58.193516,70.316311,79.117058,50.914685,76.45332,91.786229,105.228173,-34.481412,-59.902525,-76.099664,-85.947595,-71.846827,-106.746456,-130.540723,-148.6254,-62.713324,-96.359308,-117.846944,-133.917822,-48.303439,-77.080434,-93.563595,-104.540823,-30.749341,-46.287899,-53.576609,-59.048455,42.491358,243.564262,-121.266329,81.751667
107,4.676628,-28.472473,4.874474,-1.779678,-42.013733,-76.781364,-102.152664,-120.284202,-68.448326,-93.357056,-106.123215,-114.6912,-54.737652,-79.180389,-91.904034,-100.165581,-39.87133,-59.794853,-68.395031,-74.19239,-25.269928,-36.380882,-40.145416,-42.294159,-4.394196,-3.110838,1.2408,4.065227,-16.258686,-14.954665,-9.532893,-6.104411,-8.333663,-1.282235,5.535764,7.766139,2.851362,16.47727,23.48131,24.354412,15.670044,33.880191,44.24706,48.743984,-3.593628,6.788097,22.6222,35.908287,9.461128,20.495922,28.721649,36.205524,22.754986,36.623749,43.731159,49.654907,37.235264,58.443123,70.907581,79.916325,50.117821,75.993565,91.577419,105.309963,-34.475076,-59.472699,-75.854441,-85.586621,-71.623655,-106.10837,-129.444882,-147.022729,-62.377426,-96.04635,-117.765823,-134.31949,-47.960113,-76.297259,-92.743339,-103.712824,-30.781098,-46.368829,-53.690872,-59.403316,47.375399,214.810445,-116.184442,79.690645
108,-1.554634,-18.659209,4.124989,-1.6327,-40.634056,-74.232388,-98.935684,-118.008316,-62.389412,-84.746532,-100.058887,-111.991882,-49.663502,-72.609455,-88.431782,-100.209206,-36.654991,-56.904339,-67.009312,-74.030994,-24.439659,-36.867393,-41.606323,-44.120716,-7.202901,-10.606893,-10.280146,-9.499535,-26.617206,-33.472823,-32.074361,-30.431838,-20.167486,-23.670612,-20.497752,-19.092745,-9.546107,-5.829115,-1.49473,-0.706041,3.598333,13.283527,20.150457,23.574937,-4.556077,5.610328,21.087398,33.833038,8.710498,21.079845,30.307045,38.532073,22.071601,36.348106,43.61087,49.607437,36.615314,58.102455,70.424068,79.211746,49.355117,75.328846,90.986824,104.716117,-33.873095,-58.227452,-74.426456,-83.809752,-71.243167,-105.195087,-127.575474,-144.185038,-62.041052,-95.580375,-116.869045,-132.93515,-47.814375,-75.777851,-92.216626,-103.223217,-31.159134,-46.778938,-54.323943,-60.428304,45.605684,196.143632,-112.274534,78.050341
109,-2.615135,-14.403123,3.702621,-1.343071,-39.92767,-70.429608,-92.489067,-111.231789,-58.748909,-78.986069,-95.353512,-109.291134,-47.171036,-68.566361,-86.086315,-100.322525,-35.488953,-55.326027,-66.660931,-75.31992,-24.954209,-37.989945,-43.613423,-46.883228,-9.26224,-16.47864,-18.633384,-19.107034,-34.362894,-45.116555,-47.84023,-49.447753,-28.967513,-38.776109,-39.915114,-41.62452,-18.933812,-21.965918,-21.304818,-22.94192,-5.973784,-2.82786,0.7456,2.090968,-5.135181,5.037094,20.549183,33.148991,8.398258,21.775898,31.185333,39.427723,21.711124,36.260708,43.785061,50.184105,36.00079,58.025425,70.231453,78.700596,48.253773,73.917355,88.863281,101.738457,-33.712057,-57.751344,-74.055732,-82.888838,-70.900755,-103.998611,-124.709582,-139.595785,-61.73855,-94.985181,-115.456536,-130.339176,-47.917474,-75.028072,-91.200567,-102.140937,-32.069811,-47.600237,-55.224968,-61.532544,42.609278,181.684689,-108.953184,76.65145
110,-3.733086,-10.960994,3.870529,-0.647675,-38.980327,-66.949024,-87.014934,-105.518692,-54.216156,-72.571827,-89.539146,-104.689213,-44.025661,-63.697174,-82.941536,-99.73344,-34.191467,-53.752544,-67.946914,-79.006279,-26.026977,-39.324177,-46.912159,-52.044399,-10.407822,-20.414254,-24.187328,-25.638549,-40.197518,-53.167407,-59.179594,-63.069957,-35.038444,-48.947057,-53.240057,-56.662191,-25.125168,-33.511961,-34.986833,-36.870591,-12.06587,-14.130532,-12.975565,-12.230003,-2.698368,7.629147,22.487915,34.187691,10.303482,25.206242,35.04657,43.5313,20.989609,36.570465,44.61351,51.690846,32.383587,54.224293,65.925659,73.92342,41.953938,65.784039,79.398514,90.962757,-32.386085,-56.761387,-74.068039,-83.894505,-68.803464,-100.731972,-119.190226,-132.41336,-60.920444,-93.856699,-113.328438,-127.074315,-49.062913,-76.144822,-91.589805,-101.80788,-35.553319,-52.287773,-59.985431,-65.870715,38.446941,170.627899,-105.511906,75.907979
111,-8.604378,-13.743604,2.179733,0.424497,-38.577816,-65.880649,-86.045196,-103.783538,-48.506435,-66.651889,-84.122165,-98.498714,-38.308662,-57.806854,-77.360939,-92.614322,-29.233818,-48.817783,-63.334304,-73.045017,-22.022071,-36.43103,-46.266758,-52.593647,-14.161864,-26.961181,-32.959918,-35.125876,-47.537974,-61.060154,-66.040269,-68.66489,-40.464211,-53.486095,-55.409417,-56.520733,-28.002688,-35.340502,-33.972718,-33.080968,-12.356418,-15.430107,-14.901251,-14.138399,3.305581,14.771508,27.269337,35.664299,17.218598,34.757836,45.562478,54.665497,22.249375,39.471062,47.979023,55.527111,27.919934,49.737191,61.41124,69.65672,32.462883,54.622559,67.191033,77.685093,-25.927208,-48.08249,-65.931057,-77.543796,-61.30765,-91.906726,-108.397075,-120.175114,-58.258433,-91.681232,-111.403931,-125.427338,-51.076032,-79.065796,-94.769451,-105.324683,-41.965747,-60.823532,-69.24811,-75.533753,29.446746,157.006601,-103.72799,76.454782
112,-5.717491,-4.875072,2.79435,3.199616,-36.486236,-61.133857,-80.268791,-97.156746,-44.754078,-65.828533,-83.851307,-97.723892,-35.093364,-58.905372,-79.338661,-94.808738,-26.916195,-50.554264,-66.778461,-77.536491,-20.938156,-39.235359,-51.207252,-59.213379,-15.914711,-29.678458,-36.387436,-39.177641,-52.019238,-63.964726,-66.563202,-67.123624,-45.031061,-57.6319,-57.743285,-56.674145,-32.152587,-39.995284,-37.936983,-35.206787,-15.415866,-18.923339,-18.966651,-17.710981,2.403042,13.380638,26.1358,34.474983,14.524361,34.366757,46.298596,55.609051,19.502083,39.335598,49.692776,58.091984,25.311195,47.708679,59.433781,67.406353,30.673096,51.870197,63.453301,72.663197,-25.893201,-49.658181,-69.433281,-82.869788,-59.536728,-90.520374,-105.541131,-115.87592,-56.037937,-90.864533,-110.177314,-123.509735,-49.425079,-79.955082,-96.549215,-107.721871,-41.346928,-63.086061,-73.183279,-80.613903,23.405874,152.463857,-101.257021,79.986726
113,-4.624328,-3.789561,1.897408,4.351385,-35.678524,-58.661923,-76.402062,-91.54121,-42.729046,-66.765049,-84.349057,-96.408852,-32.608578,-59.813576,-79.768067,-93.380059,-24.45345,-50.379193,-67.652218,-78.656422,-18.983757,-39.451939,-53.128578,-62.570378,-16.680675,-31.667735,-39.593666,-43.20751,-56.687674,-64.017306,-60.998711,-57.529919,-49.002663,-55.772743,-50.876541,-46.084184,-34.994316,-38.829721,-33.570698,-28.242884,-16.918933,-17.855946,-15.929506,-13.072389,0.545734,10.531185,23.572712,32.363067,11.123829,32.952472,44.855404,52.715835,16.926773,38.420826,48.911636,56.147575,23.327671,45.21025,55.496269,61.538406,29.326492,48.68819,58.122013,64.823764,-25.462499,-50.128145,-70.686562,-84.669751,-57.586619,-89.482288,-103.130913,-111.634297,-53.943993,-90.572152,-109.223617,-121.388417,-47.904766,-81.469221,-98.239873,-108.986878,-40.937331,-66.025221,-77.793188,-86.02311,18.567261,148.966203,-99.573898,84.630018
