takenoko1/special-research/HandMotion_SimilarSearch_自分用/NewProject/handData/tgt/d4_feature_d3/19.csv
,vel_0x_L,vel_0y_L,vel_0x_R,vel_0y_R,posFromWrist_1x_L,posFromWrist_2x_L,posFromWrist_3x_L,posFromWrist_4x_L,posFromWrist_5x_L,posFromWrist_6x_L,posFromWrist_7x_L,posFromWrist_8x_L,posFromWrist_9x_L,posFromWrist_10x_L,posFromWrist_11x_L,posFromWrist_12x_L,posFromWrist_13x_L,posFromWrist_14x_L,posFromWrist_15x_L,posFromWrist_16x_L,posFromWrist_17x_L,posFromWrist_18x_L,posFromWrist_19x_L,posFromWrist_20x_L,posFromWrist_1y_L,posFromWrist_2y_L,posFromWrist_3y_L,posFromWrist_4y_L,posFromWrist_5y_L,posFromWrist_6y_L,posFromWrist_7y_L,posFromWrist_8y_L,posFromWrist_9y_L,posFromWrist_10y_L,posFromWrist_11y_L,posFromWrist_12y_L,posFromWrist_13y_L,posFromWrist_14y_L,posFromWrist_15y_L,posFromWrist_16y_L,posFromWrist_17y_L,posFromWrist_18y_L,posFromWrist_19y_L,posFromWrist_20y_L,posFromWrist_1x_R,posFromWrist_2x_R,posFromWrist_3x_R,posFromWrist_4x_R,posFromWrist_5x_R,posFromWrist_6x_R,posFromWrist_7x_R,posFromWrist_8x_R,posFromWrist_9x_R,posFromWrist_10x_R,posFromWrist_11x_R,posFromWrist_12x_R,posFromWrist_13x_R,posFromWrist_14x_R,posFromWrist_15x_R,posFromWrist_16x_R,posFromWrist_17x_R,posFromWrist_18x_R,posFromWrist_19x_R,posFromWrist_20x_R,posFromWrist_1y_R,posFromWrist_2y_R,posFromWrist_3y_R,posFromWrist_4y_R,posFromWrist_5y_R,posFromWrist_6y_R,posFromWrist_7y_R,posFromWrist_8y_R,posFromWrist_9y_R,posFromWrist_10y_R,posFromWrist_11y_R,posFromWrist_12y_R,posFromWrist_13y_R,posFromWrist_14y_R,posFromWrist_15y_R,posFromWrist_16y_R,posFromWrist_17y_R,posFromWrist_18y_R,posFromWrist_19y_R,posFromWrist_20y_R,posFromBody_0x_L,posFromBody_0y_L,posFromBody_0x_R,posFromBody_0y_R
24,0.22364,-0.023725,-1.500618,-1.022463,-33.875496,-65.590736,-84.46859,-93.78796,-63.758858,-99.298611,-118.895668,-133.225799,-52.400894,-92.426376,-114.125484,-129.132591,-42.053787,-79.951904,-99.490322,-112.536392,-34.102501,-62.903412,-78.555542,-89.779404,-15.542097,-6.36874,9.507464,21.541063,28.280417,51.72238,59.281199,62.825265,47.492106,68.248383,70.664418,69.247196,57.919207,75.896234,76.755762,72.891286,61.06702,75.260945,75.11398,71.24644,38.320805,64.323544,76.776249,72.621128,72.93568,83.643402,74.745083,65.296085,59.189312,70.017265,63.927326,55.503124,44.241943,54.959621,49.658535,41.059971,29.64751,40.333546,37.99427,32.477909,-7.296367,2.309218,17.54843,27.727034,37.673716,44.444834,42.671782,40.356512,53.321123,59.727345,56.461119,51.238615,61.921522,67.150374,63.589166,57.868164,65.485139,72.422118,67.739955,61.298905,54.037256,379.096851,-108.54875,361.541592
25,0.224602,0.101926,-0.272979,-0.236858,-33.75016,-65.391529,-84.102631,-93.214646,-64.081673,-99.412926,-118.900864,-133.00827,-52.802971,-92.755463,-114.375378,-129.269268,-42.405052,-80.294964,-99.766674,-112.762894,-34.295815,-63.197113,-78.896839,-90.172566,-15.744528,-6.851307,8.798717,20.61435,28.03712,51.438117,58.861505,62.179923,47.219206,67.834704,70.192212,68.724441,57.635241,75.398809,76.300649,72.503653,60.814547,74.875573,74.8332,71.0643,38.279882,63.953896,76.119943,71.17447,71.7657,81.60708,74.028043,65.69955,57.720679,68.27825,63.67492,56.247271,42.307582,53.505606,49.769899,42.108007,27.529283,38.96404,37.489261,31.942556,-7.92642,0.804034,15.870275,25.836617,37.757425,38.298376,33.673117,30.728317,53.659439,53.28855,47.745542,42.480112,61.878994,61.965412,56.468666,51.009521,65.039256,68.469538,62.362826,55.778365,53.760389,379.249789,-109.323198,361.355746
26,0.081894,0.061478,0.510536,0.368348,-33.533821,-65.098377,-83.5826,-92.335282,-64.319298,-99.488182,-119.032871,-132.943634,-53.108872,-93.040318,-114.631714,-129.294102,-42.657395,-80.577782,-99.976536,-112.856941,-34.42202,-63.357216,-79.048542,-90.317951,-16.037804,-7.450347,7.893963,19.505226,27.757885,51.250125,58.527881,61.552638,46.987087,67.657679,69.971961,68.39446,57.421301,75.170691,76.056081,72.206264,60.576142,74.695682,74.660806,70.845717,38.049253,63.193215,75.843241,71.798109,71.839873,80.344295,73.453108,65.490211,57.85145,67.625698,62.91129,55.143444,42.062334,53.068093,49.354185,41.678508,26.889775,38.276783,36.532495,30.420221,-7.676505,0.437189,14.847541,24.900256,37.526368,34.366453,28.996215,26.385664,53.155765,48.333368,41.863877,36.879417,61.087255,57.565297,51.20551,46.374081,64.174995,64.961551,58.197029,52.106185,53.382815,379.355659,-109.27213,361.768486
27,0.016708,0.03626,1.467042,-0.074385,-33.417572,-64.948665,-83.422108,-92.067352,-64.419182,-99.533787,-119.14769,-132.942055,-53.26918,-93.244297,-114.823402,-129.325149,-42.828369,-80.859833,-100.242096,-113.053802,-34.581985,-63.630249,-79.377434,-90.711204,-16.101062,-7.726841,7.497365,19.126276,27.686464,51.320768,58.369515,61.017571,46.99441,67.777475,69.985447,68.198168,57.451324,75.270331,76.021636,72.005859,60.599125,74.793322,74.736252,70.818164,37.482433,62.068481,74.105987,70.360084,71.434258,78.514575,71.555419,63.590537,57.341338,66.381961,61.264799,53.107627,41.100867,51.833215,48.093761,40.47281,25.440225,36.932998,35.272902,29.148502,-6.760836,1.672896,16.248324,26.531214,38.843948,34.333517,29.399877,27.320141,54.097048,47.058713,40.606355,35.892382,61.580991,55.992298,49.41836,44.995567,64.218913,63.31939,56.605961,51.055477,53.013113,379.417332,-108.191498,361.719514
28,0.171501,0.169493,1.213838,0.012378,-33.358291,-64.791149,-83.327339,-91.984119,-64.755912,-99.756088,-119.303936,-132.941494,-53.643516,-93.589199,-115.100097,-129.492004,-43.17913,-81.18853,-100.489586,-113.22472,-34.858978,-63.880806,-79.595432,-90.836975,-16.175261,-8.0598,7.050476,18.731938,27.599396,51.209233,57.970521,60.239972,46.925657,67.711895,69.763997,67.774658,57.374419,75.160539,75.73257,71.56685,60.541252,74.622532,74.408629,70.331224,37.159213,61.531079,73.230532,69.898127,70.999617,78.1881,71.37596,63.418672,56.839476,66.318345,61.474166,53.313508,40.439978,51.819618,48.276862,40.76544,24.473243,36.59652,35.538734,29.835623,-5.800041,3.484333,18.856414,29.627581,39.872426,37.600614,34.107716,32.555895,54.697887,49.835499,44.896439,40.472051,61.975734,58.454711,53.174657,49.219472,64.364601,64.657702,59.08932,54.235534,52.884601,379.609577,-107.277673,361.754644
29,0.093544,0.1132,0.427419,-0.142316,-33.322014,-64.699287,-83.105278,-91.575782,-65.0793,-99.940475,-119.483814,-133.006038,-54.019066,-93.905342,-115.346889,-129.595367,-43.524353,-81.516609,-100.721214,-113.381012,-35.083603,-64.056312,-79.689056,-90.812359,-16.210137,-8.337701,6.586225,18.070073,27.544167,51.213137,57.694275,59.548368,46.868291,67.818897,69.646376,67.320744,57.265529,75.158094,75.51868,71.108762,60.394979,74.478321,74.106954,69.83059,37.32476,61.755599,73.142593,70.169819,71.060649,79.226453,72.676933,64.545417,56.596514,67.253072,62.619747,54.333036,40.066382,52.567331,49.301403,41.832078,23.982547,37.201327,36.842713,31.540688,-4.865329,5.688424,21.90108,33.022363,41.106446,42.702889,40.768239,39.746251,55.623645,54.892031,51.50676,47.279987,62.883741,63.070484,59.342792,55.750509,65.166763,68.123762,64.03521,59.762424,52.734827,379.72379,-107.093572,361.613341
30,0.117005,0.053933,0.427419,-0.142316,-33.201943,-64.576332,-82.987507,-91.532776,-65.348511,-100.179795,-119.719746,-133.228375,-54.301438,-94.136914,-115.48724,-129.599854,-43.797478,-81.715645,-100.788231,-113.294827,-35.308228,-64.246491,-79.83284,-90.876206,-16.294167,-8.576255,6.169027,17.51427,27.727985,51.41968,57.667413,59.299835,47.062138,68.0586,69.46152,66.681936,57.389487,75.285621,75.323709,70.564876,60.419049,74.360069,73.764647,69.2654,37.490308,61.980119,73.054655,70.441511,71.121681,80.264807,73.977907,65.672163,56.353552,68.187799,63.765327,55.352564,39.692785,53.315044,50.325944,42.898716,23.491851,37.806134,38.146693,33.245752,-3.930618,7.892515,24.945746,36.417144,42.340467,47.805165,47.428763,46.936607,56.549403,59.948564,58.11708,54.087922,63.791748,67.686256,65.510927,62.281546,65.968925,71.589823,68.9811,65.289314,52.667668,379.794078,-106.850317,361.48738
31,0.22586,-0.030998,0.42742,-0.142316,-33.339958,-64.760307,-83.258159,-92.006138,-65.494903,-100.35411,-119.78516,-133.242462,-54.423065,-94.238411,-115.470657,-129.503494,-43.937027,-81.78741,-100.751255,-113.121563,-35.493278,-64.495147,-80.132286,-91.188812,-16.120242,-8.354868,6.322723,17.462609,28.15389,51.782648,57.858308,59.427028,47.397257,68.364264,69.403992,66.318312,57.590002,75.442614,75.15634,70.103452,60.525975,74.256204,73.519472,68.902295,37.655855,62.204638,72.966715,70.713201,71.182713,81.303159,75.278879,66.798908,56.110589,69.122525,64.910906,56.372091,39.319188,54.062756,51.350485,43.965353,23.001154,38.410941,39.450672,34.950815,-2.995906,10.096606,27.990412,39.811926,43.574487,52.90744,54.089286,54.126963,57.475161,65.005096,64.7274,60.895858,64.699755,72.302028,71.679062,68.812584,66.771087,75.055883,73.92699,70.816204,52.774961,379.781352,-106.541464,361.363336
32,0.25438,-0.064814,0.427419,-0.142315,-33.537484,-65.04831,-83.625367,-92.465104,-65.534226,-100.338375,-119.698197,-133.10043,-54.338494,-94.070149,-115.241902,-129.252285,-43.816109,-81.506527,-100.271336,-112.406697,-35.400536,-64.320168,-79.927826,-90.89098,-15.968125,-8.016006,6.808169,17.872175,28.700122,52.280974,58.290586,59.903309,47.873008,68.725875,69.652995,66.543677,57.923492,75.715898,75.148387,69.861625,60.748994,74.260305,73.383041,68.673757,37.821403,62.429158,72.878776,70.984893,71.243745,82.341512,76.579852,67.925654,55.867626,70.057253,66.056486,57.391619,38.945591,54.81047,52.375026,45.031991,22.510458,39.015748,40.754651,36.655879,-2.061196,12.300696,31.035078,43.206706,44.808507,58.009714,60.749808,61.317318,58.400917,70.061628,71.337719,67.703793,65.60776,76.9178,77.847196,75.34362,67.573248,78.521942,78.872879,76.343093,52.955086,379.742047,-106.1883,361.24653
33,0.056579,0.20842,0.427419,-0.142316,-33.616676,-65.233932,-83.938659,-92.845573,-65.002052,-99.957012,-119.459873,-132.927109,-53.740013,-93.652176,-114.874489,-128.83794,-43.342987,-81.157493,-99.947285,-111.981113,-35.177604,-64.280411,-80.020511,-91.052536,-15.840956,-7.668499,7.234246,18.164502,29.251195,52.909532,58.794976,60.266809,48.400566,69.298486,70.083211,66.787813,58.322388,76.161995,75.345025,69.785401,61.00201,74.40117,73.443125,68.60887,37.986951,62.653678,72.790837,71.256585,71.304778,83.379866,77.880826,69.0524,55.624664,70.99198,67.202066,58.411146,38.571995,55.558183,53.399567,46.098629,22.019762,39.620555,42.058631,38.360944,-1.126484,14.504787,34.079744,46.601487,46.042527,63.11199,67.410331,68.507674,59.326675,75.11816,77.948039,74.511728,66.515767,81.533572,84.015331,81.874658,68.375409,81.988003,83.81877,81.869984,52.961431,379.967238,-105.811115,361.120985
34,-0.281891,0.606414,0.427419,-0.142316,-33.522743,-64.995826,-83.82946,-92.818142,-63.898796,-98.973861,-118.678161,-132.123733,-52.61499,-92.713268,-114.082363,-128.016369,-42.450302,-80.306568,-99.35305,-111.537643,-34.670768,-63.830475,-79.832565,-91.079509,-15.487275,-7.009104,8.305109,19.427569,30.078589,53.867774,59.509144,60.717624,49.139261,70.33141,71.082122,67.724406,58.878771,77.078235,76.281791,70.704247,61.408327,74.950452,74.046451,69.172342,38.152498,62.878198,72.702898,71.528277,71.36581,84.418219,79.181799,70.179146,55.381702,71.926707,68.347647,59.430674,38.198398,56.305896,54.424109,47.165267,21.529066,40.225362,43.362611,40.066008,-0.191773,16.708878,37.12441,49.996269,47.276548,68.214265,74.070855,75.69803,60.252433,80.174693,84.558359,81.319664,67.423774,86.149344,90.183466,88.405695,69.177571,85.454063,88.76466,87.396874,52.63738,380.572763,-105.425856,360.97778
35,-0.517913,0.722431,0.42742,-0.142315,-33.555794,-64.61229,-83.439629,-92.520848,-62.488999,-97.422444,-117.384327,-131.015694,-51.180794,-91.188904,-112.672131,-126.734242,-41.222283,-78.622994,-97.945988,-110.426308,-33.734345,-62.364419,-78.445061,-89.767308,-14.608999,-5.797142,9.737261,20.914172,31.61374,55.388909,61.168698,62.539569,50.367551,71.886421,72.988789,70.089607,59.880029,78.735801,78.419441,73.253093,62.382106,76.752439,76.366808,71.775776,38.318045,63.102717,72.614958,71.799967,71.426842,85.456572,80.482772,71.305891,55.138739,72.861433,69.493226,60.450201,37.824801,57.053608,55.448649,48.231904,21.038369,40.830169,44.666589,41.771071,0.742938,18.912968,40.169075,53.391049,48.510568,73.316539,80.731377,82.888385,61.17819,85.231224,91.168678,88.127599,68.33178,90.765116,96.3516,94.936731,69.979732,88.920123,93.710549,92.923763,52.085484,381.28281,-105.032419,360.823081
36,-0.244538,0.648453,0.427419,-0.142316,-33.554375,-64.034752,-82.780289,-91.902271,-60.156647,-94.171085,-114.323021,-128.246361,-48.792435,-88.034054,-109.752994,-124.074612,-39.233803,-75.759968,-95.484135,-108.467216,-32.319076,-60.302605,-76.515564,-88.178055,-13.411202,-4.217183,11.764231,23.273236,33.226452,58.054699,65.013168,67.47712,51.730914,74.773586,77.227659,75.289511,61.21942,81.739428,82.753431,78.589058,63.856706,80.086122,80.900042,77.128685,38.483593,63.327237,72.52702,72.071659,71.487874,86.494925,81.783745,72.432637,54.895776,73.796161,70.638806,61.469729,37.451204,57.801321,56.47319,49.298542,20.547673,41.434976,45.970569,43.476135,1.677649,21.117059,43.213741,56.785831,49.744588,78.418815,87.3919,90.078741,62.103947,90.287757,97.778999,94.935535,69.239787,95.380888,102.519734,101.467769,70.781894,92.386183,98.656439,98.450653,51.804376,381.921333,-104.64157,360.670835
37,0.068665,0.51506,0.427419,-0.142316,-33.637322,-63.575707,-81.952286,-89.945481,-57.674446,-90.095627,-110.189335,-124.304478,-46.353493,-84.174591,-105.935292,-120.781071,-37.166863,-72.295647,-92.263356,-106.046837,-30.677582,-57.290497,-73.228283,-85.183022,-12.134289,-2.702334,13.52539,25.19234,35.636336,61.804999,70.336091,74.205569,53.614277,78.55486,83.315743,83.426758,62.862846,85.210196,88.729822,86.92135,65.548569,83.889676,86.93843,85.463892,38.649141,63.551758,72.439081,72.343351,71.548907,87.533279,83.084718,73.559383,54.652814,74.730888,71.784386,62.489257,37.077607,58.549034,57.497732,50.36518,20.056977,42.039783,47.274549,45.1812,2.612361,23.32115,46.258407,60.180612,50.978609,83.52109,94.052423,97.269097,63.029705,95.344289,104.389319,101.74347,70.147794,99.99666,108.687869,107.998806,71.584056,95.852244,103.602329,103.977543,51.838274,382.502991,-104.248918,360.595117
38,0.361519,0.254301,0.820676,-3.280722,-33.745926,-63.123757,-81.570111,-88.961129,-54.712052,-85.341145,-105.060734,-119.104832,-43.250405,-79.604359,-101.683995,-117.199654,-34.35505,-67.982037,-88.58305,-103.487549,-28.256859,-53.449425,-69.503243,-82.094788,-10.650452,-0.989081,15.742971,28.544671,38.334211,66.409851,76.946855,82.671772,55.675406,83.429339,90.877426,93.206121,64.734142,89.87581,96.110169,96.683719,67.627174,88.878183,94.140565,94.678881,38.442903,62.275651,70.099515,69.465375,68.01667,85.357072,82.060674,73.524321,50.803888,72.687295,71.140632,63.033963,32.948038,55.634693,56.299336,50.820087,15.491424,38.274117,45.048739,44.754159,4.216719,26.540522,50.351434,65.074979,51.851129,88.657878,102.281592,107.334635,62.906212,100.895422,113.798612,113.855466,69.612082,104.701083,116.609022,118.114861,71.309149,98.949516,108.838571,111.022718,52.186409,382.947619,-103.441626,357.504722
39,1.573242,-0.404009,1.840005,-6.525352,-34.148712,-62.925247,-81.764111,-89.701287,-52.360153,-81.279545,-100.357579,-114.411747,-40.72316,-75.485413,-97.689526,-113.874836,-31.980606,-64.130677,-85.118019,-100.866646,-26.149246,-49.997017,-66.067864,-79.082978,-9.225165,0.717824,17.808313,31.85873,40.820827,71.031129,84.000395,91.95948,57.646344,88.007379,98.34856,103.038702,66.64659,94.449034,103.488245,106.474396,69.851585,94.048755,101.58853,104.081851,28.183314,48.112732,55.806147,57.510596,54.08795,72.658406,71.692446,65.123269,43.652987,65.727543,65.575168,59.182278,31.980769,53.347416,54.994315,51.084474,19.845813,40.868862,47.277934,47.78718,10.587703,34.337729,57.788468,72.654923,55.748803,96.055419,111.991214,118.546814,63.275576,106.001388,122.43616,125.439099,66.970762,106.333066,121.545676,125.579698,66.357534,97.048386,109.430973,113.741417,53.752201,382.772152,-101.609071,351.207912
40,2.240204,-0.703991,2.274666,-9.074969,-34.488121,-62.863747,-82.112458,-91.474572,-50.217179,-77.42648,-95.799672,-109.856644,-38.275086,-71.384034,-93.572617,-110.378151,-29.762375,-60.631142,-81.779057,-98.21188,-24.445565,-47.378449,-63.433033,-76.87016,-8.054489,2.960487,21.094064,36.198906,42.852353,75.407133,90.457462,100.337046,59.30675,92.555556,105.542766,112.255703,68.232686,98.65163,110.129031,115.315263,71.564936,97.992334,107.484916,111.852498,23.582244,41.108817,48.481246,51.507166,47.259458,65.774053,65.997927,60.572796,39.089689,60.241671,60.41466,54.400606,29.027208,48.121649,50.211077,47.146616,17.84479,35.824771,42.048023,43.022448,14.748395,39.133341,62.128781,77.425348,56.464935,98.468079,115.012254,121.789211,61.981767,107.227434,124.232047,127.148418,64.189535,106.036846,121.719977,125.880078,62.905819,95.293678,108.229455,112.90195,55.928896,382.322369,-99.397914,342.387151
41,2.029678,-0.681293,0.181992,-22.860641,-34.604485,-63.120781,-83.177788,-94.368988,-49.281258,-75.782719,-93.611847,-107.426182,-36.974785,-69.485825,-91.504395,-108.491135,-28.350197,-58.639023,-79.700043,-96.310741,-23.096741,-45.431282,-61.340836,-74.761402,-7.444172,4.635394,23.815134,39.933905,44.732098,78.820227,94.709707,105.234324,60.578106,95.661726,110.166799,118.246111,69.134761,101.414073,114.478126,121.220036,72.463479,100.229107,111.009469,116.755209,22.294894,39.81276,48.462599,53.096558,46.147579,65.136458,66.837159,62.865034,38.973828,59.971024,61.250147,56.28075,29.362187,47.417422,50.485497,48.608454,18.202401,34.291992,40.755375,42.448855,15.391401,39.150626,61.772321,77.709843,53.790673,96.22148,113.470371,120.704605,58.746952,105.052228,122.615582,126.149688,60.844848,103.724847,119.418251,123.572288,60.123579,93.250421,106.08107,110.679036,57.872177,382.013539,-99.302319,319.898973
42,2.124687,-0.48206,-1.910682,-36.646313,-34.892692,-63.511803,-84.712967,-98.94857,-49.191833,-75.962711,-93.558643,-107.281998,-36.496101,-69.252525,-91.162319,-107.933876,-27.643318,-58.108681,-79.222801,-95.69117,-22.387207,-44.957382,-61.020492,-74.462746,-7.051379,6.023036,26.152732,43.243307,45.547758,80.688732,96.730847,107.183191,60.991956,97.183724,111.795774,119.714548,69.318554,102.972776,116.254931,122.983614,72.633909,101.368858,112.333817,117.934345,24.321264,44.224559,55.750207,62.27877,50.752315,70.745618,74.21014,71.999983,43.305404,64.915603,68.081628,64.822711,32.985706,51.234735,55.817573,55.469987,20.918644,36.270526,43.39999,46.0664,12.516722,34.389582,56.719087,73.508407,47.726016,89.315623,107.365565,115.292996,53.571131,99.47577,117.586765,122.442909,56.936702,99.397069,114.640498,118.656325,58.010813,90.918614,102.985818,107.072676,60.06094,381.874271,-101.148925,283.595452
43,2.134918,-0.711662,-1.424916,-42.21126,-35.334457,-64.195449,-86.142002,-102.943611,-50.816436,-77.851867,-95.333244,-109.216964,-37.861747,-70.513435,-91.897327,-108.387462,-28.572349,-58.850921,-79.393467,-95.366111,-22.899604,-45.3246,-60.896186,-73.843185,-6.887529,7.08544,27.95624,45.206304,45.746484,81.128062,96.832242,106.84123,60.869493,96.898932,111.197993,118.882178,68.972938,102.797097,116.155687,122.961113,72.221504,100.965234,112.140799,118.021463,24.630324,48.562786,65.210512,75.175873,57.711045,81.565985,84.522938,81.112376,51.471199,75.898705,77.920023,73.398262,42.165516,62.818319,65.316491,62.656317,31.196011,47.962177,52.349247,52.141383,4.656907,19.922103,39.456117,56.392699,31.848034,68.648748,83.433661,88.893077,40.801862,80.531892,94.033465,96.183966,47.621677,84.073013,94.589102,95.632782,52.137225,80.482646,88.335705,89.445206,62.387506,381.578519,-102.382193,241.800102
44,1.050408,-0.434994,-0.602279,-48.615112,-35.431595,-64.902558,-87.512581,-105.887524,-52.554497,-80.048287,-97.748177,-111.880028,-39.32943,-72.365135,-93.525067,-109.79924,-29.625527,-60.200318,-80.440041,-96.077168,-23.542626,-46.086708,-61.228363,-73.781708,-7.066581,7.475875,28.786288,45.791351,45.374314,80.490662,95.583327,104.897623,60.378095,96.013332,109.806781,117.034914,68.404883,102.056079,115.15407,121.780618,71.581744,100.008843,111.190175,117.344332,35.160982,64.982162,84.772848,95.217819,73.28651,99.231782,101.859867,97.910928,61.850292,89.378677,90.638185,84.952571,48.118309,73.377748,74.345707,70.07163,33.741932,53.983829,57.281456,55.350443,-6.933243,-0.174204,14.57889,29.234844,5.822731,31.283685,42.091854,45.513808,18.736668,47.228636,56.63972,56.857754,30.926793,57.786184,64.395022,63.465005,41.89022,62.449106,66.713923,65.981279,63.89078,381.690563,-102.531606,193.732028
45,0.201164,-0.440095,7.485271,-56.808804,-35.590187,-65.81472,-89.20142,-108.165504,-54.900787,-82.953289,-100.691116,-114.752117,-41.63015,-75.232544,-96.281593,-112.224106,-31.321861,-62.424568,-82.53035,-97.816257,-24.413773,-47.132881,-61.987106,-74.253788,-7.429575,6.77875,27.942358,44.938109,44.448514,79.116702,93.530829,101.936814,59.41816,94.214332,107.332516,113.899005,67.529151,100.664756,113.349883,119.563407,70.850286,98.999211,109.98125,116.08928,39.839373,70.783711,89.286924,97.481335,77.522427,104.538202,109.1773,107.748385,63.139549,90.487987,93.972788,90.968445,47.168747,71.881422,72.770359,68.988436,31.642388,51.792698,54.721951,52.71916,-15.210491,-19.189719,-13.46196,-5.589549,-21.859436,-11.467367,-7.496976,-8.2415,-9.995879,2.69501,6.881737,5.732976,3.331929,18.181106,24.359272,25.334206,16.74594,28.823604,32.898458,33.670221,64.731319,382.035773,-94.40696,137.708529
46,-0.232796,-0.542823,7.684685,-46.415937,-35.881874,-66.541351,-90.412697,-109.627235,-57.365799,-85.775493,-103.501831,-117.648147,-44.210724,-77.921848,-98.866584,-114.712417,-33.358818,-64.61206,-84.661983,-99.900478,-25.555847,-48.146827,-62.684303,-74.76543,-7.818208,5.926112,26.783994,43.425544,43.369191,77.308107,91.089761,98.722828,58.491126,92.304565,104.861017,110.930206,66.756295,99.097135,111.477055,117.480924,70.095313,97.748234,108.528263,114.629574,42.528671,73.164047,89.915491,96.270933,77.770191,105.006666,110.569599,110.634207,61.121012,87.488714,91.877844,90.488116,43.659055,66.739434,67.140544,63.485988,27.623875,46.69624,48.87258,46.441632,-21.225255,-35.67871,-40.089661,-39.903528,-47.822126,-52.793473,-54.341553,-57.834162,-38.670525,-41.731495,-41.535347,-43.397044,-25.97117,-23.651664,-17.52375,-14.159572,-11.698404,-9.074841,-4.810063,-1.890497,65.246538,382.743649,-85.97426,92.543291
47,-0.834434,-0.901952,7.884098,-36.023069,-35.941864,-67.02031,-91.285115,-110.897152,-59.378472,-88.190071,-105.861695,-120.028038,-46.2827,-80.225086,-101.085102,-116.842644,-35.045243,-66.547051,-86.616829,-101.814251,-26.612595,-49.237358,-63.665611,-75.633671,-8.061195,5.333495,25.937977,42.201306,42.463536,75.619172,88.850346,95.969984,57.76383,90.790828,102.979298,108.748416,66.261589,97.883863,109.986092,115.815652,69.740656,96.898512,107.484855,113.538383,43.228878,72.123173,86.658548,91.586615,74.029804,100.637175,106.036766,106.568396,55.79468,80.380857,84.353353,83.511586,37.589235,57.951785,57.456262,53.564286,21.686394,38.694457,39.733346,36.517859,-24.977534,-49.641179,-65.304213,-73.707097,-72.065341,-92.694635,-98.441881,-103.264178,-67.287272,-86.05088,-88.611535,-90.532307,-56.982505,-67.712127,-61.254045,-55.016327,-43.442812,-51.246231,-46.411641,-40.700875,65.136893,383.393525,-77.365373,58.07205
48,-1.121681,-1.027662,5.111812,-30.71252,-35.931542,-67.314881,-91.938664,-111.952492,-60.663323,-89.95665,-107.601757,-121.698979,-47.615548,-82.06223,-102.858113,-118.413414,-36.160057,-68.260781,-88.378396,-103.365647,-27.367608,-50.3638,-64.834855,-76.704506,-8.216609,4.890731,25.3027,41.183646,41.908868,74.36586,87.174773,93.920166,57.381125,89.709788,101.565175,107.087453,66.065271,96.956767,108.618838,114.146599,69.675484,96.282687,106.575233,112.471014,47.342812,74.943146,86.901284,90.455979,73.257157,95.679841,101.497754,103.578026,51.379738,71.319443,76.177735,77.141905,30.44751,45.935801,46.831267,44.909964,12.702313,25.956019,28.466658,26.813651,-25.669526,-57.164298,-82.641015,-100.071498,-87.804649,-122.103607,-128.102429,-130.745423,-89.144426,-120.791577,-122.03367,-121.132757,-83.414939,-105.108433,-95.787012,-85.321671,-72.979919,-89.506165,-81.588635,-71.641534,64.656744,384.140974,-71.612029,29.134641
49,-1.119164,-1.064084,1.376587,-24.456844,-36.063309,-67.682098,-92.501289,-112.863636,-61.893608,-91.567818,-109.145908,-123.02837,-48.832077,-83.609322,-104.217201,-119.464451,-37.106689,-69.548859,-89.500133,-104.069836,-27.919189,-51.30043,-65.798492,-77.505386,-8.29035,4.635184,24.911142,40.428736,41.741982,73.558721,85.976791,92.432945,57.170508,88.835588,100.517148,106.092852,65.868856,96.011394,107.418584,112.81767,69.593629,95.449996,105.51719,111.327373,52.613125,80.855427,92.416535,95.376206,75.992718,95.808335,99.88741,101.158562,49.193116,65.783959,70.610505,72.355471,24.098912,35.192786,37.785788,37.197619,2.969399,13.133154,17.409411,17.060194,-28.653009,-65.888229,-98.99119,-123.054847,-98.092706,-140.309455,-143.652198,-142.558313,-104.081616,-144.021859,-142.915068,-138.850864,-102.633599,-132.712997,-121.516096,-107.802711,-96.097488,-119.731617,-109.990042,-97.052366,63.949367,384.738958,-69.823655,6.339865
50,-0.960365,-0.999899,-6.085819,-14.4148,-36.128334,-67.875366,-92.747509,-113.315941,-62.456681,-92.726395,-110.465653,-124.257992,-49.282906,-84.67931,-105.206795,-120.18496,-37.448776,-70.376759,-90.284271,-104.546368,-28.186203,-51.947548,-66.513634,-78.076458,-8.343284,4.527948,24.849613,40.064742,41.99711,73.323217,85.269229,91.372121,57.337382,88.434518,99.904793,105.457872,65.915848,95.391653,106.523783,111.762268,69.564766,94.75003,104.645187,110.417999,57.781174,89.194473,103.787304,107.682163,79.198608,98.949475,100.989098,99.634907,49.902432,67.627968,71.005074,71.281077,23.543209,36.880961,40.511736,39.797796,1.620918,13.144072,18.720377,18.678949,-33.850066,-72.594639,-108.332539,-134.685815,-99.156844,-145.597177,-144.33249,-137.438098,-105.679408,-149.832752,-144.601352,-135.679011,-105.906544,-142.928701,-132.340505,-117.539516,-101.431507,-131.813986,-123.551501,-110.024923,63.120919,385.050878,-75.777557,-6.763116
51,-0.519219,-0.897592,-5.030674,-11.314301,-36.192215,-67.994613,-92.777424,-113.354713,-62.717926,-93.50727,-111.433525,-125.217453,-49.365257,-85.35942,-105.820049,-120.585548,-37.501167,-70.96352,-90.850811,-104.847816,-28.365669,-52.554062,-67.248001,-78.771755,-8.218226,4.658427,24.915933,39.981935,42.438959,73.285858,84.894627,90.784208,57.706019,88.285972,99.531759,104.918038,66.153871,95.063265,105.86298,110.725417,69.712226,94.332646,104.020681,109.548207,44.570389,72.386696,88.435107,94.858469,68.460068,88.372771,89.473457,86.635328,48.390478,68.119543,69.536116,67.554534,30.203264,47.593137,50.181361,48.17963,15.16713,30.315145,35.025916,33.777497,-38.566653,-78.15914,-113.792594,-140.032735,-99.66348,-148.14656,-146.390629,-136.807928,-103.568942,-150.633391,-146.047416,-135.679366,-102.170456,-143.700306,-137.372435,-124.849186,-96.758281,-130.702627,-127.16638,-117.132178,62.573461,384.789208,-80.83647,-17.441495
52,-0.009384,-0.632497,-4.854206,-6.680453,-36.14122,-68.011001,-92.788742,-113.236942,-62.584877,-93.789093,-111.900638,-125.681076,-49.156906,-85.691654,-106.17009,-120.796795,-37.384666,-71.272373,-91.180618,-105.057804,-28.4813,-53.021919,-67.8628,-79.422661,-8.181547,4.686152,24.993109,40.155898,42.859973,73.472789,84.844745,90.602452,58.086353,88.329901,99.384892,104.657636,66.392178,94.934392,105.557994,110.21547,69.841803,94.057573,103.643275,109.026478,30.475159,53.200996,69.319639,76.44932,56.192688,75.700247,77.425827,75.258608,45.064676,66.272673,68.616228,67.394769,34.724516,55.392142,59.734952,59.103799,26.002808,44.302955,50.546605,50.825206,-41.654936,-81.440128,-115.975051,-142.210842,-98.819522,-146.997153,-148.241346,-141.50266,-99.339891,-146.486298,-146.478247,-140.15511,-95.13814,-137.514761,-137.552439,-131.306729,-87.099896,-120.79713,-122.288667,-117.845917,62.424333,384.494028,-85.83042,-23.784631
53,0.361359,-0.43019,-3.165413,-2.842783,-36.02845,-67.91906,-92.573651,-112.835964,-62.386894,-93.954598,-112.263348,-126.049736,-48.867645,-85.85138,-106.352761,-120.878128,-37.120537,-71.34644,-91.256252,-105.093796,-28.370453,-53.184563,-68.087517,-79.678494,-8.126614,4.797142,25.158241,40.345335,43.210233,73.787864,85.051374,90.739476,58.396203,88.469506,99.487138,104.742654,66.551222,94.927315,105.589944,110.18394,69.849769,93.81351,103.401472,108.700608,16.041218,32.23732,46.568115,53.115154,41.750565,60.632195,63.498287,62.459038,39.925404,61.237061,64.600868,64.395504,37.905258,60.212494,66.197376,67.100544,36.001339,56.382225,64.040886,66.039127,-43.071623,-81.590202,-114.533503,-139.823446,-95.652617,-142.385412,-148.537075,-146.783116,-93.043952,-139.834796,-145.997728,-145.563055,-86.208713,-128.33719,-135.138578,-135.885274,-75.833279,-107.648805,-113.851387,-115.166624,62.627009,383.895794,-89.154516,-26.795458
54,0.760597,-0.288918,-1.338158,0.133597,-35.911331,-67.791275,-92.344185,-112.36718,-61.944557,-93.741909,-112.191639,-126.03566,-48.352226,-85.588108,-106.07262,-120.557236,-36.718368,-71.09824,-91.01936,-104.92836,-28.253128,-53.183899,-68.128509,-79.79781,-8.019353,5.020518,25.456385,40.699326,43.599125,74.277977,85.450726,91.024973,58.807708,88.847641,99.689482,104.666466,66.853984,95.202462,105.726807,110.053523,69.984236,93.935986,103.431779,108.462536,0.152195,8.512997,19.724511,24.850297,25.891228,43.89909,48.520352,49.170777,34.208565,55.21954,60.216271,61.373131,40.849251,64.056313,71.455548,73.87183,45.788281,67.545491,76.213475,79.726822,-42.774597,-78.783306,-109.179076,-132.760879,-89.713228,-134.133044,-147.10591,-152.390325,-83.715824,-129.644008,-143.665826,-150.582999,-73.918263,-114.8103,-128.751434,-136.946325,-60.949238,-89.835963,-100.848223,-108.174285,63.214966,383.23772,-90.665314,-27.031017
55,1.356308,0.050376,-2.533287,1.277616,-35.769035,-67.6436,-92.188454,-112.069656,-61.711784,-93.539131,-112.090839,-126.024261,-48.082008,-85.286156,-105.670967,-120.099735,-36.572983,-70.897339,-90.698948,-104.596916,-28.343948,-53.468376,-68.486023,-80.186371,-8.131418,5.041242,25.49856,40.897508,43.874557,74.603192,85.76469,91.376617,59.088475,89.118886,99.769572,104.487044,67.010485,95.450057,105.772355,109.758541,70.004392,93.984534,103.248924,107.821332,-15.579528,-14.352985,-5.541492,-0.42889,13.739937,30.667283,36.175564,38.253045,31.919564,52.72926,59.172329,61.803956,46.57441,70.016636,78.478924,82.438546,57.847802,81.095604,90.260823,95.055588,-40.881379,-75.623581,-103.906727,-125.489144,-87.993627,-128.780682,-146.203329,-157.25192,-79.243093,-121.910325,-141.578869,-155.066437,-66.27915,-103.719462,-123.216158,-138.122683,-49.985254,-74.382218,-88.492861,-100.96729,64.557055,382.911048,-93.21282,-26.130449
56,1.513939,0.218386,-1.805694,2.078865,-35.636467,-67.435455,-92.005394,-111.813812,-61.1735,-93.135166,-111.758492,-125.686604,-47.523628,-84.900765,-105.285198,-119.663178,-36.217964,-70.659096,-90.429737,-104.328175,-28.314652,-53.760841,-68.951225,-80.668144,-8.251238,5.012108,25.59525,41.252919,44.038702,74.825617,85.899171,91.449742,59.307628,89.387896,99.713948,104.035131,67.162194,95.735357,105.701231,109.235602,70.092238,94.155114,103.050841,107.030915,-14.491882,-14.720272,-7.749378,-4.881306,13.200222,28.857754,34.925754,38.003219,30.210583,49.607929,58.498752,63.781071,43.948494,65.276058,76.632637,83.216595,54.280071,76.210499,87.682903,95.030708,-38.111855,-71.387472,-99.443722,-120.798904,-84.948258,-123.66965,-143.350846,-158.908653,-76.401223,-116.702277,-139.024236,-157.240308,-63.260895,-98.672565,-120.43207,-139.185315,-46.369404,-68.351155,-82.456696,-96.364489,66.175695,382.546429,-94.913813,-24.634589
57,1.615265,0.392412,-0.204952,1.084077,-35.531433,-67.31852,-91.878674,-111.589485,-60.569847,-92.73428,-111.534588,-125.507218,-46.890839,-84.469208,-104.967098,-119.329903,-35.814926,-70.392929,-90.208111,-104.147907,-28.248207,-53.99707,-69.422562,-81.219223,-8.460696,4.961744,25.605586,41.412691,44.148062,75.02654,85.971665,91.319201,59.460731,89.663265,99.557633,103.33414,67.22734,96.020692,105.564564,108.59052,70.0552,94.218791,102.658726,105.993816,-14.044899,-15.371235,-9.984204,-8.481205,12.023574,26.953045,32.74712,35.447788,28.82341,46.92049,55.839809,61.149994,42.479816,61.857158,72.999984,79.503833,52.867057,73.459545,84.677158,91.943721,-35.749011,-67.239418,-95.196028,-115.580957,-81.700012,-119.756062,-139.89628,-156.168465,-73.942759,-113.981182,-136.566031,-155.392571,-61.436392,-97.140919,-119.229208,-138.172394,-45.220901,-67.19221,-81.085991,-94.735888,68.010103,382.061584,-94.899622,-24.427769
58,1.519684,0.480628,-0.211213,1.166138,-35.556107,-67.251618,-91.766945,-111.315182,-60.065941,-92.353443,-111.246998,-125.309498,-46.377549,-83.963391,-104.549561,-118.991204,-35.535347,-70.038277,-89.912785,-103.93903,-28.292244,-54.191964,-69.914223,-81.876263,-8.533364,4.994361,25.596274,41.56997,44.366004,75.012461,85.739595,90.924851,59.719997,89.883257,99.233937,102.479391,67.4108,96.333792,105.295469,107.727225,70.129338,94.347281,102.241306,104.850792,-14.912899,-16.759071,-12.111179,-11.562641,10.990986,25.526585,31.331658,34.050236,27.963547,46.052399,55.551728,61.15939,41.561795,60.295727,71.196648,77.516396,51.901566,71.719998,82.505711,89.441666,-33.787738,-64.187589,-91.585463,-111.33958,-79.048703,-116.978282,-137.480249,-154.120976,-71.566313,-111.261009,-134.080151,-153.043468,-59.171196,-95.130196,-117.460553,-136.33096,-43.043266,-65.377094,-79.454829,-93.001659,69.842835,381.581922,-94.797787,-24.221921
59,1.468414,0.326388,-0.489372,2.018467,-35.557732,-67.063042,-91.450516,-110.846111,-59.698357,-91.905167,-110.785172,-124.931053,-46.077484,-83.504299,-104.136875,-118.723892,-35.401955,-69.726448,-89.593781,-103.725472,-28.306366,-54.16404,-70.069496,-82.212582,-8.386262,5.243968,25.83037,41.902953,44.587502,74.921837,85.453295,90.535021,59.883561,89.882405,98.77838,101.69185,67.483431,96.481968,105.04165,107.126097,70.115308,94.364917,101.931207,104.102389,-15.817714,-17.905712,-13.619339,-13.832874,9.18116,23.929127,30.02504,33.052345,26.318173,44.774815,54.742058,60.712681,40.081021,58.591324,69.184708,75.226719,50.74292,69.927258,80.285053,86.895436,-32.336418,-61.964044,-88.961947,-108.353448,-77.172324,-115.505955,-136.290205,-152.993549,-69.902998,-109.579786,-132.61771,-151.598663,-57.580234,-93.897837,-116.340907,-134.938914,-41.54078,-64.261672,-78.541368,-91.96655,71.856491,381.060829,-94.741917,-23.050935
60,1.131157,0.103,-0.813858,2.287748,-35.577507,-66.840775,-90.981583,-110.227318,-59.458809,-91.571045,-110.33099,-124.400826,-45.799599,-83.138134,-103.740349,-118.403057,-35.098641,-69.35511,-89.126118,-103.26852,-27.960869,-53.705864,-69.650208,-81.918846,-8.095665,5.617854,26.227598,42.285484,44.665974,74.691569,85.095958,90.086391,59.940285,89.671194,98.25686,101.036938,67.535944,96.374534,104.700256,106.662079,70.160163,94.337215,101.784118,103.834997,-16.533943,-18.716652,-14.181198,-14.423801,7.300518,21.829811,28.149914,31.479023,24.711125,43.124668,53.301201,59.404015,38.83897,57.206429,67.693131,73.655514,49.999226,68.946819,79.025173,85.417282,-31.645197,-60.820679,-87.659088,-107.117162,-75.685838,-114.554486,-135.692733,-152.576799,-68.536949,-108.579634,-131.896879,-150.866872,-56.45913,-93.220089,-115.74659,-134.203467,-40.785734,-64.314715,-78.895309,-92.349415,73.773445,380.335941,-94.769978,-21.591075
61,1.402931,-0.153919,-0.839378,2.685278,-35.916664,-66.97332,-90.811134,-109.850555,-60.098534,-91.920032,-110.200539,-124.047375,-46.348686,-83.22797,-103.452061,-118.172779,-35.433105,-69.314484,-88.824028,-102.896461,-27.965332,-53.535599,-69.479072,-81.828804,-8.015402,5.680679,26.299154,42.226524,44.180517,73.833942,84.175395,89.2516,59.478626,88.877071,97.262851,100.144471,67.22093,95.829266,104.005663,106.030113,70.037304,94.121459,101.434091,103.444932,-17.101135,-19.390103,-14.651436,-14.943501,5.700634,20.362896,27.118297,31.034569,23.246303,41.801456,52.228866,58.604976,37.65152,56.027309,66.531521,72.629757,49.23666,67.947075,77.838043,84.285656,-31.423821,-60.306354,-87.099888,-106.800814,-74.525479,-113.944842,-135.294411,-152.268735,-67.153418,-107.508091,-130.946534,-149.723263,-55.064756,-92.135566,-114.633193,-132.782053,-39.61468,-63.99247,-78.884441,-92.422459,76.304626,379.481449,-94.481106,-19.60637
62,1.363518,-2.255373,-1.089901,3.655124,-35.478974,-66.314392,-89.853825,-108.433422,-60.22831,-91.951927,-109.70929,-123.398804,-46.601074,-83.276894,-103.069084,-117.839344,-35.476524,-69.237419,-88.49707,-102.551514,-27.643891,-52.967468,-68.584419,-80.827458,-8.260241,5.487784,26.33728,42.271121,42.708808,72.32133,82.894149,88.265743,58.148931,87.718931,96.405374,99.547494,66.307445,94.75208,103.105627,105.306881,69.541067,93.665816,101.147818,103.448712,-17.587074,-19.657746,-14.546436,-14.586434,4.79187,19.695408,26.826588,31.296421,22.563858,41.41198,52.02404,58.703647,37.207466,55.987495,66.713619,73.10939,49.115078,68.065212,78.014168,84.643226,-31.184699,-60.18912,-86.828421,-106.826514,-73.250796,-113.148805,-134.61825,-151.558543,-65.48512,-106.233618,-129.684633,-148.139905,-53.282398,-90.722229,-113.236201,-131.200618,-38.025829,-63.111341,-78.329798,-92.050832,79.216152,376.726549,-94.022999,-16.450773
63,1.877014,-3.438621,-1.098702,3.791118,-35.326813,-65.953125,-89.040825,-107.27496,-60.303429,-91.703693,-108.974316,-122.687336,-46.961998,-83.147118,-102.754829,-117.919601,-35.71106,-69.213089,-88.324059,-102.608082,-27.470604,-52.47052,-67.713158,-79.9739,-8.331427,5.198064,26.258066,42.018945,40.822963,70.293705,81.227876,86.938702,56.369975,85.893823,95.062944,98.667649,64.978687,93.291189,101.996441,104.670221,68.786612,93.072975,100.825048,103.58765,-17.603416,-19.624179,-14.24081,-13.948482,4.618904,19.755776,27.095066,31.929669,22.619019,41.795872,52.533268,59.490498,37.414753,56.377121,67.187439,73.762448,49.393536,68.62999,78.697575,85.621663,-31.433745,-60.472389,-87.171902,-107.390284,-72.136795,-112.172964,-133.740401,-150.732052,-63.849716,-104.745316,-128.377409,-146.798471,-51.544872,-89.150324,-111.703766,-129.50457,-36.541986,-62.0701,-77.387086,-91.053595,82.711704,372.737602,-93.503163,-13.209981
64,2.223999,-5.97597,-0.896667,4.725938,-34.746368,-65.254005,-87.973824,-105.926662,-59.612434,-91.165512,-108.377209,-122.420837,-46.573219,-82.753487,-102.477871,-118.160271,-35.251511,-68.709938,-88.144592,-102.954987,-26.710144,-51.63327,-66.87648,-79.340378,-9.172517,3.846359,24.40254,39.675998,38.151591,67.648416,79.150814,85.242936,53.897007,83.71785,93.465498,97.513941,63.038946,91.413445,100.453915,103.503287,67.455298,92.00573,99.937163,103.028772,-17.539227,-19.274929,-13.727806,-13.299591,4.748817,20.240936,27.947925,33.241104,22.772163,42.374657,53.405216,60.752026,37.621273,57.187111,68.419144,75.49229,49.605286,69.536156,80.1129,87.615738,-31.576623,-60.920456,-87.6375,-108.074991,-71.483846,-111.048996,-132.517941,-149.428884,-62.734732,-103.261071,-126.745296,-145.02582,-50.142428,-87.305462,-109.67411,-127.453258,-35.018375,-60.387223,-75.616115,-89.377695,86.613693,366.255769,-92.72184,-8.989906
65,2.601654,-8.742771,-0.707977,5.744066,-34.134361,-64.104858,-86.080124,-103.670975,-59.857086,-91.516502,-108.3964,-122.219925,-47.373115,-83.022102,-102.365181,-117.905159,-35.995102,-68.730423,-88.199707,-103.049755,-26.64608,-51.291962,-66.387016,-78.522034,-10.305453,1.034072,20.088421,35.276429,34.99276,63.716681,75.581775,81.935868,50.805386,80.30746,90.407172,95.025597,60.445947,88.239844,97.44683,101.049881,65.584766,89.940636,97.668391,100.86127,-17.301167,-18.637127,-12.813572,-12.233105,5.341747,21.357364,29.274307,34.74393,23.363697,43.116165,54.09328,61.551395,38.183292,58.011795,69.487026,77.013038,49.941547,70.311229,81.277073,89.182399,-31.502306,-61.333078,-87.97299,-108.599986,-70.992923,-109.648224,-130.752687,-147.380072,-61.619822,-101.312209,-124.499155,-142.584603,-48.394946,-84.904587,-106.949805,-124.690093,-32.729855,-57.643843,-72.77073,-86.627843,91.461708,357.052915,-91.183456,-3.705923
66,1.806015,-11.90338,-0.458863,6.994642,-32.429123,-60.82164,-81.667488,-98.659492,-58.962593,-90.631302,-106.939602,-119.692406,-47.572494,-82.500778,-100.975078,-115.222011,-36.576942,-68.483894,-87.144127,-100.978821,-27.08622,-51.066582,-65.313766,-76.323944,-11.060314,-2.137664,13.849555,27.399868,31.429354,59.234243,71.124939,77.259238,47.48046,76.029478,86.374228,91.229231,57.634253,84.281779,93.258522,97.11223,63.315328,87.075577,94.771346,98.151724,-16.555584,-17.004787,-10.691036,-10.276668,6.071377,22.5985,30.335244,35.54781,23.938717,43.986683,54.623932,61.827507,38.61747,58.91938,70.404774,77.960427,50.000405,70.86921,82.114895,90.262642,-31.243053,-61.717746,-88.251422,-108.99144,-70.05917,-107.644985,-128.156496,-144.411915,-60.207818,-98.941876,-121.619857,-139.554924,-46.50032,-82.243848,-103.802671,-121.332625,-30.531318,-54.555538,-69.188378,-82.743292,95.42395,344.887166,-89.486092,3.02635
67,-1.284439,-12.768368,0.475869,7.71514,-30.465569,-55.048851,-72.916534,-87.591934,-55.287575,-85.308014,-98.976459,-108.554832,-45.380882,-78.207848,-93.434189,-103.613651,-35.168495,-65.02652,-80.843239,-91.272331,-25.620117,-47.682976,-60.355064,-69.123619,-9.611439,-2.827403,9.668225,20.707865,27.562383,52.734568,62.496839,66.831965,42.618887,69.097649,77.365585,80.225271,52.266352,77.402178,84.566671,87.002688,57.648901,80.156815,86.997093,89.612445,-14.958401,-14.585484,-8.016427,-7.668389,6.192901,22.824279,30.469654,35.459758,22.822093,43.002742,53.613384,60.600734,36.681369,57.136035,68.360836,75.466804,47.546218,68.025787,79.051151,86.816185,-31.869919,-62.27505,-88.489804,-109.403526,-69.669661,-105.832586,-125.858158,-141.756586,-59.660858,-96.81978,-118.751445,-136.151532,-45.901347,-80.048171,-100.602048,-117.403249,-29.950932,-52.543524,-66.332465,-79.033988,96.099558,331.861064,-87.050176,10.483756
68,2.812477,-24.144225,0.977737,8.474837,-26.339172,-48.946747,-65.594238,-79.392872,-51.752403,-77.722343,-89.371296,-97.403641,-43.260567,-71.573639,-84.347854,-92.529018,-34.066795,-59.894073,-73.691505,-82.624626,-24.727043,-44.279526,-55.409981,-62.937881,-12.221173,-9.506402,-1.62458,5.958877,22.445039,44.686661,53.671296,57.89311,37.466729,62.228298,70.735615,74.861506,47.442915,71.337719,79.42764,83.964727,53.091917,75.222944,83.210619,87.694291,-11.635815,-10.386921,-4.294041,-4.009815,4.799229,21.911453,29.769791,34.55555,18.094791,38.853298,49.529011,56.624554,30.24995,51.761867,62.921127,69.638878,41.076107,61.808281,72.545689,79.7593,-32.016675,-62.722753,-88.521507,-109.503673,-69.806865,-104.467501,-124.390333,-140.284228,-59.927349,-96.014771,-117.290209,-134.253658,-45.825,-78.651852,-98.240126,-114.393065,-29.229502,-50.615146,-63.583245,-75.171618,100.889929,307.726324,-84.094545,18.968078
69,2.487396,-26.884808,0.833107,6.61224,-22.263862,-41.508773,-56.560478,-69.466713,-44.680297,-64.626068,-73.441681,-79.104766,-38.498932,-60.333984,-70.120239,-75.895729,-31.57814,-51.92015,-62.559333,-68.925064,-23.787758,-40.191764,-49.756874,-55.850738,-13.974341,-16.24557,-13.776332,-9.892416,12.545411,30.75047,38.484511,42.666015,27.673546,49.526782,57.615234,62.24544,38.288602,59.633657,68.137677,73.945488,44.983112,65.581049,74.333713,80.507927,-7.81295,-5.704548,-0.107815,-0.086037,4.869335,21.154312,28.701725,33.520317,14.761242,34.368702,44.459736,51.439075,24.630169,44.740162,55.314732,61.742294,34.654907,53.741627,63.562832,70.230194,-33.15363,-64.17151,-89.380974,-110.410459,-70.166715,-102.868499,-123.019467,-139.805539,-60.080335,-94.31937,-115.335147,-132.710423,-45.555589,-76.443497,-95.579529,-111.7612,-28.212942,-47.624252,-59.969956,-70.640724,105.048408,280.964776,-81.590355,25.703578
70,1.392472,-29.604605,0.472412,4.267503,-17.696137,-34.285515,-48.21959,-59.920258,-37.353745,-50.618889,-55.376759,-58.359444,-33.29805,-47.649697,-53.085091,-56.003174,-28.473427,-42.830452,-49.172837,-52.81913,-22.303826,-36.055435,-44.490715,-49.971268,-15.363392,-21.636221,-24.16159,-25.607736,3.219469,18.518652,24.706698,28.112369,18.38931,37.652869,44.208849,47.727931,29.481561,48.58699,56.27972,61.763318,36.900947,56.228752,65.88706,73.767203,-3.765301,-0.981583,3.96555,4.104961,5.026131,20.023006,27.132191,31.987942,11.621487,29.705463,39.212608,46.185139,19.37859,38.199955,47.913517,53.671921,28.907318,46.483887,55.223728,61.022358,-34.256004,-64.841477,-89.190751,-110.220571,-69.689823,-101.1894,-121.736349,-139.168546,-59.681255,-92.988056,-114.176858,-132.252389,-45.151525,-74.655853,-93.808577,-110.130773,-27.548193,-45.532309,-57.262349,-66.833706,107.306671,251.566572,-80.252152,30.177482
71,2.367004,-32.376964,-0.034401,1.679994,-14.507194,-30.485046,-44.19825,-54.56131,-35.805633,-42.610908,-43.113853,-43.869392,-33.452888,-40.072128,-40.828056,-41.23558,-29.706093,-37.50341,-39.286468,-40.340355,-23.53434,-35.834106,-44.055496,-49.500549,-17.293314,-27.037677,-33.168591,-38.37693,-5.706108,7.773265,12.362914,14.4174,9.273307,27.332264,32.138508,34.456471,21.014098,38.803255,45.48071,50.12134,29.656006,48.585508,59.404872,69.10601,2.602089,6.052769,9.734654,10.254547,5.480896,18.3093,24.776013,29.196373,7.9189,23.936955,32.760899,39.414642,12.925999,30.144035,39.167038,44.3615,21.539909,38.753071,47.323254,52.751061,-35.004141,-65.293521,-89.252656,-110.46446,-69.949119,-99.82889,-121.22082,-139.610716,-60.367882,-92.179922,-113.606796,-132.272495,-45.85966,-73.426303,-92.571142,-109.064294,-27.872104,-44.00046,-55.011238,-63.310005,110.226929,219.652887,-79.733299,32.320755
72,0.784744,-35.033367,-0.681621,-0.017142,-10.80249,-27.912529,-42.763115,-53.271446,-35.301109,-37.16922,-35.836212,-36.652015,-34.295311,-34.088974,-32.879425,-33.657486,-31.251732,-33.397705,-33.146873,-34.187462,-25.410598,-35.794922,-44.102142,-50.304428,-21.715311,-34.758801,-43.141568,-49.765874,-14.519597,-2.633717,2.485528,5.071104,1.734742,18.354717,23.648839,27.243565,15.364861,31.538825,38.753706,44.789488,26.401709,44.175182,55.930769,67.523136,7.942028,11.79824,14.39883,15.230289,6.150535,16.992874,22.25584,25.642787,5.344951,18.709602,26.109569,31.734214,8.383438,24.153419,32.199863,36.334579,16.397094,33.741245,41.961307,46.681789,-33.280724,-62.439429,-84.658215,-103.970787,-69.558517,-99.146708,-121.1648,-140.134514,-59.893466,-91.294625,-113.0777,-132.309872,-45.04653,-71.283811,-89.306805,-104.443301,-26.606239,-41.263941,-50.343055,-56.307829,111.204935,185.540485,-80.221658,33.224578
73,-5.010063,-28.917237,-2.157124,4.111462,-9.07782,-25.011658,-39.209518,-48.232979,-33.744255,-35.300812,-31.709862,-30.519012,-34.481506,-33.191253,-29.203171,-27.559089,-32.545074,-34.011429,-30.920677,-29.446014,-27.377746,-37.779121,-46.4477,-52.39595,-22.558432,-37.4722,-47.782431,-55.742128,-22.461712,-12.84629,-8.488946,-7.228355,-5.734816,7.561227,11.063612,12.227193,8.926096,21.617967,26.8587,30.580089,21.529751,36.720303,47.578619,58.220586,12.321957,17.202003,19.930328,21.078186,9.670635,18.230274,22.174347,24.659328,7.12397,17.424004,23.175858,27.260212,8.362236,22.095119,28.727207,31.675564,14.677204,31.316841,38.962734,42.846912,-32.516699,-60.838272,-81.656734,-99.501119,-68.034822,-96.864045,-118.591584,-137.261317,-57.650907,-87.152527,-108.395772,-127.331416,-42.315977,-65.762355,-81.905827,-95.279665,-23.719568,-35.625805,-42.540497,-46.633829,106.110569,157.79649,-82.463085,38.509282
74,-2.436287,-26.106252,-3.063522,10.15455,-12.150718,-30.843429,-45.732719,-54.456047,-39.065254,-42.200271,-39.147812,-38.305092,-37.827644,-37.566375,-34.104835,-32.447799,-34.104172,-36.629608,-34.084053,-32.824035,-27.581245,-38.253341,-46.941993,-52.720848,-15.627375,-26.195593,-32.391012,-36.552873,-18.855186,-12.076683,-8.972144,-8.671469,-8.02609,-0.325795,-0.123835,-1.575574,2.118169,8.484031,9.535745,9.988864,11.24751,20.259519,26.771835,33.451488,17.194267,23.549629,26.851387,28.566204,13.658901,20.949039,23.866081,25.078125,8.968059,17.850288,22.388386,24.946208,8.21719,22.033241,27.204826,28.541038,12.797264,30.132236,37.317363,40.034992,-31.769821,-59.709091,-79.645551,-96.185004,-65.653266,-93.639096,-114.362096,-131.572405,-54.41382,-81.740063,-101.630489,-119.075678,-38.442416,-58.687566,-72.031972,-82.715498,-19.815861,-28.779545,-33.04267,-34.971771,103.533428,132.854903,-85.667461,49.828497
75,-3.628143,-28.374481,-3.624871,16.320344,-11.38932,-30.330711,-44.868507,-52.011658,-40.805237,-47.718407,-44.542442,-42.475594,-40.958519,-44.660042,-40.964951,-37.863602,-38.254486,-43.934235,-41.366821,-38.998787,-32.535255,-44.534157,-53.037483,-58.310234,-18.231544,-31.1816,-39.3834,-44.427884,-25.032679,-21.365081,-18.621411,-18.496879,-13.077422,-8.783496,-8.745964,-10.016306,-1.34787,2.283234,3.301393,3.866199,9.465622,17.493299,23.656595,29.421107,22.523976,30.916684,35.192711,37.061463,18.998063,25.578278,27.811352,27.973755,11.653473,19.941971,23.46967,24.439751,8.040242,22.127838,25.79868,25.649094,9.905194,27.457329,33.910687,35.426823,-31.952473,-60.524462,-80.457891,-96.097646,-63.221467,-89.472253,-108.814217,-124.522114,-50.561373,-74.236154,-92.026571,-107.31961,-33.4171,-48.934015,-58.616832,-66.23217,-14.380312,-18.949213,-20.254864,-20.17339,99.607601,105.688195,-89.590016,67.356614
76,-0.687584,-23.180389,-0.731483,17.31841,-12.038864,-31.365646,-46.67839,-54.336365,-37.672691,-46.669006,-45.919258,-45.391869,-38.767776,-46.469513,-45.388184,-43.691734,-37.950874,-49.059151,-48.946129,-47.512367,-34.88974,-48.363373,-56.732506,-62.006767,-20.021817,-33.134647,-40.09369,-43.287502,-31.788253,-35.206979,-35.784913,-37.971193,-20.534679,-23.121027,-25.547843,-28.815724,-8.253146,-8.201146,-6.930242,-5.833487,4.169123,10.206374,15.492895,19.90595,22.819794,33.286251,40.244316,43.659817,22.360828,27.270595,29.49876,30.169979,14.253639,20.143787,23.676601,24.631508,9.014294,20.886555,24.255237,24.159027,9.207687,24.07354,29.366501,29.927238,-31.433764,-59.295593,-78.238514,-93.043422,-59.459874,-82.474382,-99.132581,-112.326742,-44.646271,-62.191712,-76.616342,-89.055759,-26.156129,-34.925181,-40.512124,-45.185124,-6.772749,-5.606481,-3.518526,-1.639783,98.145218,83.396914,-91.096298,85.564132
77,4.991524,-19.957449,-0.949963,19.536459,-14.430771,-34.429138,-50.802178,-59.96727,-36.754486,-47.958275,-49.160202,-49.830391,-38.226586,-49.696495,-51.017121,-50.939301,-39.155846,-55.329323,-58.174439,-58.499199,-38.544045,-55.580933,-64.890129,-71.271836,-20.567981,-33.404694,-38.644809,-40.440054,-35.722471,-44.8652,-49.204982,-53.953521,-26.244524,-35.075209,-41.057898,-47.198334,-14.59177,-17.63149,-16.873108,-16.082135,-1.767642,3.055374,8.004539,11.694219,23.733176,36.632401,45.565562,49.955155,26.392846,30.37868,33.52252,35.488512,18.164211,23.070248,27.545861,29.495218,11.673569,22.260824,26.210455,27.163765,10.155333,23.347504,28.459402,29.419836,-32.089213,-60.142416,-80.226055,-96.999177,-54.989412,-72.804532,-86.16852,-96.512683,-38.362064,-48.699027,-58.7461,-67.542554,-18.758003,-20.690389,-23.091604,-25.863703,0.896764,7.579313,11.947495,14.965249,101.907915,63.879659,-93.275088,105.540785
78,5.336105,-14.185866,-0.054344,16.442756,-16.059013,-36.284866,-53.578949,-64.509155,-33.943359,-45.236915,-48.328056,-50.415619,-35.378746,-47.449448,-51.667419,-54.052528,-37.9254,-55.800522,-61.963783,-65.145058,-40.140015,-59.075752,-69.124306,-76.864517,-20.784862,-32.876408,-36.143325,-36.187952,-39.320563,-53.44865,-62.076578,-69.627307,-31.897065,-45.872004,-56.283037,-65.626189,-20.742007,-26.705121,-28.033354,-28.774531,-7.0718,-4.167313,-0.177372,2.885652,24.06312,38.973518,48.801108,53.772526,29.185856,32.66709,37.023348,40.438574,21.918789,26.257008,32.134606,35.528193,15.432125,25.523089,30.794642,33.057793,13.127436,25.902737,31.740107,33.960219,-31.396596,-58.623924,-79.935215,-99.232307,-50.208348,-62.303638,-71.996883,-79.052155,-32.299477,-35.922501,-40.967348,-45.275148,-12.194429,-8.220326,-7.313633,-7.49937,7.241248,18.340352,24.96896,29.859749,105.960348,49.885552,-94.613104,122.1753
79,1.785072,-11.839005,2.175781,9.955212,-11.443634,-29.030662,-45.400909,-55.721168,-27.353279,-38.585449,-41.122879,-42.58818,-31.629867,-43.909149,-47.569816,-50.07193,-37.128318,-56.642555,-62.833511,-66.238037,-42.248794,-63.16452,-74.471099,-83.776771,-29.811784,-47.444373,-54.543312,-58.244681,-49.157206,-66.885058,-79.356511,-90.938258,-36.490468,-51.333192,-63.448956,-74.847638,-20.132512,-23.836672,-24.877549,-25.873547,-1.388971,4.918506,11.281349,16.368045,22.055907,38.274342,49.142596,55.825745,29.694695,33.557024,39.638266,45.104422,24.596054,29.025044,36.533982,41.458563,19.289875,28.837298,35.904951,39.884114,17.159426,29.370621,36.23699,40.106398,-30.021056,-55.130358,-75.687659,-95.287407,-45.687065,-54.193156,-61.685605,-67.19678,-26.930828,-26.255358,-27.750753,-28.905038,-6.703187,1.293356,4.54131,6.197827,12.419916,26.125759,34.77517,41.589841,106.311178,38.267595,-93.871565,132.35156
80,1.457314,-3.315714,1.919484,2.59595,-14.36039,-31.628906,-47.526146,-58.561157,-25.816521,-33.865654,-37.344109,-40.358963,-27.258156,-36.675911,-41.507332,-45.637962,-30.524323,-47.358719,-54.371658,-59.087128,-34.196091,-51.985199,-62.388771,-71.322212,-23.149994,-36.677818,-40.289908,-41.689178,-46.284335,-67.576903,-83.308944,-97.658647,-38.454371,-57.352634,-72.631297,-87.005299,-25.984777,-34.277486,-39.176832,-43.639639,-10.368734,-9.763882,-7.561998,-5.820822,19.190523,36.409389,49.068758,58.101459,29.553886,34.202299,41.423006,48.16385,27.414367,32.962909,42.100067,48.562597,24.520225,34.817464,43.530389,48.699325,23.537469,36.192409,44.169942,49.145685,-27.426983,-48.273715,-64.975932,-81.818728,-42.222854,-48.947366,-55.582398,-60.731975,-23.899493,-21.053726,-20.125534,-19.005996,-4.267935,5.61381,10.489765,13.792461,14.202873,29.126533,38.960984,46.835724,106.142406,35.017414,-93.578167,135.013043
81,-5.560364,-0.340325,-1.976801,-2.452384,-11.668602,-25.1418,-37.32019,-46.215889,-20.843902,-27.230415,-29.304817,-30.922073,-21.188644,-28.150497,-31.358047,-34.218956,-22.869026,-35.243866,-40.885483,-45.106384,-24.712692,-38.031235,-46.39151,-54.043304,-21.204653,-34.906223,-39.575832,-42.55524,-43.860737,-64.677011,-79.865821,-93.505789,-37.860844,-57.471015,-72.993667,-87.458213,-28.060869,-39.617699,-47.6058,-54.619801,-15.599074,-19.512654,-20.890232,-21.820928,18.445089,36.328033,49.330862,58.695007,32.041837,40.144169,48.155708,54.505376,32.282827,42.417995,52.667616,59.1895,31.239955,45.662784,54.321058,58.518711,30.818367,46.52881,55.032789,59.994918,-27.311793,-46.219976,-60.741716,-74.935532,-42.300384,-50.163268,-56.698879,-61.78544,-24.818027,-24.239673,-22.766944,-20.619703,-5.545415,3.271945,9.166086,13.66625,12.999184,27.163201,36.947807,44.986914,99.081762,34.299763,-97.055248,132.183333
82,-4.560619,9.796478,-3.075898,-9.390626,-9.37207,-20.831234,-30.689953,-37.350678,-18.656799,-24.038819,-24.549351,-24.979088,-18.162827,-23.728627,-25.128822,-26.94373,-18.241779,-27.291493,-30.52359,-33.500691,-17.882572,-28.310749,-35.541939,-42.3078,-20.633468,-36.043098,-44.095355,-50.872484,-42.57451,-59.512957,-72.084964,-83.80213,-36.324038,-52.003273,-65.065579,-77.577821,-27.368434,-37.919218,-46.559335,-54.612345,-16.415032,-21.153743,-23.710948,-25.332467,17.204693,35.609196,49.468186,59.007557,34.763358,46.918734,55.322657,60.300385,37.000082,52.427102,63.522921,69.286011,37.20369,55.595702,63.290657,65.574967,37.106158,55.642291,63.817727,67.641718,-29.19867,-47.94594,-61.084103,-72.250001,-45.808391,-57.06132,-64.077442,-69.464153,-29.00256,-32.759245,-32.524856,-31.170641,-9.456804,-2.412805,3.759029,8.151604,10.008161,23.226989,32.165608,38.962315,93.318443,43.595911,-101.333846,122.292377
83,-1.542847,18.28618,-1.303814,-15.694191,-8.221573,-20.279743,-29.464474,-34.18856,-21.809669,-27.379692,-25.96796,-25.342117,-20.34526,-25.563091,-24.45964,-25.26202,-18.210422,-25.436245,-25.848724,-27.191105,-14.662685,-24.65498,-32.016655,-38.562401,-21.043892,-38.367921,-49.940661,-60.884776,-40.39803,-49.274923,-57.049393,-65.232558,-32.376136,-38.882934,-46.879928,-55.496855,-23.282625,-27.181426,-33.322325,-39.962486,-13.17098,-14.350626,-15.559591,-15.917771,15.411576,33.13313,47.307919,56.188111,37.239367,52.338673,60.408766,63.989233,40.458144,59.235707,69.870593,74.070632,40.981476,61.040509,67.520497,68.096152,40.542258,59.333897,66.425349,68.656289,-31.292447,-51.086091,-63.330658,-71.614077,-50.33934,-66.639553,-74.170884,-79.93246,-34.025317,-43.019826,-44.816538,-44.663128,-13.982791,-10.443773,-5.539336,-2.093055,6.739347,18.242782,25.771522,30.892129,90.379629,61.41695,-104.033627,106.133045
84,-1.630417,20.864625,-0.866237,-18.603917,-9.600036,-22.30608,-31.641529,-36.415283,-26.309326,-32.796592,-31.193493,-30.096359,-24.269371,-29.777057,-28.452118,-28.367008,-20.649227,-26.372074,-26.362884,-26.953731,-14.899189,-24.137729,-31.359077,-37.23825,-19.690379,-37.19604,-50.168434,-62.642341,-36.966468,-38.675046,-41.291979,-45.073605,-27.951732,-27.927035,-31.626965,-36.724699,-18.929012,-18.769192,-21.753337,-25.80237,-9.717261,-8.210091,-7.543177,-6.140051,14.819458,30.935097,43.65842,49.522854,40.515032,56.982788,63.777013,65.487665,43.578329,63.522835,72.619486,74.815229,43.573402,63.833256,69.113422,68.039263,42.091238,59.972248,65.82728,66.480617,-32.927981,-55.250187,-69.159711,-77.483164,-55.322846,-75.67651,-81.911267,-85.938737,-39.413979,-52.628191,-55.171323,-54.445666,-18.885595,-19.629308,-16.448529,-13.357676,3.033532,12.761457,18.536251,22.230231,87.31604,81.802556,-106.333036,87.050109
85,-0.770988,20.227415,2.020534,-19.313269,-7.640282,-20.963688,-31.137829,-36.436615,-27.292717,-36.823815,-37.188938,-36.908547,-26.889748,-35.544445,-36.397225,-37.550617,-24.308979,-33.120587,-34.927231,-36.420124,-19.118672,-31.213703,-39.698891,-46.219231,-24.689309,-44.826637,-59.575244,-73.463316,-35.442899,-31.32406,-30.029407,-30.324506,-22.250618,-15.223202,-14.288535,-15.471973,-10.346723,-3.167234,-1.088493,-0.975894,0.961646,8.065225,12.64341,17.238693,12.671688,25.664944,35.326046,38.12114,34.859831,49.693966,56.617808,57.603682,37.653872,56.2458,65.385928,66.462462,37.679798,56.091751,62.069527,60.804457,36.744707,52.847855,58.450911,58.74345,-34.00773,-59.343912,-76.983402,-87.817861,-55.901682,-76.342297,-81.1234,-83.539987,-39.477298,-53.835108,-57.006971,-56.288063,-18.591156,-20.88557,-19.090483,-17.343387,3.740179,13.283421,18.404124,21.248956,85.124176,101.843648,-105.733378,67.550517
86,4.529251,17.140575,0.893446,-12.070875,-9.97879,-26.785137,-39.672649,-46.647309,-34.263016,-47.845596,-50.386883,-50.959923,-34.497528,-47.098034,-49.832886,-51.597187,-32.392925,-45.059864,-48.686028,-51.161007,-27.455532,-43.96027,-55.233605,-63.97966,-25.751071,-46.122797,-61.651164,-76.639943,-34.169285,-25.137935,-19.828604,-16.322076,-18.106265,-4.363028,0.815436,2.859291,-3.606548,10.005116,16.701949,20.217792,9.784631,22.270369,31.139633,39.280706,11.774952,22.451123,29.718579,30.489567,30.724205,42.580702,48.904164,50.072279,31.954193,46.644139,54.179398,54.681685,31.126957,46.04801,51.949642,51.440649,30.418202,43.544936,49.100985,49.914763,-34.719873,-62.028326,-81.898163,-95.456708,-55.813721,-73.591137,-78.130521,-80.111736,-38.573769,-49.892366,-53.22619,-52.647632,-17.029451,-18.3108,-18.052949,-17.197125,5.495762,15.119647,19.533085,22.270101,88.420761,119.339269,-106.072598,55.834688
87,1.079258,3.74682,2.585736,-5.026774,-11.186646,-29.274056,-43.472626,-51.426338,-38.939232,-55.878456,-58.125618,-57.611481,-39.87664,-55.354614,-57.808434,-58.256218,-38.310631,-53.80854,-57.017395,-57.96666,-33.587563,-52.452347,-65.248215,-74.870911,-26.123184,-46.709135,-62.83917,-77.774193,-34.063213,-22.655713,-15.762083,-11.506164,-16.294816,0.122723,6.757805,9.657011,0.016154,15.929865,24.103051,28.612461,14.929953,29.810777,40.91875,50.915944,11.287479,19.440204,24.592758,24.338573,25.752731,33.42394,39.602909,41.77363,25.177654,34.395412,40.282402,40.382989,23.355091,33.520105,39.554866,40.182913,22.471584,31.116731,36.096708,37.141576,-34.069073,-61.454534,-81.579593,-96.878801,-54.079578,-68.235381,-73.150942,-75.206586,-36.464677,-43.54903,-47.306073,-46.867861,-15.281951,-15.57832,-16.89519,-16.90633,6.583181,16.340447,20.581298,23.405031,88.302143,123.568085,-104.684738,51.28991
88,0.354355,-8.22978,-1.24977,6.03581,-11.534821,-29.504906,-44.305069,-52.138481,-41.651184,-61.600045,-64.59256,-63.283333,-44.475426,-62.529534,-64.799057,-63.362732,-44.059387,-61.547653,-64.408516,-63.715966,-39.702873,-59.881371,-72.480103,-81.287796,-27.156219,-48.012365,-64.563588,-78.840203,-37.754029,-30.002061,-22.554455,-17.785143,-19.528728,-6.074165,1.052024,4.258729,-2.047711,11.90924,20.435083,25.41237,14.178766,29.153821,40.543437,50.305931,11.401606,19.474554,25.046151,26.036866,22.774647,28.168637,34.613823,37.554394,21.222107,27.616551,32.8944,33.295636,19.290453,27.67792,33.741103,35.049094,19.023966,26.391821,31.591582,33.216837,-33.212472,-59.201173,-77.737584,-92.55212,-52.432469,-63.983903,-70.479734,-74.105966,-34.849139,-38.564068,-42.51523,-43.101022,-14.096711,-12.119074,-13.127641,-13.508477,7.017344,17.501258,22.364001,25.531276,87.759007,115.716378,-106.831999,57.703793
89,2.039863,-15.145119,-5.085273,17.098393,-11.18882,-29.023109,-43.79219,-49.994671,-42.164703,-64.506969,-66.960502,-64.692661,-46.204376,-67.113933,-67.763557,-64.674179,-46.770629,-66.654018,-67.773788,-65.418136,-43.071968,-65.433162,-77.415676,-85.261917,-29.510111,-51.527863,-69.632142,-85.022703,-43.527214,-39.311343,-31.392427,-26.247117,-25.110308,-14.188333,-6.397722,-2.591291,-6.563084,5.887528,14.588668,19.46034,11.230773,25.513551,36.738769,45.871337,12.11733,22.55417,31.078754,35.584442,21.789951,26.814788,33.936905,37.41457,20.087551,26.307552,32.01539,33.41962,18.933042,28.521452,34.508348,36.03919,20.075346,29.370203,35.585603,38.140543,-32.150069,-55.26824,-70.372138,-82.476664,-50.872395,-60.836701,-70.116895,-76.809875,-33.727152,-34.937479,-38.853659,-41.347113,-13.47373,-7.933064,-6.750299,-7.003566,6.798254,18.602083,24.881195,28.648838,89.132377,100.826628,-112.583765,75.057555
90,4.125298,-19.690452,-4.302292,21.428652,-10.98317,-28.415314,-42.428101,-46.18063,-41.862351,-66.355923,-67.175812,-63.212711,-47.049797,-70.613125,-68.614998,-62.981117,-49.008385,-71.080547,-69.887032,-65.362267,-46.655846,-71.719196,-83.584408,-90.879479,-32.138104,-56.061646,-76.312086,-92.931975,-51.416416,-50.364791,-41.761483,-36.577209,-32.689332,-24.461571,-16.57035,-12.823094,-12.672868,-1.91833,6.605018,11.092739,7.068807,20.893643,32.244265,41.317299,14.890028,29.015138,40.452987,47.894634,28.396809,35.435303,42.334041,46.578277,25.791057,32.986553,38.923582,42.101154,23.662222,34.933107,41.404512,44.628931,23.844343,35.191171,42.515436,46.961008,-32.359643,-54.350505,-67.679146,-79.217501,-52.878918,-63.529932,-73.876044,-81.875705,-36.028207,-36.743474,-39.220042,-41.351657,-15.638094,-8.888675,-5.836022,-4.464752,5.004689,16.286863,22.950168,27.49807,92.890011,81.140341,-117.253721,96.490372
91,3.382782,-18.908217,0.473831,19.885813,-9.331948,-25.759415,-39.432243,-42.927647,-36.544441,-58.296513,-58.092224,-54.270138,-42.669548,-64.595181,-62.588928,-57.617867,-46.505608,-69.019581,-68.115669,-63.533249,-46.662918,-72.397717,-84.21619,-91.034752,-33.670762,-59.007475,-79.672333,-95.336437,-55.373037,-59.755825,-55.997052,-55.751242,-37.699729,-35.336331,-31.497666,-30.843433,-17.800202,-10.446475,-3.916777,-0.617492,2.788003,15.469512,25.719253,33.659223,16.32839,33.067652,46.674065,56.301716,31.967606,41.295261,49.155624,54.674503,29.724827,39.300831,47.580088,53.32925,27.64971,41.525774,50.116877,55.530516,27.298594,41.022875,49.799189,56.185701,-31.276232,-52.212731,-64.724309,-76.188767,-52.357153,-64.446729,-74.432243,-82.13678,-35.892177,-37.876644,-38.527512,-39.116756,-16.0331,-9.970179,-5.179758,-2.183217,4.367603,14.834554,22.118056,27.355759,96.133358,62.290867,-116.919325,116.434928
92,4.616066,-14.001486,1.766281,16.81234,-8.472176,-24.006271,-37.471184,-41.604229,-29.113816,-47.746914,-48.894356,-46.73196,-35.88279,-55.545696,-55.615379,-53.241211,-41.59893,-63.225918,-64.66507,-62.877342,-44.937813,-70.34499,-82.200245,-89.524979,-34.371962,-59.491462,-78.520336,-92.61178,-57.727382,-68.32496,-68.745437,-71.453724,-41.553733,-45.592803,-45.327912,-47.266177,-22.595659,-19.53763,-15.946004,-14.72777,-2.226192,7.971647,15.949276,21.632719,17.056337,36.285399,51.623955,62.806,35.092003,47.092083,55.440262,62.202919,33.717911,46.474812,56.92024,65.470013,32.214449,49.661493,60.396704,68.278193,31.880179,49.078302,59.758833,68.63756,-29.874819,-50.694467,-63.828323,-76.032112,-50.3942,-62.021537,-70.48481,-77.381628,-33.503931,-35.268844,-33.499157,-32.414848,-13.420575,-6.864825,-0.331529,4.260945,6.765736,17.26678,25.331726,31.705088,100.907684,48.509401,-114.994784,133.467288
93,2.227409,-10.360633,4.286116,7.943264,-10.817413,-26.070968,-39.037582,-45.361416,-24.134491,-37.982494,-39.894493,-39.524402,-27.529175,-43.460232,-45.362549,-45.116775,-31.264366,-49.684467,-52.972847,-53.259086,-34.049194,-54.839206,-65.150905,-71.680458,-26.266269,-46.140374,-60.381615,-70.283331,-50.086682,-64.345522,-69.796157,-76.108994,-39.647374,-50.046124,-54.806945,-60.645052,-26.002138,-30.304789,-31.976639,-34.684663,-10.623735,-8.286618,-5.953446,-4.908892,17.297481,37.845394,53.820671,65.821552,35.750644,48.784103,57.79145,65.684784,34.721008,49.168819,61.834625,72.650551,33.390678,52.381107,65.356785,75.450279,32.88184,51.422355,63.603412,74.282249,-28.779656,-49.863452,-64.02589,-77.525234,-48.139584,-58.097239,-64.740787,-70.357944,-30.29482,-31.250957,-27.834776,-25.281607,-9.715353,-3.31349,3.775235,9.196143,10.423383,20.893054,29.295976,36.272995,103.281681,38.47997,-110.56208,141.741754
94,-0.930542,-0.561925,4.87659,-0.089538,-11.442238,-24.821113,-35.76345,-42.525261,-20.03318,-28.779327,-30.413841,-30.839264,-21.29837,-31.929313,-34.023399,-34.62886,-23.34153,-37.041137,-40.525314,-41.66716,-24.971237,-40.187599,-48.41645,-54.064064,-21.873676,-39.889303,-51.775702,-59.711673,-47.78996,-65.228671,-74.934693,-84.486346,-41.207341,-56.962736,-66.067063,-75.264138,-31.294053,-41.72426,-47.705127,-53.692663,-19.239212,-23.107696,-25.070532,-27.746986,18.377953,39.152207,55.18396,66.913296,35.326676,49.12064,58.673024,67.269036,33.485173,49.634228,61.293824,71.259305,31.214013,51.958272,63.296036,72.013516,30.072648,48.805493,60.51075,70.647378,-28.717659,-49.917619,-64.617496,-79.54467,-46.268874,-54.917031,-61.408463,-67.318725,-28.083038,-28.398027,-25.116622,-22.61176,-7.595684,-1.444256,3.977702,7.886911,12.405065,22.698525,29.893597,35.524012,102.403873,38.247458,-105.632756,141.981629
95,-0.276672,17.270466,5.913266,-7.789358,-11.426308,-24.382713,-35.867294,-44.603485,-19.056908,-23.810326,-25.456947,-26.613098,-19.248619,-25.499199,-28.567246,-30.838692,-20.324204,-30.700127,-35.266045,-37.636528,-21.347695,-33.540711,-41.117386,-46.6428,-19.592035,-36.521306,-46.006601,-52.354636,-47.72572,-68.336939,-82.884478,-96.15295,-43.084985,-62.794247,-75.255042,-86.80051,-34.920469,-48.159159,-55.156086,-61.456134,-24.224026,-29.919371,-32.47921,-35.252829,18.784275,38.063667,52.457668,63.325939,36.542106,50.033306,58.700981,66.223594,34.331337,50.158436,59.579475,67.451454,31.225719,49.977184,58.599025,64.94038,28.749332,44.549526,53.955093,61.750671,-26.693338,-47.866739,-63.078144,-77.382467,-50.819298,-61.796904,-67.620208,-71.441287,-35.845144,-41.16036,-39.338242,-36.71438,-18.554245,-18.750228,-15.148777,-11.621075,-1.220089,3.590694,8.621648,13.207358,102.21393,55.752307,-99.632761,134.426654
96,-4.081741,21.196415,1.034637,-8.264564,-12.241997,-25.254296,-36.467469,-44.461304,-24.329087,-33.095742,-32.673203,-31.70945,-23.932183,-32.284012,-32.386048,-32.343911,-23.011528,-32.804627,-34.018593,-34.268235,-21.282715,-32.175065,-36.50734,-39.432129,-19.391457,-35.985775,-45.840807,-52.986052,-44.623799,-60.208936,-71.05773,-81.127296,-37.681484,-52.071578,-62.162503,-71.954266,-28.068952,-38.809226,-46.133726,-52.953676,-17.081102,-22.117441,-25.701503,-29.19846,21.675785,40.668652,53.961582,64.436897,36.917908,48.080715,54.613712,59.535599,31.776901,44.369362,50.456417,54.591408,25.876774,40.243595,44.950001,47.541561,20.625744,30.677113,35.755314,39.453736,-24.200153,-46.362073,-62.908985,-77.185643,-55.403216,-70.841838,-79.044633,-84.910564,-42.711796,-54.333032,-57.061178,-58.196231,-26.924136,-33.597522,-35.10577,-36.059233,-10.286624,-9.974334,-8.846506,-7.985291,98.197226,77.235732,-98.533087,126.4491
97,-6.036919,31.215315,-2.106239,-8.198762,-14.558945,-29.619301,-41.593712,-48.49292,-40.027657,-51.216282,-48.76807,-45.432324,-38.596333,-49.446671,-46.564076,-43.070458,-34.426804,-44.866631,-42.669537,-39.477814,-27.909462,-38.24913,-38.269592,-36.474976,-21.289016,-37.955039,-48.330423,-55.221528,-39.62845,-48.83724,-55.823873,-63.359843,-29.487939,-38.034104,-45.370942,-53.392178,-18.12587,-25.178749,-30.814029,-36.421473,-6.80345,-10.02022,-14.346343,-18.863979,24.906223,44.195389,56.680652,66.900352,35.677391,44.154957,48.561733,51.146267,26.818931,35.770798,38.603302,39.387623,17.856525,27.342762,28.841034,28.385238,9.90612,13.854721,15.183826,15.230118,-22.730092,-45.678182,-62.880846,-76.932085,-61.485559,-82.77489,-94.088764,-103.102366,-52.512495,-71.797001,-79.419212,-85.396843,-39.28586,-54.017532,-60.563014,-66.258433,-23.489487,-29.452211,-32.763343,-36.161035,92.111858,108.586197,-100.687775,118.385488
98,-7.685326,38.900185,-3.37381,-8.429846,-15.028724,-31.748794,-44.734474,-50.623684,-52.263519,-69.903362,-67.439792,-62.112041,-52.019199,-69.539634,-66.172554,-60.825943,-47.400375,-63.942054,-61.031879,-56.006412,-39.205833,-54.578945,-54.669605,-51.699703,-28.572206,-48.612296,-60.598199,-67.282045,-38.202214,-41.017372,-43.411336,-48.223564,-21.42375,-22.160772,-25.277278,-30.467653,-4.969451,-3.791673,-5.535832,-8.993349,10.137219,14.484473,13.574482,10.70946,27.76878,46.794056,58.021008,67.666008,33.426693,39.570889,41.896786,42.469997,21.081402,26.577908,26.089531,23.877525,9.103489,13.864311,12.132191,9.185875,-1.547104,-3.586075,-6.285233,-9.732101,-21.252602,-45.352664,-63.644877,-77.653755,-68.145235,-94.999612,-109.423983,-121.308233,-63.194902,-89.51428,-101.987536,-112.325845,-52.826983,-74.761372,-86.44702,-96.562459,-38.176827,-50.358949,-58.309734,-66.073811,84.410631,147.455593,-104.077486,109.924853
99,-4.572166,39.115798,-2.336517,-8.681774,-19.737419,-40.907707,-57.759499,-65.522324,-64.658398,-88.945095,-90.710884,-88.423496,-63.617123,-88.698818,-90.282543,-88.87912,-58.093781,-81.523796,-82.965683,-81.418968,-49.069473,-69.851601,-73.135506,-73.051483,-30.459594,-49.539243,-60.187546,-64.405704,-30.214834,-26.14626,-23.696473,-24.267949,-9.653701,-2.849194,-0.824911,-1.48288,9.434982,17.524669,20.73703,21.538297,26.033888,36.218939,39.40689,40.235037,29.170463,47.443142,56.465297,65.345741,29.597282,31.864849,31.835952,30.590835,14.420139,14.884185,13.978752,11.65821,-0.043499,-1.892464,-3.24432,-5.010475,-13.374779,-21.81379,-27.057289,-31.928719,-18.683297,-44.909111,-65.812502,-81.087066,-73.98654,-104.915444,-120.457665,-132.814565,-72.030985,-104.661706,-121.206512,-134.535308,-63.739238,-93.150157,-109.205554,-122.253101,-49.99469,-68.511767,-80.167775,-90.815176,80.015934,186.475055,-106.236534,101.146743
100,-9.684494,34.741289,-6.464413,-2.039733,-23.586411,-48.316326,-67.60017,-77.597271,-76.490216,-107.925373,-112.25005,-110.864651,-74.507046,-107.123944,-111.510143,-110.772961,-67.221783,-96.805653,-100.608811,-100.073307,-56.128063,-80.668305,-85.256916,-85.728481,-30.148095,-46.106248,-54.040559,-55.272837,-17.365933,-5.483375,1.726702,4.859572,5.50684,19.653995,24.292636,25.468537,25.312975,38.451611,41.58931,41.980894,41.335133,54.647645,57.220303,56.955146,30.483089,49.523518,58.605606,67.61158,24.366497,23.844681,22.828136,20.793182,6.447819,4.017941,2.511223,-0.232601,-9.971558,-14.562309,-16.569775,-18.424885,-24.852882,-36.343792,-43.25108,-49.25647,-17.819941,-45.725193,-68.640702,-85.701767,-73.83695,-105.744376,-124.049366,-140.377076,-71.604716,-105.008336,-125.259674,-143.080966,-62.545807,-92.837793,-113.021934,-130.873039,-47.5709,-66.765775,-80.670047,-94.402091,70.502707,221.215016,-112.52968,99.105682
101,-6.280998,34.325127,-4.476952,-1.506525,-28.729294,-56.926506,-79.373749,-92.833031,-84.494408,-118.146779,-127.675713,-130.697033,-80.733902,-116.874356,-127.829373,-132.417241,-72.114727,-105.125748,-115.344498,-119.898858,-60.003834,-86.270199,-94.631493,-98.699387,-28.164808,-40.118341,-42.665632,-39.650075,-8.963628,4.797686,13.372978,18.085164,13.270497,28.399953,34.855316,38.007836,31.818728,46.190111,51.14242,53.088546,46.278723,60.253421,63.964831,64.388847,29.464486,48.163651,56.680527,65.63958,20.532967,19.302647,18.18734,16.290059,2.15791,-0.286068,-1.821693,-4.163818,-14.337467,-19.329746,-21.169223,-22.467498,-29.386425,-40.865432,-47.5555,-53.304496,-17.415586,-45.422912,-68.819,-86.055029,-74.251721,-105.950116,-124.359433,-141.280571,-72.981701,-106.898899,-128.039566,-146.95959,-64.888599,-96.270572,-116.990769,-135.586393,-50.449945,-71.302775,-85.442705,-99.522621,64.402188,255.304037,-116.826153,97.363051
102,-5.496849,28.570891,-3.372928,0.454162,-32.068657,-62.251568,-86.654,-103.329976,-83.637303,-120.712716,-135.748662,-144.111718,-78.791829,-118.627648,-136.199536,-146.867638,-70.020962,-106.307419,-122.918633,-133.189488,-58.320706,-86.08944,-99.02456,-108.245945,-24.651864,-32.957764,-30.997509,-25.777586,-3.037726,11.130944,20.781644,27.605892,18.067281,33.953068,42.228328,47.804797,35.498644,50.991304,57.935286,61.705371,48.866855,63.449931,69.207626,71.557526,28.553352,46.584514,54.486522,63.395794,18.502842,16.58266,15.328033,13.188904,-0.020828,-2.723316,-4.382298,-6.716103,-16.599781,-22.001461,-24.21967,-25.630039,-31.890324,-43.392208,-50.128464,-55.819897,-16.232677,-44.012934,-67.797149,-84.991186,-73.467942,-105.466302,-124.075708,-140.932694,-72.105648,-106.538505,-127.914985,-146.406115,-64.048219,-95.683104,-116.791642,-135.356576,-49.85225,-71.421787,-85.40568,-99.1706,59.081561,283.601859,-120.022859,97.544144
103,-3.920426,24.106978,-2.661747,3.545807,-33.653274,-65.261822,-91.233284,-110.081062,-82.359993,-120.009521,-138.299137,-150.773174,-76.988136,-117.773403,-139.580074,-154.817264,-68.476009,-105.459698,-126.236126,-140.970337,-57.646374,-85.19537,-100.357613,-112.93737,-22.666798,-28.457937,-23.796386,-18.450357,0.561558,14.715197,24.419978,32.374419,20.90139,36.53615,45.332941,52.389247,37.538594,52.479662,60.404339,65.927333,50.258228,64.16216,70.702011,74.574539,28.072517,45.895031,53.550865,62.348144,17.705715,15.04636,13.37186,10.824199,-1.093826,-4.117321,-6.028073,-8.424797,-17.872513,-23.390305,-26.157509,-27.930988,-33.451355,-44.642601,-51.367104,-57.034161,-15.20699,-42.509354,-66.551531,-84.233762,-71.829549,-104.011529,-122.73657,-139.639171,-70.21903,-105.180316,-126.756546,-145.120366,-62.100889,-94.054899,-115.407358,-134.14268,-47.985992,-70.099642,-83.926572,-97.370439,55.359186,307.435054,-122.486555,100.816168
104,-4.720802,19.957535,-2.17321,5.759671,-32.666702,-64.700432,-91.664234,-112.575737,-81.592598,-119.833969,-137.873921,-150.24654,-76.428131,-117.96872,-139.644631,-154.670506,-67.947338,-105.478146,-126.535149,-141.333538,-57.074398,-84.936379,-100.125527,-112.477307,-21.720164,-25.12665,-17.753997,-12.925683,4.802194,18.958883,27.460828,34.314334,25.258697,40.94697,48.520794,54.547992,41.623816,57.180635,63.85452,68.241393,53.80632,68.273775,74.082303,77.113309,27.722603,45.517307,53.211364,62.10284,17.285511,14.51794,12.732845,10.00415,-1.639664,-4.551762,-6.597885,-9.095124,-18.505532,-23.968026,-27.113228,-29.204636,-34.227311,-45.027649,-51.899678,-57.794758,-14.794787,-41.455318,-65.557794,-83.517,-70.340487,-102.166896,-120.801862,-137.741667,-68.709529,-103.365361,-124.757642,-142.978034,-60.717365,-92.292555,-113.429048,-132.050193,-46.854125,-69.007617,-82.606472,-95.865014,50.723643,327.147137,-124.574506,106.330387
105,-0.607636,11.85645,-1.539505,5.695086,-33.226616,-65.475746,-93.011902,-114.792709,-80.374683,-117.060985,-135.771354,-149.997768,-74.843513,-114.835796,-137.243019,-154.49192,-66.333503,-102.537883,-124.480224,-141.261657,-55.368347,-82.241832,-98.03088,-112.046688,-20.345242,-22.123913,-12.938194,-8.864185,7.54669,21.689004,29.752225,36.602371,27.521516,42.989562,50.74618,57.312212,43.340774,58.802818,65.582506,70.361889,54.974008,69.207638,75.653295,79.551401,27.661182,45.594989,53.188694,61.995598,16.939716,14.129802,12.237442,9.423763,-2.016953,-4.886982,-7.025528,-9.557545,-18.853672,-24.353119,-27.65601,-29.955311,-34.466767,-45.247559,-52.109402,-58.016533,-14.542296,-40.6381,-64.467584,-82.578418,-68.87465,-100.330902,-118.751853,-135.552454,-67.171122,-101.356688,-122.611371,-140.816405,-59.218645,-90.346225,-111.27092,-129.727062,-45.51319,-67.473619,-81.008945,-94.234358,50.20364,338.687456,-126.026378,111.709342
106,-0.866272,9.487037,-0.979924,4.909368,-32.209694,-64.581608,-92.360229,-114.418178,-78.751693,-115.056301,-133.687122,-147.944893,-73.054985,-112.968223,-135.133541,-152.277179,-64.337402,-100.849239,-122.443874,-138.959209,-53.223312,-80.459221,-96.197113,-110.216983,-19.731801,-20.67394,-11.017311,-7.822666,9.382332,23.332652,30.71915,36.872146,29.134499,43.818018,50.923675,56.898015,44.486096,59.444256,65.491264,69.700827,55.498096,69.656687,75.871162,79.816396,27.731633,45.998921,53.780766,62.384377,16.954663,14.04934,11.933155,8.880043,-1.943389,-4.944271,-7.266632,-9.883174,-18.747459,-24.302959,-27.721744,-30.116912,-34.219173,-45.12997,-51.962425,-57.741748,-14.72325,-40.471572,-63.97289,-82.120212,-67.755634,-98.924148,-117.238598,-134.050055,-65.955016,-99.623934,-120.803066,-139.084566,-58.029061,-88.684287,-109.389367,-127.691707,-44.434633,-66.189958,-79.742142,-92.977991,49.428302,347.775409,-126.915368,116.219626
107,0.550576,6.433516,-0.606102,3.569532,-31.053086,-63.662453,-92.008965,-114.282555,-77.400032,-113.91948,-132.627423,-146.639534,-71.566006,-111.839333,-133.891823,-150.742642,-62.754422,-100.08125,-121.612942,-137.795987,-51.688225,-79.986546,-95.805302,-109.51038,-19.629271,-20.225619,-10.544797,-7.768548,10.709398,24.19906,30.93414,36.277836,30.240695,43.737594,50.082449,55.411201,45.203253,59.105197,64.279709,67.883327,55.704849,69.509573,75.180657,78.930228,27.785946,46.411652,54.418248,62.775902,17.237126,14.432534,12.202538,9.018723,-1.578014,-4.496521,-6.849414,-9.445816,-18.355499,-23.849247,-27.191928,-29.520137,-33.751728,-44.679988,-51.338333,-56.870636,-14.985689,-40.560085,-63.720874,-82.053126,-67.087803,-97.915535,-116.119279,-132.87755,-65.274737,-98.386018,-119.612814,-138.007892,-57.375667,-87.657773,-108.319739,-126.557988,-43.798308,-65.28085,-78.92569,-92.250571,50.037358,353.792672,-127.46299,119.372905
108,1.537925,3.96387,-0.382782,2.382899,-30.647804,-63.523498,-92.27243,-114.829445,-77.123234,-113.526226,-132.306587,-146.347744,-71.243431,-111.309997,-133.234623,-150.146827,-62.38187,-99.79581,-121.070057,-136.954559,-51.406448,-80.098983,-95.845539,-109.393249,-19.93333,-20.270215,-10.324385,-7.996444,11.057634,24.311446,30.744863,35.620885,30.651385,43.115335,49.113684,54.153222,45.458628,58.613392,63.305164,66.529128,55.590252,69.057474,74.509875,78.327989,27.902218,46.761807,54.826104,63.000596,17.633023,14.977387,12.632412,9.303578,-1.058681,-3.865333,-6.296104,-8.892196,-17.792232,-23.265895,-26.539444,-28.777702,-33.122325,-44.04483,-50.556575,-55.841262,-15.392772,-40.924079,-63.881141,-82.30308,-66.874684,-97.549312,-115.601032,-132.17974,-65.110048,-97.810399,-119.023895,-137.508788,-57.203217,-87.197269,-107.711485,-125.814112,-43.587146,-64.820797,-78.479025,-91.837275,51.661136,357.384258,-127.759919,121.38352
109,1.589264,2.751351,0.03051,1.450715,-30.351768,-63.488193,-92.616783,-115.120903,-77.109146,-113.557537,-132.360489,-146.421684,-71.341221,-111.306804,-133.188904,-150.231628,-62.582737,-100.202419,-121.259125,-136.933033,-51.727913,-80.802601,-96.382782,-109.621822,-20.683893,-21.145268,-11.287382,-8.657729,10.677412,23.567242,29.866624,34.589555,30.434568,41.873387,47.381548,52.081051,45.244218,57.439048,61.539016,64.336223,55.266248,68.212951,73.217723,76.853155,27.884697,46.862618,54.904782,63.019432,17.879368,15.291001,12.883507,9.513073,-0.756855,-3.604545,-5.996246,-8.473365,-17.451839,-23.050792,-26.234344,-28.40744,-32.681076,-43.700718,-50.044853,-55.104309,-15.736056,-41.307321,-64.160154,-82.723699,-66.86184,-97.551529,-115.594654,-132.183118,-65.057882,-97.628433,-118.853278,-137.391042,-57.116649,-87.048914,-107.548828,-125.668116,-43.440069,-64.608333,-78.411415,-91.920836,53.386488,359.781711,-127.593321,122.480337
110,1.207604,1.884586,0.505543,0.591346,-29.972054,-63.341652,-92.772881,-115.233582,-77.112145,-114.027615,-133.005341,-147.122532,-71.271893,-111.549706,-133.441796,-150.39449,-62.54377,-100.505436,-121.51529,-136.9777,-51.943245,-81.468556,-97.067311,-109.998894,-21.662699,-22.508631,-13.092471,-10.145025,10.239255,22.774453,28.762008,33.125193,30.302606,40.888023,45.773073,49.887713,45.119074,56.524104,60.122671,62.425566,54.927102,67.4283,71.880937,75.042904,27.702416,46.600159,54.577961,62.48608,17.758862,15.360352,12.936138,9.443676,-0.827087,-3.58651,-5.938019,-8.444263,-17.512894,-23.112877,-26.334057,-28.652836,-32.709354,-43.644436,-49.83181,-54.717945,-15.91334,-41.377296,-64.018109,-82.497297,-66.86836,-97.665896,-115.713214,-132.21661,-64.962779,-97.595526,-118.884394,-137.325747,-56.92487,-86.937843,-107.45388,-125.453026,-43.14881,-64.433881,-78.335603,-91.852799,54.744953,361.362939,-126.936917,122.768325
111,0.719467,1.081212,0.502556,0.102876,-29.714104,-63.152699,-92.747509,-115.222458,-77.213013,-114.454754,-133.633621,-147.886002,-71.342926,-111.798237,-133.569054,-150.338539,-62.699055,-100.728138,-121.639355,-136.931111,-52.319733,-82.070709,-97.682053,-110.355011,-22.298419,-23.481866,-14.431306,-11.303067,9.943756,22.251082,27.978075,32.157231,30.254368,40.437468,44.904776,48.718173,45.117247,56.091148,59.361696,61.445378,54.821683,66.940609,70.940244,73.734549,27.506401,46.326931,54.2883,62.150505,17.546482,15.285576,12.915779,9.486557,-0.974361,-3.623508,-5.928623,-8.437237,-17.596436,-23.161079,-26.407814,-28.828033,-32.722069,-43.523769,-49.690693,-54.591488,-15.882428,-41.255493,-63.755447,-82.171254,-66.655037,-97.462737,-115.506905,-131.997285,-64.689287,-97.384166,-118.703848,-137.12089,-56.578037,-86.64585,-107.147894,-125.095596,-42.749365,-64.039419,-77.948872,-91.51311,55.572006,362.271799,-126.326775,122.698849
112,0.380424,0.604685,0.64856,-0.097084,-29.649742,-62.997127,-92.683445,-115.210029,-77.436058,-114.902446,-134.095115,-148.333728,-71.526775,-112.170215,-133.770298,-150.36708,-62.887184,-101.01931,-121.786697,-136.956791,-52.576309,-82.506969,-98.110416,-110.697052,-22.606023,-24.086749,-15.492301,-12.341166,9.715489,21.807553,27.327077,31.33148,30.110378,40.073337,44.278417,47.870389,44.97921,55.802773,58.868459,60.795911,54.578028,66.56214,70.331966,72.938722,27.302066,45.977829,53.903057,61.700454,17.34756,15.150512,12.825988,9.421268,-1.115159,-3.715451,-6.01054,-8.533951,-17.675332,-23.269776,-26.644604,-29.240399,-32.716141,-43.451512,-49.663159,-54.638592,-15.784294,-41.052643,-63.427158,-81.756384,-66.478085,-97.268304,-115.30999,-131.887042,-64.433368,-97.144655,-118.487005,-136.94542,-56.223626,-86.304895,-106.848683,-124.828142,-42.280198,-63.576112,-77.548995,-91.195478,56.017358,362.760573,-125.613287,122.485854
113,0.203247,0.223771,0.7588,-0.171308,-29.538917,-62.860897,-92.682357,-115.298149,-77.448326,-115.24752,-134.447765,-148.703361,-71.513958,-112.421585,-133.881351,-150.367973,-62.916389,-101.308525,-122.030777,-137.160472,-52.710022,-82.927208,-98.600704,-111.136585,-22.810676,-24.54259,-16.377456,-13.36621,9.763136,21.637221,27.013558,30.926434,30.239881,39.956876,43.892255,47.278808,45.1098,55.667379,58.47853,60.219521,54.607532,66.450335,70.005047,72.393701,27.124065,45.692631,53.572586,61.354397,17.070568,14.921265,12.630306,9.24971,-1.350986,-3.93845,-6.179501,-8.672115,-17.868965,-23.473595,-26.830971,-29.474647,-32.861469,-43.529549,-49.68885,-54.623772,-15.719308,-40.948834,-63.289003,-81.741299,-66.205562,-96.979312,-115.056838,-131.758663,-64.077735,-96.734947,-118.085282,-136.607799,-55.808423,-85.787173,-106.353358,-124.367262,-41.85312,-63.171079,-77.263511,-91.023367,56.223157,362.894701,-124.851935,122.224903
114,0.001305,-0.027923,0.827168,-0.352916,-29.418915,-62.793468,-92.639065,-115.302624,-77.646057,-115.523403,-134.782288,-149.049053,-71.688847,-112.605663,-134.008667,-150.365787,-63.103237,-101.388268,-122.10981,-137.204098,-52.973991,-83.223553,-98.910255,-111.438595,-22.807614,-24.82868,-16.982006,-14.137053,9.559112,21.467975,26.886734,30.841255,30.078959,39.757422,43.657442,47.002153,45.006133,55.507272,58.302454,59.995811,54.545818,66.293735,69.73332,71.973637,27.117817,45.60894,53.422863,61.208965,16.755214,14.667926,12.420387,9.109703,-1.601464,-4.200119,-6.395668,-8.852658,-18.050343,-23.671658,-26.968541,-29.574715,-32.958161,-43.657391,-49.778893,-54.646992,-15.750368,-40.987292,-63.286243,-81.767586,-66.030055,-96.706764,-114.741558,-131.468825,-63.821675,-96.315378,-117.630669,-136.135106,-55.46769,-85.266815,-105.768452,-123.700487,-41.477338,-62.735522,-76.859737,-90.608312,56.201591,362.78594,-124.047638,121.791149
115,-0.093819,-0.111966,0.647667,-0.212162,-29.344734,-62.663726,-92.56232,-115.242576,-77.62928,-115.553272,-134.853904,-149.134472,-71.741089,-112.71112,-134.181255,-150.542232,-63.203361,-101.485519,-122.234653,-137.313469,-53.094497,-83.387867,-99.079754,-111.602176,-22.732081,-24.992578,-17.404897,-14.539098,9.338156,21.179947,26.6939,30.776924,29.826536,39.503196,43.522715,46.977144,44.764158,55.321379,58.184165,59.917487,54.342017,66.084142,69.536719,71.747853,27.198955,45.747756,53.516212,61.340538,16.838378,14.706607,12.517524,9.327266,-1.565644,-4.169369,-6.287579,-8.637085,-18.022007,-23.606804,-26.817776,-29.30769,-32.94587,-43.630761,-49.725621,-54.560658,-15.698338,-40.931822,-63.23365,-81.824236,-66.024133,-96.60721,-114.634755,-131.398158,-63.84036,-96.207617,-117.534857,-136.064031,-55.492199,-85.15743,-105.610828,-123.53018,-41.5427,-62.718269,-76.796776,-90.526845,56.042747,362.601529,-123.464996,121.506542
116,-0.072418,-0.342937,0.700447,-0.297439,-29.278473,-62.581844,-92.484352,-115.163109,-77.491905,-115.422386,-134.764171,-149.074653,-71.617653,-112.618847,-134.24453,-150.7309,-63.119339,-101.454426,-122.345146,-137.54393,-53.048378,-83.433403,-99.22102,-111.854702,-22.603282,-25.000741,-17.567264,-14.690238,9.301699,21.182725,26.803519,30.986764,29.717138,39.44536,43.561519,47.098743,44.619526,55.23851,58.157884,59.927107,54.205981,65.893827,69.36772,71.611952,27.315788,45.893543,53.561164,61.349178,17.012661,14.82542,12.66624,9.520511,-1.435593,-4.079167,-6.130909,-8.40683,-17.916356,-23.480164,-26.665329,-29.119984,-32.875054,-43.600914,-49.689686,-54.515889,-15.666425,-40.976524,-63.31045,-81.92421,-66.136044,-96.735435,-114.807996,-131.570349,-63.940983,-96.260463,-117.630249,-136.116168,-55.590969,-85.231556,-105.741455,-123.681629,-41.633412,-62.797958,-76.902283,-90.65084,55.903461,362.153338,-122.831417,121.103849
117,-0.278961,-0.426523,0.788864,-0.565918,-29.30896,-62.692017,-92.608429,-115.26796,-77.288487,-115.095348,-134.448601,-148.879028,-71.411671,-112.343834,-134.057362,-150.66576,-62.942059,-101.235535,-122.181679,-137.483643,-52.903816,-83.364121,-99.253246,-112.046848,-22.436036,-24.887454,-17.516072,-14.753136,9.185386,21.203462,26.976668,31.284513,29.640198,39.507247,43.703052,47.249538,44.615056,55.351588,58.27526,59.984869,54.325938,66.060048,69.515094,71.706592,27.412834,46.05368,53.629829,61.47488,17.137733,14.931598,12.802128,9.736862,-1.34467,-4.064015,-6.080441,-8.284527,-17.816059,-23.382466,-26.48909,-28.84092,-32.783489,-43.592743,-49.718994,-54.597302,-15.57296,-40.957035,-63.345036,-81.914231,-66.19646,-96.840015,-114.976358,-131.734272,-64.040086,-96.399346,-117.82514,-136.230282,-55.742362,-85.452461,-105.98619,-123.895199,-41.815847,-62.971075,-77.070936,-90.816479,55.575056,361.608405,-122.091997,120.419521
118,-0.344513,-0.285855,0.861259,-0.663249,-29.319511,-62.79594,-92.713875,-115.313438,-77.140869,-114.829205,-134.209076,-148.658421,-71.252609,-112.11517,-133.919769,-150.569172,-62.778053,-100.975742,-121.936546,-137.242905,-52.741791,-83.225864,-99.112289,-111.910366,-22.365888,-24.88838,-17.582911,-14.680333,8.990811,21.140217,27.018572,31.389278,29.507076,39.519918,43.813153,47.373521,44.556924,55.429899,58.45604,60.197501,54.345204,66.103372,69.586231,71.797599,27.474243,46.110123,53.658909,61.619431,17.310871,15.075176,12.995419,10.004059,-1.182186,-3.865688,-5.867363,-8.045505,-17.644615,-23.194725,-26.395935,-28.76984,-32.614231,-43.425751,-49.623733,-54.569286,-15.383583,-40.877469,-63.309677,-81.732678,-66.420206,-97.111643,-115.351974,-132.152421,-64.319321,-96.819205,-118.378997,-136.787654,-56.06402,-85.984855,-106.646734,-124.660441,-42.112027,-63.289053,-77.371728,-91.12478,55.166868,361.217995,-121.294413,119.651717
119,-0.162941,-0.19397,0.665325,-0.687751,-29.281815,-62.828281,-92.725319,-115.337391,-77.071712,-114.447578,-133.782669,-148.217113,-71.213139,-111.873447,-133.784683,-150.563679,-62.732529,-100.741985,-121.764301,-137.140972,-52.619453,-82.938503,-98.858906,-111.7672,-22.146044,-24.607268,-17.249595,-14.532182,9.245123,21.261914,27.131859,31.528822,29.60253,39.560488,43.902999,47.564354,44.538645,55.428788,58.491633,60.310874,54.294099,66.047709,69.624849,71.980862,27.568051,46.24775,53.762741,61.709141,17.75235,15.608288,13.556328,10.541657,-0.75571,-3.355602,-5.393325,-7.630211,-17.228267,-22.632133,-25.890083,-28.294967,-32.241039,-42.924362,-49.106094,-54.034927,-15.279905,-40.751048,-63.149213,-81.491673,-66.585389,-97.523191,-115.940758,-132.795126,-64.562279,-97.350191,-119.107603,-137.571934,-56.391081,-86.59795,-107.402516,-125.500605,-42.47131,-63.724962,-77.784104,-91.521385,54.925323,360.921463,-120.707692,118.861404
120,-0.13044,0.290536,0.386032,-0.472564,-29.239219,-62.828418,-92.680229,-115.453205,-76.708442,-113.893673,-133.338913,-147.888279,-70.783905,-111.523441,-133.567829,-150.444935,-62.330703,-100.405666,-121.520027,-136.962021,-52.29895,-82.58258,-98.532955,-111.496536,-22.0179,-24.460388,-16.922763,-14.281376,9.449517,21.651868,27.520182,31.85637,29.761018,39.885727,44.225719,47.847763,44.641262,55.656572,58.694149,60.510599,54.332396,66.145472,69.857882,72.424032,27.66647,46.437996,54.07576,62.061448,18.374634,16.404202,14.443852,11.542603,-0.034515,-2.579864,-4.580635,-6.80389,-16.433601,-21.73106,-24.974864,-27.358634,-31.378669,-41.914352,-47.997276,-52.85852,-15.297503,-40.685839,-63.03285,-81.245023,-66.731928,-97.848924,-116.359086,-133.286516,-64.771273,-97.704824,-119.475092,-137.926146,-56.63473,-86.92088,-107.763898,-125.880826,-42.689992,-63.864968,-77.97009,-91.698917,54.714094,361.127151,-120.402449,118.303992
121,-0.225082,0.860553,0.417687,0.265651,-29.378265,-62.921837,-92.703655,-115.511925,-76.641918,-113.429009,-132.789024,-147.321865,-70.608433,-111.140282,-133.130962,-149.960117,-62.030583,-99.896874,-120.899506,-136.246685,-51.906555,-82.025711,-97.874508,-110.776142,-21.953605,-24.237642,-16.38105,-13.683002,9.639968,22.160556,28.051409,32.333455,29.94259,40.421981,44.827144,48.471258,44.818437,56.060556,59.106902,60.940803,54.506113,66.374098,70.168661,72.795931,27.732502,46.612884,54.453461,62.546734,19.092327,17.287193,15.556892,12.974441,0.737926,-1.676045,-3.52541,-5.580597,-15.587425,-20.770008,-23.882835,-26.115646,-30.42651,-40.850292,-46.850109,-51.676151,-15.116328,-40.25891,-62.433273,-80.378807,-66.776303,-97.835957,-116.297071,-133.25006,-64.935758,-97.769403,-119.309719,-137.739537,-56.874989,-86.931576,-107.632623,-125.776704,-42.966826,-63.774517,-77.707262,-91.325729,54.425697,361.899191,-120.048077,118.48113
122,-0.018013,1.1008,0.054348,1.558382,-29.549286,-62.938225,-92.545887,-115.46426,-76.497196,-112.828789,-132.021412,-146.365208,-70.29316,-110.549137,-132.477482,-149.07946,-61.496384,-99.110218,-120.074913,-135.286778,-51.23394,-81.005962,-96.785786,-109.589401,-21.523143,-23.424821,-15.170952,-12.224939,10.636348,23.593239,29.432099,33.487916,30.716434,41.680232,46.159915,49.70266,45.352973,57.025913,60.179852,62.003083,54.794327,66.810686,70.777087,73.431009,27.811443,47.071094,55.454155,63.876766,20.204761,18.68454,17.304062,15.202022,1.987507,-0.120415,-1.804607,-3.690113,-14.312164,-19.041378,-22.004334,-24.098522,-29.185947,-39.050091,-44.791557,-49.46965,-14.803735,-39.533929,-61.390048,-79.054871,-66.192409,-97.212234,-115.547463,-132.501076,-64.36209,-97.01806,-118.154843,-136.580394,-56.373173,-86.046722,-106.382325,-124.521657,-42.696179,-63.146051,-76.723367,-90.022202,54.352627,362.930859,-120.048786,119.97038
123,0.417229,1.32199,-0.195282,3.046963,-30.026574,-63.184491,-92.376378,-115.28365,-76.109059,-111.923527,-130.956482,-145.263337,-69.695115,-109.570622,-131.495705,-148.083023,-60.71362,-98.033432,-119.051102,-134.302506,-50.380028,-79.730645,-95.594307,-108.496079,-20.744273,-21.872169,-12.740098,-9.175148,12.375215,25.803484,31.473568,35.243294,32.17525,43.806224,48.266753,51.668274,46.449203,58.763569,61.963056,63.723091,55.552684,67.986957,72.130039,74.747021,27.779068,47.662239,56.994129,65.723122,21.870483,20.796112,19.781788,18.355705,3.852917,1.795509,0.370846,-1.177826,-12.338196,-16.793507,-19.354626,-21.007713,-27.139572,-36.530216,-41.937607,-46.18364,-14.106511,-38.121771,-59.083979,-76.301754,-64.662314,-95.56075,-113.511478,-130.289719,-62.648633,-94.829916,-115.258737,-133.319473,-54.542743,-83.241204,-102.810298,-120.473528,-40.924653,-60.551169,-73.445118,-86.011043,54.725928,364.17069,-120.287996,122.935184
124,0.419494,2.002442,-0.258717,4.115394,-30.511551,-63.51527,-92.448314,-115.364822,-75.092068,-110.700588,-129.696247,-143.968311,-68.373173,-108.341011,-130.341339,-146.78175,-59.289322,-96.702289,-117.761135,-132.981285,-49.113441,-78.29084,-94.154011,-106.966507,-19.969453,-20.221283,-10.214518,-5.678567,14.216872,28.411439,34.021612,37.443709,33.93594,46.511683,50.949043,53.993091,47.895571,61.033465,64.28313,65.811342,56.581582,69.546735,73.787852,76.26045,27.700871,48.204769,58.703717,68.095826,24.036061,23.320004,22.601406,22.057125,6.087868,4.390458,3.208557,1.95139,-10.109665,-13.888389,-16.051105,-17.255584,-24.840397,-33.456756,-38.44519,-42.257274,-12.409894,-35.070035,-54.652832,-71.073514,-61.020288,-91.256717,-108.33572,-124.652655,-58.557873,-89.576247,-109.019297,-126.345017,-50.139995,-77.115829,-95.540917,-112.265145,-36.560381,-54.683417,-66.669926,-78.213628,55.108995,366.007844,-120.58314,126.88529
125,0.611664,2.444502,0.23394,5.460576,-30.987854,-63.953224,-92.579819,-115.374927,-74.343441,-109.657139,-128.567711,-142.764015,-67.212604,-106.994522,-128.997505,-145.309605,-57.941803,-95.08691,-116.178532,-131.3852,-47.870636,-76.693726,-92.526558,-105.231216,-19.1717,-18.294289,-7.363107,-2.089931,16.382829,31.368493,37.005107,40.247658,35.869468,49.326328,53.904231,56.911946,49.382125,63.34771,66.811302,68.328547,57.581752,71.08227,75.440256,77.879965,27.748387,48.290864,59.473618,69.632744,26.251866,26.019951,25.494851,25.801781,8.623124,7.244809,6.004384,4.936249,-7.347953,-10.569454,-12.359767,-12.869545,-21.654716,-29.557937,-34.161174,-37.193035,-10.37066,-30.533751,-47.814949,-62.761155,-56.841229,-86.068539,-101.410781,-115.127721,-53.734788,-83.411672,-100.205425,-114.219298,-44.755482,-69.917453,-86.112931,-100.019279,-31.170286,-47.271675,-57.754555,-67.309845,55.685909,368.135159,-120.38395,132.028679
126,0.919006,2.555676,-0.374908,4.33499,-31.42044,-64.39397,-92.603325,-115.240768,-73.110592,-108.29758,-127.352886,-141.613289,-65.585975,-105.511482,-127.726638,-144.101612,-56.306259,-93.467353,-114.793384,-130.12643,-46.573242,-75.138816,-91.086879,-103.774074,-18.147655,-16.116153,-4.210192,2.019251,19.065872,34.808498,40.633266,43.906149,38.247316,52.452233,57.243842,60.266451,51.180421,65.92637,69.709238,71.2817,58.751071,72.891632,77.475142,80.030893,27.514309,48.139732,60.412628,71.233349,29.101616,30.256886,30.356323,30.772545,12.711514,12.614216,12.301781,11.409119,-2.173107,-3.585457,-4.035107,-3.946369,-14.937012,-20.51643,-23.807819,-25.934944,-6.38829,-22.776361,-36.89923,-49.47196,-48.402455,-74.220339,-85.906142,-95.650165,-46.288627,-72.253014,-85.178808,-95.303628,-39.090413,-61.270753,-74.179627,-84.808361,-28.291605,-42.815191,-51.019246,-57.956479,56.565342,370.31006,-120.798431,135.982894
127,1.078034,2.866121,-5.380486,8.682479,-31.864769,-64.830528,-92.534477,-114.814625,-71.418801,-106.503273,-125.928097,-140.537213,-63.485184,-103.563595,-126.168068,-142.915226,-54.348541,-91.589104,-113.110874,-128.596173,-45.12751,-73.592686,-89.603153,-102.248017,-17.248175,-13.998361,-0.991218,6.21508,21.530565,38.452994,44.932391,48.729127,40.426624,55.967239,61.424246,64.892903,52.843335,68.722268,73.143264,75.144768,59.846264,74.839733,79.749558,82.620038,28.571618,51.278676,66.069043,77.529545,36.292386,41.953801,42.953282,43.67038,20.767571,26.045231,28.368851,29.014939,6.345269,10.033597,10.101735,9.937443,-6.148189,-6.955158,-9.138542,-11.014926,-6.755829,-18.486937,-26.340336,-33.683609,-40.006536,-56.419055,-63.263989,-69.531396,-36.004053,-51.948985,-59.964751,-66.130993,-27.576234,-40.04973,-48.961723,-56.682834,-16.411321,-24.254636,-30.189604,-35.530866,57.592226,372.692151,-126.230067,144.181343
128,0.941162,3.273352,-6.050331,9.919339,-31.97937,-65.075981,-92.448258,-114.623669,-69.602177,-104.318379,-124.04314,-139.001484,-61.174496,-101.171791,-124.068089,-141.149483,-52.1418,-89.220314,-110.908276,-126.578121,-43.351708,-71.571499,-87.605599,-100.310703,-16.440182,-12.151456,1.580786,9.182361,23.820629,42.334131,50.100024,55.075267,42.409455,59.695013,66.190662,70.51907,54.379562,71.655327,77.049904,79.899439,60.86128,76.823638,82.246658,85.791922,30.342762,55.455666,72.052517,84.384476,43.857273,55.325077,58.27216,59.393429,29.425862,41.252232,44.813553,44.670216,15.339169,25.474331,26.784005,26.342995,2.590599,7.698487,7.597779,6.296837,-6.166112,-11.623478,-12.434261,-13.749489,-26.847109,-33.409857,-34.844881,-36.923616,-20.139205,-23.183235,-25.561552,-28.379656,-10.730468,-11.413779,-15.954188,-21.138555,-0.095553,0.560583,-3.167055,-7.589404,58.416298,375.279203,-132.397488,153.414382
129,1.00209,3.13497,-5.751205,10.724243,-32.312507,-65.337913,-92.04301,-113.987995,-67.911094,-101.81932,-121.558857,-136.661327,-58.877082,-98.066974,-121.047489,-138.398803,-49.719108,-86.01717,-107.796787,-123.628532,-41.112281,-68.716266,-84.788452,-97.675106,-15.424883,-9.81403,4.84122,12.785435,26.499547,47.179958,56.622522,63.309721,44.47214,64.0261,72.294949,78.24328,55.874601,74.940609,81.922901,86.210948,61.834071,78.992646,85.283049,89.784012,32.748676,58.97533,76.035885,88.561924,50.565559,66.533569,72.372276,75.635307,36.674148,52.289566,58.647594,61.154354,22.520565,36.251312,40.436405,42.539635,9.176708,17.781441,20.392651,21.634621,-4.892127,-3.699232,2.326879,6.940771,-12.88137,-9.78757,-5.437167,-1.600916,-5.102856,2.983305,8.236172,12.418465,3.927462,13.510892,16.105249,17.359455,13.025966,21.331791,22.609049,22.714852,59.193826,377.58433,-138.373255,163.308782
