takenoko1/special-research/HandMotion_SimilarSearch_自分用/NewProject/handData/tgt/d4_feature_d3/5.csv
,vel_0x_L,vel_0y_L,vel_0x_R,vel_0y_R,posFromWrist_1x_L,posFromWrist_2x_L,posFromWrist_3x_L,posFromWrist_4x_L,posFromWrist_5x_L,posFromWrist_6x_L,posFromWrist_7x_L,posFromWrist_8x_L,posFromWrist_9x_L,posFromWrist_10x_L,posFromWrist_11x_L,posFromWrist_12x_L,posFromWrist_13x_L,posFromWrist_14x_L,posFromWrist_15x_L,posFromWrist_16x_L,posFromWrist_17x_L,posFromWrist_18x_L,posFromWrist_19x_L,posFromWrist_20x_L,posFromWrist_1y_L,posFromWrist_2y_L,posFromWrist_3y_L,posFromWrist_4y_L,posFromWrist_5y_L,posFromWrist_6y_L,posFromWrist_7y_L,posFromWrist_8y_L,posFromWrist_9y_L,posFromWrist_10y_L,posFromWrist_11y_L,posFromWrist_12y_L,posFromWrist_13y_L,posFromWrist_14y_L,posFromWrist_15y_L,posFromWrist_16y_L,posFromWrist_17y_L,posFromWrist_18y_L,posFromWrist_19y_L,posFromWrist_20y_L,posFromWrist_1x_R,posFromWrist_2x_R,posFromWrist_3x_R,posFromWrist_4x_R,posFromWrist_5x_R,posFromWrist_6x_R,posFromWrist_7x_R,posFromWrist_8x_R,posFromWrist_9x_R,posFromWrist_10x_R,posFromWrist_11x_R,posFromWrist_12x_R,posFromWrist_13x_R,posFromWrist_14x_R,posFromWrist_15x_R,posFromWrist_16x_R,posFromWrist_17x_R,posFromWrist_18x_R,posFromWrist_19x_R,posFromWrist_20x_R,posFromWrist_1y_R,posFromWrist_2y_R,posFromWrist_3y_R,posFromWrist_4y_R,posFromWrist_5y_R,posFromWrist_6y_R,posFromWrist_7y_R,posFromWrist_8y_R,posFromWrist_9y_R,posFromWrist_10y_R,posFromWrist_11y_R,posFromWrist_12y_R,posFromWrist_13y_R,posFromWrist_14y_R,posFromWrist_15y_R,posFromWrist_16y_R,posFromWrist_17y_R,posFromWrist_18y_R,posFromWrist_19y_R,posFromWrist_20y_R,posFromBody_0x_L,posFromBody_0y_L,posFromBody_0x_R,posFromBody_0y_R
6,-3.19202,-1.712623,0.737949,0.731792,35.518901,60.420421,79.513401,91.405918,58.931819,90.476749,92.960117,90.061557,39.571552,68.976871,73.070537,71.815372,18.038349,35.03191,36.314071,33.868068,-4.101609,-7.395379,-11.25396,-14.94928,-3.745187,9.836581,29.979269,44.301092,40.70849,64.971684,66.667832,62.846086,55.83203,84.332167,85.910273,80.503765,64.193468,96.448783,104.330779,105.167756,65.47658,96.206512,109.647477,117.00494,33.330609,64.042134,87.749508,106.161656,66.501904,100.550572,108.888234,107.917065,52.358265,86.63728,98.422337,100.313244,35.905964,67.203816,80.584179,85.359661,19.45245,42.794712,55.229679,61.994282,-15.677219,-10.667235,4.440003,16.078572,15.571132,37.856831,44.598716,45.712459,35.37197,61.478266,68.980459,69.402906,50.570932,76.954821,83.85806,84.674833,60.235082,85.717427,92.640253,93.083621,-37.844249,368.48495,-45.761776,376.526323
7,1.921062,-1.762863,0.935292,0.232342,37.071075,62.656929,83.00647,94.242096,57.889778,90.983551,91.626297,86.054375,37.078102,67.445091,69.746704,66.041153,14.625298,31.009644,29.811298,24.834194,-7.990025,-12.016846,-16.294613,-20.128487,-3.084359,10.455777,30.472173,44.549896,44.468991,69.185754,67.890996,60.45842,59.615972,89.529452,88.012528,79.521884,67.859899,102.938097,108.714626,107.077524,69.080618,101.434907,114.614939,120.825413,32.802497,63.359161,87.065528,105.368637,66.23069,100.164619,108.131973,106.64978,52.215019,86.329261,98.105781,99.715164,35.761413,67.006919,80.369407,84.847503,19.384975,43.040428,55.477203,61.603912,-15.701598,-10.844002,3.907764,15.728756,15.100224,37.268572,43.358176,43.657393,34.878782,60.817536,67.901062,68.031108,50.449803,76.91209,83.255067,83.728014,60.515145,86.213283,92.436254,92.036544,-36.435762,366.591494,-45.339059,376.628072
8,-4.468666,-1.043619,0.752208,0.069432,38.444435,66.251862,87.910744,100.268417,63.338448,96.524185,97.887886,92.487144,42.6064,74.469772,78.003433,74.917145,20.125557,39.294731,39.787937,35.668945,-2.357735,-5.136234,-8.930935,-12.734379,-4.763057,7.615308,27.835455,42.886933,41.832532,68.277887,67.471427,59.975557,58.224191,88.63475,87.127633,78.721228,67.514442,101.446084,107.370702,105.798858,69.085064,100.572167,114.017442,120.752115,32.550007,63.002186,86.439846,104.696514,65.910176,99.717053,107.53735,105.814762,51.78629,85.826809,97.526814,99.003125,35.247792,66.388218,79.681881,84.10944,18.805619,42.286869,54.727398,60.886769,-15.701326,-10.866528,3.889511,15.730794,15.028519,37.153358,43.038741,43.15866,34.807201,60.589986,67.494547,67.518086,50.425696,76.794863,83.071422,83.534389,60.5652,86.259892,92.493324,92.068024,-41.267864,365.422207,-44.950287,376.571836
9,4.034489,-0.898259,0.470398,0.071446,38.385921,63.894092,83.636341,93.637218,58.272983,89.785457,89.980465,84.11333,36.753215,64.885883,66.347431,62.330417,14.063209,29.109798,26.872547,21.43666,-8.442593,-12.007393,-16.243412,-19.983101,-0.90452,13.617979,34.504895,49.288771,47.384302,72.934931,71.589315,64.482534,61.912989,92.392609,91.193404,83.54869,69.532421,104.136759,110.184471,109.445405,70.233721,101.501437,114.585534,121.421873,32.410824,62.913243,86.191441,104.297482,65.60677,99.398289,107.359715,105.800869,51.532139,85.569386,97.471722,99.026058,34.996205,66.08749,79.511296,84.000607,18.537667,41.840321,54.305935,60.555577,-15.869634,-11.00674,3.897414,15.885762,14.792521,36.554539,42.119091,42.080917,34.657023,60.197142,66.961035,66.834484,50.283335,76.574203,82.792334,83.213731,60.368586,86.130932,92.441713,92.075903,-37.481489,364.399777,-44.728003,376.519111
10,-3.604191,-0.535364,0.28925,0.201639,38.903984,65.900116,86.462013,98.193878,62.283783,93.988724,95.243316,90.249412,41.554046,70.969024,73.827438,70.780128,19.124061,35.49955,34.674373,30.081528,-3.374439,-7.041104,-11.450363,-15.641945,-2.739137,10.611265,31.19122,46.062004,45.050717,70.98736,71.197447,65.278806,60.393719,90.118391,90.217809,83.771499,68.483801,101.671078,109.914239,111.116483,68.825095,99.463711,113.348229,121.46416,32.280395,62.780067,85.979736,104.050506,65.395523,99.152733,107.032058,105.39244,51.273857,85.244156,97.183685,98.734474,34.740143,65.744316,79.115661,83.580574,18.314254,41.482635,53.870292,60.092743,-15.972991,-11.237797,3.590268,15.693818,14.645531,36.332411,41.677243,41.506046,34.524446,59.805756,66.44831,66.251437,50.196577,76.331154,82.482903,82.880255,60.343689,86.071059,92.372281,91.974361,-41.284515,363.753105,-44.637588,376.609442
11,4.56665,-0.080127,0.162185,0.196416,38.497536,63.516358,82.592949,92.901947,56.687393,87.31263,88.389931,83.678902,35.04467,61.774132,63.49704,60.0065,12.476017,26.080479,23.910256,18.906899,-9.755791,-14.439457,-18.665394,-22.121132,-0.005261,14.605813,35.279912,49.658681,48.875389,73.965261,73.76225,68.042285,62.783027,92.699015,93.235589,87.438164,69.545105,103.421109,111.101045,112.411833,69.144999,99.846477,113.809023,122.341361,32.031281,62.540863,85.717003,103.821305,64.921257,98.988442,107.035057,105.568909,50.905678,85.091172,97.256974,98.912316,34.489861,65.588837,78.967301,83.399964,18.210766,41.399506,53.671486,59.7808,-16.063801,-11.542461,3.058103,15.15775,14.004475,35.159746,40.3339,40.12811,34.051474,59.049486,65.805833,65.626498,49.894197,75.909856,82.153613,82.570799,60.202589,86.041629,92.266737,91.66572,-36.889355,363.584792,-44.646893,376.717672
12,-4.670437,-1.324608,0.22411,0.097825,39.216488,66.11649,86.237995,98.02248,62.105473,92.556782,94.146595,89.925785,41.004856,68.441265,71.150998,68.615261,18.539395,33.636406,32.519406,28.255463,-3.761158,-7.649253,-11.898101,-15.651397,-1.243826,12.696255,33.642365,48.54048,47.346252,73.547532,74.30579,68.983324,62.112973,92.108434,93.317939,88.104796,69.430138,102.089671,111.031971,113.437952,68.967664,98.814281,112.849298,121.852397,31.795361,62.223438,85.404682,103.62624,64.470394,98.67223,106.800396,105.451115,50.570492,84.785648,97.07951,98.832424,34.298801,65.328266,78.685055,83.147656,18.16753,41.206272,53.355366,59.487705,-16.06637,-11.7812,2.627814,14.723707,13.779283,34.591272,39.730351,39.587424,33.869138,58.656568,65.476642,65.347831,49.771462,75.701572,82.032335,82.51799,60.173677,86.0481,92.354682,91.811031,-41.698248,362.19112,-44.561239,376.746433
13,5.111504,-0.209964,0.286526,-0.009584,38.60693,63.669811,82.593601,92.789074,57.380573,87.647129,88.488293,83.971149,35.467174,60.875599,62.649914,59.679485,12.369312,23.850059,20.860714,15.648674,-10.61372,-16.571903,-21.321316,-25.04377,0.811413,16.030741,37.379241,51.83505,50.834446,75.517444,75.513813,69.972838,64.460774,93.584948,94.877767,89.876811,70.750288,104.079072,113.751101,116.906201,69.577326,99.604761,113.960682,123.397207,31.648773,62.080284,85.325111,103.584251,63.947937,98.310173,106.706016,105.722809,50.25222,84.609993,97.144157,99.094986,34.175033,65.254257,78.721962,83.266388,18.212631,41.120567,53.197723,59.404655,-16.035779,-11.780731,2.579883,14.639825,13.412548,33.515802,38.725252,38.790028,33.561782,57.991727,65.064656,65.158862,49.519076,75.262193,81.691362,82.280757,59.972087,85.857069,92.254708,91.801547,-36.691755,361.931283,-44.379724,376.686976
14,-5.910942,-0.296785,0.273456,0.102778,40.089558,68.074001,89.37791,102.453312,64.18063,96.241527,98.60162,94.249866,42.938335,72.696636,76.69804,74.313572,20.283394,37.184372,37.111587,32.984012,-2.356133,-5.566406,-8.835148,-12.061352,-2.720031,10.625715,31.696252,46.871379,46.128731,72.597477,72.427503,66.065,61.910383,91.475665,91.26065,84.699027,70.269672,103.024944,111.005184,112.273698,70.599654,100.611947,114.341657,122.90439,31.397244,61.711041,84.901875,103.245678,63.570294,98.088879,106.476826,105.51804,49.936901,84.436329,97.045498,98.99905,33.958775,65.110234,78.537861,83.007901,18.094414,41.056538,53.056263,59.174618,-16.065839,-11.990065,2.183667,14.233865,12.858869,32.779984,38.12568,38.280575,33.095467,57.375815,64.649248,64.869746,49.2648,74.919379,81.448633,82.100532,59.974112,85.898985,92.266132,91.748564,-42.666166,361.589809,-44.169737,376.745065
15,4.024109,-0.322324,0.395439,-0.098875,39.565784,66.671116,87.603046,98.796764,61.118191,93.25526,94.096515,88.508663,38.796535,67.925182,70.547893,66.934284,15.417995,31.469009,30.259849,25.277412,-7.717049,-10.984223,-14.008461,-16.830597,-0.969729,13.353193,34.658024,49.782824,48.178079,74.285202,72.250637,64.555807,63.516103,93.137677,91.277927,83.377617,71.819619,105.651447,111.618958,111.011235,72.749556,103.123188,116.159045,123.684049,31.287358,61.570736,84.672741,102.812657,63.188771,97.766018,106.175023,105.235119,49.599484,84.265835,96.967473,98.949543,33.687848,64.982815,78.509251,83.013829,17.89555,40.840542,52.872723,59.071393,-15.997803,-11.886732,2.28458,14.473778,12.443684,32.247794,37.711508,37.907886,32.75248,57.015366,64.441149,64.741688,49.024912,74.671278,81.343373,82.07514,59.803632,85.731185,92.233775,91.855578,-38.688881,361.227882,-43.821122,376.606587
16,-6.020691,-0.420187,0.24408,0.061331,40.684261,70.14957,93.072979,106.395504,67.815616,101.397732,103.103565,97.369251,46.41489,79.275387,83.453281,80.09824,23.48925,44.804798,46.102192,42.105606,0.556698,0.86483,-0.743477,-3.21975,-3.668679,9.336798,30.540556,46.414561,43.975284,71.36053,69.327792,61.42537,61.197363,90.821345,87.578435,78.424826,71.363432,104.137315,108.527386,106.316079,73.768425,103.902157,116.171556,122.638269,31.194065,61.518574,84.637585,102.775051,63.246906,97.666637,105.926205,104.97028,49.689297,84.28973,96.910526,98.986736,33.798695,65.120899,78.63802,83.23122,17.98851,40.821293,52.843723,59.194119,-16.055984,-11.893784,2.360594,14.476964,12.308857,32.105484,37.759821,38.167682,32.551421,56.72152,64.252057,64.781949,48.79499,74.282053,80.972685,81.829114,59.57161,85.295745,91.916908,91.814192,-44.743097,360.762759,-43.610567,376.622982
17,4.341202,0.713736,0.089882,-0.076126,39.741886,67.877826,90.163593,101.86996,63.612888,97.673366,98.506679,92.17345,41.648952,74.309314,77.547809,73.183811,18.356403,38.91576,39.529781,34.891502,-4.888241,-4.617176,-6.117875,-8.38107,-2.302043,11.615265,32.682764,47.946675,45.365014,71.583646,68.331388,59.963108,61.904664,91.07651,87.026374,77.150433,71.832784,105.572049,108.617468,105.107278,74.700918,105.589055,117.46976,123.13247,31.06097,61.550182,84.711628,102.936092,63.208202,97.474354,105.912472,105.219578,49.649197,84.286686,96.948269,99.213467,33.749302,65.234814,78.802174,83.536251,17.924915,40.750065,52.813236,59.323116,-16.090108,-11.770469,2.596839,14.509185,12.087458,31.861644,37.969673,38.767711,32.282843,56.632933,64.428329,65.194294,48.494265,74.034112,80.83823,81.82016,59.236256,84.847548,91.571464,91.669017,-40.424892,361.417508,-43.543682,376.487869
18,-5.388382,0.412641,-0.016399,0.159019,40.479618,70.470508,94.10004,107.816539,68.325725,102.885898,104.984264,99.22047,47.402836,82.450367,87.010631,83.187641,25.041469,49.793873,52.659588,49.106643,2.801044,6.098751,5.742324,3.908569,-4.807974,7.874313,28.449724,44.009173,41.006349,68.880374,66.794593,59.107296,58.769201,89.033658,85.266957,75.369811,69.920139,103.011728,105.290677,100.989032,73.887764,104.555822,116.131505,121.255085,30.959953,61.548706,84.702621,102.919624,63.533981,97.692375,105.834343,104.896156,49.877449,84.477768,96.941185,99.129524,33.862907,65.425643,78.825096,83.480323,17.957439,40.947921,52.950759,59.271904,-16.456237,-12.134894,2.26503,14.267581,11.554923,31.868598,38.404644,39.38834,31.773749,56.626338,64.532552,65.216722,48.106054,73.981675,80.780728,81.62577,58.994146,84.70556,91.328403,91.256846,-45.846159,361.772671,-43.592966,376.58941
19,5.535656,0.051092,0.050102,-0.2996,37.439003,65.32267,88.00193,99.518554,62.441642,97.405449,98.034828,91.560356,41.79673,76.252189,79.12738,74.367485,19.729271,42.531417,43.698486,39.076023,-2.324433,0.246048,-1.101117,-3.755688,-2.587972,11.50178,31.897138,46.668565,44.124177,70.078134,66.718356,58.621889,60.546612,89.681087,85.31474,75.000371,70.709285,104.660477,106.4441,101.894417,74.38898,105.766785,116.639192,120.935465,31.019211,61.71849,84.899643,103.209892,63.957825,97.701599,105.631531,104.49472,50.134689,84.459686,96.560371,98.657547,33.966316,65.378677,78.563278,83.265083,17.92963,40.750305,52.708511,59.122421,-16.467193,-11.839407,2.717067,14.485436,11.688587,32.346669,39.724682,41.358758,31.805327,57.117785,65.21703,65.984674,48.074363,74.265294,81.140819,81.906487,58.896752,84.569782,91.338319,91.379037,-40.345956,361.774165,-43.578317,376.240212
20,-4.56831,1.069702,-0.054371,-0.254745,37.970341,67.588085,91.10535,104.235912,66.412182,101.677563,104.252598,99.113949,46.742214,82.793278,87.476658,83.860554,25.493957,51.454891,55.069164,52.078503,4.288833,8.527943,7.674316,5.122146,-5.306274,7.223774,27.355729,42.748045,39.260999,66.255377,64.85815,58.008337,56.820198,86.742051,83.910437,74.525844,67.973088,100.678378,103.01783,99.08481,72.221887,102.955536,114.396294,119.53199,31.032131,61.664143,84.883541,103.531185,64.154354,97.808132,105.757244,104.734737,50.348957,84.575741,96.590412,98.784267,34.153667,65.560032,78.64999,83.458912,18.075245,40.939785,52.851322,59.263447,-16.473948,-11.813052,2.732344,14.152972,11.876283,32.705265,40.338123,42.202639,31.925839,57.446964,65.619272,66.415927,48.136422,74.442048,81.318697,82.071237,58.942065,84.630174,91.313261,91.323709,-44.94659,362.786535,-43.665012,375.928135
21,6.113663,-0.334946,-0.00721,-0.344024,36.901004,64.46696,86.495807,97.896778,60.049404,94.052318,95.625743,90.340473,39.321292,71.497547,74.367588,70.283992,17.526695,37.911014,38.787483,34.550113,-3.935887,-3.459286,-5.76558,-8.909317,-3.177553,10.409958,30.561403,45.307228,43.57482,69.408315,67.967517,61.169044,59.577415,89.704033,88.543681,80.600034,69.141701,103.107231,107.276027,105.301829,72.038648,103.200771,115.590719,122.108278,31.192417,61.780346,84.981091,103.752537,64.339039,97.829945,105.75285,104.730892,50.476673,84.593708,96.516003,98.739681,34.219105,65.583996,78.632893,83.535427,18.066616,40.917515,52.867069,59.398853,-16.343346,-11.636087,2.852436,14.170089,12.02462,32.959492,40.812712,42.791047,32.011129,57.699165,65.957282,66.726519,48.185402,74.651678,81.56334,82.265232,58.989625,84.771657,91.477715,91.482432,-38.860714,362.402791,-43.700009,375.535313
22,-4.855935,-1.674894,0.166329,-0.296588,38.360608,67.647572,90.601307,103.567601,64.771946,98.578045,101.40366,96.742939,44.588551,77.764058,81.671551,78.203648,23.340878,46.053944,48.222268,44.753231,2.433838,4.414799,2.980843,0.167416,-4.298928,8.804312,29.472558,45.15468,42.218152,69.798529,69.432608,63.091977,59.270121,90.257539,89.110624,81.439865,69.472141,102.633421,106.341731,104.319516,72.539901,103.131969,115.122701,121.570309,31.348079,61.859493,85.024578,103.745143,64.631183,98.055393,105.735294,104.577564,50.667812,84.58572,96.39767,98.69553,34.304317,65.43996,78.430378,83.450946,18.031414,40.828228,52.742328,59.35342,-16.262415,-11.50073,2.99187,14.392045,12.207118,33.410987,41.166172,42.983993,32.103743,57.73256,66.091936,66.99921,48.226652,74.66598,81.789347,82.71154,59.049906,84.830481,91.661102,91.836905,-43.747124,360.695707,-43.564155,375.206535
23,5.928956,-0.186165,0.160709,-0.258326,37.36481,64.603328,86.249874,97.762424,58.784488,91.888652,94.065776,89.110805,37.631664,68.090732,70.658832,66.476337,15.766548,33.667842,33.241699,28.300071,-5.701012,-7.202168,-9.864625,-13.253781,-2.203625,11.776211,32.530191,47.800957,46.353848,72.284094,70.758192,63.788398,61.947742,92.226266,91.216894,84.203838,70.676051,104.663095,109.490656,108.888083,72.395874,103.325112,115.85621,123.292614,31.428795,61.863121,85.059151,103.74369,64.726891,98.057739,105.676712,104.520973,50.742874,84.499695,96.289535,98.68856,34.387115,65.364075,78.332359,83.450592,18.097744,40.85186,52.732681,59.420517,-16.03678,-11.301462,3.128016,14.497675,12.531468,33.621654,41.417384,43.3118,32.313002,57.722939,66.292525,67.505439,48.35655,74.641489,81.92621,83.042151,59.16817,84.823799,91.714737,92.040594,-37.840427,360.486759,-43.425705,374.925426
24,-4.804986,-1.056895,0.149357,-0.07872,40.098782,69.4296,92.098881,105.791119,64.0761,96.726895,100.533566,96.591465,42.602131,73.701382,77.937092,74.583104,20.438645,40.138264,41.14222,37.000695,-1.164974,-2.275508,-4.133937,-6.884582,-3.812928,8.997924,30.119504,46.240709,44.314738,72.194382,71.831673,65.139954,61.150087,92.625951,91.810142,84.969777,70.65303,103.995511,108.98923,108.440985,72.354909,102.753328,115.927445,124.108028,31.459545,61.833584,85.041149,103.80843,64.627201,98.126896,105.642414,104.481205,50.659298,84.516002,96.335872,98.819561,34.35252,65.488918,78.461918,83.611233,18.123092,41.157543,53.023556,59.629955,-15.906646,-11.389443,2.832282,14.157604,12.525491,33.642884,41.118303,42.728334,32.284499,57.565933,66.190798,67.530819,48.348856,74.532772,81.845157,83.109077,59.276259,84.91277,91.662892,91.940337,-42.666607,359.404605,-43.297542,374.821447
25,4.088311,-0.509416,0.249424,-0.290992,39.98006,67.410587,89.32584,102.067486,59.743961,92.399242,94.504108,89.203548,37.44572,67.064861,69.082271,64.340709,14.809238,31.399921,29.257278,23.029346,-7.205509,-9.582012,-12.162438,-15.305294,-1.518184,12.60973,33.643835,48.66545,48.941721,75.20942,72.949121,65.130357,64.530983,95.395309,93.031207,85.203317,72.922346,107.715529,111.79034,110.487085,74.018304,105.222553,117.646613,124.708007,31.658043,62.206924,85.324882,103.641838,64.726021,98.186554,105.459732,104.032104,50.601517,84.421669,96.12886,98.48085,34.229919,65.298363,78.283607,83.360298,18.034343,41.050209,52.874542,59.345878,-15.918096,-11.127128,3.457912,15.333084,12.712248,34.060131,41.383039,42.755973,32.426586,57.649777,66.335046,67.75869,48.452016,74.541985,82.001348,83.402996,59.391348,84.983448,91.886206,92.342591,-38.597122,358.889054,-43.066944,374.52432
26,-5.598061,0.533783,0.167347,-0.085623,40.823673,70.44318,93.805904,107.838993,65.85387,99.672054,102.783199,97.741665,44.596287,78.0023,81.910252,77.870579,22.515621,44.599308,45.202458,40.242611,0.810917,1.845188,0.427597,-2.431354,-3.863316,9.034072,29.836341,45.564653,43.861836,71.396839,69.788487,62.198374,61.090435,91.83583,88.41382,79.501185,71.261296,104.834131,107.47285,104.440657,73.918935,104.682781,116.234887,121.93718,31.586139,62.183567,85.315441,103.516491,64.48669,98.286037,105.675052,104.251568,50.338245,84.39822,96.26865,98.520618,33.996013,65.219455,78.364551,83.329044,17.940147,41.168346,53.023121,59.234264,-16.135025,-11.378452,3.280503,15.322068,12.68782,34.084486,41.053242,42.172937,32.521644,57.756531,66.229848,67.472612,48.600303,74.670475,82.010981,83.332625,59.525816,85.135935,91.88544,92.202454,-44.221865,359.416844,-42.926279,374.432704
27,5.076817,2.315356,0.145488,-0.144706,40.135734,67.523346,89.285225,101.473617,60.653984,92.916183,94.351135,88.883606,38.811012,67.844444,69.524391,65.078315,16.209514,32.928451,30.478683,24.438652,-6.1348,-7.7799,-10.723744,-14.061711,-2.142381,11.393581,31.617335,45.744927,46.389626,71.049691,69.023326,61.698752,61.897007,91.766991,89.828324,82.160121,70.49779,104.304757,108.39797,106.911032,72.086122,102.671582,114.716124,121.101573,31.575303,62.16877,85.285538,103.390915,64.206414,98.242127,105.822716,104.463158,50.130318,84.448632,96.431351,98.57087,33.875725,65.281128,78.520455,83.348191,17.96045,41.33519,53.229607,59.242196,-16.121749,-11.369486,3.273587,15.249091,12.724339,33.82464,40.707254,41.848748,32.677046,57.830397,66.161416,67.189981,48.787852,74.793815,81.965669,83.074681,59.671498,85.322162,91.872411,91.92065,-39.169012,361.729205,-42.804755,374.285003
28,-5.549446,-0.510009,0.162449,-0.324746,41.316284,70.649894,93.683258,107.297287,66.836288,99.549339,101.511909,96.498046,45.878768,77.202873,79.980033,76.324539,23.502662,43.778411,43.112869,38.22575,1.238742,1.700729,-0.769032,-4.001439,-3.663491,8.92491,29.140686,43.641251,43.291151,68.931034,68.105703,61.317591,60.033973,90.131716,88.195125,80.05479,69.678313,102.62175,106.320871,104.059966,71.970945,102.088992,113.509336,118.89901,31.67989,62.335431,85.457875,103.420315,63.857106,98.181645,106.041195,104.853665,49.806095,84.443905,96.53912,98.572712,33.61314,65.206433,78.564984,83.298054,17.854008,41.282124,53.211537,59.043492,-15.908771,-11.125337,3.577819,15.647839,12.754301,33.648973,40.502985,41.680281,32.823802,57.973041,66.171421,67.030813,48.947242,74.950687,82.073621,83.094245,59.77346,85.548601,92.005175,91.84697,-44.747726,361.208819,-42.671574,373.94988
29,5.105392,1.78534,0.008171,-0.118239,39.978264,66.876663,88.344429,99.772614,61.328522,94.255325,94.655251,88.719818,40.232254,70.194214,71.255402,66.952309,17.684738,35.203033,32.593437,26.884426,-4.841869,-5.750061,-9.35741,-13.087234,-2.134798,11.476821,31.187145,44.74136,45.004898,68.312381,66.660607,59.828505,60.174517,89.065707,87.524404,79.737937,68.598743,102.13081,106.253983,104.473126,70.427555,101.002889,112.638124,118.069554,31.654736,62.30341,85.476918,103.242039,63.666287,98.254429,106.565815,105.789242,49.764828,84.561253,96.979672,99.173321,33.712017,65.321492,78.880131,83.619702,18.081288,41.596356,53.497525,59.169583,-15.893235,-11.261608,3.405226,15.596548,12.527886,32.920367,39.729264,40.954491,32.685666,57.551186,65.762249,66.651764,48.818764,74.629213,81.837314,82.952551,59.612094,85.45721,91.789962,91.441504,-39.676237,362.97735,-42.697306,373.814832
30,-2.934391,0.210149,0.08067,0.08482,39.622478,67.754803,89.708141,102.267162,64.719212,97.572933,99.725567,95.406887,44.636204,75.63335,78.630489,75.521587,22.442917,41.470837,41.09737,36.771893,0.008892,-1.020824,-4.578278,-8.445179,-4.044849,8.180349,27.630148,42.083017,40.538294,64.606863,65.088837,59.373355,56.8334,85.931281,86.31443,79.7739,66.050711,98.507802,104.563541,104.084086,68.068381,98.176857,110.677869,117.136345,31.465095,61.94339,85.249924,103.310051,63.313614,98.171173,106.840187,106.413597,49.619064,84.669937,97.286064,99.534302,33.75119,65.553062,79.093895,83.764984,18.250717,42.027054,53.879722,59.372955,-15.778453,-11.570632,2.602483,14.356958,12.023484,31.863361,39.025865,40.663128,32.247349,56.985392,65.354611,66.380767,48.521102,74.294897,81.4781,82.539997,59.461608,85.361102,91.390486,90.640614,-42.643347,363.16945,-42.649355,373.881603
31,5.559219,0.259821,0.303509,-0.005076,38.293362,63.83749,84.172657,95.321057,58.928112,91.651921,92.457127,87.722432,38.495259,67.220959,68.252941,64.467259,15.959816,31.22588,28.384472,23.04673,-6.998874,-9.966945,-14.816848,-19.12556,-1.820958,11.599692,31.150403,44.644832,43.887401,65.446137,65.049033,59.490841,58.847698,86.767616,87.260903,81.171287,66.97157,100.039805,106.468789,106.698105,68.467795,98.78474,111.49873,118.439588,31.468219,61.974643,85.271106,102.942112,63.134822,98.142047,106.79488,106.233455,49.482616,84.883472,97.398502,99.416576,33.692081,65.78358,79.12833,83.5349,18.288986,42.401699,54.108455,59.216526,-15.540529,-11.403757,2.660109,14.716729,11.231326,30.980737,38.953099,41.038706,31.482447,56.372235,65.248696,66.547789,47.979267,73.881799,81.283895,82.31388,59.208135,85.214988,91.095048,89.945477,-37.116835,363.405259,-42.378553,373.852515
32,-3.911029,-0.90058,0.297752,-0.042361,38.293441,65.584419,87.335197,100.154365,63.40876,97.59185,99.965446,95.941474,43.892761,76.09671,79.212478,76.101448,21.728256,40.113967,39.383972,34.721637,-0.971741,-2.967831,-7.634331,-12.397099,-4.265509,7.722074,27.256397,42.097825,39.200483,62.853484,64.172473,59.117263,55.706776,84.34201,85.397831,79.15873,65.30542,98.161728,105.9097,106.547718,67.66599,98.032879,111.163586,118.244271,31.423656,62.027264,85.38525,102.862598,63.018734,98.20142,106.844913,106.16637,49.341694,85.009266,97.454624,99.26627,33.590755,65.967533,79.252361,83.521557,18.313854,42.764591,54.459904,59.270153,-15.607836,-11.572089,2.488505,14.912984,10.394892,30.342127,38.695241,40.941524,30.772441,55.990223,64.955691,66.287227,47.509483,73.675133,81.061656,81.934967,58.98613,85.111643,90.81396,89.319909,-41.062408,362.481087,-42.115345,373.786562
33,5.093822,-0.039063,0.198429,-0.012547,36.985691,61.798862,81.762325,92.765728,56.987125,89.504437,90.720737,86.441586,37.202282,65.216755,66.577526,62.913174,15.265938,29.270714,26.744396,21.502407,-7.32296,-10.743439,-15.959484,-20.723625,-0.962022,12.610681,31.991307,45.701788,43.220274,65.326761,66.60518,62.377623,57.766423,85.928378,88.427899,83.648565,65.831657,99.01744,107.607799,109.484542,67.522717,98.159825,111.673471,119.388308,31.119164,61.635246,84.915825,102.459984,63.152916,98.482658,107.019699,106.216278,49.484184,85.290482,97.730255,99.594887,33.73922,66.32151,79.600937,83.94651,18.498699,43.249397,54.916054,59.642738,-15.8714,-11.980704,1.977285,14.283438,9.549231,29.581399,38.10177,40.431057,30.062397,55.283785,64.361244,65.798596,46.977885,73.070793,80.494132,81.335197,58.653085,84.616676,90.215215,88.598639,-36.001431,362.410776,-41.949761,373.742767
34,-3.433537,-0.718664,0.287258,-0.383038,37.333375,63.788842,84.877396,97.906334,60.697472,92.949418,96.053673,93.726426,41.445672,69.937317,73.433533,71.430428,19.612256,33.977177,32.903206,28.62957,-2.884426,-7.069187,-12.341262,-17.249645,-3.055546,8.946733,28.339314,42.658716,40.065433,63.135461,66.657618,63.79876,55.758411,84.270849,88.753867,85.401005,64.433727,97.00634,108.685591,112.922336,65.714023,95.943443,110.497595,119.564025,31.236889,61.943653,85.163258,102.440563,63.270436,98.592396,106.741482,105.540539,49.390011,85.336361,97.561604,99.306759,33.545071,66.292019,79.480236,83.863209,18.360901,43.250118,54.974568,59.712994,-16.013117,-11.843334,2.467904,15.268765,9.080892,29.437076,38.228025,40.69688,29.646224,55.143118,64.391279,65.940819,46.700663,73.05564,80.569788,81.245597,58.504662,84.46577,90.232888,88.633874,-39.478604,361.656565,-41.706139,373.324182
35,3.840626,-1.231958,-0.076423,-0.531004,37.511616,62.797886,83.260288,95.213528,56.693447,88.803555,90.172497,86.291851,36.335003,63.012738,64.405964,61.048153,14.166367,26.251305,22.854985,17.143467,-8.411808,-12.845077,-18.075474,-22.699939,-0.742759,12.575978,32.232048,45.933402,44.216173,67.003656,69.120929,65.994431,58.584814,87.226137,91.175422,88.151443,66.301541,99.891962,111.075184,115.68999,67.257104,97.726733,112.062042,121.333002,30.994205,61.484058,84.506847,101.969204,63.659854,98.904979,107.108265,105.980838,49.787578,85.658191,97.876407,99.859851,33.832203,66.459308,79.645237,84.282268,18.50473,43.398548,55.068729,60.010562,-16.36523,-12.198374,2.155793,14.594512,8.651059,28.960399,37.926769,40.586742,29.284157,54.479387,64.039598,65.900101,46.367865,72.527859,80.374595,81.375001,58.225908,84.046744,89.99694,88.630119,-35.723265,360.389585,-41.867849,372.758156
36,-5.632118,-1.659752,-0.278344,-1.316136,39.179707,67.348492,89.757763,103.36591,62.26759,94.546337,98.00346,95.406406,42.148922,71.501232,75.667866,73.680599,20.239185,36.257835,35.914501,31.833023,-1.702801,-4.519089,-8.424648,-12.246128,-2.665222,9.734322,29.579312,44.385998,41.211064,66.608687,70.380588,67.943447,56.849615,86.582093,90.915453,87.790919,65.434096,98.205299,109.306343,113.534246,66.606637,96.656104,110.930601,120.016446,31.070904,61.538029,84.444546,102.495793,63.892308,98.772091,107.232548,106.700352,49.953129,85.464329,97.819508,100.596028,33.903592,66.260205,79.733975,85.217045,18.459126,43.154904,55.033413,60.796955,-16.535439,-11.836369,2.923326,14.697499,8.841819,29.208167,38.470148,41.594386,29.295309,54.413092,64.499231,67.135196,46.202251,72.311115,80.822471,82.570045,57.96316,83.597016,90.048267,89.479113,-41.469412,358.698767,-42.260222,371.410954
37,3.900021,-1.271614,-0.623176,-1.413887,38.860748,66.120826,87.619537,99.865768,57.010139,88.065078,91.011383,88.352302,35.754272,62.082069,64.943138,62.277099,13.79631,27.137523,25.640979,21.085521,-7.725609,-10.897213,-14.257576,-17.301213,-0.496004,13.183108,33.303788,47.838748,45.011357,69.449416,72.779616,70.843222,59.24889,88.994471,94.299165,92.901568,66.695138,99.666894,110.881362,116.361649,67.310518,97.433554,111.93454,121.943343,31.226475,61.608524,84.260937,102.660244,63.841106,98.595096,107.597454,107.92297,49.842258,85.440433,98.208652,101.831783,33.736942,66.247204,80.238384,86.536503,18.276672,43.117321,55.44524,62.295421,-16.633709,-11.41465,3.639532,15.042808,8.435983,28.936194,39.079748,43.022512,28.578918,53.884817,64.827707,68.297573,45.376734,71.53658,80.860386,83.37012,57.146079,82.689853,89.798943,90.103373,-37.765216,357.397923,-43.079223,369.967837
38,-5.30523,-2.565421,-0.319176,-3.834812,40.496155,71.185708,94.392975,107.705269,62.774483,95.658371,100.112091,98.392754,41.468789,71.551186,77.078042,75.822831,19.233422,36.479073,37.70493,34.429573,-2.140823,-3.992088,-6.986332,-10.185413,-3.882396,9.54202,30.638702,46.777839,39.216921,65.559894,69.308206,67.172518,55.518338,86.327768,91.416347,89.442681,64.743171,98.286439,110.220237,115.459648,66.544418,96.771998,111.595777,121.763019,31.393513,61.404316,83.19492,100.028034,62.493267,96.890476,106.682865,107.860851,48.228779,83.579945,96.817074,100.715115,31.919117,64.305531,78.671299,85.062779,16.374104,40.586758,53.284962,60.356953,-16.157304,-9.40087,7.004559,19.457197,8.808128,31.497453,42.278704,46.353799,28.647474,55.690819,66.791777,69.947582,45.203068,72.852333,82.498588,84.813907,56.58977,82.722433,90.684617,91.849057,-43.535042,354.926406,-43.862995,366.226929
39,7.173169,-1.565126,-1.02602,-4.441843,39.385242,65.207141,82.730243,91.849788,54.738521,79.126819,79.98595,76.435192,32.996143,53.477542,54.62709,50.993774,11.592281,22.615882,21.232166,16.76255,-8.29303,-11.4795,-15.060711,-18.302868,1.817661,17.728087,38.704442,54.330816,43.952202,70.346267,75.105927,75.030147,56.895286,88.059447,94.929069,95.53142,63.926521,96.727859,108.262465,114.32722,64.967127,93.613649,107.568045,117.460214,31.274277,61.06469,82.380226,98.094246,61.669029,95.95713,106.89061,108.968536,47.268127,82.642937,96.669891,100.798325,30.687996,63.143578,78.277748,84.736084,14.986748,39.604775,52.954147,59.969994,-16.623408,-8.512838,9.185287,22.506778,7.911339,31.823161,42.887724,46.899586,27.942543,56.126259,67.133517,69.698295,44.46993,73.072165,82.861902,85.116385,55.673826,81.78111,89.940426,91.621853,-37.04326,353.562994,-45.570402,361.9868
40,17.905574,2.005629,0.681896,-14.57984,24.506127,39.84002,48.63406,52.246296,31.898621,42.689381,41.306614,37.90202,17.165314,24.848854,22.748875,18.510052,2.952393,4.821385,0.860619,-4.480796,-10.005352,-18.05381,-23.81266,-29.029998,-2.547526,10.755057,29.144008,44.110073,37.219357,64.328492,71.753225,73.688804,51.715093,83.041892,91.719529,93.674412,60.752822,92.106556,103.580153,109.416333,64.051356,91.706525,104.209785,112.409734,35.297825,64.998425,82.299351,92.113896,69.854954,93.428204,97.81136,95.872776,54.027935,78.348484,83.968449,82.456639,35.550968,57.462948,64.723583,66.018299,17.301304,34.875195,42.29884,45.073151,-9.417494,4.558304,25.792925,41.611985,18.788007,51.356978,65.414669,70.937712,34.506896,71.812184,85.48191,89.378509,48.120676,83.958416,96.82083,100.467562,57.432798,88.149454,98.869152,102.267796,-20.001933,355.86324,-45.752753,347.701577
41,24.572823,4.430407,8.276734,-7.214906,8.25737,10.359764,8.659882,5.557526,4.307213,0.481979,-5.261101,-9.865654,-3.645813,-12.508278,-20.721199,-27.192341,-11.043171,-23.53751,-33.356483,-41.315758,-17.905334,-33.581337,-42.956257,-50.777287,-2.556998,9.100849,24.847773,38.820816,32.527103,58.361055,66.877561,70.107515,46.904131,77.59059,88.29847,92.128132,56.852999,87.640865,100.020736,106.710491,61.88362,88.08774,99.784343,107.47075,28.44849,51.719593,62.881473,66.913067,65.454792,75.318981,73.730358,68.831657,53.944301,63.890659,61.723102,55.691723,37.92255,47.3363,46.271244,42.344627,20.288498,28.63734,29.324375,27.389305,-6.093444,9.237615,31.191146,49.248288,19.18305,53.877234,69.720723,77.406537,33.240667,74.051094,89.99589,95.506756,46.474002,85.681722,101.350309,106.805674,56.330998,89.059705,101.954389,107.169754,3.609621,360.647301,-38.437288,340.840325
42,20.117397,4.187888,-5.812992,-19.222977,-6.399891,-15.847835,-26.547237,-34.927551,-16.852718,-33.002929,-42.081344,-47.636352,-17.18613,-37.659702,-49.375339,-56.814068,-17.698791,-38.78556,-51.247261,-60.105388,-18.60799,-39.633442,-51.627788,-61.381279,-5.341127,4.507323,19.367411,33.545973,25.512516,51.561236,60.990474,64.847973,41.691087,71.761339,81.988727,85.04226,53.586983,82.98029,93.521172,97.980046,60.601014,85.198908,94.842001,100.136345,26.558303,50.017021,62.497444,65.601699,62.299816,75.773391,70.385559,61.92889,54.215412,67.834991,61.221588,50.626968,42.132637,55.085151,48.887397,39.690204,27.977645,39.787834,36.781814,30.122989,4.047171,20.960275,39.705971,53.507399,24.352287,55.783235,67.419865,72.456784,29.666812,66.403194,78.613548,82.251931,35.075049,70.029166,83.217831,87.908874,38.761919,66.82632,78.555354,83.874053,22.85634,365.192214,-45.120958,321.974373
43,26.070362,6.127086,-6.448563,-22.892088,-22.145736,-45.515533,-66.24337,-80.581901,-43.220192,-73.622532,-86.753872,-93.404491,-36.589691,-72.141243,-89.435669,-99.011673,-30.231033,-63.75365,-81.300739,-92.377338,-25.275444,-52.994293,-67.772815,-78.988025,-6.100163,1.89817,15.361934,29.006354,22.973191,48.109758,58.089069,62.489959,39.373767,68.435326,78.809531,82.305259,51.846041,79.228372,87.926485,91.39592,59.860874,82.605304,89.92279,93.050436,25.310005,49.822906,64.616753,68.596115,58.671604,76.52845,67.055603,55.129246,52.897156,70.507622,59.33995,45.280083,44.251694,61.029877,50.040413,36.753879,33.565361,48.965126,42.64151,32.661449,7.709563,20.371263,32.333602,41.140693,23.322661,44.494086,52.588169,57.194935,22.605677,48.381102,57.467341,61.857203,22.304088,46.25506,57.244459,63.460478,21.699712,40.407444,49.923664,55.862053,48.409046,371.55905,-52.087177,299.322035
44,17.463066,5.385377,-4.291328,-35.266562,-35.403556,-66.46051,-90.997306,-107.120418,-59.914924,-96.170391,-109.838573,-115.292472,-46.36338,-87.315444,-105.385471,-113.899887,-34.108886,-72.715988,-91.908027,-103.204925,-24.596786,-56.279685,-72.683052,-84.770462,-12.311501,-7.066668,6.189157,20.540089,14.330974,40.397292,49.056639,50.843745,34.636609,64.016331,72.098929,72.389674,50.539093,77.898997,84.278493,84.448048,61.353912,84.136319,89.613544,90.030841,21.293861,43.816154,59.179321,63.892547,49.105442,66.360305,53.039691,38.868976,47.430393,64.142509,48.54705,31.803462,43.751346,59.973907,44.148262,27.98236,37.75391,52.358802,42.732353,30.479106,6.49313,11.143034,14.433788,18.013861,13.912923,21.977286,29.485772,35.664037,10.149767,22.22338,30.884666,37.488094,7.380718,18.018251,28.409882,36.573583,5.21213,13.672196,22.007513,29.157186,65.679193,377.308936,-56.571424,264.419982
45,3.204186,2.362348,-6.272782,-34.45815,-34.705559,-66.682961,-91.133595,-106.370247,-57.889229,-94.874863,-108.692265,-113.178543,-43.777863,-85.448593,-102.981754,-110.195549,-31.626503,-70.98159,-89.678696,-99.860081,-22.811531,-55.005844,-71.450523,-82.514488,-10.328695,-3.693576,12.040528,27.947224,14.406309,41.060097,48.179117,48.043278,34.831185,64.433603,70.892931,69.220174,50.568005,77.875655,82.769042,81.102991,61.033255,83.063517,87.355208,86.28143,6.794804,23.353695,41.20261,51.533238,26.802784,50.855553,40.795441,29.270645,34.071556,57.360672,45.490288,32.538323,39.865803,62.700348,49.746987,36.495896,43.333111,63.336617,58.272194,49.915398,-3.756957,-13.026639,-21.971513,-24.777298,-10.978044,-23.047675,-17.856225,-11.205829,-12.848057,-21.800712,-15.685519,-8.524515,-14.187207,-23.0384,-15.784412,-7.01239,-15.032459,-22.231038,-20.248078,-15.812416,69.032364,380.10701,-62.695221,230.397558
46,2.630608,0.920118,-15.148201,-48.653335,-34.017861,-66.313935,-90.509903,-105.168835,-56.921311,-93.741841,-107.338143,-110.688103,-42.673554,-83.85402,-100.556351,-106.51355,-30.538765,-69.517868,-87.534943,-96.895398,-21.937226,-53.788216,-69.909783,-79.96621,-10.790143,-3.014754,14.893051,31.397553,15.957492,43.128106,48.827163,47.014047,36.596049,66.485706,71.291012,68.107555,51.840076,79.250899,82.818838,79.865624,61.514909,83.741364,86.857698,84.292857,1.663719,17.73579,40.170948,56.099796,16.639286,50.06345,42.564823,32.722309,27.288757,59.845482,50.884483,40.579411,37.956848,68.555649,58.611866,48.319542,47.209911,74.360916,74.618271,70.708168,-9.395196,-28.227182,-46.683849,-55.216305,-24.951539,-52.099107,-47.826936,-41.548271,-27.507851,-53.651444,-50.241648,-43.188621,-30.276548,-56.086578,-52.011539,-43.036493,-32.718049,-53.73314,-58.629194,-57.807111,72.060557,381.676693,-77.445837,182.393788
47,1.824852,1.067813,-0.901634,-42.966851,-33.741074,-66.16063,-90.111443,-104.361992,-56.419465,-93.723221,-106.908349,-108.909028,-42.071183,-83.211869,-99.358086,-104.048665,-29.772515,-68.663063,-86.320313,-94.84805,-21.068551,-52.51735,-68.604149,-77.995171,-10.418912,-2.184655,16.111831,32.539898,16.523855,44.256582,49.140052,46.190729,37.207489,67.362784,71.247267,67.003816,52.333635,79.93986,82.909166,79.056163,61.818967,84.15487,86.764887,83.18419,-9.050846,-1.000843,18.283951,34.961243,3.640938,28.441738,21.34005,13.707722,18.568005,41.387627,31.987369,24.66362,32.820625,53.973679,43.910328,36.85754,45.26057,65.932686,68.060715,68.527862,-21.663551,-49.847761,-73.668945,-81.388877,-43.109142,-80.048788,-71.204246,-60.86664,-39.446781,-75.766687,-69.163493,-58.635937,-36.372555,-71.854601,-65.764738,-54.178626,-33.875325,-62.585456,-71.617115,-73.381781,74.343298,383.587742,-77.889582,140.270173
48,0.851051,1.147632,-2.520172,-38.540556,-33.487862,-65.84317,-89.689957,-103.682591,-55.977516,-93.310684,-106.264607,-107.477348,-41.466705,-82.45784,-98.283234,-102.006088,-29.019173,-67.677864,-85.126259,-92.965302,-20.270989,-51.190315,-67.121498,-76.023056,-10.18026,-1.767779,16.643218,33.069902,17.212618,45.271956,49.694348,45.978973,37.851458,68.462978,71.714791,66.576885,52.728269,80.878577,83.272727,78.518872,61.806123,84.415752,86.769665,82.576627,-18.674023,-19.585968,-5.412232,12.153763,-5.423493,9.142605,2.586593,-2.875271,14.883453,27.16848,18.073105,12.892673,32.963917,44.226654,34.51371,29.870556,48.139698,62.906021,66.534771,69.923607,-28.405603,-61.023783,-88.329852,-96.286436,-58.002002,-97.759393,-85.842348,-73.320908,-50.95045,-90.34173,-81.001085,-68.992328,-43.859107,-81.885647,-74.16629,-61.786178,-37.839523,-69.46289,-82.199135,-88.289572,75.587803,385.737207,-80.0163,102.73145
49,0.623566,0.798321,-4.07143,-26.91732,-33.309082,-65.507081,-89.44265,-104.130341,-56.155701,-93.452225,-106.137989,-107.081131,-41.765213,-82.590683,-98.220681,-101.734589,-29.300789,-67.884339,-85.160637,-92.732071,-20.515572,-51.15017,-67.156472,-76.020218,-10.299956,-1.856563,16.621544,32.764991,17.681057,45.39321,49.691989,46.050889,38.363222,68.681464,71.744371,66.67607,53.152063,81.213426,83.383545,78.577264,62.112405,84.679723,86.996624,82.832756,-25.852387,-33.614136,-23.121357,-4.194203,-9.770966,-0.54942,-6.443596,-10.723732,14.120407,20.7747,12.173927,8.483402,34.677623,40.369503,31.276702,27.845913,51.622444,63.557602,68.628341,74.119342,-29.268787,-62.617986,-91.737925,-99.456843,-63.865271,-102.497001,-89.896762,-76.90513,-56.871814,-95.503656,-85.642202,-73.276855,-49.28275,-86.682116,-78.637204,-65.847261,-42.616985,-75.815031,-93.049121,-103.865823,76.538269,387.440499,-83.76083,76.719101
50,0.176307,0.380741,-2.929001,-17.94604,-33.167541,-65.161537,-89.211044,-104.604377,-56.325668,-93.730842,-106.246753,-106.876293,-42.081482,-82.867996,-98.304931,-101.601207,-29.602134,-68.095001,-85.353538,-92.883339,-20.747131,-51.05056,-67.180549,-76.195907,-10.253014,-1.86795,16.484223,32.228738,18.212802,45.697985,49.806067,46.1169,38.792671,68.776139,71.393455,66.216449,53.429075,81.312263,83.345852,78.570162,62.171402,84.743165,87.18942,83.228292,-26.676224,-37.1315,-28.771855,-9.227875,-10.931683,-3.852139,-9.085785,-12.518051,12.817245,17.193592,9.807747,6.902263,32.86607,36.332542,28.551693,25.760341,49.108246,59.144817,64.153095,69.502498,-28.302696,-60.342342,-89.362671,-96.652455,-65.442877,-103.494395,-90.844749,-77.772779,-59.202177,-97.522191,-87.820615,-75.587537,-52.123832,-89.001937,-81.124122,-68.472309,-46.013141,-79.920916,-98.513205,-111.303358,76.944059,388.648278,-86.460348,59.600099
51,0.111946,0.314149,-1.178147,-9.234182,-33.172256,-65.164512,-89.321045,-105.141986,-56.575493,-94.039192,-106.556087,-107.205906,-42.500702,-83.314773,-98.74031,-102.033004,-30.135681,-68.614082,-85.896766,-93.414413,-21.363189,-51.536865,-67.831192,-77.012855,-10.222015,-1.949782,16.338455,31.966793,18.325917,45.61845,49.673093,46.090384,38.913331,68.684341,71.118616,65.993801,53.570137,81.315746,83.226896,78.452812,62.33399,84.891132,87.395605,83.466537,-26.792564,-39.329006,-33.028873,-13.685188,-11.96268,-6.099575,-11.185443,-14.189346,11.554654,14.50803,7.827084,5.375714,31.355782,33.426304,26.613682,24.265137,47.434708,56.067891,60.633305,65.377613,-27.799658,-58.772362,-87.743951,-95.553007,-67.356126,-103.638989,-91.501482,-78.689025,-61.797323,-98.534082,-89.0647,-77.083378,-54.848667,-90.357562,-82.732319,-70.409598,-48.669717,-82.700431,-102.011464,-116.118759,77.191526,389.543749,-87.502974,50.947239
52,0.08313,0.280483,-0.32714,-0.911991,-33.338264,-65.453567,-89.639969,-105.18639,-56.548622,-94.169655,-106.644527,-107.261787,-42.481567,-83.457252,-98.895904,-102.193027,-30.193817,-68.729095,-86.028808,-93.535423,-21.504867,-51.75,-67.998985,-77.126243,-10.053313,-1.772719,16.495449,32.263997,18.301229,45.766812,49.882748,46.379005,38.886692,68.883029,71.486253,66.43502,53.601457,81.53491,83.424559,78.628985,62.495838,85.179185,87.575113,83.562152,-26.803585,-39.85072,-34.852204,-16.50824,-13.044983,-8.321263,-12.936482,-15.541352,10.53812,12.710975,6.559066,4.252647,30.361805,31.785106,25.407646,23.44075,46.339061,54.674079,58.843666,62.961525,-25.153518,-54.709612,-83.256593,-92.249182,-63.89028,-99.383244,-88.163416,-75.993268,-59.13033,-95.407765,-85.992568,-74.338184,-52.918022,-88.306023,-80.51417,-68.362801,-47.385167,-81.366789,-100.529943,-114.975538,77.348156,390.171013,-87.756614,50.382029
53,0.311234,0.120635,1.111976,3.524886,-33.498642,-65.67421,-89.839508,-105.422184,-56.662033,-94.387299,-106.848107,-107.482647,-42.592049,-83.572083,-99.092743,-102.491535,-30.313248,-68.910622,-86.267143,-93.874832,-21.568245,-51.860871,-68.185112,-77.460846,-9.848832,-1.457285,16.865816,32.529203,18.49252,45.794575,49.903176,46.427591,39.160864,68.965367,71.551598,66.442678,53.944827,81.811713,83.619543,78.712472,62.912172,85.522468,87.876481,83.819244,-27.680797,-40.587673,-35.459804,-18.042698,-14.897907,-9.978561,-14.341427,-16.80122,8.818348,11.325485,4.810822,2.669884,28.846195,30.225723,23.455467,22.084385,45.079285,53.33955,57.216866,61.451523,-22.304138,-50.209167,-77.526555,-86.945123,-57.374259,-94.578567,-83.150493,-70.950513,-53.142312,-90.921004,-80.974254,-69.33356,-47.807299,-84.910003,-76.400493,-64.053573,-43.230846,-77.843928,-96.497801,-110.30239,77.712153,390.377719,-86.591875,53.992986
54,0.566482,0.068988,1.759255,4.152474,-33.862564,-66.090042,-90.112953,-105.514068,-56.271354,-94.100212,-106.893928,-107.835983,-42.136001,-83.124641,-98.958618,-102.596718,-29.927604,-68.528824,-86.09777,-93.913696,-21.237739,-51.555336,-67.926681,-77.254966,-9.523149,-0.932876,17.515751,33.194551,18.927847,46.322183,50.337454,46.792684,39.656263,69.607781,72.207103,66.911622,54.397877,82.427673,84.080546,78.860167,63.27997,85.902208,88.060188,83.659606,-26.10537,-37.31464,-33.269623,-19.966725,-14.104306,-8.588871,-13.036251,-15.291813,7.254741,10.860534,4.442768,2.60741,25.490123,28.287952,21.834263,21.07949,40.307716,49.644642,54.26461,59.217842,-18.946187,-42.57208,-65.978147,-75.390763,-47.915701,-81.009309,-69.667728,-58.167017,-44.013513,-78.335189,-67.534394,-55.786575,-38.871273,-73.326601,-63.824065,-52.110481,-34.383037,-65.686025,-81.497002,-93.567632,78.327821,390.245993,-84.783434,57.944746
55,1.027703,-0.066184,-0.417996,26.71355,-34.167527,-66.400246,-90.234444,-105.608906,-56.040253,-93.490929,-106.551876,-107.99627,-41.805039,-82.476334,-98.666726,-102.798695,-29.609391,-67.975411,-85.775277,-93.982293,-20.893593,-51.050583,-67.468392,-76.939225,-9.154375,-0.257907,18.457013,34.282433,19.47214,46.984307,51.11956,47.725732,40.176547,70.342327,73.206558,68.074061,54.818199,83.104013,84.955883,79.865278,63.613508,86.359766,88.529441,84.096095,-26.012409,-35.058655,-29.470665,-17.355697,-15.222679,-8.513168,-12.603916,-15.193439,6.189892,11.556839,4.79496,2.549584,25.18293,29.865189,22.574547,21.250569,40.855271,51.756031,56.622025,61.984005,-19.486856,-44.306946,-67.437113,-77.57298,-44.801048,-81.035189,-69.676856,-57.947211,-40.340964,-77.994192,-67.144601,-55.004878,-35.364634,-73.391069,-63.724264,-51.707906,-31.498163,-64.13764,-79.533426,-90.752728,79.4116,389.687686,-85.145354,84.166173
56,1.5737,-0.086574,-0.616573,25.105593,-34.346741,-66.457238,-90.053055,-105.352799,-55.662369,-92.812066,-106.194798,-108.148911,-41.308045,-81.720566,-98.280877,-102.858948,-29.095963,-67.18158,-85.223374,-93.75206,-20.391312,-50.38353,-66.860161,-76.434082,-8.879018,0.333069,19.273365,35.275651,20.085778,47.849369,52.047458,48.760867,40.635093,71.138426,74.213905,69.187718,55.109995,83.74287,85.742707,80.726449,63.799648,86.806407,89.02295,84.58827,-24.655609,-31.444988,-25.647537,-15.60759,-15.298016,-8.061813,-11.39502,-13.975296,5.5261,12.791118,6.703239,4.19545,24.839996,31.830322,24.941379,23.239437,41.250503,53.948788,59.754032,65.613808,-19.140226,-42.433525,-63.602523,-73.505023,-37.668992,-72.158814,-61.914625,-50.863796,-32.197789,-69.046155,-58.906349,-47.149305,-26.597743,-64.408353,-55.507945,-44.486065,-22.642623,-53.803646,-67.438829,-76.863245,80.990233,388.819222,-85.756994,108.489876
57,1.979805,0.058873,-2.122124,39.465195,-34.449051,-66.489258,-89.874138,-105.241242,-55.508927,-92.380028,-105.893555,-108.118149,-41.097542,-81.29773,-98.018921,-102.882328,-28.888939,-66.810906,-84.97371,-93.761536,-20.190285,-50.021668,-66.578431,-76.311516,-8.810907,0.601288,19.779286,35.771507,20.656031,48.391537,52.471498,49.25734,41.068704,71.396098,74.400292,69.524159,55.390391,83.966036,86.037478,81.203891,63.997818,86.995993,89.269742,84.978113,-23.600464,-29.569107,-22.35799,-10.517658,-13.745235,-4.049583,-7.510769,-10.583084,6.681439,16.374264,9.980976,6.905079,25.843174,35.426354,28.235813,25.908028,42.46138,56.606964,63.249561,69.683544,-20.88972,-45.7987,-67.391331,-76.371255,-35.838328,-72.808065,-61.946488,-50.345679,-28.955411,-67.712044,-57.108535,-45.146307,-22.795708,-62.167493,-53.317054,-42.083351,-18.948374,-50.320535,-63.346358,-72.001518,82.924765,387.770651,-87.924391,146.847627
58,2.43219,0.053401,-2.147049,38.725647,-34.560997,-66.670052,-89.884369,-104.888581,-55.201584,-91.992966,-105.60743,-108.032834,-40.771248,-80.97194,-97.833916,-102.944985,-28.628129,-66.499169,-84.817978,-93.850663,-19.991181,-49.780312,-66.414643,-76.268647,-8.69904,0.795123,20.140379,36.341501,20.75871,48.768673,52.992882,50.024305,41.030481,71.487637,74.7107,70.190162,55.290949,83.98986,86.216382,81.626684,63.956051,87.129523,89.441606,85.248692,-22.252636,-28.02618,-20.826095,-8.404152,-12.858799,-2.264671,-5.86956,-9.707508,7.047444,18.879811,12.382656,8.443005,25.962605,37.670906,30.396229,27.248005,42.262894,57.44997,65.077744,72.190052,-21.571383,-45.728416,-66.661781,-75.201017,-35.185935,-68.403414,-57.176139,-45.542319,-27.234952,-62.459548,-51.068622,-38.594631,-20.057269,-56.092271,-46.27185,-34.737719,-15.274131,-44.427007,-55.979781,-63.473693,85.314892,386.593196,-90.113503,184.342418
59,2.750747,-0.171332,-3.572216,43.783166,-34.352463,-66.302673,-89.473709,-104.644832,-54.925735,-91.487869,-105.216659,-107.862247,-40.561203,-80.593643,-97.523346,-102.827156,-28.497871,-66.228607,-84.660049,-93.894287,-19.951515,-49.625496,-66.286033,-76.250084,-8.566116,0.941286,20.30561,36.766195,20.88557,49.145288,53.505632,50.80336,41.005867,71.540075,74.746181,70.51098,55.2589,83.922737,86.362446,82.221636,63.943947,87.198436,89.670033,85.800517,-22.99411,-29.498325,-20.832893,-4.857067,-13.298183,-1.973751,-6.238724,-11.038696,8.591366,21.602463,13.797306,8.650715,28.840199,40.99807,31.987553,27.930325,45.722592,61.06604,68.178005,75.3055,-22.541753,-48.824396,-71.792832,-80.870476,-35.984781,-71.392405,-60.172751,-48.150958,-27.06812,-64.639133,-53.954713,-41.469057,-19.603335,-57.30093,-47.776677,-35.500695,-14.845392,-45.606921,-58.14333,-65.857833,88.081146,385.03185,-93.670212,226.73557
60,2.429878,0.164046,-3.484806,24.417718,-34.233215,-66.149917,-89.349197,-104.453247,-54.554351,-91.106575,-104.834518,-107.472759,-40.198173,-80.327842,-97.305107,-102.689643,-28.217651,-66.099037,-84.506973,-93.75444,-19.762756,-49.561477,-66.251335,-76.233604,-8.597004,0.876917,20.342426,36.920176,20.77169,49.072076,53.516883,50.8444,40.905967,71.300558,74.639291,70.563258,55.224727,83.73751,86.23981,82.20326,63.961558,87.091151,89.607208,85.881707,-22.002182,-28.799251,-20.424946,-3.588512,-10.932518,1.842865,-3.196861,-8.132584,10.608032,24.621082,16.119358,10.584744,29.8671,42.790936,33.408394,29.296829,45.644863,61.637489,69.170151,76.377743,-20.555748,-44.920349,-66.809524,-75.308937,-30.450412,-62.480227,-52.212196,-40.957936,-21.30178,-56.122195,-45.802429,-33.781995,-14.157887,-48.943858,-39.508642,-27.368264,-9.79753,-38.273535,-50.244284,-57.837831,90.678005,383.820986,-96.988037,249.778378
61,1.610482,0.057712,-4.338169,24.796595,-34.049034,-65.837906,-88.928421,-103.889054,-53.746353,-90.392441,-104.157807,-106.669464,-39.30217,-79.526116,-96.651261,-102.225586,-27.294182,-65.199395,-83.715798,-93.163559,-18.890076,-48.675087,-65.315346,-75.322769,-8.513357,0.964171,20.443326,37.013431,21.07917,49.456152,53.514117,50.471588,41.230762,71.581398,75.022773,70.931599,55.448177,84.069616,86.738099,82.751159,64.029916,87.318713,89.863497,86.109603,-21.430183,-28.258049,-18.65918,0.918995,-7.865135,7.009666,0.547211,-5.017845,13.479549,28.370304,18.374405,12.727455,31.861473,45.233322,34.378887,30.054073,46.490009,63.106682,70.253654,77.374981,-20.412451,-45.919756,-68.542834,-76.475107,-28.549772,-63.813592,-53.387196,-41.619185,-19.606435,-57.305593,-46.663737,-34.317891,-13.857719,-50.31284,-40.434047,-27.209146,-11.062574,-40.44489,-53.557331,-62.408808,92.634573,382.627163,-100.98012,273.323438
62,1.26606,0.258524,-3.749725,7.370467,-34.031708,-65.739258,-88.728035,-103.61879,-53.102234,-89.671074,-103.539734,-106.151665,-38.555031,-78.734482,-96.134697,-102.011857,-26.554093,-64.35569,-83.061173,-92.759697,-18.269623,-47.910119,-64.632843,-74.800461,-8.608662,1.016758,20.736529,37.576546,21.42596,49.837152,53.544004,50.257635,41.572156,71.867204,75.253177,70.996153,55.637949,84.418284,86.962809,82.751035,64.008229,87.436743,89.840687,85.876384,-19.71547,-25.510495,-15.987706,3.313751,-4.794285,10.742958,3.453472,-2.220806,15.982017,31.535774,21.128265,15.395073,33.810207,47.688869,36.524849,31.780471,47.689521,64.680805,71.0988,77.107486,-20.480166,-45.009974,-66.469304,-74.127899,-26.609772,-59.87562,-50.972828,-39.651817,-17.756183,-54.333446,-45.207612,-33.159403,-12.466173,-47.429664,-38.805787,-26.120869,-10.121226,-38.467654,-51.729444,-60.768025,94.391848,381.876166,-104.23863,279.684384
63,0.593101,0.357967,-3.340977,4.277007,-34.014381,-65.604126,-88.449692,-103.430077,-52.554886,-89.049454,-103.06176,-105.741943,-37.844627,-77.980934,-95.660248,-101.883041,-25.805443,-63.479805,-82.340286,-92.297035,-17.652466,-47.117111,-63.877991,-74.18763,-8.777883,1.035789,21.065338,38.117356,21.759413,50.313618,53.654377,50.065616,41.824727,72.097595,75.352311,70.931871,55.743418,84.750415,87.257692,82.935138,63.9983,87.64483,90.041721,86.004838,-19.029156,-22.959091,-11.4608,8.515514,-2.377361,15.346127,7.244122,1.793987,18.123402,34.662128,23.596802,18.044117,35.762661,50.756847,39.160114,34.153645,49.664429,67.314789,72.523281,77.111996,-21.459961,-47.744406,-69.11883,-75.933568,-24.279213,-61.084965,-53.775754,-43.062848,-15.139213,-55.817297,-48.892482,-37.426345,-10.587714,-48.942698,-42.809017,-30.870872,-9.351112,-39.086295,-53.084817,-62.204031,95.65432,381.300958,-106.910236,283.028216
64,-0.320389,0.488693,-2.795631,-0.489607,-34.075447,-65.635963,-88.275284,-102.929878,-52.190414,-88.473289,-102.464584,-105.175461,-37.265831,-77.290649,-95.116127,-101.639785,-25.137932,-62.683181,-81.587219,-91.731605,-17.01242,-46.317375,-63.089218,-73.505218,-8.879314,1.007902,21.25895,38.440261,21.915443,50.447048,53.774951,49.999086,41.989811,72.083899,75.444899,70.971749,55.802674,84.991007,87.519859,83.013363,64.038425,87.907368,90.279189,86.064019,-17.935479,-19.526505,-6.090466,14.607559,0.035659,20.289012,11.530574,6.0699,20.081897,38.357013,26.788696,21.40171,37.704929,54.673954,42.798248,37.390308,52.004173,71.048103,75.849517,79.537845,-23.376014,-51.296067,-72.346314,-77.867319,-23.54789,-63.628304,-57.262491,-46.727994,-13.742357,-57.699462,-52.011693,-40.850874,-9.341207,-50.4634,-45.931723,-34.412554,-8.806757,-39.811318,-54.652746,-64.144488,96.107185,381.007042,-108.932613,281.756
65,-0.664489,0.339627,-2.026577,-4.07076,-34.023171,-65.375885,-87.814614,-102.426774,-51.913651,-88.039216,-101.981003,-104.690209,-36.834252,-76.70929,-94.596749,-101.312119,-24.557969,-61.875435,-80.843606,-91.139397,-16.466424,-45.482872,-62.267464,-72.823357,-8.945375,0.919451,21.210069,38.508631,22.018295,50.595262,53.826253,49.98255,42.034419,72.070351,75.372676,70.830044,55.747914,85.059624,87.559194,82.95748,63.944911,88.007502,90.422549,86.184951,-16.036469,-15.238186,-0.04604,21.364208,3.027488,26.096065,16.110855,9.935062,22.012424,43.17398,30.752769,25.136661,39.058548,58.756404,46.181465,40.162582,53.155162,74.284172,79.502552,83.528926,-25.303701,-53.572904,-73.751543,-78.055991,-23.60491,-64.39722,-58.405133,-47.819396,-12.404164,-56.899856,-52.301586,-41.27857,-6.93057,-48.00051,-44.685785,-33.39387,-5.544928,-36.558479,-51.899962,-61.732492,96.119385,380.625146,-110.282501,276.963717
66,-1.117127,0.480727,-2.219101,-5.693067,-33.885452,-65.257759,-87.55117,-102.100433,-52.040268,-88.083321,-101.925613,-104.579109,-36.838234,-76.659164,-94.433601,-101.064194,-24.445816,-61.776237,-80.703232,-90.917244,-16.357681,-45.262115,-62.089439,-72.768127,-9.227203,0.617492,21.048097,38.427911,21.3496,50.363241,53.88257,50.142248,41.293439,71.51272,74.746762,70.177404,55.090297,84.506192,86.941801,82.274063,63.447202,87.496394,90.071127,86.093054,-12.902527,-8.514359,8.755348,30.509193,6.963649,34.831707,24.053043,16.703178,24.331523,50.349575,37.34254,30.489624,40.269287,64.612358,51.495483,43.959514,53.867054,78.018928,84.609809,89.232994,-27.520985,-55.847962,-74.656112,-77.591616,-25.479023,-63.181984,-58.185931,-48.282968,-11.586526,-53.074553,-50.024799,-39.892631,-3.397989,-41.815415,-39.954863,-29.626502,0.412209,-28.772901,-43.759294,-53.586859,95.626705,380.461513,-111.877155,270.62629
67,-1.280022,0.290449,-3.259724,-5.9612,-33.740432,-65.029953,-87.257721,-101.826164,-52.168716,-88.290069,-102.017234,-104.549469,-36.898292,-76.870399,-94.41188,-100.857078,-24.433433,-61.983924,-80.798103,-90.857231,-16.369011,-45.460212,-62.330658,-73.078788,-9.407095,0.100369,20.349799,37.644768,20.384108,49.763558,53.911543,50.442627,40.302617,70.773098,74.172632,69.829206,54.366977,83.772215,86.445155,82.076351,63.088729,87.095239,89.983849,86.43819,-7.699093,1.576401,21.63335,44.260631,13.170937,46.473106,39.990887,34.317078,28.255325,60.735592,49.463756,41.522827,42.259952,72.241951,60.983002,52.636013,54.391846,82.04821,90.238003,94.742466,-29.965165,-57.731374,-74.146757,-75.427856,-27.017102,-59.340256,-57.923183,-51.41895,-9.981274,-47.127704,-47.478014,-39.900633,1.493854,-33.14415,-34.931998,-27.704248,8.03489,-17.83468,-32.574367,-42.787478,94.942772,380.208852,-114.54079,264.12198
68,-1.125114,0.197577,-3.215675,-6.602712,-33.607544,-64.845039,-87.078369,-101.50692,-52.419479,-88.550011,-102.096588,-104.486618,-37.146309,-77.205963,-94.45063,-100.594803,-24.612694,-62.329056,-80.93589,-90.695366,-16.491554,-45.725578,-62.555008,-73.201881,-9.584368,-0.451877,19.508808,36.653674,19.532866,49.010055,53.601963,50.365278,39.494452,70.093041,73.670032,69.570892,53.791055,82.982118,85.88535,81.811972,62.752386,86.502818,89.554301,86.314788,-1.079407,13.78672,37.05804,60.246425,19.331749,57.813755,57.565818,55.581813,31.651004,71.061023,61.172115,51.729217,43.295517,79.620575,69.856052,60.125965,53.647625,85.412921,94.731079,98.086784,-31.76062,-58.308814,-71.610125,-70.034896,-28.247948,-54.34161,-55.44446,-51.373119,-8.045967,-39.725028,-42.639524,-37.031314,6.881441,-22.545903,-27.400979,-22.615273,16.504193,-5.557438,-20.349786,-30.849777,94.266037,380.043957,-117.308086,257.156796
69,-0.956406,0.117993,-2.259648,-10.068837,-33.61988,-64.787132,-87.025795,-101.314155,-52.694915,-88.827003,-102.239364,-104.523903,-37.468963,-77.550682,-94.542709,-100.479332,-24.861923,-62.620514,-81.019523,-90.58976,-16.640464,-45.93988,-62.706939,-73.288261,-9.785922,-1.009323,18.728196,35.761503,19.009864,48.426871,53.172612,50.049659,38.989,69.619761,73.325786,69.429705,53.404127,82.402528,85.42836,81.569317,62.44808,85.975629,89.122603,86.13271,6.573132,27.029743,52.908051,75.490357,27.087502,70.180813,76.754883,79.158131,35.506291,80.364247,71.169731,59.900768,43.528839,85.277035,76.253609,64.527409,51.101429,86.439343,94.846619,95.379032,-32.059714,-54.175427,-61.898477,-57.735153,-28.965685,-46.322701,-48.489906,-45.959016,-6.273298,-28.857721,-33.744118,-30.818507,11.966044,-9.121289,-16.237505,-14.191269,25.163639,8.917204,-4.038353,-12.891312,93.568679,379.978691,-119.308686,246.9047
70,-0.99472,0.400945,-0.348398,-15.800139,-33.599579,-64.855179,-87.161019,-101.207611,-52.928513,-89.073647,-102.496239,-104.740402,-37.715653,-77.768326,-94.569306,-100.31527,-25.061257,-62.830788,-81.077225,-90.511597,-16.724648,-46.128754,-62.748985,-73.158119,-10.1707,-1.669929,17.924663,34.953944,18.543587,47.947478,52.895082,49.82001,38.563984,69.313133,73.12532,69.286963,53.037664,81.942821,85.117571,81.423056,62.11632,85.503301,88.622376,85.623516,14.497164,40.584509,68.694923,90.483787,36.091822,81.513485,94.534956,100.855242,40.697908,88.102066,79.927849,67.657207,44.999308,89.079872,80.875031,68.198885,49.430506,85.519524,91.074183,88.219397,-30.95484,-48.402641,-50.402836,-43.533602,-29.622284,-36.902368,-39.243406,-38.304176,-5.61704,-16.828828,-23.000362,-23.307107,15.292501,4.59423,-4.086698,-5.439533,31.700265,23.127215,12.484154,5.120017,92.625429,380.634226,-119.605614,231.359151
71,-0.573532,0.355966,1.794434,-20.829106,-33.853226,-65.243546,-87.667259,-101.373207,-53.186188,-89.270233,-102.591728,-104.829552,-37.952545,-78.102722,-94.768112,-100.43145,-25.275101,-63.145226,-81.301392,-90.687905,-16.855156,-46.359375,-63.034355,-73.486084,-10.249666,-2.044,17.266058,34.324646,18.007767,47.349414,52.545933,49.628955,38.113614,68.911793,72.835105,69.12624,52.762097,81.533688,84.819687,81.266383,62.016038,85.265673,88.370756,85.31332,21.762285,52.707395,82.540374,103.517795,45.119745,89.914398,108.884634,118.89937,46.615476,92.801536,85.793346,73.805854,47.536428,89.993385,82.375648,70.092023,48.611166,82.631733,83.645319,77.465486,-28.269931,-40.733375,-37.29032,-28.210731,-29.26465,-26.883993,-27.800178,-27.667754,-5.77659,-4.581485,-10.684192,-13.920402,16.384706,17.259821,8.317552,3.902725,35.026118,35.122257,26.574969,20.108213,91.924587,381.527186,-117.93849,211.067039
72,-0.724983,0.406874,2.8465,-21.412326,-33.83947,-65.277031,-87.866158,-101.46872,-53.267785,-89.325188,-102.676003,-104.919526,-38.114045,-78.226044,-94.88411,-100.54596,-25.451615,-63.265458,-81.404297,-90.821434,-16.960556,-46.386681,-62.988877,-73.37407,-10.322681,-2.231364,16.895123,33.865927,17.734002,46.977342,52.090869,49.122218,37.907219,68.677561,72.609395,68.910286,52.592455,81.221367,84.552023,81.066719,61.832935,84.967196,87.994288,84.799642,27.530531,60.394037,89.759548,108.825909,52.362894,94.860683,111.046068,119.607931,51.124289,94.704735,87.282165,75.706352,49.199026,90.078335,81.235828,68.265272,47.87388,80.824413,78.757891,70.558874,-23.003609,-30.481065,-24.296119,-14.854475,-27.236841,-19.489764,-17.469198,-16.077856,-6.71411,2.286346,-0.970198,-4.245149,13.897807,22.981256,17.14176,12.939935,32.690693,38.630187,32.29223,26.925817,91.012534,382.769698,-115.27906,190.490351
73,-1.107216,0.429178,5.82867,-32.336838,-33.928963,-65.393257,-87.97934,-101.445397,-53.218575,-89.34002,-102.754418,-105.030075,-38.069115,-78.234421,-94.987702,-100.724945,-25.471711,-63.334969,-81.512604,-90.970345,-17.041214,-46.460129,-63.024422,-73.316712,-10.285742,-2.270588,16.836682,33.811586,17.363079,46.522204,51.855229,48.970225,37.684263,68.323014,72.314437,68.584861,52.471066,80.912046,84.164971,80.591463,61.722451,84.757528,87.669591,84.279691,30.452002,64.692702,92.978119,110.587807,61.728865,103.527214,119.042399,126.751826,59.164496,98.504048,89.772229,78.87687,55.294837,91.624054,80.972397,68.237017,51.707926,81.516301,75.615138,66.232974,-21.633973,-26.728876,-18.015022,-8.119235,-30.386563,-19.072492,-13.461158,-9.961305,-11.661862,6.364868,5.94315,1.369939,8.841751,26.188411,23.527506,18.642795,28.994436,41.040145,37.408968,32.680226,89.599543,384.350333,-109.756165,159.30497
74,-1.705674,0.540217,9.037846,-38.46887,-33.976432,-65.479454,-88.012687,-101.161811,-53.043479,-89.5456,-102.9841,-105.212413,-37.820159,-78.341949,-95.207565,-100.913566,-25.312339,-63.523452,-81.757461,-91.085014,-17.057075,-46.741699,-63.349411,-73.473953,-10.189226,-2.223632,16.94314,34.158228,16.300713,45.668308,51.499621,48.714319,36.752499,67.55106,71.907626,68.210246,51.769631,80.273115,83.549765,79.847086,61.258656,84.369748,87.219382,83.593138,29.804815,63.962935,91.142876,107.296555,67.555269,108.11673,122.326841,128.286444,65.977976,100.990254,92.3913,82.428887,62.376818,93.12862,82.035977,70.189333,58.113344,83.191338,75.111174,65.740534,-21.572853,-28.343594,-20.71333,-10.84433,-34.800279,-24.597271,-17.845036,-13.284774,-17.990643,2.821246,5.036283,1.233254,1.843404,22.544791,22.361806,17.864894,22.522931,37.551586,35.394928,30.525161,87.323621,386.678184,-101.288567,122.623734
75,-1.742546,0.426004,7.477736,-33.400415,-34.085724,-65.585724,-88.046058,-100.888847,-53.018577,-89.638298,-102.960434,-105.012657,-37.743026,-78.438102,-95.162155,-100.649643,-25.31417,-63.685432,-81.779022,-90.855949,-17.246681,-47.11869,-63.723243,-73.737716,-10.262017,-2.326756,16.727643,33.910782,15.184599,44.709706,50.992354,48.411273,35.733209,66.685715,71.302805,67.728247,51.025711,79.501173,82.762286,79.022224,60.808249,83.980251,86.854498,83.200257,29.71677,62.382042,87.881813,102.81649,71.054592,109.782463,124.377685,130.882026,70.765697,103.534332,96.078209,86.800151,68.174194,95.877674,85.45784,74.078361,64.457428,87.065712,78.84526,69.668003,-21.976879,-30.285163,-24.301931,-15.608627,-40.356624,-33.228743,-26.409849,-21.227297,-25.643224,-4.35199,0.992823,-1.121808,-6.755946,15.183506,18.33734,15.082248,13.953499,30.736465,30.970598,27.119601,84.956731,389.313849,-94.435175,91.43298
76,-2.107818,0.34716,5.36324,-28.412437,-33.925965,-65.311753,-87.820473,-100.460507,-52.95266,-89.815041,-103.037567,-104.831978,-37.793015,-78.54142,-95.10775,-100.299843,-25.524971,-63.953087,-81.889183,-90.60521,-17.659058,-47.675217,-64.2071,-73.978386,-10.410193,-2.698431,16.213695,33.452076,14.18223,43.36356,50.116042,47.765488,34.890515,65.620545,70.484403,66.937027,50.373171,78.552502,81.764623,77.921252,60.291003,83.366935,86.21169,82.476432,28.313765,58.504791,82.193313,95.944061,71.83437,109.469899,125.27178,133.18376,73.225413,105.286091,98.883377,89.588907,72.168072,98.684375,89.223105,77.649978,69.624424,91.507801,84.149364,74.868363,-23.135726,-33.474366,-29.603188,-22.30683,-45.701276,-43.419644,-37.591021,-32.057386,-32.540485,-13.851533,-5.992544,-5.947932,-14.562431,5.735813,11.614134,10.023664,5.902063,22.003782,24.359066,22.012632,81.631165,392.190176,-90.289683,65.54971
77,-2.14016,0.150153,4.67734,-27.862214,-33.876343,-65.226219,-87.615463,-99.92989,-53.178932,-90.045296,-103.033974,-104.556827,-37.965889,-78.666527,-94.954742,-99.904209,-25.656853,-64.116897,-81.772247,-90.175529,-17.769813,-48.029114,-64.435341,-74.004181,-10.540783,-3.01016,15.73293,33.101518,12.816891,41.932469,49.472528,47.471407,33.73015,64.50905,69.823426,66.376123,49.553977,77.640485,81.039709,77.196685,59.790577,82.737277,85.611376,81.842835,25.574691,54.483615,77.527883,90.722763,71.835434,109.451193,129.713442,141.038425,75.127459,105.948063,99.580468,90.125879,75.589749,99.717004,90.250679,78.978594,73.982174,94.011633,86.26031,76.919175,-26.640527,-39.562273,-36.349538,-29.000562,-53.193279,-53.955751,-47.678581,-40.980999,-39.739928,-20.443885,-10.564686,-9.544792,-20.581869,0.194045,8.164459,7.565177,1.346376,17.978067,22.097108,20.941282,77.718944,394.9529,-87.384404,40.300067
78,-1.811897,-0.144336,0.989402,-16.814149,-33.75618,-64.999558,-87.432015,-99.835899,-53.259888,-90.002701,-102.916992,-104.521889,-38.101982,-78.647667,-94.747124,-99.658161,-25.774407,-64.187164,-81.637688,-89.898926,-17.844177,-48.392716,-64.750763,-74.332443,-10.608436,-3.252752,15.07929,32.260812,12.080258,40.957863,48.686384,46.831982,33.019205,63.741629,69.206132,65.79415,49.004238,77.000936,80.535567,76.736064,59.413036,82.225923,85.115089,81.343769,23.98231,50.94803,73.117488,85.506729,69.176857,105.250813,125.905278,138.000266,73.42558,103.776901,98.672678,89.261708,74.887392,98.57075,89.949205,78.66245,74.325988,94.06162,87.404272,78.450579,-26.82315,-40.333438,-38.522706,-32.646072,-55.832452,-58.983679,-53.808812,-47.586926,-43.509605,-25.908528,-14.644246,-11.926024,-24.974829,-5.095791,4.514199,5.338943,-3.305313,13.05253,18.486322,18.566176,73.925085,397.280816,-88.376964,25.95817
79,-1.221405,-0.184337,-3.676376,-8.13985,-33.591957,-64.796242,-87.377472,-99.949242,-53.454918,-89.799797,-102.724411,-104.450958,-38.328804,-78.598709,-94.468163,-99.324097,-25.885231,-64.084625,-81.325493,-89.579704,-17.802246,-48.42112,-64.688759,-74.387673,-10.839976,-3.588304,14.349314,31.183266,11.870294,40.442518,48.236458,46.552598,32.8332,63.530985,68.975482,65.558881,48.818925,76.672239,80.324306,76.656171,59.189721,81.818827,84.802125,81.168545,24.056115,49.800354,71.334317,83.797931,67.347965,102.43941,123.658411,136.844678,71.570169,102.169132,97.503417,88.299486,73.251098,97.763531,89.498109,78.325783,73.340778,94.395691,88.54982,79.914764,-26.563896,-39.763049,-38.636896,-34.161316,-57.105972,-60.895932,-56.139157,-50.45712,-45.582795,-27.614548,-15.555145,-12.583675,-27.452667,-7.284087,3.684704,5.073016,-6.041915,10.855742,17.320789,18.073574,70.887777,398.92292,-93.869243,19.644761
80,-0.665474,-0.256474,-4.230761,-8.220327,-33.459297,-64.642387,-87.337463,-100.044445,-53.664528,-90.052391,-102.993324,-104.84943,-38.658142,-79.008179,-94.905716,-99.877464,-26.224823,-64.511101,-81.734802,-90.033486,-18.057518,-48.807243,-65.181793,-75.171501,-10.831566,-3.892845,13.725795,30.465307,11.68282,39.926544,47.648606,46.038155,32.687926,63.077527,68.451888,65.029421,48.705304,76.25441,79.92357,76.268156,59.087858,81.438913,84.459002,80.856125,22.255819,47.207445,68.549527,80.885582,65.126609,100.573493,121.488392,134.334276,69.41251,99.71117,94.38458,84.935505,71.09591,95.769471,87.032131,75.734991,71.239814,93.098139,87.027334,78.231931,-26.594314,-40.113443,-39.57345,-35.571263,-57.025169,-61.260919,-56.904927,-51.595826,-45.576867,-28.017259,-16.271357,-13.494011,-27.536636,-7.841126,3.015234,4.535896,-6.162595,10.067956,16.378346,17.130059,68.450506,399.620913,-99.871801,12.378901
81,0.313339,-0.847623,-4.230761,-8.220327,-33.611687,-64.793312,-87.515213,-100.49097,-54.057907,-90.23362,-103.342403,-105.876102,-39.064957,-79.370361,-95.346062,-100.798073,-26.584831,-64.92794,-82.236832,-90.905937,-18.33593,-49.301834,-65.760246,-76.144386,-10.559185,-3.639817,13.767353,30.407385,11.750572,39.761473,47.873661,46.913282,32.769474,62.955039,68.494285,65.40984,48.864484,76.260301,80.157715,76.774534,59.32819,81.597463,84.718601,81.25954,20.455523,44.614537,65.764737,77.973232,62.905254,98.707575,119.318374,131.823874,67.254852,97.253208,91.265742,81.571525,68.940722,93.775411,84.566152,73.1442,69.138851,91.800587,85.504849,76.549098,-26.624731,-40.463838,-40.510005,-36.98121,-56.944366,-61.625906,-57.670697,-52.734532,-45.570939,-28.41997,-16.987569,-14.404347,-27.620605,-8.398165,2.345764,3.998777,-6.283275,9.280169,15.435902,16.186543,67.503496,399.235535,-105.362911,4.620819
82,1.173638,-1.257029,-4.230762,-8.220327,-33.875245,-65.072869,-87.933953,-101.11583,-54.419495,-90.338997,-103.893448,-107.523217,-39.619721,-79.705765,-96.075943,-102.33965,-27.272439,-65.409188,-83.044304,-92.27575,-19.104332,-49.984841,-66.551949,-77.287995,-10.375847,-3.432705,13.903501,30.463121,11.9326,39.490031,47.812455,47.522944,33.015685,62.832378,68.608487,65.960753,49.154094,76.440564,80.495837,77.307922,59.640252,82.065828,85.320816,81.993235,18.655228,42.021629,62.979948,75.060883,60.683899,96.841658,117.148356,129.313473,65.097194,94.795247,88.146906,78.207545,66.785535,91.781351,82.100175,70.553409,67.037888,90.503036,83.982364,74.866266,-26.655149,-40.814232,-41.446559,-38.391157,-56.863563,-61.990893,-58.436467,-53.873237,-45.565011,-28.822681,-17.703781,-15.314683,-27.704575,-8.955205,1.676294,3.461658,-6.403956,8.492383,14.493459,15.243027,67.955,398.094455,-110.315807,-3.483559
83,1.294715,-2.372982,-4.230761,-8.220327,-33.84375,-65.113884,-87.757507,-100.800258,-54.628738,-90.768493,-104.627472,-108.985004,-39.949104,-80.234619,-96.87474,-103.68441,-27.764968,-66.051109,-84.014442,-93.661033,-19.771064,-50.605819,-67.234016,-78.104164,-10.26645,-3.051223,14.640455,31.409693,11.460506,38.85005,47.983047,48.627474,32.572997,62.315379,68.713463,66.752838,48.889037,76.297846,80.808356,78.050557,59.623333,82.521188,86.092091,83.031494,16.854932,39.42872,60.195159,72.148533,58.462544,94.975741,114.978338,126.803071,62.939535,92.337284,85.028068,74.843565,64.630348,89.787291,79.634197,67.962617,64.936924,89.205484,82.459878,73.183433,-26.685567,-41.164627,-42.383114,-39.801105,-56.78276,-62.35588,-59.202236,-55.011943,-45.559084,-29.225392,-18.419994,-16.225019,-27.788544,-9.512244,1.006824,2.924539,-6.524636,7.704596,13.551016,14.299512,68.809295,395.681773,-114.986988,-11.743586
84,1.655915,-4.017457,-4.230761,-8.220327,-34.437241,-65.521271,-87.197525,-100.248173,-55.465462,-91.206894,-105.229718,-110.232994,-41.236977,-80.836808,-97.71286,-104.947747,-29.320496,-66.695,-84.805435,-94.551293,-21.29789,-51.179421,-67.709015,-78.481041,-10.736272,-2.970824,15.186081,31.897324,10.830491,37.554724,46.939317,48.404691,31.844712,61.000565,67.404082,66.224934,48.138695,75.343518,79.71583,77.376959,58.70834,81.506098,85.137788,82.614345,15.054635,36.835811,57.410369,69.236183,56.241188,93.109823,112.80832,124.292669,60.781876,89.879322,81.90923,71.479584,62.47516,87.793231,77.168219,65.371826,62.835961,87.907932,80.937393,71.5006,-26.715985,-41.515021,-43.319668,-41.211052,-56.701957,-62.720868,-59.968006,-56.150649,-45.553156,-29.628103,-19.136206,-17.135355,-27.872514,-10.069283,0.337354,2.387419,-6.645316,6.916809,12.608572,13.355996,70.135123,391.625234,-119.547836,-20.002995
85,0.814476,-5.886481,-4.230761,-8.220327,-34.501808,-64.400826,-84.456002,-97.409958,-55.439049,-89.669792,-103.937725,-109.680645,-42.180657,-79.643509,-96.536866,-104.146042,-30.869408,-66.000206,-83.942711,-93.479004,-22.731743,-50.695999,-66.581223,-76.465599,-9.374824,-0.748823,17.265193,33.416939,12.228878,36.814311,45.447043,47.114761,31.072548,58.001594,64.055431,63.74353,45.575768,71.065535,75.291783,73.820271,54.775554,76.458779,80.331889,78.995178,13.254339,34.242902,54.625579,66.323834,54.019833,91.243905,110.638301,121.782267,58.624217,87.42136,78.790393,68.115604,60.319972,85.799171,74.702241,62.781034,60.734997,86.61038,79.414907,69.817767,-26.746403,-41.865416,-44.256223,-42.620999,-56.621154,-63.085855,-60.733776,-57.289355,-45.547228,-30.030814,-19.852418,-18.045691,-27.956483,-10.626323,-0.332116,1.8503,-6.765996,6.129023,11.666129,12.412481,70.36306,385.868287,-124.365136,-28.093788
86,0.531795,-13.086086,-4.230761,-8.220327,-33.578155,-63.089275,-82.935402,-95.577587,-57.068206,-90.61849,-102.542301,-106.647108,-46.201252,-82.108698,-96.190315,-101.854751,-36.579426,-70.021059,-84.936905,-92.027172,-29.121071,-55.744926,-68.725445,-75.838691,-3.902879,6.092036,22.253286,35.449633,16.187031,37.061109,44.186076,45.435138,29.41279,52.980322,58.391301,58.250207,39.088048,61.927074,65.895859,64.725189,44.399127,64.636077,68.868444,68.167972,11.454043,31.649994,51.840789,63.411484,51.798477,89.377988,108.468283,119.271865,56.466559,84.963398,75.671555,64.751623,58.164784,83.80511,72.236262,60.190243,58.634033,85.312828,77.892421,68.134934,-26.77682,-42.21581,-45.192778,-44.030946,-56.540351,-63.450842,-61.499546,-58.428061,-45.5413,-30.433525,-20.56863,-18.956027,-28.040453,-11.183362,-1.001587,1.313181,-6.886676,5.341236,10.723686,11.468965,70.019634,372.567779,-129.471118,-36.528537
87,0.258087,-20.456466,-4.169204,-4.620645,-31.760833,-61.65176,-82.658249,-94.909584,-60.326293,-94.132204,-101.080787,-101.294775,-53.181713,-88.252424,-96.591591,-98.021186,-46.275661,-78.798322,-87.889595,-90.391513,-40.290733,-66.417617,-74.345729,-77.031578,6.029958,17.960749,30.507488,38.408108,23.098174,38.717946,43.779399,44.396187,27.115686,46.093014,50.468562,49.952508,28.836602,47.983448,51.637726,50.416889,27.677288,46.177038,50.933962,50.46666,9.548489,28.532617,47.945599,59.14262,48.913719,85.785068,104.079493,114.419297,53.827445,83.255253,74.538469,63.881205,55.949373,82.715714,72.610777,61.203085,56.572494,84.643869,78.916342,69.977609,-27.130623,-42.562272,-45.919908,-45.277001,-56.60744,-64.080544,-62.639349,-59.886702,-45.427827,-32.308056,-22.171109,-20.160539,-28.019393,-13.840411,-3.302928,-0.302147,-7.080637,2.785574,8.503616,10.094766,69.241178,351.831173,-134.676865,-41.429322
88,-0.972885,-31.695326,-2.809934,-2.012797,-30.812553,-60.472103,-81.813766,-93.364883,-59.745643,-94.939997,-98.246795,-94.975141,-55.645763,-91.431638,-95.244095,-92.413868,-51.620739,-85.17386,-89.175018,-86.584957,-47.441871,-74.415458,-78.727215,-77.100906,7.54582,18.288891,28.99821,35.385203,17.404675,31.884325,37.649251,38.081578,17.613953,35.549305,41.104718,40.527234,17.118338,35.441618,39.876125,38.252701,15.14666,32.484638,37.785621,37.559898,9.602181,28.682649,48.233153,60.239273,47.757443,84.108614,102.748964,114.383393,51.790998,83.795872,79.65874,72.385809,53.671016,83.269892,78.078064,70.070859,54.363362,83.710809,82.299627,76.941524,-26.845834,-42.042588,-45.524537,-44.603292,-55.699312,-62.532117,-61.309149,-58.643763,-44.656089,-33.546501,-22.69726,-18.582033,-27.657869,-15.776095,-4.499542,0.622613,-7.186915,0.657287,6.689346,9.94268,67.453291,319.835027,-138.301801,-43.742939
89,-1.339462,-37.568426,1.370776,-2.313434,-28.746403,-58.056267,-80.435154,-91.50182,-58.525829,-95.823332,-96.744885,-90.620007,-57.266132,-94.826237,-95.259659,-88.933405,-55.995438,-91.516731,-91.501476,-84.602085,-53.738777,-82.392506,-83.807121,-78.601341,6.78797,14.576883,23.015707,28.379162,7.648221,19.832476,27.044297,27.981298,5.565256,21.152586,28.743452,28.674774,4.334317,20.678299,26.809714,25.560781,3.118699,18.846535,24.993832,25.09228,9.646454,28.388591,47.56777,60.040649,45.951947,80.551844,98.976022,111.494125,49.19067,82.696612,82.878054,78.851647,50.900981,82.383457,81.734801,76.999202,51.691427,81.712098,84.581236,82.915378,-25.874141,-40.27432,-43.616352,-42.409946,-53.19002,-58.920295,-57.895416,-55.36852,-42.623484,-33.160189,-21.992528,-16.035188,-26.373865,-16.33736,-4.659291,2.16867,-6.753221,-0.141554,6.302979,11.105178,65.428202,281.993899,-137.616652,-46.329075
90,-0.745857,-43.259313,5.551484,-2.614069,-26.76907,-56.385018,-80.450032,-91.572911,-58.125904,-98.422331,-98.149533,-89.81876,-59.178463,-99.987465,-98.383004,-89.306288,-60.13884,-98.726715,-95.925259,-85.625782,-59.710121,-90.92014,-90.481133,-82.884545,1.291776,4.572563,11.16106,16.282738,-8.30953,1.562178,11.628517,14.334852,-9.229834,4.249139,14.709473,15.775483,-8.262137,6.513113,14.828405,14.366271,-6.492012,7.853541,14.786711,14.947775,9.681309,27.650445,45.949451,58.546749,43.497234,75.11476,92.76067,105.751494,46.026463,79.957476,84.196413,83.278723,47.639271,80.056408,83.580993,81.988114,48.556693,78.647737,85.761172,87.899175,-24.215546,-37.257468,-40.195355,-38.696965,-49.079567,-53.245083,-52.398153,-50.060975,-39.330015,-31.149123,-20.056916,-12.520005,-24.167384,-15.52421,-3.782178,4.336022,-5.779556,0.389049,7.344513,13.582256,65.176077,238.61232,-131.571436,-49.06541
91,0.31129,-37.847185,9.732193,-2.914705,-26.552249,-56.372348,-81.327037,-93.426464,-56.03104,-98.540565,-101.031085,-93.305242,-56.415275,-100.59078,-102.023311,-93.442079,-57.595035,-99.818647,-99.813434,-89.879425,-58.001495,-92.313503,-94.733539,-88.496326,-8.177496,-10.513212,-4.694785,1.884869,-26.193599,-18.101661,-4.46826,1.00705,-22.889303,-11.201611,2.651001,5.951159,-16.805097,-3.942758,7.044326,8.929591,-9.310289,2.518101,9.932313,11.493308,9.706746,26.468209,43.378195,55.757572,40.393302,67.79736,84.102905,97.1555,42.298375,75.578461,83.613816,85.667035,43.885883,76.288747,83.616636,85.037595,44.959158,74.517726,85.839433,91.892913,-21.870047,-32.992033,-35.261546,-33.464347,-43.36795,-45.506478,-44.817359,-42.721126,-34.775679,-27.5133,-16.890422,-8.036485,-21.038424,-13.336641,-1.868202,7.124672,-4.265919,2.249098,9.813948,17.373916,66.805389,201.167485,-120.521221,-51.577765
92,-1.328498,-36.50425,13.851345,-6.815023,-26.827252,-55.845669,-79.846104,-92.74236,-51.445256,-95.697934,-102.782456,-97.670111,-49.837464,-97.267954,-103.999043,-97.56692,-50.052098,-95.35322,-100.447529,-92.555958,-50.251694,-86.748356,-93.894459,-90.369175,-21.495973,-30.509687,-24.563203,-14.975204,-48.200729,-38.855623,-19.836196,-11.089337,-37.583079,-25.482506,-7.309644,-0.253714,-23.638268,-11.197548,3.309106,8.875226,-8.161175,1.698179,10.108425,14.117515,9.828023,25.366353,40.964404,53.029633,37.303554,60.326647,75.2215,88.048308,38.487862,68.809752,79.144511,83.52302,39.701042,70.175808,79.001239,82.544011,40.859397,68.693472,82.269614,91.371084,-18.51426,-27.481946,-29.024348,-26.875985,-35.907278,-35.439766,-34.779001,-33.029038,-29.068023,-20.780902,-11.60678,-2.290451,-17.092016,-7.674646,2.714508,11.612826,-2.13903,7.206467,14.988911,22.910841,67.517968,165.670607,-104.628799,-57.385416
93,0.326522,-26.987746,16.672783,-9.723507,-28.523288,-56.973003,-80.717067,-95.497032,-51.578739,-95.565227,-106.589572,-104.290185,-48.703628,-96.893274,-108.139823,-104.790235,-47.93478,-93.499998,-103.187244,-98.756584,-48.037811,-84.778553,-95.117511,-94.718936,-25.133035,-38.147225,-35.30481,-28.121619,-57.376229,-51.650456,-31.657065,-20.509208,-45.231831,-36.821209,-17.288603,-7.23989,-29.304208,-20.902428,-4.793678,4.490132,-11.590386,-5.315334,3.646337,10.052102,7.980635,20.553,33.414933,43.6409,31.836106,49.059154,60.839424,71.27109,33.510802,58.1524,66.520892,69.965221,35.087471,60.978682,67.482523,70.256064,36.44443,62.067669,75.238756,84.737957,-15.110162,-21.589421,-22.396839,-20.687751,-27.82066,-25.487791,-25.127116,-24.006227,-22.757766,-13.059833,-6.168584,1.640903,-12.563593,-1.359598,7.229355,14.182191,0.440148,13.065907,21.185976,28.540234,69.91987,140.15395,-85.880636,-65.637834
94,-0.054519,-21.956928,16.672783,-9.723506,-31.064781,-58.960945,-82.113648,-97.944729,-51.595299,-94.886284,-108.543629,-108.725647,-47.708542,-96.441433,-110.865841,-110.153515,-46.350861,-92.149132,-105.337864,-104.080227,-46.738312,-83.478424,-96.205067,-98.335522,-23.700234,-38.306843,-37.651399,-33.061825,-62.788288,-59.119603,-38.801482,-25.965671,-51.787748,-45.402015,-24.82164,-11.98405,-35.75074,-29.884389,-12.387206,0.282157,-17.208499,-13.245809,-3.543837,5.348945,6.133248,15.739648,25.865462,34.252167,26.368659,37.791661,46.457348,54.493871,28.533742,47.495049,53.897274,56.407421,30.4739,51.781556,55.963808,57.968118,32.029462,55.441867,68.207899,78.104831,-11.706066,-15.696898,-15.769331,-14.499518,-19.734043,-15.535817,-15.475231,-14.983416,-16.447509,-5.338765,-0.730389,5.572255,-8.035171,4.955448,11.7442,16.751554,3.019326,18.925345,27.383039,34.169625,71.936365,120.349842,-67.136839,-73.20852
95,-0.196312,-16.94974,16.672783,-9.723507,-33.844162,-61.536186,-84.167725,-100.886284,-51.605415,-94.41346,-109.51878,-111.493927,-46.538818,-96.057724,-112.400013,-113.53878,-44.643929,-91.243927,-106.991135,-108.284054,-45.519539,-82.608605,-97.167652,-101.120991,-17.521612,-31.997909,-33.279372,-31.416245,-63.152808,-60.079706,-39.653713,-25.66546,-55.377696,-49.31391,-27.992333,-13.204857,-40.927223,-36.313152,-17.683058,-2.355235,-22.925971,-20.523713,-10.239343,0.673246,4.285861,10.926295,18.315991,24.863434,20.901211,26.524167,32.075271,37.716653,23.556682,36.837697,41.273656,42.849622,25.860328,42.58443,44.445092,45.680171,27.614495,48.816065,61.177041,71.471704,-8.301968,-9.804373,-9.141822,-8.311283,-11.647424,-5.583843,-5.823346,-5.960604,-10.137252,2.382305,4.707807,9.503609,-3.506748,11.270496,16.259047,19.320919,5.598504,24.784785,33.580104,39.799018,73.20262,105.728673,-49.001489,-80.603456
96,-2.476776,-16.37424,10.820077,-5.840526,-35.642441,-62.428391,-83.943169,-100.479332,-51.209793,-93.33696,-108.406872,-111.301049,-46.41893,-95.762398,-111.741463,-113.542671,-44.705818,-90.856385,-106.364296,-108.396183,-46.092568,-82.19751,-96.147652,-99.957207,-11.761342,-25.538007,-28.043937,-28.547913,-64.70804,-60.768389,-40.665697,-26.5776,-59.772089,-52.91964,-31.382634,-15.381416,-46.845215,-42.031733,-22.847134,-6.160474,-29.521983,-27.396107,-16.437243,-4.324239,3.699403,9.030187,14.960013,20.354796,18.501831,21.026078,24.699495,28.806112,21.270051,31.710369,35.381441,36.797139,23.550637,37.980988,38.892765,40.198826,25.148562,45.14606,57.283801,68.031355,-6.592115,-6.655826,-5.548584,-4.981928,-6.868386,0.293289,-0.01494,-0.50146,-6.308495,7.148104,8.206738,12.10601,-0.660718,15.32503,19.348568,21.228722,7.370337,28.657684,37.74658,43.562906,71.87661,91.693184,-37.030646,-84.105231
97,-2.136544,-11.096919,4.967372,-1.957547,-37.227676,-63.293724,-84.16452,-100.880985,-50.42736,-91.497047,-107.392765,-111.27349,-45.893966,-94.718273,-110.875316,-113.54314,-44.625251,-90.453849,-106.262203,-109.328395,-46.980125,-82.453033,-96.288723,-100.440067,-6.423562,-19.29312,-22.263568,-24.413569,-64.8793,-61.724045,-43.533689,-29.754881,-62.410117,-56.210122,-35.315191,-19.145407,-50.891905,-46.854064,-27.821513,-10.670774,-34.217651,-32.743848,-21.604549,-8.916433,4.373874,10.051322,15.797527,20.726253,19.170517,21.29739,24.330018,27.762248,21.673848,32.113062,36.220628,38.249972,23.544823,37.97123,39.306826,41.52408,24.631662,44.431852,56.528177,67.783782,-6.576504,-6.251254,-4.989616,-4.511449,-5.396927,2.095581,1.949987,1.394017,-4.961237,8.958636,9.766407,13.37946,0.502923,17.119054,21.012765,22.474967,8.334827,30.544043,39.882469,45.461291,70.37717,82.723563,-31.42617,-83.93548
98,-2.939758,-9.069234,-0.885333,1.925434,-37.00692,-62.674805,-83.193718,-99.328422,-48.983734,-89.334755,-105.337211,-109.677063,-44.502342,-93.188198,-109.014129,-111.629196,-43.268257,-89.194839,-104.972969,-108.137089,-45.888817,-81.269028,-95.071541,-99.036014,-2.299141,-14.126068,-16.3595,-18.506815,-64.664352,-62.113455,-44.558511,-30.812319,-64.064391,-58.417674,-37.657285,-21.008867,-53.917564,-50.251608,-30.833654,-13.073001,-37.993435,-36.48596,-24.96429,-11.821505,6.309272,13.9897,20.828533,25.977804,22.90727,27.338105,30.966841,34.585061,24.768073,38.045777,43.791217,47.208121,25.842888,42.555156,45.687274,49.655935,26.063795,46.673441,58.910169,70.728986,-8.255139,-8.59066,-7.464918,-6.89985,-7.233047,-0.176971,0.071435,-0.274174,-6.09548,7.813898,9.386811,13.323957,-0.015828,16.652564,21.251637,23.05965,8.491971,30.443862,39.98777,45.494172,67.852587,75.488684,-31.896328,-80.175691
99,-2.781143,-7.39539,-6.738039,5.808413,-36.262665,-61.618858,-82.025848,-98.379501,-47.76194,-87.159096,-103.466126,-108.106339,-43.036629,-90.918171,-106.777473,-109.23016,-41.456612,-86.918335,-102.957813,-106.064404,-43.936546,-79.164001,-93.400818,-97.543854,-0.344351,-11.929284,-14.083206,-16.284213,-62.802738,-61.761416,-44.787098,-31.090511,-63.045176,-58.958713,-38.62161,-21.963257,-54.104593,-51.767538,-32.342809,-14.375267,-39.127068,-38.281285,-26.896559,-13.766414,9.5056,20.845322,30.053032,36.109452,29.71209,39.148224,44.609963,49.274552,30.552727,49.508515,58.093209,63.671586,30.444832,51.732766,58.034111,64.594391,29.444962,51.870827,64.429779,76.866967,-11.628016,-13.674042,-12.97449,-12.147127,-12.376746,-6.524363,-5.650595,-5.506031,-9.711221,3.713892,7.067953,11.939504,-2.216969,13.925564,20.065185,22.982775,7.841772,28.357142,38.062485,43.661549,65.377447,69.285018,-38.328364,-73.175554
100,-2.600555,-5.583694,-12.590744,9.691394,-35.579407,-60.323204,-80.415596,-96.85397,-46.715882,-84.658448,-101.166459,-106.000123,-41.936028,-88.267857,-104.442822,-106.801953,-40.025712,-84.353806,-100.691346,-103.665642,-42.29052,-76.839341,-91.399579,-95.853058,-0.073718,-11.445989,-13.508095,-16.072762,-60.632082,-61.348473,-45.066705,-31.57503,-61.34549,-59.412418,-39.579705,-22.740121,-53.586773,-53.038442,-33.829482,-15.796231,-39.702039,-39.835642,-28.674422,-15.532767,13.962857,30.618187,43.471024,51.121193,39.584977,56.727745,65.259385,71.830719,39.02781,66.501275,79.126603,87.640366,37.350655,65.504059,76.347336,86.339447,34.775162,60.02401,73.087006,86.197724,-16.695138,-21.501401,-21.518333,-20.253283,-20.828025,-16.946598,-15.216104,-14.301556,-15.808464,-3.341383,2.809829,9.226098,-6.100502,8.938051,17.453408,22.244339,6.384227,24.283881,34.106611,39.963422,63.021121,64.551288,-50.674879,-62.634196
101,-1.885849,-3.989355,-11.215253,8.395276,-35.589386,-59.874276,-79.60215,-96.232407,-47.627358,-83.54147,-100.216679,-105.27285,-42.248772,-86.889176,-103.343777,-105.464676,-39.360924,-82.491326,-98.93858,-101.713463,-40.527123,-74.610054,-89.746594,-94.782097,-0.427881,-11.94135,-14.157665,-17.095892,-57.563444,-60.43038,-44.675861,-31.119478,-58.925337,-58.902909,-39.628957,-22.753211,-52.732752,-53.694953,-34.847085,-16.919187,-40.497742,-41.418657,-30.486049,-17.443139,16.154226,36.721628,52.90332,62.581922,47.021162,71.359252,83.395777,92.187783,45.951487,80.233028,96.654943,107.824862,43.487949,77.044741,91.927416,104.491088,39.891987,67.618558,81.673908,95.39342,-20.066876,-26.490062,-26.001859,-23.406791,-27.438241,-22.690924,-19.166395,-16.77475,-20.120401,-7.680866,0.343783,7.734029,-8.157417,5.833881,15.361807,21.337526,6.669135,22.1871,31.602945,37.720101,61.518294,61.156706,-61.50711,-53.644147
102,-0.739243,-3.082401,-8.617729,8.349814,-36.418282,-60.67495,-80.277615,-96.564857,-47.615295,-81.38641,-98.024677,-103.230812,-41.576157,-84.553265,-101.5112,-104.112339,-37.989944,-80.126381,-96.855606,-99.849586,-38.680984,-72.035728,-87.748741,-93.661446,-1.164039,-12.780909,-15.407883,-19.031743,-54.901767,-59.60127,-44.914027,-31.937653,-56.647772,-58.084673,-39.685761,-23.451282,-51.671973,-53.87135,-36.043105,-18.664353,-40.670217,-42.877683,-32.733381,-20.012296,15.651266,38.161588,56.921114,68.506192,51.673421,81.776995,96.885975,107.506293,50.941162,89.956215,109.262769,122.620098,48.358864,85.867603,103.90855,118.348719,44.166539,73.748227,88.694573,102.657642,-23.529509,-32.383898,-33.256034,-32.034178,-33.3561,-28.318838,-23.629091,-20.126045,-23.535054,-12.314778,-3.892764,3.528437,-9.230971,2.935654,12.296911,18.544596,7.679138,20.649306,29.266625,35.117952,61.334576,58.298385,-69.569314,-45.070253
103,-0.763687,-2.080736,-6.129792,9.279997,-35.99913,-60.710632,-80.553681,-96.180588,-46.01358,-77.949543,-95.548325,-102.432678,-39.486214,-79.86636,-98.334515,-102.989033,-35.262657,-74.97599,-92.696537,-97.362763,-35.196968,-65.657044,-80.971768,-87.508942,-1.78037,-13.258048,-16.993325,-21.800878,-52.535651,-58.52877,-45.718282,-33.862364,-55.532924,-59.361332,-43.446157,-28.864835,-52.369234,-56.859545,-42.065925,-26.981744,-43.171862,-47.612112,-40.376427,-30.061842,13.849329,37.044901,57.862434,70.730528,53.056856,86.487266,104.043139,116.588212,53.833869,94.705548,116.229902,131.640544,51.991047,91.337428,111.681384,127.672058,47.828568,78.264906,94.037305,108.155757,-26.677431,-38.324764,-41.375229,-42.817787,-38.333367,-34.633886,-30.048245,-26.19632,-26.129001,-17.879237,-10.554504,-3.806345,-9.818584,-0.003503,8.289445,14.117421,8.822995,19.635714,27.292426,32.928207,61.252894,56.237196,-75.017101,-35.770709
104,-0.406708,-2.705936,-3.035536,11.104207,-36.157516,-62.205414,-82.474087,-96.882503,-44.888908,-76.556671,-94.658813,-102.447781,-36.78112,-76.499401,-96.158871,-102.220272,-31.286736,-70.51934,-89.114758,-94.952869,-30.145737,-59.080299,-74.073234,-80.772839,-3.346529,-15.274205,-19.722553,-24.582008,-52.079048,-57.902106,-45.340419,-33.836394,-54.558222,-58.062947,-43.286306,-30.104827,-51.058845,-55.188768,-42.310493,-29.579147,-41.726312,-46.328051,-40.955706,-32.973535,10.02063,32.389801,54.40495,68.415127,51.729046,86.436459,105.625843,119.617962,54.81181,95.481045,118.291546,135.101063,54.23394,93.288769,114.817074,131.382695,50.446404,80.643895,97.178181,111.419049,-28.731133,-43.487901,-49.429426,-53.977147,-41.627953,-39.875872,-35.965089,-32.409031,-26.732908,-22.009817,-16.815897,-11.590707,-8.508997,-1.598199,4.303269,8.61651,11.175126,19.496587,25.386416,29.785052,61.707971,53.590136,-77.190852,-24.607626
105,-0.310951,-3.445356,-1.055477,12.84487,-36.916512,-65.235283,-86.152267,-99.050022,-44.176895,-76.76706,-95.095036,-103.319882,-33.33506,-73.94743,-94.483875,-101.468113,-25.883194,-66.083657,-85.543911,-92.307438,-23.193741,-51.843476,-66.91959,-73.661602,-6.02395,-19.076796,-23.845762,-27.427711,-53.478432,-58.224093,-44.548921,-32.667438,-53.603785,-54.521353,-39.751093,-27.721051,-47.657671,-49.052712,-37.084729,-26.631372,-36.339624,-38.889218,-34.420909,-28.630974,6.116146,26.353295,47.877331,62.649159,46.617668,82.423531,103.328339,118.930023,51.30431,90.523293,114.291481,132.816307,52.187439,89.763291,112.023056,129.454605,49.72815,79.152237,96.614823,111.505715,-29.276828,-46.730507,-55.567961,-62.922589,-41.525615,-41.428981,-38.762475,-35.907309,-24.531049,-23.822321,-21.515505,-18.338378,-5.327455,-2.506882,-0.116708,2.016157,14.14663,18.884746,22.469573,25.409831,62.522089,50.343101,-77.12126,-11.564435
106,0.040306,-4.608477,0.5896,21.633516,-37.429298,-68.573662,-90.292408,-101.646,-42.485847,-77.756058,-95.941509,-103.844788,-28.493339,-71.799019,-93.018837,-100.398033,-19.220535,-61.883766,-82.307762,-89.625378,-15.545013,-44.822594,-60.007645,-66.32816,-9.070919,-23.428174,-28.029839,-28.931803,-56.128716,-59.209654,-43.189497,-30.44265,-52.18229,-49.255185,-33.264965,-21.931961,-41.682701,-38.990494,-26.895132,-18.475241,-26.467066,-25.427652,-21.010695,-17.292332,2.030948,21.218319,42.471657,56.886452,51.988998,84.65744,97.814003,108.069694,60.396343,95.277878,109.643898,121.134544,63.087776,96.918388,110.570091,121.166702,61.182083,88.090347,99.024215,107.753357,-32.985125,-53.641231,-66.341667,-78.115698,-43.959921,-50.521402,-50.355362,-47.734223,-26.835309,-33.901273,-34.572487,-31.318327,-8.974892,-12.48087,-12.831199,-11.13673,8.607544,7.694496,8.949592,11.244188,63.556171,45.898349,-75.537884,10.232806
107,0.686256,-2.370981,4.348732,24.467884,-32.421249,-63.241813,-85.486083,-97.141159,-40.758705,-78.742332,-96.364105,-103.623436,-27.924568,-73.348961,-93.63541,-100.163864,-19.677841,-63.837867,-83.271022,-89.850826,-16.444885,-46.439026,-60.577995,-65.815944,-11.218697,-25.607346,-29.283163,-28.06043,-56.497465,-58.782378,-41.447938,-28.290099,-51.332673,-48.409927,-32.302252,-21.045818,-39.384246,-36.135026,-24.251004,-16.746996,-23.288618,-21.217793,-17.006638,-14.470523,-2.263642,14.364372,34.388832,48.881927,52.725105,79.343834,84.241035,89.334892,64.245598,90.711387,94.82753,99.774364,68.4421,93.960457,98.051056,102.424255,67.49921,88.234108,91.975364,94.947716,-34.856619,-57.174607,-72.77772,-86.859358,-40.971775,-60.333407,-64.74054,-62.11674,-25.757511,-47.258875,-51.716674,-47.042977,-12.086488,-28.996326,-32.458789,-29.495368,0.365149,-11.06471,-12.384051,-9.280167,65.244804,43.499982,-70.186775,34.673304
108,1.102227,-1.549213,21.470958,13.876886,-29.641686,-59.884804,-82.149136,-94.3079,-41.772583,-82.268921,-98.318253,-103.528164,-29.754822,-77.666565,-96.068161,-100.89354,-22.207146,-68.793938,-86.842358,-92.163575,-19.249695,-51.83194,-66.405922,-71.868187,-13.915801,-28.579924,-30.69608,-26.869858,-57.40774,-58.18469,-39.106739,-24.985933,-49.913253,-44.571669,-26.623239,-14.366906,-35.531236,-29.666065,-15.695676,-7.111109,-17.567084,-12.787923,-6.262393,-2.40553,-7.910076,-0.803306,10.134751,20.796582,36.672661,51.708252,52.253552,56.036339,48.989171,59.72128,59.018063,62.430085,54.18813,63.215836,63.238919,66.475194,54.225449,61.777119,61.707184,63.24828,-26.187837,-43.850795,-61.348509,-75.96285,-25.911275,-50.396394,-54.852705,-51.288601,-17.923656,-45.852503,-49.186778,-43.035338,-12.972143,-35.098724,-36.694984,-31.933064,-8.983172,-24.228997,-23.499422,-18.803741,67.493266,41.919702,-47.569582,48.519123
109,0.699539,1.501136,-3.260467,24.649875,-25.218384,-54.119202,-76.249436,-89.228184,-42.252472,-84.533032,-99.109139,-102.652065,-32.298645,-81.497456,-98.02401,-101.354511,-26.276062,-74.10656,-90.433293,-94.464108,-24.189003,-58.564346,-72.945786,-78.415325,-17.047113,-31.967447,-33.024964,-27.572563,-58.007814,-57.400863,-37.95883,-23.719776,-49.059741,-42.705259,-24.197384,-11.635655,-33.614592,-27.090655,-12.189315,-2.839769,-15.222444,-9.853363,-2.063626,2.800616,-10.242531,-3.264896,7.151962,18.14835,37.400574,54.419655,53.179218,54.613609,50.93121,64.388477,62.198284,62.781326,56.870361,67.822861,67.005672,68.051273,57.515739,66.526348,65.437958,64.968876,-27.693312,-45.634196,-63.239702,-77.127339,-25.279272,-54.201362,-61.380965,-58.933,-17.418871,-49.708204,-56.125412,-51.140357,-13.951838,-40.282134,-44.998865,-41.458164,-12.354503,-31.559956,-33.64712,-30.306114,69.407944,42.984859,-49.61491,72.733019
110,0.457435,4.390761,-5.12249,23.389056,-20.563156,-47.525322,-69.635799,-83.706447,-41.982719,-85.26361,-98.97845,-101.79626,-35.351394,-84.743888,-99.899986,-102.459686,-31.819793,-79.816074,-94.736435,-98.059513,-31.334518,-66.576667,-80.583469,-86.333702,-19.232727,-34.011861,-34.318402,-28.127109,-58.302565,-56.673589,-38.149775,-24.623792,-49.504916,-43.961316,-25.940045,-13.291109,-34.679976,-29.428326,-14.484658,-4.274771,-17.163872,-13.135022,-5.080805,0.752071,-12.090431,-5.161056,5.917866,17.165382,40.186398,57.453507,55.114552,55.351273,55.114483,70.534573,67.771214,66.837502,61.600628,74.423813,73.073444,72.14233,62.438736,72.754887,71.030685,68.835308,-29.107675,-47.285539,-65.32221,-79.573279,-26.734613,-59.173203,-68.541679,-67.443362,-19.052775,-54.284738,-62.971687,-59.300341,-16.488836,-45.25127,-52.09915,-49.809056,-16.086995,-37.852459,-42.317218,-40.313454,70.876413,46.517768,-53.726366,95.264223
111,0.479233,6.540129,-7.094433,14.889457,-15.941711,-40.248138,-62.190262,-77.678718,-41.668785,-84.975689,-98.370186,-101.269466,-39.117645,-87.317093,-101.427566,-103.946605,-38.4524,-85.27613,-98.914879,-102.08313,-39.640823,-74.718864,-88.119621,-94.450367,-20.724729,-34.741776,-34.758634,-29.235659,-57.414515,-55.512287,-39.297944,-27.013126,-50.075571,-46.919686,-30.63291,-18.223609,-37.30406,-34.764186,-20.854096,-9.965294,-21.931808,-20.43336,-13.008812,-6.556245,-12.417824,-6.372734,5.029495,17.2206,32.880387,53.58308,59.018372,64.915501,46.903771,66.517571,73.319824,79.727452,53.46587,69.740582,76.967262,82.426575,55.148884,67.848244,72.358532,75.391892,-27.481354,-46.196002,-64.663902,-79.077652,-25.96343,-59.031597,-70.260848,-72.023347,-17.016191,-52.031348,-62.348724,-62.118488,-13.576366,-42.127144,-50.46579,-50.883062,-13.202195,-34.623364,-40.314695,-40.608399,72.460012,52.002394,-59.716433,109.098177
112,0.360398,4.872089,-11.642338,10.646543,-17.350251,-42.646798,-64.883309,-80.6391,-44.441781,-88.200062,-101.826256,-104.955883,-40.655114,-88.537034,-103.215523,-106.424572,-38.500168,-85.0215,-99.220448,-103.282586,-38.056344,-72.696625,-85.909012,-92.59591,-23.435109,-37.656421,-36.864762,-30.575062,-57.739038,-54.352874,-38.260574,-25.817582,-48.299049,-42.747896,-26.562447,-14.311751,-33.644373,-28.792365,-15.140652,-4.717689,-16.825932,-13.132516,-5.763994,0.290004,-10.81335,-3.427116,9.307228,21.662785,30.821366,57.716275,71.433323,83.113907,44.075489,72.155674,89.585873,102.767178,50.672711,74.807488,91.629399,103.028058,52.668103,71.23074,82.711487,91.020024,-26.709517,-46.28399,-64.124104,-78.117316,-29.82398,-56.138584,-66.499217,-71.145558,-18.20375,-44.992956,-55.350396,-59.452185,-11.555404,-32.0254,-40.886146,-45.391302,-8.09107,-23.65344,-30.025644,-33.885601,73.96019,55.86038,-70.218991,118.730617
113,-0.019227,5.423878,-29.410411,18.445922,-17.411064,-43.503295,-66.288711,-82.186431,-46.154251,-90.480033,-104.334114,-107.602718,-41.634567,-90.257217,-105.693649,-109.358814,-38.56929,-85.672267,-100.537994,-105.142948,-37.193115,-71.992057,-84.996688,-91.554588,-25.668356,-40.086182,-38.361629,-30.949547,-58.186753,-53.526264,-37.120174,-24.526288,-46.911881,-39.727745,-23.412484,-11.264319,-30.622276,-23.689268,-10.292479,-0.361018,-12.70758,-7.024634,0.299242,5.966473,-7.336739,8.812099,30.693283,47.527713,46.776397,86.319305,104.320587,117.304046,60.6702,105.946243,128.291862,142.63282,67.268211,108.608024,129.555175,141.471679,69.22261,101.344368,116.452812,125.71907,-36.167123,-62.079227,-79.157723,-92.986919,-45.111387,-70.26827,-83.211761,-90.886053,-25.700441,-50.104611,-64.276992,-72.062298,-11.264559,-30.95077,-44.794687,-53.475974,-1.382048,-17.984604,-29.61995,-37.951328,75.016811,60.2109,-98.553554,136.103181
