takenoko1/special-research/HandMotion_SimilarSearch_自分用/NewProject/handData/tgt/d4_feature_d3/6.csv
,vel_0x_L,vel_0y_L,vel_0x_R,vel_0y_R,posFromWrist_1x_L,posFromWrist_2x_L,posFromWrist_3x_L,posFromWrist_4x_L,posFromWrist_5x_L,posFromWrist_6x_L,posFromWrist_7x_L,posFromWrist_8x_L,posFromWrist_9x_L,posFromWrist_10x_L,posFromWrist_11x_L,posFromWrist_12x_L,posFromWrist_13x_L,posFromWrist_14x_L,posFromWrist_15x_L,posFromWrist_16x_L,posFromWrist_17x_L,posFromWrist_18x_L,posFromWrist_19x_L,posFromWrist_20x_L,posFromWrist_1y_L,posFromWrist_2y_L,posFromWrist_3y_L,posFromWrist_4y_L,posFromWrist_5y_L,posFromWrist_6y_L,posFromWrist_7y_L,posFromWrist_8y_L,posFromWrist_9y_L,posFromWrist_10y_L,posFromWrist_11y_L,posFromWrist_12y_L,posFromWrist_13y_L,posFromWrist_14y_L,posFromWrist_15y_L,posFromWrist_16y_L,posFromWrist_17y_L,posFromWrist_18y_L,posFromWrist_19y_L,posFromWrist_20y_L,posFromWrist_1x_R,posFromWrist_2x_R,posFromWrist_3x_R,posFromWrist_4x_R,posFromWrist_5x_R,posFromWrist_6x_R,posFromWrist_7x_R,posFromWrist_8x_R,posFromWrist_9x_R,posFromWrist_10x_R,posFromWrist_11x_R,posFromWrist_12x_R,posFromWrist_13x_R,posFromWrist_14x_R,posFromWrist_15x_R,posFromWrist_16x_R,posFromWrist_17x_R,posFromWrist_18x_R,posFromWrist_19x_R,posFromWrist_20x_R,posFromWrist_1y_R,posFromWrist_2y_R,posFromWrist_3y_R,posFromWrist_4y_R,posFromWrist_5y_R,posFromWrist_6y_R,posFromWrist_7y_R,posFromWrist_8y_R,posFromWrist_9y_R,posFromWrist_10y_R,posFromWrist_11y_R,posFromWrist_12y_R,posFromWrist_13y_R,posFromWrist_14y_R,posFromWrist_15y_R,posFromWrist_16y_R,posFromWrist_17y_R,posFromWrist_18y_R,posFromWrist_19y_R,posFromWrist_20y_R,posFromBody_0x_L,posFromBody_0y_L,posFromBody_0x_R,posFromBody_0y_R
6,-3.670876,-0.600893,0.340244,-0.058391,12.674904,22.882977,32.260449,41.547524,27.129044,46.130734,43.205029,38.347824,21.453621,41.319374,37.360794,31.565701,13.829407,24.211899,13.197327,1.818981,5.361523,1.16803,-10.238537,-20.586582,7.19417,27.741854,49.215881,63.698353,48.777379,79.597812,87.175428,90.594029,54.19205,84.909138,92.679341,94.986163,53.281861,88.596403,102.587318,110.623912,48.831336,78.864551,92.138605,102.053819,32.608887,62.173073,85.263611,104.875626,66.172485,93.82608,100.430901,98.193489,51.223732,82.159081,91.371323,91.341934,33.954071,64.360359,76.271164,79.935951,16.792763,42.183357,55.392723,62.69442,-13.045837,-6.100657,8.485754,18.385135,18.612896,49.276026,58.593249,59.427695,35.939765,65.961296,73.702093,73.300765,49.92464,78.350084,85.068553,85.388976,59.445924,84.393041,90.652248,91.180646,-22.952929,366.54164,-39.124552,371.831637
7,3.630215,-0.074113,0.138886,0.255079,3.877178,7.801449,12.784824,17.867489,17.498669,31.254135,24.076172,15.856373,16.942509,31.725323,22.252773,13.261402,14.329136,22.759609,7.56744,-5.670719,10.278786,7.859287,-5.77549,-17.53418,14.502591,38.946108,61.691663,75.52273,53.149889,86.971676,95.959868,101.287571,54.487563,88.43211,97.512138,100.828444,50.200985,88.06724,101.001716,107.844871,44.258187,74.990491,87.310834,95.547042,32.440887,61.979301,85.077804,104.843971,66.182075,93.661422,100.235939,98.079254,51.284156,81.949356,91.14505,91.226738,33.977966,64.137817,76.040748,79.828102,16.709335,41.939621,55.042213,62.45922,-13.396975,-6.621213,7.906955,17.709166,18.346319,48.813095,58.185746,59.125488,35.694331,65.533477,73.338827,72.992692,49.68017,78.048062,84.832654,85.28316,59.175852,84.129453,90.445371,91.132937,-19.833017,366.452537,-39.495969,372.071726
8,-3.813354,-0.43681,0.110961,0.0782,15.521999,25.848861,34.161197,43.444622,30.306575,49.489025,46.78815,42.819591,22.19823,40.569477,36.159633,30.659683,11.860439,20.161479,8.237651,-3.375561,0.846199,-5.137654,-16.957444,-27.311795,7.907103,28.564592,50.166899,64.265481,49.091367,79.27114,87.461258,92.060984,54.289147,85.369796,94.16119,97.371977,53.327001,89.428231,104.764131,114.208807,48.807723,79.588253,93.971024,104.999511,32.291337,61.774727,84.846222,104.685311,66.117348,93.51368,100.147522,98.112671,51.277726,81.809304,91.033471,91.19442,33.984101,64.040841,75.94883,79.822541,16.687661,41.862443,54.913949,62.316193,-13.394701,-6.717864,7.748874,17.542317,18.267118,48.513236,58.007843,59.135925,35.565965,65.312213,73.209251,72.960681,49.570687,77.928353,84.768866,85.308516,59.138111,84.134307,90.48304,91.226243,-24.070541,365.995204,-39.809178,372.129403
9,2.898754,0.836891,0.202527,0.23149,5.925819,10.056015,14.551941,20.391426,20.531684,35.664459,28.129074,19.542766,18.422309,32.675033,22.396888,13.158908,13.992187,20.017318,2.89318,-11.558281,8.205013,4.255497,-10.105763,-22.304867,14.49418,38.917962,61.376192,74.161825,52.916151,85.859242,94.373315,99.736832,54.113874,87.868033,97.481176,101.47008,49.817614,88.022829,102.563914,110.993834,43.84425,74.921725,88.024348,96.855447,32.084209,61.513744,84.579952,104.489009,65.86742,93.385128,99.972141,97.863384,51.077648,81.708423,90.925335,91.068386,33.841838,63.936367,75.812152,79.70232,16.590351,41.694614,54.663219,62.086612,-13.554512,-7.034483,7.37957,17.160156,18.137035,48.240398,57.719951,58.865569,35.430485,64.975809,72.829251,72.602158,49.443852,77.64834,84.458632,85.072296,59.032011,83.986044,90.339334,91.162195,-21.480125,366.80156,-39.914989,372.330358
10,-3.507466,0.445344,0.261852,0.155031,14.43282,24.273617,32.592797,42.300144,29.589031,49.735325,46.830975,42.527504,22.28706,40.792935,35.910084,30.030716,12.717488,20.249073,7.336476,-5.106422,2.480747,-3.310924,-15.468361,-26.180374,6.751271,27.082002,48.251265,61.559492,47.315574,77.201007,85.734408,90.705933,52.674484,83.936532,93.325732,97.062163,52.05661,88.48261,104.444523,114.525772,47.986937,78.863192,92.728902,103.22804,31.991958,61.353309,84.328194,104.191543,65.611999,93.314049,99.743019,97.357887,50.79673,81.556938,90.777443,90.859337,33.567375,63.741463,75.605003,79.471092,16.367866,41.331985,54.241104,61.639091,-13.584374,-7.093937,7.259057,17.030134,18.087622,48.230258,57.558954,58.483358,35.322347,64.850122,72.608629,72.28255,49.325599,77.542326,84.309258,84.907965,58.911931,83.973484,90.372074,91.204976,-25.172533,367.205787,-39.838079,372.444272
11,3.645516,0.976002,0.183163,0.201183,3.327358,6.825794,11.549915,16.806415,17.458774,32.428562,24.95779,16.442573,17.240215,32.277111,22.500217,13.346512,15.02306,22.674488,6.41074,-7.700753,11.513534,9.464676,-4.214527,-15.971672,13.919531,38.345314,60.864047,74.082179,50.925194,83.563609,93.092031,99.215894,51.866962,85.518739,95.453626,99.601834,47.560229,85.422062,99.346706,107.275595,41.87293,72.67506,84.667274,92.464178,31.890117,61.245906,84.237911,104.052829,65.554721,93.354434,99.659603,97.100177,50.738445,81.525478,90.750492,90.8596,33.475765,63.604877,75.441753,79.323452,16.229152,40.94038,53.730731,61.152454,-13.836255,-7.403195,6.974227,16.673587,17.950449,48.206682,57.379051,58.089502,35.189868,64.680197,72.330431,71.932079,49.168444,77.266154,84.046374,84.712624,58.691173,83.691284,90.18697,91.173038,-21.650213,368.159031,-39.778112,372.622697
12,-2.758416,0.073582,0.041015,0.033518,11.344906,20.591996,29.202713,38.45786,25.750203,45.458508,43.001187,39.073403,20.613362,40.522397,36.853627,31.472821,13.62727,23.693814,12.404835,0.786358,5.980111,2.611119,-8.501415,-18.554855,6.734105,27.373105,48.699438,62.734318,46.104204,75.847352,85.236168,90.862718,50.955291,81.786568,91.039571,94.515045,49.999531,85.678573,100.649751,109.745216,45.863599,76.081954,89.00056,98.580383,31.795475,61.178089,84.154965,103.987003,65.536984,93.400715,99.727398,97.126751,50.756046,81.650288,90.898533,90.92973,33.482357,63.720829,75.478306,79.252888,16.201687,40.930676,53.653462,60.882672,-13.886297,-7.372122,7.070459,16.650134,17.809436,48.294639,57.447495,58.070112,35.055079,64.702292,72.310016,71.843035,49.101853,77.251778,83.985784,84.587752,58.70724,83.802521,90.233839,91.08124,-24.456316,368.217095,-39.784784,372.640697
13,2.978325,0.209717,0.04525,0.016944,5.412106,10.910889,17.217888,23.264958,18.957013,35.633938,29.151272,21.451493,17.443989,34.273991,25.585293,16.81152,14.165509,23.349301,8.232228,-5.284847,9.819878,7.996319,-5.423858,-16.882736,12.963535,37.180886,59.517875,72.803859,50.505415,82.101865,90.641379,96.195915,51.885425,84.262105,93.326003,97.060989,47.828559,84.887093,98.205941,105.933449,42.046201,72.40384,84.443281,92.741647,31.685658,61.137257,84.194836,104.099636,65.571705,93.467022,99.820141,97.230045,50.791958,81.809841,91.012402,91.010296,33.486363,63.779492,75.52486,79.280171,16.159069,40.865215,53.571957,60.800274,-13.970784,-7.415706,7.052996,16.388881,17.741178,48.403172,57.540887,58.120501,34.995725,64.715642,72.205337,71.675297,49.0187,77.174887,83.909004,84.547602,58.596448,83.638624,90.046847,90.946859,-21.398072,368.39523,-39.659615,372.626059
14,-4.659702,-0.47906,-0.127785,-0.015388,15.15461,27.546867,38.192356,48.566048,30.998795,52.058807,49.759461,45.309013,23.938431,45.617546,42.448906,36.808434,15.188553,27.967026,19.018868,9.11927,5.733181,3.706867,-6.098076,-14.886875,5.65798,25.987377,47.36863,61.151865,45.212898,74.174311,82.126702,86.757587,51.13212,80.794461,88.493466,90.998211,51.324794,85.572671,98.545951,106.305273,47.901721,77.88866,91.112992,101.285805,31.607952,61.146778,84.272358,104.291142,65.786145,93.621266,100.143208,97.751027,51.075932,82.100956,91.236065,91.166966,33.766835,64.037533,75.742894,79.451146,16.394177,41.189312,53.922764,61.144421,-14.054851,-7.395155,7.180363,16.325772,17.545799,48.256885,57.584507,58.359141,34.848536,64.655905,72.19626,71.688597,48.910587,77.131464,83.941052,84.634929,58.532808,83.54622,89.975068,90.926926,-25.915501,367.884038,-39.645127,372.578539
15,3.540379,-0.670832,-0.191242,-0.073718,4.035896,10.184269,17.499309,24.148121,19.926532,37.079761,30.416931,21.715908,20.262622,40.388683,32.96989,24.145145,18.779995,32.926586,21.218914,9.654087,15.686359,17.851215,7.03696,-2.778695,12.9387,37.39826,59.845585,73.154503,50.667078,82.616086,90.753605,95.566753,52.109567,84.200886,90.969077,92.615516,48.358588,83.971026,93.956018,98.823149,42.810276,72.583695,83.756629,91.249696,31.533783,61.187966,84.415489,104.595017,66.01014,93.731369,100.515862,98.512779,51.362892,82.410828,91.535317,91.491188,34.081513,64.350952,76.042328,79.769989,16.68393,41.595886,54.359093,61.592194,-14.040623,-7.343902,7.320759,16.295168,17.503315,48.026816,57.568069,58.696941,34.865518,64.552745,72.114861,71.690858,48.940648,77.072394,83.918995,84.705856,58.579862,83.429722,89.855507,90.903498,-22.15813,367.180053,-39.619377,372.471668
16,-4.343949,-0.901519,-0.091186,-0.026441,15.100548,28.552197,40.234291,51.65411,33.465466,56.295971,54.086792,48.93591,26.875683,51.951336,49.379277,43.530178,18.1684,34.545697,27.217747,18.05769,8.347401,8.162945,-0.659111,-9.045158,5.282946,25.418471,46.300064,59.507217,46.254233,75.238962,81.501985,84.247026,52.695702,81.717149,86.952423,87.474115,53.217283,86.431336,97.255676,103.39468,49.718295,79.266621,92.457484,102.870654,31.430763,61.162536,84.445701,104.798858,66.076904,93.748329,100.771568,99.013435,51.478935,82.567886,91.683746,91.547927,34.255096,64.518264,76.208496,79.873855,16.91391,41.962875,54.791565,61.996032,-13.984147,-7.259601,7.412754,16.275148,17.506019,47.891754,57.6118,58.999295,34.90463,64.522289,72.090284,71.680459,49.000125,77.144864,83.955848,84.722973,58.693087,83.506058,89.840069,90.815269,-26.2248,366.248862,-39.433284,372.415555
17,2.926026,-0.301897,0.003193,0.159649,4.120113,11.205345,19.709358,27.190967,22.085483,40.43684,33.243679,23.374466,22.909229,45.524952,38.001766,28.577099,21.663059,38.883602,28.072437,16.68433,18.484485,22.642799,12.601501,2.939598,12.437755,36.84878,59.052104,71.901809,51.175271,83.361549,90.236371,93.481663,53.187185,84.833568,89.909958,90.245744,49.856714,84.488099,92.708548,96.440768,44.334177,73.669081,84.518653,91.995504,31.357784,61.126636,84.508747,105.024089,66.002002,93.764019,100.968669,99.408313,51.427173,82.708293,91.764873,91.517704,34.281314,64.606029,76.346248,79.949787,17.04388,42.116992,55.017734,62.312473,-13.99741,-7.395106,7.196826,15.971473,17.499561,47.592414,57.48462,59.14557,34.943978,64.334815,71.791956,71.348711,49.027654,77.016053,83.710291,84.447233,58.709612,83.337751,89.637479,90.654681,-22.988691,365.934023,-39.120008,372.562262
18,-3.689347,-0.669412,0.0386,0.254955,9.884549,22.165467,33.949379,44.408673,30.686108,52.752285,48.824078,41.381791,28.063649,55.791172,52.93166,46.081501,23.392994,44.846455,39.182042,30.492932,17.030022,21.621392,14.534672,6.706753,6.027458,26.761196,47.784976,61.686006,46.706381,77.438388,83.162602,84.447949,52.711276,82.053898,85.399585,84.124439,53.074862,85.313813,93.139814,96.423775,49.743378,78.526517,90.231913,98.992369,31.312478,61.086823,84.465203,105.002175,65.982079,93.845124,101.086258,99.514367,51.482804,82.870766,91.910569,91.516251,34.427742,64.820687,76.542069,80.018853,17.283005,42.372117,55.237038,62.400032,-14.175659,-7.630745,6.966805,15.754778,17.317323,47.235904,57.12459,58.826135,34.837372,64.061669,71.406707,70.86381,49.00782,76.897492,83.418299,83.998777,58.751479,83.365514,89.587103,90.43995,-26.37402,365.2737,-38.77739,372.826306
19,4.742306,-0.092267,0.161763,0.145472,-1.542538,3.523052,11.424831,17.49313,16.296558,32.990708,25.004849,14.425232,20.758301,44.268517,36.666046,27.006935,23.364304,42.868698,32.389183,20.802796,23.829243,30.385208,20.826405,10.955452,13.523167,38.463504,60.539968,74.201073,53.000761,86.745743,93.63583,96.137388,54.053099,86.23298,90.770796,90.276286,49.687629,84.120881,91.075645,93.240775,43.565347,72.053999,81.331529,87.11075,31.357486,61.115238,84.440632,104.923336,65.842724,93.785762,101.053562,99.478054,51.309208,82.806415,91.943081,91.543316,34.300335,64.816646,76.612003,80.063953,17.227237,42.286182,55.149501,62.194988,-14.169225,-7.725779,6.849553,15.65862,17.336848,47.168546,57.000052,58.649763,34.905977,64.025248,71.239437,70.585537,49.115586,76.911633,83.246064,83.643255,58.890578,83.47091,89.577679,90.200716,-21.349371,365.207591,-38.333284,372.997936
20,-4.21883,-0.269084,0.12981,0.23764,9.944424,22.460564,34.644527,44.517838,29.107521,50.31451,45.924717,38.058712,26.113873,52.50182,48.991459,41.783443,21.403278,41.225178,33.82655,23.799603,15.297546,18.015072,9.324554,0.121273,6.48593,27.083854,48.124949,62.679793,48.78989,79.956446,84.527088,84.668756,54.645681,83.677131,87.503693,86.68403,54.442819,86.683672,95.575213,99.647541,50.437391,78.843012,90.384918,98.95254,31.418816,61.104813,84.40583,104.904442,65.592705,93.727501,101.115944,99.574631,51.036278,82.740898,92.025764,91.64637,34.081329,64.794479,76.705261,80.115463,17.119812,42.294708,55.221748,62.186531,-14.280388,-7.969718,6.545198,15.380151,17.10027,47.065436,56.954357,58.564968,34.71807,63.933042,71.128583,70.369238,49.001793,76.817439,83.008646,83.209397,58.844006,83.474442,89.448461,89.828633,-25.345739,364.972151,-37.981012,373.26922
21,4.188675,0.778426,0.063766,0.138704,0.026836,6.093372,14.50217,20.235088,17.914879,35.299038,26.755245,15.583397,20.626751,42.881184,34.212215,23.96355,21.641727,39.213306,26.789417,14.02335,20.801697,25.06168,13.708202,2.61739,13.827868,38.472989,61.080889,75.578984,53.179776,86.542103,92.289708,94.104194,54.537507,86.040937,91.43008,91.949846,50.398945,84.865801,93.440822,96.901747,44.400719,72.920098,83.109472,89.487882,31.330536,60.975541,84.291962,104.848916,65.411797,93.635079,101.183899,99.922783,50.91964,82.725564,92.125283,91.882599,34.042946,64.907387,76.880311,80.330521,17.15181,42.445702,55.391922,62.348557,-14.338581,-8.183696,6.276127,15.057603,16.83788,46.788843,56.848837,58.647565,34.520074,63.728438,71.026942,70.324346,48.901226,76.623802,82.758347,82.896433,58.815526,83.394426,89.320773,89.615471,-20.989706,365.790329,-37.749888,373.447676
22,-3.361565,0.337997,0.118172,0.12113,11.002487,23.100838,34.735806,44.471432,29.611611,50.947781,47.636261,41.466511,25.141537,49.369435,45.780361,39.3941,18.861683,35.215542,26.511647,16.213841,11.3046,11.380875,1.551968,-8.104877,7.083426,27.279492,48.442988,63.046392,48.109326,77.482305,82.700252,84.24148,53.79791,82.306655,88.279426,89.44846,53.497272,86.212788,97.63796,103.871084,49.545406,78.119334,90.576615,99.897223,31.247269,60.754944,84.015999,104.581146,65.175499,93.524231,101.181015,100.004471,50.729416,82.715744,92.210037,91.996491,33.942421,65.050209,77.11306,80.567665,17.180969,42.752152,55.796013,62.75457,-14.337137,-8.292834,6.115872,14.914367,16.535784,46.504988,56.605306,58.405318,34.249038,63.504395,70.819065,70.10912,48.744083,76.492545,82.520558,82.558201,58.792814,83.337615,89.138979,89.29648,-24.226885,366.170428,-37.50733,373.610908
23,4.167092,0.703362,0.040466,0.004804,0.34354,5.291347,12.735305,18.564491,17.127273,34.060604,27.299812,18.495483,19.191433,39.572994,31.722667,22.898243,19.451374,33.850582,20.782688,8.04198,17.978668,20.013313,8.135616,-3.12505,14.701291,39.226134,61.833898,76.096811,53.105971,84.819365,92.32125,96.321071,53.806505,85.104985,92.888069,95.329199,48.930421,83.781921,94.931057,100.543848,42.326622,70.878493,81.655645,88.555277,31.182404,60.583512,83.795243,104.436768,64.944008,93.3975,101.195893,100.218705,50.541001,82.664429,92.320496,92.250069,33.823975,65.178475,77.356476,80.850976,17.168084,43.038872,56.228692,63.222199,-14.284476,-8.343543,6.000349,14.793954,16.276112,46.283613,56.479471,58.365625,34.045139,63.330358,70.760291,70.151877,48.660078,76.385951,82.335739,82.318659,58.826011,83.2791,88.960509,89.000609,-19.97462,366.915675,-37.381691,373.657597
24,-3.930485,0.022403,-0.045238,0.099258,12.144642,23.895584,34.910992,44.846031,30.354744,52.314468,50.422096,46.28183,24.984398,48.696373,45.920151,40.58123,17.452194,31.92778,22.380936,11.510467,8.771255,7.07365,-3.359482,-13.473152,7.551853,27.981915,49.688481,64.600354,47.896744,75.901,82.582345,85.699765,52.891488,81.313868,88.547349,90.912908,51.790033,85.120682,98.840599,107.093937,47.075673,75.996133,89.289885,99.432674,31.05724,60.46265,83.728123,104.388645,64.885426,93.414242,101.204876,100.204845,50.569668,82.740108,92.34866,92.282993,33.922565,65.338612,77.475323,80.96854,17.344769,43.424389,56.61327,63.562008,-14.315142,-8.492831,5.720212,14.509938,15.946438,45.916828,56.138658,58.046152,33.731767,63.035166,70.567926,70.05704,48.459487,76.159302,82.108102,82.095209,58.776783,83.169184,88.767365,88.744839,-23.822994,366.983122,-37.344818,373.801899
25,3.846371,0.283422,0.007793,-0.13763,2.246051,7.523918,15.098316,21.773998,18.744587,35.356807,29.672721,22.871097,19.623539,38.682209,31.171817,23.449791,18.336696,30.74168,17.086727,4.436817,15.313098,16.069175,3.789585,-7.429379,13.796178,38.015616,61.030229,75.312531,52.26771,82.275162,91.475393,97.645988,53.43436,84.191425,92.998689,96.746865,48.859914,83.960713,96.668368,103.991102,42.41101,71.293184,83.07788,91.051847,31.056748,60.419518,83.641365,104.226769,64.93451,93.439797,101.069848,99.92315,50.705178,82.773056,92.210404,92.123612,34.092934,65.443978,77.424134,80.929436,17.504746,43.544152,56.610398,63.440026,-14.230456,-8.407232,5.774923,14.540407,15.879563,45.668592,55.84527,57.789593,33.633671,62.844852,70.415428,70.031809,48.401295,76.027268,82.030322,82.096963,58.801929,83.154834,88.686362,88.601084,-19.874771,367.327072,-37.235173,373.724797
26,-3.323685,-0.51427,-0.026207,-0.079151,11.911182,23.121426,34.262638,44.94873,28.31876,48.57098,47.86203,45.527069,23.491985,45.973194,44.121128,39.861694,16.639515,30.073597,21.113377,10.808475,8.67017,7.365257,-2.296131,-11.818405,6.515582,26.614329,48.110215,62.485625,47.508519,74.874425,83.852144,89.61226,53.05273,81.551052,89.792867,92.974137,52.238835,85.590677,99.611627,108.458683,47.697871,76.550973,89.517806,99.460191,31.227196,60.563027,83.714562,104.223061,65.115258,93.522973,100.971703,99.678383,50.870659,82.671479,92.006539,92.024094,34.233948,65.35254,77.261628,80.876748,17.615365,43.515427,56.51587,63.316819,-14.137004,-8.35535,5.70491,14.521634,15.855542,45.598863,55.667119,57.527091,33.521309,62.727303,70.374807,70.126027,48.255057,75.85528,81.938733,82.054774,58.693112,83.024614,88.515152,88.387341,-23.073223,366.884818,-37.136147,373.717662
27,3.232704,-0.180509,-0.154769,-0.157427,2.91703,8.724712,16.464603,23.498474,18.79018,34.867161,29.029999,21.970825,19.43137,37.875973,30.080051,21.948383,18.036564,29.912098,16.004986,3.056248,15.130852,15.527287,3.192295,-8.169044,12.868193,36.80537,59.617825,73.570491,52.674633,83.323697,92.621913,98.96867,54.581152,85.673287,94.138219,97.615508,50.402564,85.542401,98.052565,105.338274,44.122337,72.994767,84.844226,92.822478,31.368164,60.747894,83.872032,104.353454,65.445991,93.666343,101.044601,99.78788,51.243393,82.679397,91.935722,92.076416,34.577224,65.332695,77.097679,80.808929,17.847587,43.450721,56.322692,63.064888,-14.035646,-8.194848,5.86372,14.691312,15.998791,45.46831,55.551313,57.574861,33.594978,62.669209,70.432594,70.36967,48.241991,75.665423,81.823989,82.0064,58.623001,82.890616,88.414586,88.304509,-19.702469,366.78623,-37.152866,373.642156
28,-3.473076,-0.047782,-0.196759,-0.036816,13.534916,25.475395,36.869499,48.044827,29.415516,49.279644,48.310158,45.827076,23.399243,44.0453,41.296841,36.577412,15.304745,26.47665,16.266072,5.282833,6.355305,3.172955,-7.539345,-17.702602,5.187219,24.618543,46.205412,60.585861,47.144574,74.591274,83.635943,89.821396,53.839789,82.409913,90.898471,94.628591,53.822029,87.440794,102.131303,111.911877,49.737079,78.890202,92.44895,102.996266,31.541416,60.957035,84.111454,104.568981,65.791088,93.822087,101.154087,99.917713,51.632756,82.740406,91.835255,92.005886,34.963406,65.335888,76.971463,80.751606,18.142903,43.490742,56.236737,62.936016,-13.898424,-8.106754,5.834846,14.643073,16.070928,45.27996,55.365506,57.521201,33.543294,62.477894,70.337326,70.431409,48.102373,75.389633,81.672145,81.957321,58.490176,82.704686,88.246662,88.187209,-23.0413,366.836783,-37.21538,373.703675
29,3.814923,0.14741,-0.174865,-0.141396,4.323509,10.299339,18.102996,25.28976,19.148185,34.458,28.579593,21.552921,18.674263,35.081405,26.822319,18.541294,16.251892,25.909927,11.101615,-2.317841,12.568416,11.767662,-1.065823,-12.692757,12.526973,36.058857,58.622322,72.259233,52.36346,82.566451,91.802843,98.807971,54.944455,85.650983,94.53152,98.717049,51.378541,86.454134,99.441394,107.568959,45.451601,74.370393,86.475821,94.791786,31.664875,61.06406,84.170688,104.671726,66.110446,93.927761,101.296131,100.191616,51.982692,82.785266,91.828044,92.050769,35.291507,65.352939,76.929714,80.753254,18.389614,43.535648,56.2485,62.952083,-13.845418,-7.971496,6.007574,14.806193,16.191885,45.155347,55.282143,57.667512,33.609786,62.397606,70.267004,70.482143,48.085874,75.193773,81.516089,81.88427,58.416668,82.520275,88.050209,88.0304,-19.087984,367.078439,-37.251852,373.656525
30,-3.651524,0.144471,-0.21365,0.029023,14.209854,26.085525,36.991951,47.850334,29.745563,49.953518,48.972668,46.319916,23.164364,43.433521,40.311207,35.169033,14.614529,25.104092,14.215015,2.592556,5.394184,2.113998,-8.583984,-18.849186,5.961039,25.752405,47.133151,61.107665,47.015566,74.507591,83.122885,89.151738,53.267783,82.055084,90.561747,94.404771,52.981508,86.82581,101.810696,111.858661,48.755285,78.055708,91.565142,101.964948,31.617462,61.026741,84.172119,104.752235,66.317047,94.029442,101.524223,100.638634,52.224426,82.831375,91.964676,92.29882,35.528183,65.406257,77.049545,80.955459,18.584175,43.738174,56.4963,63.267906,-13.847789,-8.00394,5.910873,14.634872,16.059047,44.967712,55.150059,57.665894,33.481814,62.285788,70.214356,70.496802,47.955456,75.020909,81.394144,81.814245,58.294958,82.312089,87.875603,87.963795,-22.612301,367.301611,-37.338295,373.764249
31,3.06823,0.449408,-0.227223,-0.045708,6.084434,12.744987,20.370369,27.346366,21.961795,38.545154,32.707248,25.790886,20.207141,36.834194,28.158062,19.497905,16.243915,25.441784,9.977085,-4.120549,10.999111,9.727386,-3.165688,-14.916573,12.903625,36.436102,58.788343,71.880159,51.872816,81.828027,90.223811,96.255381,53.937885,84.839397,93.518553,97.477743,49.995578,85.483108,98.966286,107.356993,43.762195,73.109276,85.47429,94.000404,31.597813,60.927395,83.98106,104.517643,66.305432,94.101323,101.723019,100.911152,52.23087,82.943104,92.27734,92.676876,35.536435,65.537465,77.31799,81.270138,18.569127,43.845761,56.698758,63.525021,-13.855014,-7.931717,6.09237,14.866252,16.142237,44.855537,54.910183,57.372518,33.60718,62.254666,70.070119,70.291161,48.072449,75.046252,81.408668,81.855334,58.366169,82.382732,87.99288,88.130892,-19.439025,367.812828,-37.460472,373.78035
32,-4.554932,0.467216,-0.279052,0.10489,15.37009,28.205429,39.749588,50.611107,32.656826,53.94025,53.394344,51.175049,25.600765,47.109364,44.720478,39.939491,16.239544,28.429081,19.007069,8.460354,5.869995,3.566357,-6.646877,-16.648911,5.589721,24.985945,46.132362,59.511305,45.663009,72.154603,80.164323,85.580674,51.996428,80.386254,88.282736,91.50901,51.945446,85.392298,99.665041,109.000851,47.898868,77.200328,90.83199,101.491655,31.471813,60.776355,83.79253,104.286266,66.112346,94.156322,102.012142,101.395397,52.027141,82.948848,92.590908,93.199367,35.366603,65.600155,77.675548,81.768116,18.485721,44.001651,56.99818,63.994365,-14.156665,-8.284226,5.759819,14.513816,15.764509,44.79318,54.813691,57.138854,33.301182,62.019779,69.844915,70.0387,47.858372,74.913907,81.440889,82.059542,58.194008,82.296898,87.970563,88.253478,-23.902628,368.326033,-37.648195,373.931229
33,1.636299,0.600127,-0.302571,-0.593447,9.744564,18.996277,27.540917,34.719818,27.75713,47.596058,43.286259,37.619179,23.893696,42.534359,35.072468,27.039917,17.769505,29.063107,15.833805,3.423306,10.439655,9.849827,-2.270164,-13.279678,11.947136,34.73026,56.973672,69.752772,48.400344,76.905618,84.59557,89.81905,51.264439,82.298331,91.043783,94.72754,48.562562,84.524223,97.819976,105.852223,43.474069,73.899892,87.205389,96.62597,31.301194,60.691361,83.572838,103.787476,65.567574,93.912804,102.178231,102.026345,51.35257,82.653466,92.970635,94.234337,34.700707,65.454369,78.015541,82.521973,18.038018,43.846733,57.120278,64.455941,-14.289934,-8.108952,6.271397,15.390315,15.518101,45.280762,55.372743,57.608788,33.119785,62.364644,70.304166,70.59296,47.740565,75.157687,81.945317,82.799498,58.07157,82.490363,88.410597,88.956458,-22.177969,368.95283,-37.862406,373.364452
34,-5.677105,0.945325,-1.161815,-1.596828,17.753151,33.342407,45.995018,57.030739,37.185837,63.182099,65.116219,64.387528,28.512108,53.328873,52.897362,49.052902,18.213982,34.470246,29.520264,22.296707,7.623951,9.046303,2.621372,-4.065822,3.599901,21.607037,42.080608,54.727747,38.553079,65.137904,73.480471,79.190692,46.504272,76.451431,85.221694,88.111626,48.851825,82.986786,96.27913,104.053421,47.433925,77.978371,91.942004,101.971975,31.255291,60.622066,83.300594,103.488956,64.183559,93.505703,102.757335,103.687923,49.734455,82.094822,93.530056,95.810932,33.166935,65.026142,78.479084,83.642177,17.022548,43.471904,57.282749,65.010326,-14.224504,-7.442432,7.19496,16.430216,15.151624,45.777618,56.194085,58.775685,32.713232,63.148935,71.590463,72.083479,47.362924,75.867087,83.066012,83.888367,57.63487,82.671884,88.753373,89.191183,-27.80024,369.919706,-38.969387,371.789175
35,2.126003,0.984054,-2.026978,-3.860352,17.694592,30.780545,40.104115,48.242901,33.365925,52.291592,49.944638,45.739689,25.032223,40.923558,35.760933,29.026349,15.591855,25.913189,18.667557,10.73663,6.214428,6.13686,-1.110454,-7.73909,8.523558,27.682871,47.756411,59.666027,41.182635,69.084027,78.956794,86.377823,47.063225,78.70652,89.664451,94.866738,48.289514,82.808488,95.865909,103.91452,46.708123,76.104432,89.805848,99.612715,31.866154,61.893139,84.224728,103.672543,61.525463,91.999478,102.708515,104.897289,46.574078,80.834988,93.548275,96.295246,30.393711,63.968937,78.575947,83.890034,15.254894,42.788349,57.462238,65.162052,-14.13972,-5.56675,11.134822,22.386229,14.574641,46.565949,57.027234,59.590346,32.570144,64.967102,73.200371,73.295146,47.470815,77.573609,84.584788,84.799988,57.772167,83.226267,89.212722,89.19994,-25.703762,370.962284,-41.02589,367.987347
36,12.018265,7.252166,4.563858,0.285583,12.682881,20.225704,23.976895,29.387959,18.30875,28.13966,26.201912,23.487911,10.832737,16.897305,12.055596,6.405487,2.975842,4.752846,-1.335571,-7.761165,-4.278568,-10.588886,-17.472565,-23.610946,2.568064,16.776908,34.109928,46.543904,32.018058,58.764533,70.402905,78.578202,41.883959,73.067447,85.585281,92.03731,47.671887,80.477485,94.504918,103.535829,49.960925,78.574263,92.423262,102.659937,27.193394,53.654789,73.453274,90.908924,48.473637,76.673527,88.306423,91.369824,35.922146,68.810909,81.683933,83.910542,22.972401,54.964222,69.290829,73.97041,11.401325,37.051701,50.859913,57.63818,-11.505781,-3.34061,11.883089,22.414387,12.242291,39.869858,48.946489,51.75044,27.425186,56.665501,63.730785,63.907799,39.702514,67.126984,73.218958,73.362207,47.85137,70.011531,75.118105,75.258179,-13.747341,378.332973,-36.523876,368.391453
37,16.21669,3.845322,-10.456947,-15.579344,-0.048534,-3.181446,-7.799938,-10.028892,-3.998188,-6.593971,-13.6543,-19.981258,-5.429546,-12.805034,-23.313846,-32.194084,-6.687595,-15.758217,-26.91394,-36.02156,-7.444748,-18.41764,-27.296322,-34.716831,3.396977,17.966011,35.329029,47.963113,30.802168,59.781216,73.031632,82.576603,40.481903,73.524956,88.255764,96.906404,46.935957,80.092816,94.307304,103.398583,50.668164,79.062054,92.005014,100.638574,29.95729,57.621036,77.895023,93.845295,52.578632,80.067661,89.044567,89.612972,40.243686,72.074421,81.866398,81.252285,27.530159,58.470302,69.424679,70.580589,16.018135,41.927547,52.920788,55.875984,-10.166564,-0.064456,17.476651,30.307818,15.367849,42.710919,48.05706,48.4832,31.006833,58.906805,62.103105,60.13691,43.436524,68.515651,71.171598,69.319641,51.621726,71.197817,73.103225,71.223715,2.429603,382.52495,-47.020569,353.158764
38,15.475777,4.101277,-8.716484,-21.164435,-7.631161,-17.47411,-27.092709,-33.06173,-20.585552,-34.122986,-42.705872,-49.420761,-18.903477,-36.159485,-47.164066,-56.091168,-16.708981,-34.083344,-44.781132,-53.314888,-14.30349,-30.755104,-39.257961,-46.467201,-3.447624,7.453979,24.046438,37.064709,25.370614,53.974714,68.929737,79.926819,38.96945,70.821264,86.271945,96.067191,49.139928,79.546893,94.001294,103.738445,55.700329,82.145906,94.475488,103.136057,31.091343,58.526996,77.858791,91.538761,55.505321,80.245617,85.486484,83.428974,43.649425,70.738415,76.283146,72.737926,30.799759,56.327682,62.975944,61.054207,18.648754,40.490696,47.94881,47.890148,-8.642625,2.55759,21.261099,35.786031,19.084248,46.346722,49.686369,48.545753,34.537314,62.458763,62.943714,59.091031,46.483548,71.490131,70.828389,66.493004,54.333952,73.847058,72.765117,68.601854,17.863255,387.074282,-55.779178,332.442384
39,20.064434,3.738481,-16.612324,-30.313574,-20.120636,-40.974564,-59.209431,-72.465157,-41.962807,-69.540871,-84.480721,-95.18034,-34.621719,-67.132221,-85.010628,-97.714588,-27.008354,-57.831654,-75.671196,-88.449829,-20.057533,-44.891636,-58.443947,-69.349331,-3.0295,8.219758,25.880845,39.697512,26.933752,55.959051,71.634072,83.169358,40.258836,72.245339,89.199026,101.374429,50.213151,80.589179,96.084555,107.389438,56.831214,82.608701,94.695653,103.667827,31.485043,59.927422,80.502296,93.565132,58.52354,84.69603,85.934624,80.399528,48.193542,75.334373,75.881023,68.797256,36.599201,61.880699,63.359013,57.413555,25.107948,47.047119,50.140457,46.165798,-10.505659,-1.347382,16.922602,31.817381,14.36317,39.776911,40.554138,37.648164,31.047909,56.268692,53.510326,48.569626,44.500187,66.247941,62.585846,57.566513,54.418563,70.398705,66.669697,62.221555,37.999472,391.331874,-72.319719,302.647921
40,16.464157,3.420862,-18.039745,-36.667037,-33.515991,-62.401382,-85.247852,-102.962768,-59.77533,-92.645874,-108.383846,-119.2435,-46.426094,-82.835438,-101.215496,-114.024536,-32.940102,-67.061405,-85.651897,-98.855907,-20.883018,-48.020348,-62.216045,-73.905704,-8.359104,1.710252,20.22242,34.700446,21.778049,50.898147,66.615455,78.042826,37.740135,69.249666,85.726417,97.287675,49.923924,79.593292,94.449688,104.837281,58.412049,84.480615,95.816546,103.784979,29.915794,58.639492,81.097114,94.513012,59.227123,87.385128,85.005912,76.187999,51.693123,79.207065,74.944393,65.140319,42.374805,68.039394,64.064369,54.754978,32.533676,54.533764,52.584743,45.153133,-14.714493,-11.223569,2.592209,15.45188,5.59444,24.764855,23.617261,20.243799,23.195777,41.484409,36.768604,32.18413,38.158865,53.229041,47.689103,43.371069,50.204123,60.499547,54.69234,50.693927,54.918056,395.424049,-89.905037,266.652197
41,3.651375,-3.512499,-25.699711,-50.115436,-33.417847,-61.97184,-83.938442,-102.371258,-57.704361,-90.528305,-107.268047,-119.188706,-43.793884,-80.038571,-98.883007,-112.473919,-30.045708,-64.110306,-82.966313,-96.708161,-18.216477,-45.295281,-59.450707,-71.121174,-9.878807,1.260091,22.09037,37.12457,23.771265,52.973603,68.749105,80.932794,40.446569,71.617732,88.049986,100.046029,52.696085,82.280448,97.010144,107.524387,60.84646,87.024435,98.21303,106.191825,32.541572,64.918991,90.78146,105.521942,68.668361,101.782219,96.508266,85.027336,61.110397,92.683948,84.90097,73.076431,51.371876,80.99287,73.144031,61.375522,40.888584,66.203762,61.033768,50.992069,-22.192444,-24.336436,-14.180013,-2.661998,-5.900672,10.806032,10.182519,6.709689,15.762009,31.542975,26.920104,22.307657,35.17012,47.671281,41.775401,37.476436,51.641227,60.17669,53.554169,48.976771,59.345398,392.588075,-114.828781,217.213286
42,4.123604,-0.277396,-10.727772,-43.461984,-33.966294,-62.383622,-84.129444,-102.173722,-57.317482,-90.054142,-107.144371,-119.472039,-43.368325,-79.595227,-98.787884,-112.765045,-29.759743,-63.647049,-82.394772,-96.284363,-18.234238,-45.322861,-59.401955,-70.875756,-10.739174,0.181645,21.316564,36.547747,23.526154,52.2809,67.947832,80.193062,40.582211,71.267262,87.322851,99.049884,52.856278,82.235642,96.739048,107.237557,60.879596,86.82744,97.765834,105.846283,27.106522,57.515167,83.24715,98.299816,57.502602,91.767735,90.724045,83.444481,52.921475,88.557941,81.755024,70.653545,46.910797,80.545887,72.344273,60.998177,40.473244,66.977463,60.805904,51.104038,-28.179856,-37.884742,-34.621319,-27.532199,-24.289154,-16.853676,-16.762075,-18.736501,-2.981211,7.412495,6.555899,4.509077,17.477917,26.49977,23.95719,21.613676,35.915466,41.773394,37.632504,34.680662,64.462984,392.891757,-124.562571,174.33238
43,2.640197,-0.593026,-10.359569,-46.844887,-34.136947,-62.495224,-84.160778,-101.874515,-56.910026,-89.71899,-106.902008,-119.297264,-42.711113,-79.114402,-98.365814,-112.33778,-29.069915,-62.983451,-81.881858,-95.92852,-17.720603,-44.900436,-59.156845,-70.645065,-10.944013,0.155327,21.16504,36.539658,23.370592,52.126116,67.972532,80.370594,40.591584,71.369805,87.404547,99.021788,52.964526,82.538701,97.031646,107.428847,60.930465,87.017458,97.870748,105.806441,22.951286,51.610244,77.303352,93.231685,48.445816,84.314769,86.710681,81.841861,46.94292,86.286094,80.573444,70.305713,44.973129,82.906219,74.864307,63.96865,43.175663,73.060306,66.630741,56.702751,-35.058964,-53.476963,-58.082413,-57.884108,-43.790287,-45.836232,-46.661582,-47.612199,-22.111075,-18.057933,-16.690204,-16.234863,-0.097801,3.620636,3.941757,4.160878,20.473262,21.396178,19.462278,18.778769,68.153526,392.877993,-133.871795,128.066755
44,1.883767,-0.607031,-1.760227,-38.277671,-34.157433,-62.448075,-84.090821,-101.650795,-56.560044,-89.425209,-106.69043,-119.229561,-42.254288,-78.75174,-98.055359,-112.106221,-28.649117,-62.483872,-81.389923,-95.480107,-17.467896,-44.539833,-58.782555,-70.199799,-10.964626,0.239345,21.08348,36.484712,23.491475,52.259621,68.132082,80.424774,40.77029,71.51109,87.54556,99.044734,53.096944,82.711182,97.278363,107.649938,60.890439,87.010035,97.773243,105.625809,19.227651,44.879856,68.377612,83.156094,40.047767,72.801235,78.005794,75.621783,40.723845,78.425548,73.937782,64.704978,41.376431,77.974047,70.438916,60.647604,42.637759,71.44806,65.249982,55.929228,-38.548229,-62.84841,-73.75428,-78.799594,-54.757506,-64.5379,-65.689261,-65.747163,-34.099391,-34.430149,-30.582051,-28.482409,-12.515265,-11.740644,-8.969768,-7.694789,7.845095,6.925982,6.936242,6.904053,70.941302,393.138265,-134.728013,90.656387
45,1.304397,-0.277568,0.385336,-31.359189,-34.171371,-62.440933,-84.231285,-101.629852,-56.196144,-89.321777,-106.658329,-119.217842,-41.701538,-78.70079,-98.128349,-112.233398,-28.057663,-62.224823,-81.301002,-95.555774,-17.072662,-44.37783,-58.814758,-70.327148,-11.150618,-0.097492,20.557564,36.189434,23.160233,52.127709,68.008989,80.159926,40.611764,71.576631,87.449723,98.649976,53.059671,82.810748,97.2856,107.456881,60.871135,87.066957,97.814962,105.664365,16.61552,39.275883,59.980622,73.185437,35.275552,64.207684,71.008424,70.472531,37.149313,72.109792,68.242639,59.608186,39.137146,73.196394,66.003413,57.038023,42.005602,69.309623,63.585609,54.775,-39.545171,-67.143173,-82.065098,-91.683864,-61.258079,-74.988848,-76.5781,-76.507053,-41.862459,-43.36612,-37.602058,-34.640447,-21.015884,-20.525643,-15.849878,-14.303145,-1.066913,-1.620373,-0.009642,0.188706,72.800926,394.015411,-133.78745,60.451912
46,0.962769,-0.065172,1.383846,-23.69753,-34.339531,-62.659332,-84.611504,-101.872868,-56.346153,-89.614815,-106.933399,-119.481663,-41.7995,-79.03981,-98.407036,-112.494816,-28.170502,-62.601357,-81.686943,-96.007668,-17.263962,-44.73777,-59.206879,-70.700318,-11.382972,-0.541872,19.880052,35.597606,22.695525,51.827961,67.663891,79.652758,40.234185,71.316613,86.996871,97.899882,52.774385,82.482434,96.878023,106.896768,60.649946,86.713683,97.467863,105.445597,14.819921,35.290592,53.892682,65.746719,32.127977,57.775726,65.638864,66.470769,35.163677,67.075292,63.362566,55.398279,38.396381,69.703926,62.477365,54.070152,42.64183,68.206174,62.714292,54.335231,-39.661029,-68.347742,-84.60896,-96.769555,-63.389817,-78.963246,-81.613074,-81.806414,-45.226986,-47.179605,-40.496698,-36.7261,-25.187372,-24.865538,-19.049659,-17.052521,-5.731398,-6.234892,-3.550951,-2.690583,73.819062,395.205035,-132.348237,38.009178
47,0.495163,0.150387,1.355579,-16.30223,-34.347634,-62.723076,-84.861374,-102.143624,-56.31482,-89.94365,-107.23296,-119.673809,-41.851868,-79.468506,-98.774369,-112.760216,-28.366173,-63.230072,-82.349259,-96.663025,-17.658669,-45.421898,-59.903801,-71.314133,-11.652537,-1.077952,19.197623,34.941842,22.007748,51.31747,67.158032,79.065043,39.763956,70.952582,86.486664,97.199286,52.517219,82.14067,96.297989,106.106907,60.533374,86.39058,97.026089,104.936835,13.519335,32.521725,49.445104,60.369511,32.568941,57.058811,61.988096,60.468664,35.974769,64.375868,59.309397,51.54439,39.250393,67.107429,59.191294,51.32103,43.566818,67.275667,61.613607,53.596458,-39.581921,-69.66575,-87.817067,-102.325048,-63.721217,-78.654402,-79.961936,-79.169359,-45.723231,-47.283309,-40.551732,-36.233423,-25.993316,-25.492927,-19.686355,-17.216627,-6.861474,-7.257768,-4.411943,-2.874924,73.905997,396.585562,-131.400886,22.937088
48,0.099426,0.091996,-0.822654,-8.362107,-34.184875,-62.556885,-84.844917,-102.327908,-56.120819,-90.081802,-107.426468,-119.85173,-41.838959,-79.86351,-99.201931,-113.190067,-28.538429,-63.707886,-82.882072,-97.251904,-17.993546,-45.946426,-60.500381,-71.987755,-11.788672,-1.405933,18.825354,34.496979,21.928609,51.085251,66.716319,78.441437,39.753495,70.635889,85.938135,96.532307,52.548847,81.876465,95.80264,105.49144,60.561087,86.20917,96.733428,104.593342,12.332626,30.87244,47.423101,57.676048,32.298131,57.325287,60.674386,58.171449,35.851851,64.788709,58.931451,50.789609,39.323902,67.686396,59.156928,50.97745,43.754625,67.709155,61.624389,53.511,-38.788104,-68.497439,-86.626372,-100.621995,-63.500557,-78.221902,-78.190378,-76.722247,-45.803746,-48.00954,-40.984381,-36.445201,-26.289505,-26.541022,-20.499585,-17.713237,-7.289181,-8.180316,-5.268344,-3.505463,73.30335,397.899277,-132.925613,15.7967
49,-0.10183,0.151029,-0.822654,-8.362107,-34.278053,-62.602798,-84.989685,-102.464698,-55.812881,-90.034767,-107.431056,-119.900138,-41.643287,-79.939361,-99.368785,-113.417301,-28.523185,-64.041481,-83.386253,-97.90623,-18.185508,-46.426826,-61.119781,-72.735923,-11.765973,-1.550911,18.587541,34.36177,21.567937,50.739598,66.348089,78.014248,39.506753,70.498902,85.605757,95.936922,52.471981,81.82846,95.505732,104.914839,60.664124,86.266462,96.708975,104.481376,11.145916,29.223156,45.401097,54.982586,32.027321,57.591763,59.360676,55.874234,35.728932,65.20155,58.553505,50.034829,39.397412,68.265362,59.122563,50.63387,43.942433,68.142643,61.63517,53.425541,-37.994287,-67.329129,-85.435678,-98.918942,-63.279898,-77.789402,-76.418821,-74.275135,-45.884261,-48.735772,-41.41703,-36.656979,-26.585693,-27.589117,-21.312815,-18.209846,-7.716887,-9.102865,-6.124745,-4.136001,72.329132,399.032141,-134.620655,8.416428
50,-0.186149,0.244804,-0.822653,-8.362107,-34.296959,-62.499161,-84.900238,-102.424851,-55.552345,-89.935318,-107.390774,-119.957256,-41.544777,-79.9021,-99.322964,-113.398007,-28.614052,-64.265717,-83.639534,-98.157543,-18.387589,-46.765686,-61.496636,-73.133537,-11.593245,-1.517023,18.527433,34.287151,21.536049,50.434673,65.959974,77.595444,39.502405,70.19252,85.20454,95.527121,52.5208,81.575134,95.123718,104.467506,60.763702,86.164771,96.516523,104.219529,9.959206,27.573871,43.379092,52.289123,31.75651,57.858238,58.046965,53.577017,35.606012,65.61439,58.175559,49.280047,39.47092,68.844327,59.088196,50.290288,44.130239,68.57613,61.645951,53.340082,-37.20047,-66.160819,-84.244983,-97.215889,-63.059238,-77.356902,-74.647263,-71.828023,-45.964776,-49.462003,-41.849679,-36.868757,-26.881881,-28.637211,-22.126045,-18.706456,-8.144594,-10.025413,-6.981146,-4.76654,71.184368,399.889416,-136.401923,0.666792
51,-0.095169,0.351075,-0.822654,-8.362107,-34.267754,-62.363388,-84.709854,-102.382439,-55.340996,-89.602204,-107.144955,-119.869023,-41.43837,-79.648773,-99.19059,-113.397057,-28.588234,-64.162468,-83.557205,-98.106194,-18.431465,-46.808853,-61.608856,-73.325707,-11.599963,-1.512477,18.574994,34.317656,21.577027,50.30774,65.759916,77.366721,39.589536,70.026166,84.899839,95.17055,52.619132,81.509779,94.925574,104.200918,60.840755,86.184618,96.402533,103.940529,8.772497,25.924587,41.357088,49.595661,31.4857,58.124714,56.733255,51.279802,35.483093,66.027231,57.797613,48.525266,39.54443,69.423294,59.053831,49.946708,44.318046,69.009619,61.656732,53.254623,-36.406653,-64.992509,-83.054289,-95.512836,-62.838578,-76.924402,-72.875706,-69.38091,-46.045291,-50.188234,-42.282329,-37.080536,-27.17807,-29.685306,-22.939274,-19.203066,-8.5723,-10.947962,-7.837547,-5.397079,70.25132,400.841977,-138.062456,-7.093829
52,0.29013,0.480283,-0.822654,-8.362107,-34.105362,-62.168998,-84.426429,-102.24797,-55.235023,-89.374122,-107.036613,-119.924182,-41.381858,-79.519523,-99.197662,-113.522289,-28.547172,-64.091812,-83.53601,-98.146991,-18.387771,-46.742111,-61.615974,-73.446167,-11.729367,-1.566324,18.637867,34.289658,21.564837,50.196922,65.51799,77.037578,39.54379,69.743039,84.533955,94.799553,52.501213,81.242065,94.685179,104.034488,60.660245,86.016014,96.190667,103.663726,7.585788,24.275303,39.335084,46.902199,31.214891,58.39119,55.419545,48.982587,35.360174,66.440072,57.419667,47.770486,39.617939,70.00226,59.019465,49.603128,44.505854,69.443107,61.667514,53.169165,-35.612836,-63.824199,-81.863594,-93.809782,-62.617918,-76.491902,-71.104148,-66.933798,-46.125805,-50.914465,-42.714978,-37.292314,-27.474258,-30.733401,-23.752504,-19.699675,-9.000007,-11.870511,-8.693948,-6.027617,69.74719,401.794188,-139.67937,-14.984008
53,0.59356,0.115078,-0.822654,-8.362107,-34.1483,-62.104637,-84.274613,-102.069798,-54.882408,-88.752205,-106.572384,-119.740128,-41.080857,-78.892639,-98.717446,-113.204796,-28.316552,-63.603333,-83.113129,-97.81025,-18.201256,-46.302796,-61.18039,-73.13102,-11.483712,-1.291461,18.933232,34.548837,21.696662,50.200886,65.399417,76.78208,39.680765,69.703778,84.476848,94.747658,52.587898,81.214055,94.715993,104.066796,60.680697,86.073208,96.257975,103.653451,6.399079,22.626019,37.31308,44.208737,30.944081,58.657666,54.105835,46.685372,35.237255,66.852913,57.041722,47.015705,39.691448,70.581227,58.9851,49.259548,44.693661,69.876595,61.678295,53.083706,-34.819019,-62.655889,-80.672899,-92.106729,-62.397258,-76.059403,-69.332591,-64.486686,-46.20632,-51.640696,-43.147627,-37.504092,-27.770447,-31.781496,-24.565734,-20.196285,-9.427713,-12.793059,-9.550349,-6.658156,69.463349,402.26656,-141.379425,-22.988821
54,0.86071,0.248175,-0.822654,-8.362107,-33.859017,-61.855522,-83.958893,-101.821655,-54.653046,-88.13784,-105.985588,-119.217716,-40.817803,-78.483376,-98.426994,-112.958347,-28.072724,-63.299332,-82.843918,-97.557427,-17.944084,-45.922119,-60.844666,-72.861122,-11.691934,-1.494817,18.78077,34.325831,21.613373,50.186659,65.343075,76.720762,39.617298,69.483613,84.194278,94.472449,52.483527,80.962719,94.533483,103.991905,60.520566,85.922598,96.093434,103.524232,5.212369,20.976735,35.291076,41.515275,30.673271,58.924141,52.792125,44.388156,35.114337,67.265754,56.663776,46.260925,39.764958,71.160193,58.950735,48.915968,44.881468,70.310083,61.689077,52.998248,-34.025202,-61.487579,-79.482205,-90.403676,-62.176598,-75.626903,-67.561033,-62.039574,-46.286835,-52.366927,-43.580276,-37.71587,-28.066635,-32.829591,-25.378964,-20.692895,-9.85542,-13.715608,-10.406751,-7.288694,69.605662,402.87771,-142.920476,-30.987953
55,1.424698,0.010522,-0.822653,-8.362107,-33.590905,-61.655228,-83.737084,-101.662285,-54.193543,-87.573441,-105.572972,-118.943447,-40.310623,-78.007141,-98.150322,-112.788769,-27.648171,-62.816231,-82.492859,-97.295414,-17.631386,-45.587014,-60.582367,-72.762291,-11.701444,-1.544958,18.76348,34.299303,21.473311,50.071767,65.226528,76.625839,39.498206,69.291162,84.081238,94.424,52.389556,80.818198,94.554096,104.159582,60.50167,85.960834,96.10392,103.485527,4.025659,19.32745,33.269071,38.821811,30.40246,59.190616,51.478414,42.09094,34.991417,67.678594,56.285829,45.506143,39.838466,71.739158,58.916368,48.572387,45.069275,70.74357,61.699857,52.912788,-33.231385,-60.319269,-78.29151,-88.700623,-61.955938,-75.194403,-65.789475,-59.592461,-46.36735,-53.093158,-44.012925,-37.927648,-28.362823,-33.877686,-26.192194,-21.189505,-10.283126,-14.638156,-11.263152,-7.919233,70.297777,403.278955,-144.475712,-38.959337
56,1.315452,0.107495,-3.512921,-7.024731,-33.326294,-61.463768,-83.63015,-101.389206,-53.597511,-86.85276,-104.906181,-118.317157,-39.644691,-77.484237,-97.79932,-112.491039,-27.082054,-62.355423,-82.174118,-97.040909,-17.22203,-45.148864,-60.227142,-72.488914,-11.786239,-1.703731,18.482924,34.018648,21.052259,49.882786,65.079364,76.49583,39.119985,69.047915,83.906571,94.285988,52.066466,80.576236,94.434349,104.105378,60.255472,85.837815,96.094102,103.582599,3.197176,17.796158,31.731394,37.03291,28.610739,59.477303,51.559611,41.489634,33.486226,68.004885,56.676608,45.712012,38.716278,72.201817,59.737639,49.083527,44.437718,71.393652,62.437964,53.150414,-32.246948,-59.399756,-77.793302,-89.219827,-62.430506,-74.856974,-64.50545,-58.046369,-47.159151,-53.675193,-44.182166,-38.592359,-29.360866,-35.002789,-26.691347,-21.834492,-11.300335,-15.989185,-11.971108,-8.435965,70.94268,403.805543,-148.659182,-45.564975
57,1.239144,-0.135036,-6.106255,-6.516786,-33.255822,-61.352692,-83.510788,-101.095059,-52.960968,-86.05188,-104.173909,-117.694863,-38.91449,-76.718766,-97.231934,-112.038929,-26.433129,-61.575692,-81.543824,-96.52137,-16.688073,-44.572312,-59.766632,-72.178322,-11.561764,-1.530694,18.604411,34.243185,21.012764,49.837733,65.05648,76.502326,39.085195,68.977952,83.86037,94.22693,52.0698,80.566121,94.512538,104.218443,60.306972,85.951127,96.245045,103.707125,3.103165,17.465481,31.35179,36.240852,27.616885,60.995292,52.698374,41.998172,32.532103,69.320792,58.115973,46.914908,38.113117,73.249586,61.427922,50.638189,44.421495,72.94101,64.250642,54.554815,-32.006038,-59.316812,-78.102485,-90.845081,-63.174621,-74.488108,-63.508162,-57.320398,-47.903727,-53.897912,-44.367273,-39.535254,-30.150965,-35.915673,-27.542915,-23.183444,-12.062954,-17.759667,-13.543907,-9.990195,71.657765,404.392144,-155.289496,-51.360124
58,0.859954,0.454693,-6.926764,-6.362024,-33.10572,-61.280525,-83.365081,-100.687316,-52.818626,-85.770652,-103.718433,-117.037216,-38.577117,-76.372787,-96.893852,-111.67448,-26.029815,-61.227516,-81.253028,-96.30384,-16.2873,-44.226699,-59.525184,-71.945617,-11.918768,-1.914954,18.156869,33.905101,20.58308,49.688815,65.030878,76.523964,38.707345,68.831752,83.618147,93.795677,51.786638,80.37262,94.233513,103.814274,60.109654,85.790156,96.127385,103.634605,2.844077,17.022621,30.693948,34.935215,26.111043,62.542546,53.830728,42.324495,31.09289,70.507211,59.258413,47.675386,36.973427,73.943526,62.643123,51.638838,43.810946,73.955009,65.577113,55.570181,-32.079472,-60.051076,-79.589357,-94.12328,-64.614704,-74.457097,-62.924726,-57.417109,-48.834852,-54.027519,-44.416572,-40.665967,-30.779134,-36.504805,-28.103908,-24.475335,-12.464649,-19.058277,-14.61703,-11.052989,72.314117,405.759789,-162.419862,-56.809196
59,0.711731,0.385199,-8.350501,-6.127609,-33.103935,-61.211402,-83.246681,-100.467773,-52.559326,-85.616638,-103.631103,-116.95491,-38.264167,-76.105361,-96.694496,-111.55529,-25.732795,-60.90937,-81.001052,-96.146049,-16.076454,-44.095275,-59.497856,-72.02005,-11.965204,-2.026722,18.034381,33.891689,20.404053,49.502564,64.844676,76.330599,38.620659,68.705831,83.435724,93.540846,51.804076,80.338558,94.083138,103.532063,60.19939,85.87263,96.161422,103.48202,2.956936,17.119824,30.694336,34.420498,25.061234,64.775231,55.87048,43.558903,29.998158,72.231835,61.103737,49.000626,36.068173,75.11887,64.343949,53.0037,43.327011,75.177475,66.964565,56.547135,-32.480037,-61.284684,-81.763383,-98.474595,-65.914458,-73.906635,-62.434655,-57.99217,-49.421812,-53.35753,-44.018324,-41.475936,-30.906476,-36.270271,-28.142484,-25.523032,-12.353126,-19.690749,-15.236389,-11.911913,72.784503,406.940139,-171.011708,-62.141654
60,0.228379,0.571019,-9.512008,-5.362078,-33.281685,-61.386772,-83.345925,-100.361138,-52.594574,-85.473152,-103.418621,-116.672356,-38.218964,-75.86364,-96.42112,-111.296917,-25.640351,-60.693466,-80.778237,-95.935272,-15.967324,-43.868111,-59.380554,-71.931084,-12.24607,-2.345145,17.688047,33.550468,20.199177,49.349348,64.728894,76.237552,38.538531,68.611327,83.249571,93.256954,51.812016,80.318958,93.887697,103.117457,60.232587,85.824341,96.105933,103.345292,3.603778,18.201484,31.702755,34.70137,23.897506,67.519889,58.799503,45.835647,28.230262,74.121997,63.272174,50.674243,34.05067,76.002193,65.91893,54.199596,41.471454,75.71236,68.209281,57.659488,-32.86649,-62.7425,-84.375334,-103.489266,-66.9325,-72.571144,-61.621724,-58.619005,-49.309458,-51.822551,-42.991514,-41.776914,-30.033418,-34.932968,-27.278708,-25.741357,-11.092085,-19.018404,-15.027197,-12.252585,72.851904,408.231677,-180.684694,-66.783213
61,0.044586,0.486186,-7.662415,-5.083115,-33.312584,-61.372147,-83.244026,-100.285469,-52.548683,-85.492607,-103.434231,-116.591068,-38.189598,-75.882088,-96.477356,-111.340199,-25.639252,-60.693878,-80.820282,-95.95887,-15.973457,-43.976624,-59.645096,-72.229729,-12.428086,-2.579908,17.538067,33.414308,20.06892,49.019057,64.390266,75.982881,38.476298,68.321421,82.938213,92.981967,51.83274,80.104672,93.563013,102.694751,60.357186,85.748239,95.924213,103.0027,4.341316,19.478336,32.322681,34.064873,23.473297,69.169212,59.964844,46.468529,26.959774,75.036003,63.999687,50.958344,32.259418,75.878815,65.749741,53.79752,39.527813,74.885616,67.469055,57.029274,-33.19323,-63.937099,-86.376504,-106.543401,-66.743291,-70.516806,-60.028922,-58.314946,-47.907242,-49.70001,-41.458035,-40.834448,-27.716246,-32.467934,-25.580898,-24.714701,-8.38205,-16.648251,-13.457465,-11.217012,72.674023,409.245975,-188.569576,-71.338216
62,-0.48745,0.461534,-6.124294,-3.302733,-33.278526,-61.418815,-83.274353,-100.20496,-52.625999,-85.535362,-103.370533,-116.339367,-38.227844,-75.965149,-96.458633,-111.221157,-25.633712,-60.846771,-80.911926,-95.948364,-15.972679,-44.040481,-59.787506,-72.330047,-12.803206,-3.029672,17.07804,32.989219,19.660023,48.682111,64.137622,75.798421,38.174241,68.143321,82.764559,92.779315,51.671263,79.9428,93.268761,102.232575,60.365845,85.601423,95.711287,102.74246,4.706188,19.959125,32.155403,33.041221,21.900924,69.195316,60.172119,46.28445,24.739952,74.4902,63.385151,50.041752,29.436836,74.605259,64.359947,52.167927,36.272575,72.400703,65.090698,54.812736,-33.031191,-64.586491,-87.830584,-108.553772,-65.682345,-68.030833,-58.236153,-57.358025,-45.684888,-46.788923,-39.179587,-38.87588,-24.564017,-29.17011,-22.852315,-22.308825,-4.82246,-12.744735,-10.162698,-8.328463,71.92555,409.925583,-194.954893,-74.422875
63,-0.57463,-0.179347,-5.943981,-1.216662,-33.220002,-61.354454,-83.296807,-100.325421,-52.427857,-85.382447,-103.253815,-116.239083,-38.012444,-75.87291,-96.334053,-111.059315,-25.40284,-60.75634,-80.771347,-95.722046,-15.821755,-44.047989,-59.829369,-72.406952,-12.634555,-2.859477,17.250632,33.187116,19.665826,48.691212,64.190084,75.896505,38.142859,68.195648,82.879254,92.924613,51.663556,80.023198,93.305453,102.229758,60.451936,85.67278,95.64972,102.547217,5.836715,21.273559,33.050331,33.589359,21.423934,69.429451,60.368465,46.340629,23.333953,73.876728,62.67897,49.432491,27.2322,73.464466,63.151428,50.975704,33.371555,70.016624,62.865806,52.899284,-32.869856,-64.690967,-88.212409,-109.024218,-62.976115,-64.04159,-55.591852,-55.412862,-42.161595,-42.693068,-36.280782,-36.101829,-20.416891,-24.900002,-19.67294,-19.364713,-0.433704,-8.161836,-6.658325,-5.418648,71.00536,409.737171,-201.244434,-75.648602
64,-0.549408,-0.439293,-4.201401,1.39638,-33.070382,-61.209023,-83.161446,-100.110844,-52.26162,-85.222344,-102.991436,-115.868912,-37.782784,-75.718918,-96.034882,-110.553635,-25.077073,-60.554261,-80.461213,-95.260827,-15.412972,-43.724625,-59.445603,-71.932297,-12.558366,-2.639237,17.560508,33.488076,19.881904,48.959778,64.515114,76.276048,38.21691,68.313876,83.133048,93.269169,51.612637,79.993781,93.408082,102.460199,60.3582,85.542389,95.541275,102.561432,6.582275,22.153839,33.435081,33.223263,19.875355,68.62397,59.79301,45.861889,20.737873,72.526039,61.3969,48.353508,23.886783,71.345867,61.094536,48.996219,29.545177,67.208713,60.334224,50.392147,-32.4074,-64.242776,-87.907346,-108.544636,-60.874729,-60.767626,-53.127325,-53.54246,-39.324638,-39.56268,-33.73228,-33.713082,-17.04588,-21.370934,-16.570179,-16.358703,3.185253,-4.275147,-3.348416,-2.418294,70.174479,409.254841,-205.727308,-74.295259
65,-0.088417,-0.342591,-2.878338,3.181209,-32.976929,-61.140748,-83.136384,-100.089879,-52.334473,-85.094307,-102.752049,-115.614739,-37.8723,-75.708069,-96.004189,-110.48766,-25.119233,-60.584839,-80.410355,-95.122193,-15.423958,-43.802971,-59.452561,-71.864068,-12.682794,-2.686057,17.559656,33.518877,19.735283,48.9167,64.467158,76.199156,38.04533,68.234045,83.098863,93.206751,51.398042,79.838614,93.370451,102.503127,60.109036,85.344417,95.370399,102.448281,7.022724,22.420658,33.354446,32.90395,18.626141,67.319504,58.791332,44.999748,19.204353,71.162041,60.145626,47.315494,22.18816,69.922909,59.727459,47.77478,27.741291,65.654709,58.526836,48.389191,-32.144122,-63.910602,-87.553637,-107.787129,-58.843752,-58.628157,-51.629588,-52.301426,-37.110016,-37.549215,-31.994599,-31.882973,-14.737372,-19.230653,-14.648069,-14.381727,5.420939,-1.988283,-1.190826,-0.261452,69.916981,408.832944,-208.774727,-71.193356
66,0.045707,-0.615553,-2.00481,4.039736,-32.961845,-61.073066,-82.976761,-99.880245,-52.214378,-84.919372,-102.597358,-115.537456,-37.693336,-75.382164,-95.553451,-109.952533,-24.899231,-60.089401,-79.817367,-94.491234,-15.224396,-43.402931,-58.938926,-71.349907,-12.434421,-2.204749,18.299895,34.336699,20.250566,49.446544,64.931559,76.588838,38.411671,68.779375,83.652641,93.767025,51.551072,80.268101,93.866357,103.074998,59.983757,85.428101,95.457578,102.4642,7.548889,23.151935,33.952995,33.429725,18.902149,67.609989,58.967399,45.129272,19.107685,71.32632,60.153694,47.374351,21.798854,69.890728,59.555717,47.662159,27.039196,65.377521,58.203655,48.031688,-32.32208,-63.793622,-87.258815,-107.017419,-57.752752,-57.379156,-50.908429,-51.69608,-35.726744,-36.116093,-30.886796,-30.739472,-13.239893,-17.756664,-13.479565,-13.208005,6.969683,-0.49241,-0.075273,0.762846,70.004299,408.203368,-210.737926,-67.167643
67,0.264107,-0.647675,-0.489785,4.097659,-33.148453,-61.155579,-82.912491,-99.738991,-52.218361,-84.644371,-102.212585,-115.120468,-37.63916,-74.960976,-94.978111,-109.278076,-24.763916,-59.582039,-79.187851,-93.812988,-15.021011,-42.997055,-58.435295,-70.83593,-12.130893,-1.671337,18.994291,35.127919,20.928635,50.2914,65.741316,77.342786,38.96204,69.432348,84.276295,94.349973,51.918956,80.837056,94.427655,103.617253,60.129587,85.79822,95.843506,102.823439,8.230374,24.244789,35.109467,34.343594,19.862584,68.554104,59.292687,45.369667,19.518288,71.971951,60.493389,47.777424,21.902573,70.390824,59.743527,47.812168,26.97733,65.821553,58.502163,48.300866,-32.296281,-63.581874,-86.871875,-106.40777,-57.379749,-56.267303,-50.234664,-51.341806,-35.136114,-35.340422,-30.341009,-30.247204,-12.506509,-16.782218,-12.778192,-12.637858,7.962333,0.427115,0.433408,1.037901,70.597996,407.636333,-210.898121,-62.989344
68,0.295761,-0.910905,1.154881,4.877189,-33.28949,-61.24292,-82.846504,-99.505577,-52.023697,-84.057175,-101.480186,-114.331192,-37.361435,-74.208595,-94.080528,-108.278641,-24.462387,-58.846367,-78.323662,-92.824791,-14.703483,-42.278549,-57.560944,-69.851257,-11.823784,-1.021698,19.82902,35.997662,21.406299,50.982708,66.528325,78.17197,39.39612,70.102217,85.060192,95.131091,52.279936,81.457821,95.21107,104.418057,60.361324,86.303055,96.596317,103.732158,8.581123,24.929375,35.939461,35.001835,19.962158,68.963138,59.902279,46.070412,19.1105,72.564411,61.309914,48.362697,21.247444,70.616009,60.092514,47.895378,26.402172,66.22467,58.919941,48.262104,-32.220253,-63.298957,-86.558612,-106.071881,-58.041188,-56.512544,-50.352866,-51.682501,-35.661338,-35.726213,-30.288033,-30.279765,-12.96837,-16.954625,-12.372349,-12.235973,7.604088,0.266521,0.525793,1.153134,71.628204,406.888097,-209.008793,-57.949486
69,0.041199,-1.784044,1.539894,5.382061,-33.379303,-61.227059,-82.491554,-98.80513,-51.76268,-83.075272,-100.209835,-112.945919,-36.867897,-72.996987,-92.673134,-106.725872,-23.797096,-57.536522,-76.94886,-91.387871,-14.03167,-41.195572,-56.531799,-68.959442,-11.401015,-0.261883,20.661663,36.859686,21.601344,51.500819,67.33302,79.173501,39.503406,70.66543,85.822131,95.929253,52.357014,81.99032,95.980296,105.150442,60.468968,86.647746,97.101782,104.216417,9.528431,26.551586,38.148136,38.13525,21.303577,70.017139,60.741852,46.977379,20.066013,73.150806,61.820377,48.949345,21.796177,70.946926,60.458988,48.299297,26.490944,65.888432,58.57616,48.233128,-32.310631,-63.14573,-86.239066,-105.701622,-58.11598,-56.068762,-50.056242,-51.463305,-35.84717,-35.27993,-29.988315,-30.063256,-13.132311,-16.706592,-12.428962,-12.430852,7.599488,0.547967,0.595064,0.874646,72.580055,405.354701,-206.558247,-52.316777
70,0.02845,-3.42285,1.640705,6.009841,-32.886269,-60.864006,-81.824181,-97.906151,-51.247513,-82.215981,-99.071514,-111.546009,-36.219246,-72.012818,-91.277779,-104.900402,-23.002785,-56.396416,-75.618553,-89.653176,-13.17984,-40.052834,-55.257317,-67.484413,-11.314392,-0.206197,20.599975,37.043838,20.964327,51.519876,67.715477,79.773579,38.511842,70.59422,85.988906,96.309191,51.313222,81.380831,95.68976,105.024224,59.587579,85.779622,96.321812,103.536434,11.455639,29.610558,41.978966,43.159493,23.303215,71.594215,62.217842,48.737846,20.700531,73.702744,62.363308,49.647434,21.24091,70.448856,60.007599,47.976723,24.930611,64.221634,56.943752,46.879932,-32.186143,-62.160435,-84.823046,-103.874666,-58.517574,-54.386416,-48.202174,-49.812841,-36.350801,-33.426437,-28.115951,-28.59301,-13.496183,-15.037084,-10.850221,-11.292656,7.726211,2.31141,2.360601,2.117724,73.708254,402.261141,-203.817793,-45.977646
71,-0.142983,-5.620522,2.749294,7.08723,-32.032081,-60.436432,-81.059463,-96.837089,-49.73069,-80.262291,-97.057365,-109.427513,-34.777794,-70.129142,-89.245697,-102.757587,-21.734825,-54.526657,-73.687591,-87.607544,-12.090683,-38.137458,-53.372932,-65.472267,-11.702926,-1.625049,18.126339,34.521283,17.394424,48.348818,65.145968,77.45884,35.315258,67.785341,83.471712,94.091474,48.800646,78.702851,92.887007,102.228807,57.887195,83.593681,93.769791,100.938384,14.000588,33.375355,46.553627,49.497906,24.904988,72.612774,63.405178,50.438691,20.442879,73.230675,61.921395,49.113259,19.472294,68.322567,58.149868,46.244397,21.849095,60.109486,52.933033,43.309754,-31.593987,-60.390668,-82.486064,-101.063182,-58.455255,-51.861985,-45.466513,-47.598724,-36.742118,-31.168353,-25.925737,-27.115859,-14.104115,-13.140024,-9.430251,-10.74722,7.261095,4.02496,3.848002,2.6387,74.625744,396.835034,-200.008026,-38.696001
72,-1.671455,-5.453599,2.365471,7.979876,-30.413681,-57.196243,-76.248596,-91.199341,-48.037514,-77.003128,-92.791695,-104.100082,-34.293594,-67.097214,-84.861488,-97.085209,-21.605988,-51.344444,-69.160858,-82.133469,-11.357094,-34.230103,-47.938316,-58.800316,-10.52064,-1.607734,16.11624,31.397911,13.796635,41.33165,56.97093,68.587924,30.638726,59.642376,74.712959,85.11946,43.503585,70.092226,83.599153,92.697915,52.473302,75.499437,85.141134,91.893122,16.79298,37.730862,52.551235,58.688542,26.32425,73.824314,67.005604,55.195175,20.14412,72.91943,63.60537,51.227291,17.755188,66.69746,58.177895,46.85994,18.917176,56.683846,51.082066,42.343918,-30.55708,-57.090571,-77.411675,-94.979679,-58.040805,-49.741457,-41.151129,-41.530208,-37.684955,-29.329469,-22.064879,-22.37252,-15.667907,-11.542393,-6.581396,-7.608873,5.849802,5.438378,6.156529,4.811241,73.936678,391.327092,-196.660166,-30.770468
73,3.159348,-23.678159,1.681629,8.16732,-31.996857,-59.667664,-77.611496,-89.912133,-51.341401,-79.585557,-93.40004,-102.038613,-37.333855,-69.021973,-84.360398,-93.577206,-23.765465,-52.348412,-67.863419,-78.01117,-12.050011,-33.550667,-46.22184,-55.463814,-10.02014,-1.373428,15.616704,30.938859,15.462106,43.398165,57.953392,67.324486,32.242422,62.381625,76.193723,84.613107,45.003071,72.674085,85.169503,92.684689,54.145911,78.07238,86.99161,92.207012,21.165528,43.429608,59.116986,68.459095,28.382756,73.62513,72.327107,65.10735,19.69978,69.885178,66.367299,58.541737,14.994713,61.685681,58.795693,52.109196,13.958382,49.993962,48.802918,44.431286,-27.777453,-51.310239,-69.796268,-85.549052,-57.030211,-46.601474,-35.096767,-32.146678,-39.007161,-26.92092,-16.206945,-13.22453,-18.114483,-9.40247,-1.302835,0.411233,3.354869,6.38506,9.202398,9.41411,77.850117,367.379679,-194.224446,-22.872402
74,6.258682,-33.052093,0.342694,6.900713,-32.53727,-60.661766,-78.337395,-88.398651,-54.335427,-81.013779,-91.890702,-97.421173,-40.642067,-69.857437,-81.814499,-87.918366,-26.319535,-52.666329,-64.77134,-71.739922,-12.676598,-31.565598,-42.400635,-49.624626,-10.81882,-3.839245,10.981953,25.505823,16.130381,43.166527,55.211673,61.0471,33.010004,63.042058,74.4646,79.881074,45.548178,73.189071,83.724975,88.867982,54.20366,78.091634,86.331189,89.88821,25.170376,49.360702,66.751385,79.089969,30.74382,72.171432,76.496921,74.155014,18.990944,66.454399,69.312275,66.343597,11.804592,56.080868,59.559562,57.895386,8.74855,42.945968,46.376346,46.004722,-24.611596,-44.845261,-60.413781,-73.295065,-56.219662,-45.146553,-32.324389,-26.656769,-40.655384,-25.845029,-12.209174,-6.102589,-20.910622,-8.418384,2.337939,6.547977,0.301966,6.769081,11.405116,12.990305,84.800652,334.052905,-193.189899,-16.24637
75,12.176491,-43.01593,2.912304,5.7367,-32.416832,-60.250077,-78.49347,-88.590271,-56.251259,-81.761353,-89.551506,-91.5103,-43.554223,-69.668129,-77.735459,-80.297905,-29.102211,-52.403458,-60.502419,-64.14592,-14.129631,-30.141633,-37.980561,-42.432518,-11.725909,-7.227416,3.916965,15.128345,13.679433,36.810866,46.08747,49.221958,30.788361,58.266788,66.572218,68.672399,43.56667,69.592665,76.894009,78.802196,52.327522,75.345531,81.423155,82.07908,27.047687,51.540985,68.803871,82.42131,31.375316,65.661976,73.719234,74.992847,18.009899,58.247097,65.128967,65.399368,8.330669,46.309868,53.672573,54.980083,2.241806,31.951355,39.329303,42.177406,-19.458036,-37.851088,-52.271958,-63.730717,-54.316002,-46.597528,-33.459979,-25.445782,-43.170034,-30.614187,-15.712553,-6.913693,-26.940704,-15.369764,-2.980223,3.865317,-8.149739,-1.846028,4.361852,8.017408,97.418095,291.082287,-189.836643,-10.464358
76,11.724952,-44.019472,-0.017865,1.869321,-32.888305,-59.32077,-76.480705,-85.197441,-55.333259,-75.65403,-80.306213,-79.995781,-41.499641,-61.264526,-65.87725,-65.781601,-25.735565,-43.220192,-48.369598,-49.534767,-9.330047,-20.687759,-26.59378,-29.396049,-11.436127,-13.287108,-9.346172,-3.919256,0.543446,11.323852,20.156415,23.619909,13.527236,28.655951,37.813037,40.088027,23.956628,39.130482,48.027722,50.341831,32.126182,47.00337,54.543329,55.886444,28.792935,53.347287,70.728287,85.719189,32.50842,58.059563,68.299267,72.874718,18.153649,48.39029,58.447712,62.573559,6.682812,35.494561,45.265069,49.500996,-1.704334,21.168171,30.252984,35.266274,-14.779412,-31.556832,-44.599692,-55.117467,-50.90733,-48.675861,-39.766166,-33.719412,-43.656047,-35.864102,-24.454028,-17.309857,-30.415153,-22.276239,-12.307678,-6.133218,-13.600405,-9.468592,-4.581794,-1.141864,109.489609,248.19855,-189.507946,-7.459302
77,16.445206,-54.916408,-3.142581,-0.964646,-33.581566,-60.286011,-77.165794,-85.026512,-50.121849,-65.132469,-67.066773,-65.161766,-33.935417,-47.555031,-49.350334,-47.76004,-17.276711,-29.336197,-32.126427,-31.836525,-0.883415,-8.387444,-13.201424,-15.418396,-14.395836,-23.306791,-26.147069,-27.00051,-17.482474,-15.367331,-10.819024,-9.6605,-6.33579,-0.625495,4.249318,4.632967,4.073119,11.310446,16.67686,17.237109,13.714285,22.530391,28.046901,28.890616,30.839057,56.098743,72.826824,87.922004,34.501087,51.013458,61.046882,67.543613,18.897399,39.039905,49.749973,56.134151,5.524807,24.4808,34.889156,41.16996,-5.570321,9.033348,17.939689,24.219154,-11.876525,-29.50691,-43.420216,-54.169407,-54.251294,-60.196025,-57.199382,-54.854435,-50.091867,-51.359757,-45.504052,-41.188381,-39.628198,-39.111804,-33.728977,-29.828704,-24.774321,-25.205043,-22.664155,-20.249795,126.112518,194.918315,-192.472824,-6.787775
78,13.578346,-47.206918,-2.639454,-4.670129,-30.555404,-54.284317,-70.251114,-79.769188,-39.018013,-47.334297,-47.013038,-44.510353,-22.82492,-28.583267,-27.996025,-25.883858,-7.083366,-11.458854,-12.015632,-11.271309,8.069092,6.619972,4.322205,3.05056,-17.214422,-34.580755,-45.379031,-53.104113,-39.855957,-50.020717,-50.48513,-52.12774,-30.862491,-38.187467,-38.354286,-40.751882,-20.703499,-25.358517,-25.053136,-27.605756,-9.76894,-10.873463,-9.178544,-10.431052,31.190803,56.512149,73.045326,87.823585,34.651748,43.650432,49.735736,54.12466,18.710151,30.357593,37.325134,41.274467,4.304832,14.868953,21.584266,25.506248,-8.381894,-1.344178,4.035175,7.700992,-12.398803,-31.896496,-46.64849,-58.1344,-59.813394,-74.053953,-79.147349,-83.531727,-57.953916,-69.145388,-71.988648,-74.94234,-49.782577,-58.855583,-61.693286,-64.295053,-36.641867,-43.247654,-45.939286,-48.234704,140.312204,149.786523,-194.490938,-9.382778
79,12.009751,-46.7903,-1.606041,-11.260119,-28.598969,-49.579857,-63.506882,-74.954018,-27.698731,-30.360283,-28.940941,-26.432625,-11.104638,-10.338501,-8.087655,-5.248787,3.654945,5.721084,6.576667,7.781341,17.027504,20.096717,19.875938,19.915672,-18.485912,-43.194784,-61.071145,-74.834386,-62.014766,-83.963647,-88.633985,-92.340266,-56.049206,-76.92628,-81.689422,-86.528568,-46.5478,-63.884401,-68.265951,-73.765955,-33.978387,-45.189495,-47.925131,-51.740139,31.073112,55.407097,70.402359,84.432563,33.508918,36.246895,38.284046,39.992477,17.770363,21.542175,24.348735,25.534366,2.681694,5.64965,8.09824,9.280208,-11.705647,-11.685196,-9.703995,-8.209603,-12.044307,-33.968155,-51.247581,-64.58772,-66.094257,-89.272904,-100.436656,-110.103615,-66.245799,-88.644017,-99.148481,-107.964708,-60.303433,-79.756375,-89.631433,-97.531599,-48.706385,-62.496048,-69.666429,-75.418301,153.5119,104.608143,-194.907034,-19.030977
80,7.005592,-42.976891,-4.677945,-14.016201,-28.066612,-46.868569,-57.908295,-69.072075,-17.683777,-13.895096,-11.505684,-9.511025,0.041588,6.789596,9.825416,12.553757,14.507149,22.175285,23.632347,24.669708,26.759582,33.972771,34.358894,34.472488,-19.291582,-50.066166,-73.203329,-90.612487,-80.922075,-112.634944,-121.614633,-128.436544,-78.201339,-111.441321,-120.504101,-127.867245,-70.014099,-99.307263,-107.580802,-115.519892,-56.542938,-77.51754,-83.527004,-89.0017,32.382191,57.0397,72.259438,87.035477,33.529828,33.91309,33.751259,33.935933,17.611062,17.771336,18.697564,18.681428,2.699776,1.526951,2.119687,2.587052,-11.697486,-15.874145,-16.434482,-16.31377,-14.566898,-38.026361,-56.108376,-69.962837,-74.522772,-102.445221,-119.348625,-134.843177,-74.687744,-103.614854,-120.92766,-136.168063,-68.659789,-94.56133,-110.982157,-125.017072,-56.763659,-75.319133,-87.2838,-97.918021,161.656792,62.900714,-198.445679,-31.777716
81,7.570633,-46.028387,-2.11647,-14.683291,-27.429474,-45.09343,-55.126076,-67.535866,-12.091026,-5.630768,-1.853142,1.283203,4.827804,14.291084,18.758789,22.537147,18.217735,28.280159,31.463631,33.470878,29.649994,38.646835,40.788162,42.238083,-20.812871,-52.744837,-76.738731,-94.951777,-87.185212,-119.949604,-135.738539,-148.738223,-83.916139,-119.362719,-136.8217,-150.408813,-74.999664,-106.809332,-123.415281,-137.328291,-60.325867,-83.775774,-96.254603,-106.825925,32.855095,57.90501,73.257294,88.288994,33.050778,33.057438,32.042381,30.728325,16.871052,16.538098,16.558273,14.996704,1.823147,0.056694,0.240795,0.009945,-13.01627,-17.620491,-18.361702,-18.654499,-16.985279,-42.238894,-61.519524,-75.433797,-84.682851,-115.977688,-134.441889,-151.52661,-85.250853,-118.888244,-138.4428,-155.69815,-79.609996,-110.671772,-129.63172,-146.354176,-68.004343,-90.470628,-104.329455,-117.313553,170.176277,17.831114,-199.613297,-45.50222
82,4.940323,-38.081664,2.03849,-16.011598,-27.732216,-45.007553,-55.17556,-68.982239,-12.049301,-5.0373,-0.614525,3.286926,4.027588,13.159881,18.004646,22.348205,17.107452,26.712227,30.58239,33.502968,28.668503,37.109459,40.016006,42.389831,-21.397771,-53.283004,-77.36882,-94.746133,-89.104647,-121.813577,-139.032035,-155.054272,-86.589806,-122.247822,-142.471641,-160.253721,-78.607262,-111.802786,-131.256657,-149.036802,-64.719113,-89.989552,-105.300409,-119.69506,32.427269,56.76336,72.294651,87.708058,31.715218,31.428189,30.191391,28.251275,15.720498,15.00951,15.007245,13.153714,0.718106,-1.20972,-0.69881,-0.867164,-14.200733,-18.221923,-18.697197,-18.95684,-18.084571,-43.747382,-63.10043,-76.044428,-88.568579,-120.187198,-140.198157,-159.027321,-89.68628,-124.166003,-145.843074,-165.426989,-84.536289,-117.380571,-138.151566,-156.867483,-73.580102,-98.239589,-113.788339,-128.979188,175.996325,-18.836633,-196.695082,-60.099901
83,2.082664,-30.052746,2.37608,-16.134666,-28.664062,-46.328499,-57.023575,-71.657844,-13.444244,-7.169678,-2.863174,0.962174,2.455239,10.395836,14.819527,18.841553,15.740296,24.048432,27.576714,30.329796,27.924729,34.973328,37.521858,39.880646,-21.130886,-52.353846,-76.395659,-93.105147,-91.743717,-124.723269,-143.012059,-160.154276,-90.94388,-127.887252,-149.685812,-169.091897,-84.487226,-119.730498,-140.417967,-159.433923,-71.808863,-98.970964,-115.45829,-131.126302,32.379559,57.095615,72.973904,88.734661,32.373344,32.376343,31.318142,29.326767,16.760193,16.477112,16.807056,15.328228,1.9571,0.681026,1.64748,1.994373,-13.217583,-16.342381,-16.204205,-15.83551,-17.03902,-42.959317,-62.594025,-74.801584,-90.529034,-122.944058,-143.022689,-161.777259,-92.05205,-127.614529,-149.765368,-169.385806,-87.344251,-121.448753,-142.437468,-161.230652,-77.002125,-102.99585,-118.773488,-134.290906,178.273269,-46.952386,-194.124722,-74.297574
84,-0.508804,-22.711759,3.166683,-11.9033,-29.765877,-48.451035,-60.508049,-76.032234,-15.883278,-10.523895,-6.448746,-2.707535,-0.001419,6.238495,9.754486,12.957481,13.523529,20.334366,23.048057,25.127838,26.287331,32.060303,33.845787,35.347938,-20.746069,-51.060693,-74.405421,-89.777806,-93.39018,-125.849658,-144.638471,-162.389556,-93.569939,-130.095338,-152.812599,-172.979144,-88.063176,-123.404122,-144.811057,-164.30433,-76.320545,-104.06686,-121.04124,-137.182535,32.833191,58.057492,74.426079,90.754452,33.933781,34.729855,34.168213,32.372292,18.755551,19.106552,19.909447,18.684025,4.090187,3.428799,4.881043,5.52562,-11.049785,-13.010673,-12.414654,-11.893627,-16.445166,-42.33322,-61.766084,-72.985754,-91.182786,-122.720009,-143.21309,-162.847256,-93.283025,-128.302715,-151.136721,-172.082142,-89.180087,-123.336395,-144.766594,-164.535564,-79.497311,-106.016324,-122.294054,-138.939393,177.068041,-67.19519,-191.654463,-83.731919
85,-2.890938,-17.221942,4.282265,-11.081877,-30.280655,-50.33519,-64.174713,-80.60614,-18.32254,-13.885666,-10.132324,-6.638306,-2.532486,2.236313,4.975159,7.377297,11.193878,16.678848,18.661697,20.010109,24.470421,29.274582,30.500061,31.251549,-19.629438,-48.476751,-70.979215,-84.882682,-93.130286,-124.686973,-143.502067,-161.352507,-94.148979,-129.861623,-152.983057,-173.549712,-89.539506,-124.281998,-145.856669,-165.363991,-78.81068,-106.423331,-123.503257,-139.831422,33.040317,58.649563,75.270332,91.971325,35.713097,37.056095,36.76656,35.060635,20.561806,21.831573,23.183956,22.358265,5.655579,6.084606,8.13097,9.140819,-9.93417,-10.98309,-9.949368,-9.049072,-14.342651,-40.057424,-59.569875,-70.289182,-89.971345,-121.989798,-142.419687,-161.810343,-92.702982,-128.345626,-151.28976,-172.249863,-89.278542,-123.965734,-145.574197,-165.372332,-80.286469,-107.306575,-123.684924,-140.474756,173.349752,-81.815692,-188.199549,-92.212356
86,-3.814522,-12.050871,4.661064,-9.468895,-30.503975,-51.9253,-67.454361,-84.784012,-20.791305,-17.70504,-14.320793,-11.149933,-4.982643,-1.928879,0.061249,1.724396,9.078575,13.04789,14.209282,14.770684,22.873169,26.323242,26.861893,26.695153,-18.082966,-45.466146,-67.079683,-79.404945,-91.674551,-122.191444,-141.091744,-158.934018,-93.61163,-128.639477,-152.036131,-172.827421,-89.958476,-124.060678,-145.68779,-165.114621,-80.385733,-107.601029,-124.734449,-141.135908,33.017613,58.851574,75.686543,92.627026,36.964073,38.789063,38.775032,37.180126,21.992821,24.032089,25.886993,25.50697,6.975105,8.273827,10.871613,12.322025,-8.960323,-9.580742,-8.337753,-7.140232,-11.99645,-37.317673,-56.752367,-66.641007,-88.378925,-120.725319,-140.842383,-159.44469,-91.686876,-127.827826,-150.663484,-171.219574,-88.859133,-123.645196,-145.130902,-164.518234,-80.353835,-107.502243,-123.721566,-140.213783,168.821108,-91.992546,-184.252607,-99.807234
87,-4.229439,-9.669818,4.088974,-7.751393,-30.328926,-53.05902,-69.721092,-87.895957,-22.687934,-20.83049,-18.113571,-15.553161,-7.137084,-5.46643,-4.2518,-3.206085,6.960091,9.549706,9.702439,9.324235,21.00895,23.419945,23.050644,21.874604,-15.845706,-42.03006,-62.821411,-73.661715,-89.467184,-119.909911,-138.587654,-156.055841,-91.948093,-126.937933,-150.080982,-170.539587,-88.810347,-122.830619,-144.083101,-162.929453,-79.762538,-107.025228,-124.157688,-140.443992,32.958321,59.200264,76.073731,92.856445,38.389641,40.883812,41.307541,40.085186,23.577347,26.452034,28.749653,28.782417,8.366146,10.544815,13.568115,15.293392,-8.032379,-8.185398,-6.650471,-5.113117,-9.681767,-34.160455,-53.491452,-63.082125,-86.009948,-118.5137,-138.33519,-156.32316,-89.881964,-126.403665,-148.916479,-169.118799,-87.563251,-122.266736,-143.570617,-162.612035,-79.477569,-106.489611,-122.555367,-138.647422,163.988943,-100.492602,-180.766359,-106.388865
88,-2.759925,-6.808002,2.108803,-4.898487,-29.994553,-54.165985,-71.883316,-90.580536,-25.107514,-24.810791,-23.54187,-22.308472,-9.718781,-10.170731,-10.718674,-11.280785,4.531013,5.109214,3.418327,1.237198,18.991195,20.017295,18.286491,15.581062,-14.230287,-39.347557,-59.549244,-69.431737,-86.665184,-116.837825,-134.658209,-151.150119,-89.620722,-124.0709,-146.026388,-165.043551,-86.993218,-120.428784,-140.491947,-157.74692,-78.533306,-105.405205,-122.030991,-137.629685,32.793983,59.524635,76.676365,93.73296,40.547024,44.134117,45.009041,44.192001,25.526504,29.668831,32.662491,33.380768,9.910148,13.374515,16.983581,19.288788,-7.138321,-6.398575,-4.218441,-1.799801,-8.345708,-32.241623,-51.588502,-60.842697,-83.28497,-115.093774,-134.30697,-151.710832,-87.881112,-123.647086,-145.307877,-164.709784,-86.302104,-119.862419,-140.36126,-158.510003,-78.965989,-105.06263,-120.641555,-136.036834,160.656206,-107.050511,-179.230368,-111.037259
89,-1.397278,-4.022662,1.90115,-2.839142,-29.98938,-54.968216,-73.245209,-92.237595,-27.253327,-29.188294,-30.234558,-31.182472,-12.196907,-15.054978,-18.557305,-21.807541,2.056709,0.231628,-4.176178,-8.834061,17.034828,16.02008,12.097755,6.929855,-13.696097,-37.822514,-57.28256,-66.92728,-83.096699,-111.5607,-127.394114,-141.022555,-86.368718,-119.197997,-137.921461,-152.607843,-84.502509,-116.394853,-133.317476,-146.453855,-77.324836,-103.021603,-118.006733,-131.132496,32.838787,59.098388,76.29293,93.185165,40.699596,45.862667,47.73587,47.164032,25.902156,31.450149,35.074527,35.440143,10.057491,14.716392,19.229644,21.268627,-7.514523,-5.691857,-1.638874,1.648086,-9.053049,-32.655335,-51.899539,-61.348433,-80.983606,-111.788976,-124.451629,-135.1834,-85.092729,-119.036794,-132.253266,-144.240805,-83.735554,-115.510648,-128.784935,-139.890694,-77.165584,-102.58634,-114.39421,-124.579524,158.76356,-111.114305,-177.824586,-113.917533
90,-0.81086,-2.580223,1.954914,-0.993182,-30.162392,-55.370293,-73.934578,-92.662216,-28.478119,-32.706642,-36.144218,-39.134857,-13.93531,-19.590866,-26.008736,-31.30101,0.361221,-4.005089,-11.099716,-17.500786,15.932259,12.74009,6.154656,-1.598213,-13.55073,-37.018347,-55.808077,-66.024485,-78.509344,-104.055437,-117.281847,-127.601085,-82.061092,-111.774964,-126.096404,-135.631734,-81.162404,-110.377268,-123.050768,-131.3036,-75.631003,-99.761193,-112.114307,-121.574554,32.852176,57.976433,74.648632,91.413494,39.846817,46.913532,50.52396,50.860885,25.357967,33.127086,38.43861,39.251907,9.389522,16.183136,22.499702,25.040428,-8.617642,-4.843895,1.764347,6.558735,-10.708315,-34.321326,-52.955486,-62.592471,-79.036448,-107.069079,-112.102689,-115.645872,-82.394803,-111.938701,-116.237329,-120.47037,-81.0139,-108.750737,-113.610286,-116.921794,-75.047992,-98.596138,-105.571131,-109.931544,157.64554,-113.927012,-176.176832,-115.143199
91,-0.922439,-2.66311,1.791366,0.42551,-30.21064,-54.953659,-73.545205,-91.690613,-29.178063,-35.297539,-41.250596,-46.201882,-15.076012,-23.368836,-32.495293,-39.423592,-0.72567,-7.520325,-17.120064,-24.993874,15.297912,10.115295,1.00003,-9.02726,-13.31249,-36.251462,-54.270365,-64.971113,-73.273045,-95.792089,-105.414783,-111.390404,-77.060309,-102.757996,-111.677227,-115.342852,-77.040722,-102.777861,-110.298425,-112.811828,-72.996094,-95.420191,-104.867856,-110.16782,32.804512,56.862316,72.612042,89.090515,39.41454,48.412113,53.470185,54.610234,25.135048,34.92564,41.565079,42.633019,8.888134,17.7449,25.632088,28.621868,-9.740272,-3.906452,5.10624,11.32211,-12.332215,-36.311391,-54.372738,-64.864142,-76.538518,-101.349623,-98.79252,-95.395522,-79.315193,-104.199325,-99.648989,-96.120708,-78.063219,-101.704392,-98.136376,-93.662329,-72.908541,-94.598818,-96.654375,-95.087246,156.44632,-116.84027,-174.662247,-114.967837
92,-1.303139,-2.530047,1.882336,1.815024,-29.64521,-53.637406,-72.244698,-89.830673,-29.886887,-37.754814,-45.723129,-51.944435,-16.072907,-26.503853,-37.693428,-45.69191,-1.542526,-10.062218,-21.777374,-30.820221,14.833076,8.38504,-2.819939,-14.750954,-12.627762,-35.031209,-52.307051,-63.415688,-67.200602,-86.590207,-91.429201,-92.282471,-71.437171,-93.490528,-96.024314,-93.346966,-72.292408,-94.820336,-96.391705,-92.882722,-69.60211,-90.382556,-96.50912,-97.337801,32.57,55.324608,70.087692,86.563179,38.524761,49.414501,55.212547,56.698242,24.215641,36.084137,43.473061,44.595303,7.664726,18.729103,27.685444,30.970905,-11.372715,-3.522984,7.425934,14.784954,-13.816578,-38.49823,-56.175199,-67.569901,-74.340228,-95.26965,-85.190186,-74.84834,-76.497519,-95.904401,-82.557531,-71.164543,-75.294223,-94.093935,-82.143841,-70.017672,-70.798502,-90.073471,-87.11671,-79.861932,154.93582,-119.635804,-172.987272,-113.4183
93,-2.290192,-2.512624,3.233723,1.636238,-29.098892,-51.97055,-69.99646,-87.114281,-29.528023,-37.999306,-47.028259,-53.580002,-15.970688,-27.374428,-39.42366,-47.170555,-1.31797,-10.71643,-23.440819,-32.418892,15.201851,7.84465,-4.832908,-17.84008,-11.406367,-33.399517,-49.955627,-61.375028,-61.457224,-78.474212,-79.037233,-75.277939,-65.905437,-85.054178,-82.076255,-74.115306,-67.370123,-87.233131,-83.510399,-74.903145,-65.689999,-85.173625,-88.225321,-84.916104,31.921589,53.012558,66.543605,82.658569,36.272586,48.577709,54.913169,56.695472,22.014312,35.582679,43.36037,44.179126,5.33472,18.316852,27.970756,31.079464,-13.827713,-3.844723,8.962715,17.15736,-14.752044,-39.877929,-56.757234,-68.882063,-72.678531,-90.032873,-72.755663,-55.90941,-74.032014,-88.518685,-66.864177,-48.22191,-72.538197,-87.213785,-67.484787,-48.468915,-68.29516,-85.723868,-77.867965,-65.037084,152.508842,-122.031849,-169.890335,-111.665483
94,-2.423309,-2.837234,2.530094,1.485233,-28.080849,-50.224182,-67.912766,-84.356644,-29.368126,-37.521057,-46.501396,-52.37526,-15.93457,-27.610428,-39.013344,-45.310112,-1.006622,-10.536736,-22.956986,-30.910629,15.593422,8.333816,-4.546898,-17.166962,-9.519694,-30.847826,-46.761673,-58.293386,-56.320195,-72.42976,-70.040748,-63.654227,-61.031878,-78.260184,-71.868202,-61.691302,-62.786501,-80.97372,-73.989424,-62.890729,-61.432858,-80.545752,-81.723336,-76.124355,30.99646,51.300041,63.787479,79.920936,35.496368,48.715301,54.890453,57.017624,20.942528,35.885078,43.937176,45.417446,4.015583,18.793819,28.644241,32.361248,-15.381169,-3.775097,9.627182,18.704292,-14.305703,-39.753637,-55.818198,-68.28828,-70.505583,-84.77544,-66.352476,-48.890904,-71.998526,-83.068979,-60.846272,-41.304341,-70.636738,-82.340621,-61.349244,-41.439368,-66.726884,-82.574186,-73.369357,-59.531044,150.109692,-124.558207,-167.336082,-109.869374
95,-1.990082,-2.089609,1.939464,1.250526,-27.082535,-48.52446,-65.553017,-81.915459,-29.732048,-37.971428,-46.828949,-51.906761,-16.10289,-28.016807,-38.656082,-43.731972,-0.871124,-10.591576,-22.721832,-30.026276,15.805458,8.446266,-4.371666,-16.459877,-7.649064,-28.54273,-43.881211,-54.91383,-52.99606,-69.4163,-64.52974,-56.054431,-57.906764,-74.467496,-65.452075,-53.896973,-59.654634,-77.242924,-67.969324,-55.318415,-58.219042,-77.379639,-77.443378,-70.559226,29.888775,49.934235,61.920857,78.046738,34.925881,48.689438,53.945904,55.772278,20.09911,35.444424,42.533284,43.781697,2.976082,18.410912,27.392601,30.826012,-16.476242,-4.236591,8.972535,18.10635,-13.628353,-39.384641,-55.160569,-67.857772,-68.868555,-81.215568,-62.846207,-45.571079,-70.503999,-80.278867,-57.936787,-37.988671,-69.234815,-79.891738,-58.684041,-38.710815,-65.458691,-80.719564,-71.298829,-57.331809,148.158073,-126.295203,-165.358155,-108.266235
96,-0.91214,-0.621719,1.338375,0.890132,-26.436149,-47.742073,-64.371116,-81.069351,-30.353187,-38.819,-47.267441,-51.415375,-16.654312,-28.733024,-38.568306,-42.628921,-1.22097,-11.115074,-22.810409,-29.416466,15.673187,8.250687,-4.483131,-16.171646,-6.381556,-26.853399,-42.015215,-52.885125,-50.985003,-68.036446,-61.219846,-51.602201,-56.059207,-72.710798,-61.693055,-49.530984,-57.808454,-75.488103,-64.666445,-51.347428,-56.384879,-75.726679,-74.893354,-67.159307,28.948666,48.605381,60.372609,76.512818,33.697587,48.088028,52.585064,54.151211,18.671357,34.687581,41.062741,42.165368,1.507359,17.751858,26.108952,29.265908,-17.733318,-4.948391,8.363984,17.841649,-13.258678,-39.199751,-54.844542,-67.618137,-68.081286,-78.725532,-60.255224,-43.106527,-69.550394,-78.120458,-55.44286,-35.274206,-67.998244,-77.538652,-56.011909,-36.156663,-63.916274,-78.486407,-69.207071,-55.671939,147.31806,-126.413375,-163.947653,-106.872556
97,-0.658127,0.334388,0.459435,0.363753,-26.052429,-47.165794,-63.474495,-80.357093,-29.741272,-38.054672,-46.452049,-50.394722,-16.05336,-28.247131,-37.696563,-41.287834,-0.648651,-10.759117,-21.996528,-28.073684,16.218613,8.661667,-3.789138,-14.983245,-5.75977,-25.939286,-40.914943,-51.693163,-50.064422,-67.852829,-60.779714,-50.996417,-55.038735,-71.978991,-60.558564,-48.49238,-56.814532,-74.825287,-63.733619,-50.368931,-55.590836,-75.18871,-74.111554,-66.019632,28.373268,47.734085,59.467529,75.371635,32.850712,47.221641,51.567444,53.185696,17.718887,33.864784,40.237347,41.447479,0.551319,17.07811,25.451477,28.557632,-18.557488,-5.341564,8.587543,18.71537,-12.906812,-38.812545,-54.287232,-67.209392,-66.614414,-77.201905,-58.884097,-42.054565,-67.898703,-76.877623,-54.201217,-34.121656,-66.266571,-76.137915,-54.621691,-34.953626,-62.23296,-77.08884,-68.267183,-55.127069,146.647836,-125.412888,-163.500315,-105.842704
98,0.262482,0.924731,0.151108,0.811981,-25.717483,-47.000565,-63.454079,-80.565674,-29.750038,-37.94767,-46.245529,-50.00251,-16.106804,-28.227974,-37.330193,-40.672394,-0.704155,-10.789375,-21.71244,-27.583031,16.226944,8.790207,-3.452316,-14.509621,-5.387965,-25.509441,-40.453347,-51.023507,-49.578844,-67.594008,-60.357295,-50.414009,-54.548953,-71.585447,-59.723455,-47.634435,-56.267646,-74.381221,-63.006397,-49.584744,-55.101406,-74.776112,-73.737699,-65.680987,27.971409,47.075878,58.737144,74.456806,31.829681,46.166336,50.676475,52.58678,16.791,32.965015,39.599659,41.358181,-0.24115,16.451477,25.170398,28.760845,-19.216072,-5.701561,8.545898,19.16661,-12.762174,-38.757729,-54.440188,-67.883349,-65.566436,-76.084359,-58.22472,-41.56222,-66.686477,-76.178917,-53.836275,-33.713665,-64.964481,-75.239014,-54.002078,-34.436361,-60.932358,-75.876723,-67.437699,-54.779803,146.900768,-123.969914,-163.358757,-104.51248
99,0.547829,2.229894,-0.078278,1.791275,-25.361481,-46.655937,-62.951798,-79.877449,-29.482956,-37.892029,-45.968399,-49.381623,-15.993279,-28.097054,-36.919991,-39.95089,-0.601204,-10.685143,-21.416039,-27.011421,16.378143,8.997162,-3.387978,-14.562035,-5.187208,-25.531175,-40.733441,-51.557034,-49.539855,-67.371414,-59.622709,-49.403458,-54.596173,-71.596997,-59.431931,-47.309047,-56.416779,-74.824667,-63.366711,-50.013774,-55.374355,-75.243489,-74.307738,-66.224999,27.54475,46.300163,57.787136,72.925747,30.879193,45.437164,50.258709,52.593281,15.860573,32.496632,39.448471,41.777298,-0.966934,16.464283,25.733025,29.917637,-19.667496,-5.236519,9.38102,20.543301,-12.668141,-38.823182,-54.944517,-69.114223,-65.269957,-75.313711,-57.873598,-41.567108,-66.261336,-75.506589,-53.433052,-33.337507,-64.284174,-74.18014,-53.030464,-33.573681,-60.006281,-74.153758,-65.856111,-53.784693,147.379858,-121.255088,-163.505774,-102.236273
100,0.548149,3.471725,-0.379669,3.045851,-24.755448,-45.627617,-61.522408,-77.246842,-28.214195,-36.803375,-45.122269,-48.720749,-15.119522,-27.055252,-36.331513,-39.705162,-0.014649,-10.110787,-21.113297,-26.897392,16.692581,9.323341,-2.981598,-13.976303,-5.3948,-25.941824,-41.410728,-53.002129,-49.502851,-66.823532,-59.538166,-49.351118,-54.65985,-71.686831,-60.279826,-47.882659,-56.61622,-75.537853,-64.733917,-51.39137,-55.660278,-75.652918,-75.086639,-67.047696,27.193268,45.605988,56.946144,71.000965,29.906742,44.626797,49.878021,52.511845,14.972031,32.186794,39.401802,41.964432,-1.568264,16.699367,26.530575,31.067333,-19.754128,-4.394348,10.559624,22.062183,-12.37012,-38.529213,-55.142735,-70.136158,-65.167936,-74.810565,-57.714133,-41.921469,-66.073515,-74.61519,-52.893053,-33.30607,-63.600087,-72.776627,-51.859253,-32.835306,-58.718646,-71.811286,-63.797299,-52.542082,147.743214,-117.520439,-164.070236,-98.927498
101,0.873573,4.837327,-1.542217,4.608804,-24.059578,-44.2649,-59.562607,-73.324425,-25.932999,-35.215484,-44.577255,-49.087669,-13.695785,-25.773926,-36.360214,-40.867676,0.726814,-9.460121,-21.492073,-28.174438,16.805512,9.29686,-3.197685,-14.2985,-6.232476,-26.845801,-42.164704,-54.340156,-49.530765,-65.540742,-59.074597,-48.963325,-54.554004,-71.395086,-61.003779,-48.25146,-56.349107,-75.726815,-65.825529,-52.597998,-55.160344,-75.087983,-75.149427,-67.618387,27.674102,46.35197,57.857345,70.712368,30.227039,45.750641,51.402008,54.132522,15.282222,33.910194,41.18478,43.840038,-0.900433,19.218738,29.367576,34.061931,-18.295281,-1.320179,13.843712,25.346271,-11.883305,-37.332536,-54.393304,-69.931351,-64.964666,-73.497841,-56.704974,-41.65203,-66.047506,-72.547898,-51.126797,-32.20473,-62.974392,-69.797896,-49.022451,-30.529033,-57.171733,-67.981705,-59.673372,-48.832411,148.504721,-112.690803,-165.724519,-94.326385
102,0.236183,6.594913,-3.371796,5.343059,-22.575943,-41.052086,-55.299316,-67.323188,-21.498298,-31.139419,-41.653679,-47.266044,-10.586494,-22.673538,-34.874679,-40.696243,2.409233,-7.88253,-20.949691,-28.312019,16.975846,9.236321,-3.341514,-14.378425,-7.140429,-27.429907,-42.429764,-55.230702,-49.345282,-64.954743,-59.522853,-49.60812,-53.915647,-71.02311,-61.665045,-48.645684,-55.165703,-75.0116,-66.112637,-53.05203,-53.355728,-72.990411,-73.512699,-66.586152,28.353756,47.678261,60.145386,72.996265,30.35091,49.072243,55.774384,58.583141,16.110924,38.547512,46.714989,49.343021,1.648579,25.562977,36.401733,40.924736,-13.48027,6.506905,21.296413,31.859333,-11.034255,-34.746197,-51.570613,-66.35548,-63.47905,-68.900122,-51.627272,-36.823206,-64.597813,-66.810735,-44.764266,-26.163405,-60.458643,-62.649841,-41.188979,-23.157701,-53.153174,-59.806666,-50.076256,-39.186527,148.904125,-106.482209,-168.933094,-89.369645
103,1.66967,7.054509,-1.596096,5.807108,-20.601493,-37.328842,-51.130165,-61.89077,-18.248863,-29.103859,-39.427848,-44.611999,-9.461265,-22.531746,-34.293365,-39.588981,1.129303,-10.433647,-22.822906,-29.167556,13.142258,4.519776,-7.239784,-16.800705,-8.146893,-27.431293,-41.709958,-54.56824,-48.697755,-62.802559,-56.566653,-46.320929,-52.221805,-68.226079,-58.097798,-44.524116,-52.41705,-70.876289,-61.279683,-48.216343,-49.587582,-67.072782,-67.021603,-60.555347,28.20639,48.001431,60.994411,72.910332,31.440147,52.168774,59.077801,61.560986,17.333885,41.819023,50.382603,52.849022,3.689644,29.439503,40.30965,44.302654,-9.830978,11.294312,25.376369,34.857525,-9.821755,-30.491517,-45.80251,-58.906062,-59.321268,-61.398324,-43.839239,-29.451646,-60.051745,-57.380873,-35.75804,-18.162013,-54.649658,-51.887238,-30.791331,-14.155418,-45.896933,-47.856736,-37.299126,-26.739096,150.988855,-100.022274,-170.11413,-84.157111
104,1.775071,19.982476,-2.063129,12.9997,-21.099793,-35.928544,-48.227967,-57.127648,-15.363419,-27.805481,-39.089882,-43.754609,-6.752655,-21.716217,-34.274002,-38.790505,3.08892,-10.718903,-23.904786,-29.457711,13.687202,3.186927,-9.138726,-17.7762,-12.082203,-33.182701,-48.322658,-62.442399,-55.333772,-70.774185,-63.10918,-52.049604,-57.376883,-74.749864,-63.060197,-48.629141,-56.063693,-75.347491,-64.772742,-51.393222,-51.487972,-68.476572,-67.428195,-60.670842,27.612384,48.606456,63.404794,75.427911,33.147703,57.152618,65.463529,68.284475,19.927522,47.942602,56.209768,57.644622,7.860191,36.671579,46.848014,49.547304,-3.280913,20.394338,33.173292,40.672536,-10.716432,-28.563861,-41.155668,-51.249103,-56.506953,-55.98691,-38.676352,-24.816948,-55.726629,-48.463592,-27.653456,-11.900521,-48.162836,-40.866053,-20.844902,-6.268041,-37.110877,-34.918651,-24.203911,-14.575947,153.568875,-81.181439,-171.37231,-72.299052
105,1.295837,20.50115,-2.519291,19.861729,-21.314163,-34.791779,-44.992218,-50.63308,-16.124954,-29.259842,-39.142273,-42.267311,-6.554855,-21.964165,-32.811493,-35.754982,3.793419,-10.884842,-23.003197,-27.066238,14.231049,2.45137,-8.985146,-15.803467,-13.814148,-35.624474,-51.013708,-64.636553,-58.031414,-73.584851,-63.028794,-51.136681,-58.570269,-76.012683,-61.559057,-47.087234,-55.668988,-74.096923,-60.98162,-47.571724,-49.554521,-64.574407,-60.851814,-53.701083,26.6044,49.454452,67.252973,80.717691,35.877794,64.603225,75.50778,79.430391,24.163667,57.352621,64.795377,64.631813,14.390865,47.665552,56.633365,57.566133,6.214147,33.994783,44.941583,49.747003,-13.947744,-29.183846,-37.803451,-43.609379,-54.800514,-52.665268,-36.270302,-22.895552,-51.364845,-40.317254,-20.760028,-7.196837,-40.955658,-29.997723,-11.660386,0.504424,-27.137524,-21.434617,-11.040368,-2.758347,155.822193,-62.138905,-172.93412,-53.895939
106,0.531086,25.321395,-0.947125,24.779817,-21.019959,-34.206814,-43.581551,-47.381195,-16.600227,-31.33794,-38.890526,-39.686737,-6.21088,-23.917969,-31.865238,-31.918213,3.987431,-13.215054,-22.616741,-23.980236,13.480385,-0.698776,-9.999962,-14.254234,-14.191566,-34.883956,-49.498976,-62.394848,-57.356407,-67.934926,-54.747137,-43.249294,-56.536578,-67.507625,-51.389838,-38.364472,-52.114254,-63.542767,-48.827011,-36.723347,-44.235818,-53.453432,-47.142241,-39.959717,24.810167,49.262181,69.760477,84.273131,39.491942,72.665051,86.661976,92.577387,30.303314,67.463356,72.795576,70.43054,23.203097,59.459221,65.92844,64.489042,17.889782,48.919287,56.811648,58.294905,-17.895251,-31.81041,-37.829108,-41.427953,-53.192589,-50.707499,-36.179313,-23.557934,-46.369514,-33.187246,-16.054357,-5.479302,-32.910941,-20.541228,-4.711396,4.580219,-16.439148,-9.09005,0.276565,6.831673,157.026861,-39.608345,-173.207663,-31.906957
107,0.917748,29.340782,1.932816,30.558414,-21.153832,-36.002919,-45.978425,-48.648743,-18.587952,-36.671437,-41.245514,-38.928361,-7.389371,-29.636719,-33.651867,-29.591012,2.519908,-19.041768,-24.630009,-22.531369,11.062499,-6.909348,-13.434426,-14.844201,-13.453642,-31.447138,-44.100393,-55.7961,-53.557589,-52.725691,-36.580264,-26.148415,-51.524695,-48.876936,-31.527052,-20.894872,-45.525469,-43.714231,-27.967873,-18.259099,-35.549854,-35.236097,-26.648992,-19.923498,22.618017,48.41074,70.640505,84.466718,44.8081,80.861927,97.485637,105.825857,38.402618,77.10823,77.711157,72.26425,33.078386,70.148677,72.008571,67.467436,29.33361,62.00358,66.015501,64.121286,-22.886296,-37.461727,-42.885565,-47.318526,-53.887439,-52.681543,-41.404658,-30.42156,-43.208332,-29.592002,-16.501924,-10.029789,-26.544897,-14.987038,-2.874019,2.924678,-7.410571,-0.577292,6.473713,10.661026,158.427579,-13.284935,-170.791877,-4.365915
108,1.623115,44.034738,3.829296,34.208382,-22.311653,-40.372387,-52.629318,-54.984627,-20.994713,-46.072941,-49.696564,-45.66188,-8.47736,-37.929245,-41.0201,-35.208572,1.482708,-27.081058,-31.013683,-26.634304,9.172874,-14.780525,-20.076874,-19.347359,-16.983,-34.509175,-43.858227,-51.887127,-53.18148,-46.17358,-29.0237,-20.244514,-47.314222,-37.236082,-20.71617,-13.066106,-37.805313,-29.097529,-15.009132,-8.575511,-24.756376,-19.484963,-10.845904,-5.367639,20.300897,46.499908,70.320986,84.236967,48.677061,88.376209,108.723701,120.574854,46.566192,88.237667,85.36183,76.613771,44.738554,83.922683,82.29911,74.592825,43.855328,78.687532,79.633684,74.482446,-28.418114,-46.046183,-53.700915,-60.285847,-56.926226,-58.743642,-51.50755,-43.461561,-42.70275,-33.009702,-23.170122,-19.183028,-23.448021,-15.953401,-6.85303,-2.896162,-2.142156,1.061687,5.827093,8.442347,160.27323,27.640979,-166.740045,26.733643
109,-0.751671,37.093997,8.552215,28.825793,-17.627037,-36.845707,-51.785477,-55.44088,-25.75003,-51.514927,-50.769768,-45.153259,-18.335804,-46.835701,-45.305477,-38.170807,-12.103466,-39.735798,-38.241772,-31.749149,-6.697403,-30.277862,-30.43634,-26.514541,-5.433338,-12.423528,-15.616941,-19.279821,-26.89386,-10.508777,3.149512,7.2463,-24.690235,-4.382504,8.185005,10.678644,-19.395693,-1.081731,10.112313,12.003098,-11.330453,1.109065,9.62981,12.719273,17.657771,42.591488,65.482373,77.382397,52.339657,93.074387,116.038531,130.75969,54.751872,96.071692,90.299698,79.178702,55.881518,93.887175,89.513741,79.716294,56.886172,91.183525,89.611851,81.886322,-32.28603,-53.36001,-65.005464,-75.609646,-59.889683,-65.030087,-61.699866,-56.801416,-43.189183,-38.36583,-31.201958,-28.853321,-22.529347,-19.910864,-13.4628,-10.596509,-0.46113,-1.282009,1.34494,3.27259,159.741136,62.150144,-157.968253,52.974604
110,-1.296066,48.085738,16.461903,18.918307,-19.120537,-41.281826,-58.60199,-63.615074,-35.963905,-61.316036,-58.197052,-51.445313,-30.045857,-57.955742,-53.929562,-45.798386,-24.035717,-51.148373,-46.843014,-39.261074,-17.8125,-40.609223,-38.445969,-33.409493,-5.947633,-6.403049,-2.764755,-1.2118,-10.068819,13.297012,22.88553,22.942069,-4.516796,23.445696,31.150526,29.420468,2.184816,27.508851,33.556702,30.963234,10.094025,27.802428,32.690081,31.974199,12.404028,33.978275,53.498611,61.160156,53.27496,93.683624,116.228777,131.554848,60.658407,95.056738,86.458923,75.015501,64.335897,95.121111,87.997856,77.329777,66.569109,95.255711,90.538181,81.382381,-33.74526,-58.687749,-75.646024,-91.554683,-61.152257,-69.499879,-69.993854,-68.270734,-43.320118,-44.278228,-39.584669,-37.507561,-22.663519,-25.282057,-20.898729,-18.105125,-1.120378,-6.180515,-4.821679,-2.610989,158.922089,107.691434,-141.029331,69.348463
111,-4.058453,49.728116,18.482105,11.877081,-23.246292,-48.460624,-66.986824,-72.141678,-40.484619,-67.287506,-66.151382,-60.273491,-32.856125,-62.359039,-61.404213,-54.78083,-26.006675,-55.071899,-53.661255,-47.425781,-19.776123,-43.752662,-44.151626,-40.095062,-3.759933,1.526692,11.434774,18.512792,3.218709,31.653446,38.987722,36.839197,10.609437,44.263918,49.869657,46.132695,18.186589,48.942555,52.680042,48.066941,25.668819,48.355587,51.660283,48.931625,6.949436,24.641854,40.066155,43.54081,53.310768,90.655037,112.282368,127.747696,64.863774,89.905014,79.677864,68.674931,70.490319,92.088501,83.267178,72.531075,73.47139,94.34499,87.473397,77.95142,-35.505221,-63.845184,-84.641753,-103.616864,-64.282198,-76.066832,-79.921583,-80.930214,-45.823561,-53.007875,-49.644608,-46.724413,-25.732237,-33.780668,-30.569307,-26.987678,-5.805021,-14.954147,-14.247531,-11.147506,155.578394,155.828844,-121.832468,79.634838
112,-4.394989,50.769861,19.820755,3.571724,-27.149391,-54.552566,-74.032379,-80.234184,-46.877357,-75.092926,-75.938141,-70.875732,-38.082916,-68.414909,-70.385765,-65.744705,-30.18457,-60.027557,-61.66381,-56.777389,-23.266021,-47.466247,-50.60907,-47.37735,-4.003168,5.113897,20.497938,33.65537,14.192739,42.625044,47.309806,43.394015,24.99669,57.20053,60.28631,54.986346,33.893449,63.03466,63.904217,57.728966,40.448496,63.106587,63.963905,59.254757,1.63686,14.772847,25.899445,25.46006,50.460469,84.340542,104.569142,119.436299,65.468571,81.224282,70.980069,61.211907,72.824353,85.336842,76.408081,66.547566,76.565712,89.572071,81.761135,72.713917,-36.983316,-68.041668,-91.333898,-111.526011,-68.238732,-83.646744,-90.709027,-94.518484,-50.346476,-62.986297,-59.644489,-54.95037,-31.550361,-43.748061,-40.622577,-35.622553,-13.637517,-25.69891,-24.991003,-20.798546,151.772444,204.793034,-101.422674,81.400891
113,-5.457802,38.066931,20.185627,-6.660344,-31.663765,-59.386322,-77.930007,-85.709198,-52.422958,-76.829086,-80.680091,-79.798233,-41.86338,-68.14373,-74.117752,-74.134758,-32.231163,-57.795272,-64.018798,-64.454132,-23.865966,-44.361167,-50.64743,-51.682548,1.279925,15.138755,33.731804,49.300602,27.478402,58.490323,63.835698,62.26462,38.072624,71.820829,75.827011,72.547941,45.867452,76.368451,78.76701,74.665943,50.343937,75.241728,77.399312,73.735475,-4.889797,4.200554,11.156491,6.803627,46.980458,79.500229,96.060997,107.639534,64.031033,72.165676,60.387383,51.777317,71.857498,75.611241,65.531365,56.800862,75.292431,80.774941,71.457642,63.043305,-35.919696,-68.34409,-91.799675,-111.854721,-71.452019,-90.732455,-99.800769,-105.005026,-54.26909,-69.618742,-66.007146,-60.72932,-36.128777,-49.843377,-46.353756,-40.248276,-19.051219,-32.045074,-31.063835,-26.103894,146.782201,240.937569,-80.769488,72.818151
